; Generated by Sketch DSL for Machine
; Work area: 420mm x 297mm (A3)
G21
G90
M5
G4 P0.5
G0 F11000
; 182 paths
; Path 1
G0 X122.008 Y104.014
G0 Z2.2
G1 F3000
G1 X298.008 Y104.014
; Path 2
G0 Z0
G0 X297.988 Y116.008
G0 Z2.2
G1 F3000
G1 X296.016 Y116.030
G1 X294.016 Y115.990
G1 X292.054 Y116.024
G1 X290.081 Y115.990
G1 X288.079 Y116.021
G1 X286.094 Y115.998
G1 X284.125 Y116.006
G1 X282.173 Y115.983
G1 X280.185 Y116.027
G1 X278.192 Y116.022
G1 X276.251 Y116.001
G1 X274.261 Y116.008
G1 X272.273 Y116.007
G1 X270.291 Y116.023
G1 X268.298 Y115.992
G1 X266.325 Y116.026
G1 X264.396 Y116.036
G1 X262.367 Y115.992
G1 X260.422 Y115.988
G1 X258.461 Y116.031
G1 X256.434 Y115.991
G1 X254.458 Y115.998
G1 X252.496 Y116.010
G1 X250.531 Y116.003
G1 X248.524 Y116.026
G1 X246.558 Y116.033
G1 X244.615 Y115.989
G1 X242.635 Y116.012
G1 X240.647 Y116.002
G1 X238.643 Y116.019
G1 X236.712 Y116.007
G1 X234.736 Y115.991
G1 X232.727 Y115.994
G1 X230.739 Y116.006
G1 X228.765 Y116.029
G1 X226.777 Y115.992
G1 X224.799 Y116.034
G1 X222.846 Y116.027
G1 X220.858 Y116.003
G1 X218.913 Y116.025
G1 X216.890 Y116.035
G1 X214.904 Y115.986
G1 X212.941 Y115.989
G1 X210.986 Y115.996
G1 X209.024 Y116.015
G1 X206.997 Y116.025
G1 X205.054 Y115.978
G1 X203.093 Y116.012
G1 X201.098 Y116.006
G1 X199.139 Y115.990
G1 X197.151 Y115.985
G1 X195.173 Y116.014
G1 X193.182 Y115.979
G1 X191.217 Y116.005
G1 X189.204 Y116.033
G1 X187.275 Y115.993
G1 X185.288 Y115.987
G1 X183.300 Y115.983
G1 X181.297 Y116.013
G1 X179.320 Y116.026
G1 X177.383 Y115.979
G1 X175.355 Y115.981
G1 X173.428 Y115.997
G1 X171.418 Y115.982
G1 X169.433 Y116.022
G1 X167.460 Y115.998
G1 X165.492 Y116.025
G1 X163.526 Y115.994
G1 X161.541 Y116.022
G1 X159.541 Y116.033
G1 X157.574 Y116.021
G1 X155.604 Y116.029
G1 X153.637 Y116.005
G1 X151.648 Y115.981
G1 X149.672 Y116.006
G1 X147.672 Y115.992
G1 X145.721 Y116.026
G1 X143.728 Y116.011
G1 X141.765 Y116.011
G1 X139.799 Y115.986
G1 X137.808 Y116.010
G1 X135.815 Y116.000
G1 X133.831 Y115.997
G1 X131.856 Y115.992
G1 X129.925 Y116.032
G1 X127.945 Y115.988
G1 X125.951 Y116.012
G1 X123.962 Y115.980
G1 X121.987 Y116.005
; Path 3
G0 Z0
G0 X122.008 Y118.014
G0 Z2.2
G1 F3000
G1 X298.008 Y118.014
; Path 4
G0 Z0
G0 X286.006 Y116.039
G0 Z2.2
G1 F3000
G1 X285.978 Y114.329
G1 X286.025 Y112.597
G1 X286.002 Y110.912
G1 X285.996 Y109.143
G1 X285.978 Y107.453
G1 X286.016 Y105.740
G1 X285.996 Y104.007
; Path 5
G0 Z0
G0 X285.996 Y104.000
G0 Z2.2
G1 F3000
G1 X285.688 Y103.826
G1 X285.398 Y103.676
G1 X285.097 Y103.502
G1 X284.800 Y103.310
G1 X284.517 Y103.122
G1 X284.202 Y102.920
G1 X283.928 Y102.741
G1 X283.605 Y102.524
G1 X283.288 Y102.303
G1 X283.007 Y102.141
G1 X282.721 Y101.949
G1 X282.409 Y101.787
G1 X282.096 Y101.625
G1 X281.810 Y101.480
G1 X281.540 Y101.375
G1 X281.212 Y101.240
G1 X280.933 Y101.172
G1 X280.612 Y101.082
G1 X280.335 Y101.072
G1 X280.012 Y101.027
G1 X279.689 Y101.027
G1 X279.412 Y101.084
G1 X279.083 Y101.190
G1 X278.811 Y101.243
G1 X278.493 Y101.371
G1 X278.209 Y101.485
G1 X277.881 Y101.619
G1 X277.607 Y101.793
G1 X277.277 Y101.961
G1 X277.004 Y102.148
G1 X276.673 Y102.314
G1 X276.401 Y102.533
G1 X276.109 Y102.759
G1 X275.799 Y102.931
G1 X275.521 Y103.144
G1 X275.196 Y103.322
G1 X274.915 Y103.511
G1 X274.593 Y103.689
G1 X274.291 Y103.822
G1 X273.991 Y104.015
; Path 6
G0 Z0
G0 X273.999 Y104.042
G0 Z2.2
G1 F3000
G1 X274.002 Y106.044
G1 X273.972 Y108.033
G1 X273.988 Y110.020
G1 X273.999 Y111.997
G1 X273.998 Y114.024
G1 X273.986 Y115.998
; Path 7
G0 Z0
G0 X274.060 Y116.822
G0 Z2.2
G1 F3000
G1 X275.922 Y117.192
; Path 8
G0 Z0
G0 X280.054 Y115.011
G0 Z2.2
G1 F3000
G1 X279.975 Y114.040
G1 X279.975 Y113.172
G1 X280.018 Y112.388
G1 X279.984 Y111.402
G1 X280.046 Y110.550
G1 X279.962 Y109.717
G1 X280.006 Y108.773
G1 X279.893 Y107.910
G1 X279.940 Y106.990
; Path 9
G0 Z0
G0 X279.702 Y106.906
G0 Z2.2
G1 F3000
G1 X280.335 Y104.996
; Path 10
G0 Z0
G0 X274.009 Y104.041
G0 Z2.2
G1 F3000
G1 X273.712 Y103.882
G1 X273.409 Y103.713
G1 X273.124 Y103.546
G1 X272.809 Y103.343
G1 X272.518 Y103.135
G1 X272.210 Y102.950
G1 X271.912 Y102.753
G1 X271.610 Y102.550
G1 X271.283 Y102.351
G1 X271.010 Y102.162
G1 X270.713 Y101.986
G1 X270.411 Y101.804
G1 X270.090 Y101.653
G1 X269.811 Y101.495
G1 X269.485 Y101.387
G1 X269.211 Y101.251
G1 X268.901 Y101.149
G1 X268.610 Y101.091
G1 X268.327 Y101.073
G1 X268.010 Y101.034
G1 X267.700 Y101.061
G1 X267.409 Y101.090
G1 X267.087 Y101.186
G1 X266.809 Y101.248
G1 X266.495 Y101.362
G1 X266.208 Y101.491
G1 X265.917 Y101.634
G1 X265.606 Y101.799
G1 X265.282 Y101.947
G1 X265.005 Y102.155
G1 X264.724 Y102.336
G1 X264.404 Y102.542
G1 X264.117 Y102.717
G1 X263.802 Y102.940
G1 X263.489 Y103.142
G1 X263.201 Y103.332
G1 X262.883 Y103.505
G1 X262.600 Y103.701
G1 X262.271 Y103.868
G1 X261.999 Y104.027
; Path 11
G0 Z0
G0 X262.003 Y104.014
G0 Z2.2
G1 F3000
G1 X261.720 Y103.852
G1 X261.401 Y103.690
G1 X261.071 Y103.488
G1 X260.799 Y103.324
G1 X260.486 Y103.130
G1 X260.196 Y102.935
G1 X259.866 Y102.718
G1 X259.594 Y102.540
G1 X259.300 Y102.361
G1 X258.992 Y102.156
G1 X258.667 Y101.997
G1 X258.390 Y101.803
G1 X258.082 Y101.625
G1 X257.788 Y101.497
G1 X257.471 Y101.406
G1 X257.187 Y101.256
G1 X256.878 Y101.202
G1 X256.587 Y101.098
G1 X256.294 Y101.081
G1 X255.988 Y101.041
G1 X255.708 Y101.095
G1 X255.390 Y101.096
G1 X255.087 Y101.180
G1 X254.793 Y101.252
G1 X254.507 Y101.345
G1 X254.197 Y101.492
G1 X253.875 Y101.635
G1 X253.601 Y101.796
G1 X253.327 Y101.950
G1 X253.006 Y102.149
G1 X252.720 Y102.318
G1 X252.412 Y102.530
G1 X252.141 Y102.742
G1 X251.817 Y102.924
G1 X251.540 Y103.145
G1 X251.222 Y103.312
G1 X250.924 Y103.474
G1 X250.627 Y103.676
G1 X250.301 Y103.855
G1 X250.032 Y103.998
; Path 12
G0 Z0
G0 X256.147 Y104.960
G0 Z2.2
G1 F3000
G1 X255.783 Y106.933
; Path 13
G0 Z0
G0 X255.973 Y106.962
G0 Z2.2
G1 F3000
G1 X255.957 Y107.838
G1 X255.985 Y108.746
G1 X255.985 Y109.693
G1 X255.886 Y110.523
G1 X255.934 Y111.435
G1 X256.027 Y112.416
G1 X255.882 Y113.265
G1 X255.991 Y114.191
G1 X255.942 Y115.064
; Path 14
G0 Z0
G0 X262.008 Y116.029
G0 Z2.2
G1 F3000
G1 X261.995 Y114.285
G1 X261.995 Y112.620
G1 X261.988 Y110.877
G1 X262.043 Y109.186
G1 X261.991 Y107.438
G1 X262.039 Y105.741
G1 X262.024 Y104.013
; Path 15
G0 Z0
G0 X268.201 Y105.058
G0 Z2.2
G1 F3000
G1 X267.879 Y107.014
; Path 16
G0 Z0
G0 X268.087 Y106.957
G0 Z2.2
G1 F3000
G1 X268.030 Y107.840
G1 X268.030 Y108.708
G1 X267.988 Y109.592
G1 X268.021 Y110.501
G1 X267.980 Y111.481
G1 X268.023 Y112.353
G1 X268.105 Y113.241
G1 X268.008 Y114.124
G1 X268.027 Y115.005
; Path 17
G0 Z0
G0 X275.006 Y146.025
G0 Z2.2
G1 F3000
G1 X275.625 Y146.585
G1 X276.263 Y147.204
G1 X276.971 Y147.930
G1 X277.676 Y148.530
G1 X278.398 Y149.173
G1 X279.122 Y149.755
G1 X279.935 Y150.471
G1 X280.591 Y151.035
G1 X281.325 Y151.587
G1 X282.069 Y152.225
G1 X282.904 Y152.953
G1 X283.603 Y153.540
G1 X284.321 Y154.108
G1 X285.104 Y154.811
G1 X285.808 Y155.490
G1 X286.566 Y156.045
G1 X287.302 Y156.688
G1 X288.028 Y157.333
G1 X288.700 Y157.951
G1 X289.333 Y158.550
G1 X289.955 Y159.103
G1 X290.483 Y159.768
G1 X291.076 Y160.382
G1 X291.759 Y161.054
G1 X292.214 Y161.718
G1 X292.781 Y162.344
G1 X293.197 Y162.899
G1 X293.695 Y163.557
G1 X294.188 Y164.410
G1 X294.550 Y165.276
G1 X294.997 Y166.060
G1 X295.230 Y166.894
G1 X295.350 Y167.649
G1 X295.564 Y168.562
G1 X295.616 Y169.394
G1 X295.496 Y170.212
G1 X295.497 Y171.063
G1 X295.322 Y171.951
G1 X295.112 Y172.684
G1 X294.940 Y173.564
G1 X294.687 Y174.368
G1 X294.265 Y175.199
G1 X294.041 Y176.064
G1 X293.717 Y176.852
G1 X293.379 Y177.651
G1 X292.947 Y178.564
G1 X292.640 Y179.411
G1 X292.243 Y180.257
G1 X291.804 Y181.063
G1 X291.424 Y181.968
G1 X291.144 Y182.694
G1 X290.759 Y183.563
G1 X290.556 Y184.416
G1 X290.149 Y185.216
G1 X289.958 Y186.063
; Path 18
G0 Z0
G0 X309.986 Y235.991
G0 Z2.2
G1 F3000
G1 X308.346 Y235.161
G1 X306.649 Y234.354
G1 X304.973 Y233.476
G1 X303.322 Y232.650
G1 X301.687 Y231.863
G1 X300.014 Y231.030
G1 X298.325 Y230.149
G1 X296.681 Y229.337
G1 X295.020 Y228.537
G1 X293.338 Y227.674
G1 X291.692 Y226.861
G1 X290.035 Y226.027
; Path 19
G0 Z0
G0 X289.998 Y226.007
G0 Z2.2
G1 F3000
G1 X288.005 Y226.013
G1 X285.987 Y226.032
G1 X284.004 Y226.006
G1 X281.996 Y225.999
G1 X279.979 Y226.035
G1 X278.008 Y226.007
G1 X276.004 Y225.980
G1 X273.997 Y225.996
G1 X271.975 Y225.979
G1 X270.022 Y226.012
G1 X267.973 Y226.016
G1 X265.999 Y226.034
G1 X263.988 Y226.036
G1 X261.980 Y225.985
G1 X260.022 Y225.982
G1 X258.003 Y226.001
G1 X255.974 Y226.003
G1 X253.992 Y226.032
G1 X252.020 Y225.989
G1 X250.007 Y226.023
G1 X247.992 Y226.017
G1 X245.994 Y225.987
G1 X244.031 Y226.010
G1 X242.019 Y226.001
G1 X240.022 Y226.034
G1 X237.986 Y225.992
G1 X236.005 Y226.002
G1 X233.988 Y226.024
G1 X232.004 Y226.012
G1 X230.003 Y225.990
G1 X227.981 Y226.032
G1 X226.000 Y225.986
G1 X224.030 Y226.038
G1 X221.986 Y225.988
G1 X219.992 Y226.034
G1 X218.033 Y225.995
G1 X216.003 Y225.979
G1 X213.988 Y225.999
G1 X212.007 Y225.993
G1 X209.982 Y225.986
G1 X208.019 Y225.979
G1 X206.009 Y225.987
G1 X203.994 Y226.035
G1 X201.999 Y225.996
G1 X200.021 Y226.018
G1 X198.012 Y226.012
G1 X196.034 Y226.007
G1 X194.009 Y225.983
G1 X192.032 Y226.018
G1 X190.010 Y226.006
G1 X188.020 Y225.988
G1 X186.041 Y226.019
G1 X184.020 Y225.987
G1 X182.034 Y225.997
G1 X179.993 Y226.033
G1 X178.035 Y225.985
G1 X176.012 Y226.015
G1 X173.995 Y226.027
G1 X172.042 Y226.035
G1 X169.988 Y225.994
G1 X167.996 Y225.983
G1 X166.036 Y225.994
G1 X164.023 Y225.993
G1 X161.999 Y226.009
G1 X160.031 Y226.040
G1 X157.996 Y225.987
G1 X156.009 Y225.989
G1 X154.037 Y225.998
G1 X152.048 Y226.035
G1 X150.026 Y226.012
G1 X148.028 Y225.993
G1 X146.011 Y225.990
G1 X143.995 Y226.012
G1 X142.027 Y226.032
G1 X140.003 Y226.031
G1 X138.007 Y226.040
G1 X136.008 Y226.031
G1 X134.029 Y226.010
G1 X132.036 Y226.005
G1 X130.025 Y226.011
; Path 20
G0 Z0
G0 X110.014 Y236.025
G0 Z2.2
G1 F3000
G1 X111.690 Y235.206
G1 X113.363 Y234.371
G1 X115.020 Y233.512
G1 X116.660 Y232.681
G1 X118.326 Y231.830
G1 X120.046 Y231.042
G1 X121.686 Y230.184
G1 X123.339 Y229.353
G1 X125.015 Y228.537
G1 X126.687 Y227.700
G1 X128.372 Y226.836
G1 X130.022 Y226.024
; Path 21
G0 Z0
G0 X145.016 Y211.024
G0 Z2.2
G1 F3000
G1 X145.311 Y209.067
G1 X145.585 Y207.119
G1 X145.820 Y205.162
G1 X146.107 Y203.269
G1 X146.404 Y201.298
G1 X146.688 Y199.356
G1 X146.964 Y197.426
G1 X147.222 Y195.456
G1 X147.511 Y193.495
G1 X147.810 Y191.557
G1 X148.063 Y189.641
G1 X148.354 Y187.709
G1 X148.609 Y185.761
G1 X148.910 Y183.786
G1 X149.176 Y181.859
G1 X149.450 Y179.937
G1 X149.752 Y177.969
G1 X150.027 Y176.001
G1 X150.284 Y174.091
G1 X150.588 Y172.127
G1 X150.854 Y170.174
G1 X151.088 Y168.262
G1 X151.418 Y166.306
G1 X151.656 Y164.375
G1 X151.945 Y162.384
G1 X152.203 Y160.440
G1 X152.506 Y158.510
G1 X152.772 Y156.573
G1 X153.047 Y154.648
G1 X153.309 Y152.666
G1 X153.624 Y150.711
G1 X153.901 Y148.768
G1 X154.175 Y146.852
G1 X154.461 Y144.925
G1 X154.709 Y142.961
G1 X155.009 Y141.022
G1 X155.275 Y139.057
G1 X155.531 Y137.131
G1 X155.846 Y135.171
G1 X156.094 Y133.249
G1 X156.357 Y131.272
G1 X156.653 Y129.346
G1 X156.948 Y127.374
G1 X157.225 Y125.445
G1 X157.478 Y123.518
G1 X157.781 Y121.592
G1 X158.032 Y119.621
G1 X158.333 Y117.697
G1 X158.631 Y115.743
G1 X158.861 Y113.803
G1 X159.177 Y111.835
G1 X159.417 Y109.920
G1 X159.710 Y107.973
G1 X159.988 Y106.010
; Path 22
G0 Z0
G0 X159.950 Y106.057
G0 Z2.2
G1 F3000
G1 X159.323 Y106.701
G1 X158.601 Y107.444
G1 X157.912 Y107.978
G1 X157.316 Y108.740
G1 X156.684 Y109.387
G1 X155.980 Y110.058
G1 X155.255 Y110.755
G1 X154.610 Y111.434
G1 X153.974 Y112.072
G1 X153.251 Y112.656
G1 X152.681 Y113.313
G1 X152.003 Y114.034
; Path 23
G0 Z0
G0 X149.955 Y115.939
G0 Z2.2
G1 F3000
G1 X149.989 Y116.817
G1 X149.961 Y117.788
G1 X150.019 Y118.727
G1 X149.993 Y119.727
G1 X149.908 Y120.664
G1 X150.038 Y121.620
G1 X149.942 Y122.574
G1 X149.924 Y123.438
G1 X150.056 Y124.484
G1 X150.011 Y125.353
G1 X149.970 Y126.346
G1 X149.978 Y127.283
G1 X149.950 Y128.159
G1 X150.045 Y129.087
G1 X149.973 Y130.041
G1 X149.996 Y131.012
; Path 24
G0 Z0
G0 X148.008 Y131.014
G0 Z2.2
G1 F3000
G1 X148.008 Y136.014
; Path 25
G0 Z0
G0 X155.627 Y135.175
G0 Z2.2
G1 F3000
G1 X154.508 Y136.860
; Path 26
G0 Z0
G0 X157.986 Y146.042
G0 Z2.2
G1 F3000
G1 X158.414 Y144.181
G1 X158.846 Y142.303
G1 X159.294 Y140.387
G1 X159.757 Y138.531
G1 X160.200 Y136.661
G1 X160.621 Y134.814
G1 X161.044 Y132.920
G1 X161.509 Y131.040
G1 X161.923 Y129.138
G1 X162.378 Y127.264
G1 X162.805 Y125.414
G1 X163.264 Y123.500
G1 X163.681 Y121.624
G1 X164.133 Y119.781
G1 X164.580 Y117.893
G1 X165.021 Y116.026
; Path 27
G0 Z0
G0 X166.027 Y115.991
G0 Z2.2
G1 F3000
G1 X166.053 Y114.023
G1 X165.993 Y112.003
G1 X166.009 Y110.017
G1 X166.016 Y107.986
G1 X166.035 Y106.028
G1 X166.010 Y104.013
; Path 28
G0 Z0
G0 X166.004 Y104.013
G0 Z2.2
G1 F3000
G1 X165.709 Y103.869
G1 X165.408 Y103.684
G1 X165.092 Y103.495
G1 X164.812 Y103.314
G1 X164.533 Y103.098
G1 X164.216 Y102.919
G1 X163.895 Y102.692
G1 X163.620 Y102.518
G1 X163.303 Y102.342
G1 X163.024 Y102.129
G1 X162.729 Y101.924
G1 X162.428 Y101.770
G1 X162.134 Y101.589
G1 X161.831 Y101.459
G1 X161.548 Y101.320
G1 X161.234 Y101.215
G1 X160.954 Y101.139
G1 X160.635 Y101.056
G1 X160.323 Y101.005
G1 X160.035 Y100.999
G1 X159.753 Y101.000
G1 X159.434 Y101.056
G1 X159.152 Y101.129
G1 X158.832 Y101.217
G1 X158.547 Y101.327
G1 X158.228 Y101.462
G1 X157.938 Y101.627
G1 X157.624 Y101.773
G1 X157.295 Y101.936
G1 X157.020 Y102.132
G1 X156.704 Y102.316
G1 X156.414 Y102.522
G1 X156.097 Y102.724
G1 X155.809 Y102.924
G1 X155.480 Y103.139
G1 X155.204 Y103.319
G1 X154.879 Y103.478
G1 X154.599 Y103.691
G1 X154.304 Y103.868
G1 X153.995 Y104.020
; Path 29
G0 Z0
G0 X148.289 Y105.032
G0 Z2.2
G1 F3000
G1 X147.955 Y106.953
; Path 30
G0 Z0
G0 X148.065 Y107.030
G0 Z2.2
G1 F3000
G1 X147.997 Y107.860
G1 X148.096 Y108.865
G1 X148.049 Y109.698
G1 X147.951 Y110.574
G1 X147.926 Y111.548
G1 X147.970 Y112.429
G1 X147.915 Y113.211
G1 X148.015 Y114.102
G1 X147.951 Y115.063
; Path 31
G0 Z0
G0 X146.030 Y118.026
G0 Z2.2
G1 F3000
G1 X146.030 Y119.903
G1 X146.039 Y121.741
G1 X145.993 Y123.613
G1 X145.982 Y125.454
G1 X145.994 Y127.309
G1 X145.988 Y129.174
G1 X145.991 Y131.041
; Path 32
G0 Z0
G0 X145.940 Y129.948
G0 Z2.2
G1 F3000
G1 X143.977 Y129.880
; Path 33
G0 Z0
G0 X143.008 Y131.014
G0 Z2.2
G1 F3000
G1 X143.008 Y98.014
; Path 34
G0 Z0
G0 X141.989 Y103.995
G0 Z2.2
G1 F3000
G1 X141.984 Y105.734
G1 X141.989 Y107.428
G1 X141.988 Y109.162
G1 X142.009 Y110.870
G1 X142.026 Y112.603
G1 X141.993 Y114.291
G1 X142.015 Y116.017
; Path 35
G0 Z0
G0 X136.587 Y105.055
G0 Z2.2
G1 F3000
G1 X135.650 Y106.785
; Path 36
G0 Z0
G0 X136.012 Y107.085
G0 Z2.2
G1 F3000
G1 X135.993 Y108.080
G1 X136.059 Y109.110
G1 X136.039 Y110.085
G1 X135.976 Y110.997
G1 X136.059 Y111.942
G1 X135.998 Y112.975
G1 X136.067 Y113.894
G1 X136.081 Y114.956
; Path 37
G0 Z0
G0 X135.986 Y117.044
G0 Z2.2
G1 F3000
G1 X133.996 Y117.092
; Path 38
G0 Z0
G0 X130.030 Y115.985
G0 Z2.2
G1 F3000
G1 X130.024 Y113.979
G1 X130.036 Y111.981
G1 X129.979 Y110.022
G1 X130.025 Y107.990
G1 X129.966 Y106.006
G1 X129.986 Y104.025
; Path 39
G0 Z0
G0 X129.999 Y103.991
G0 Z2.2
G1 F3000
G1 X130.315 Y103.827
G1 X130.598 Y103.665
G1 X130.919 Y103.468
G1 X131.196 Y103.299
G1 X131.523 Y103.126
G1 X131.793 Y102.908
G1 X132.077 Y102.703
G1 X132.391 Y102.511
G1 X132.684 Y102.343
G1 X132.988 Y102.126
G1 X133.307 Y101.942
G1 X133.586 Y101.771
G1 X133.867 Y101.632
G1 X134.185 Y101.464
G1 X134.485 Y101.349
G1 X134.784 Y101.223
G1 X135.066 Y101.164
G1 X135.384 Y101.065
G1 X135.695 Y101.057
G1 X135.985 Y101.010
G1 X136.275 Y101.019
G1 X136.587 Y101.069
G1 X136.884 Y101.134
G1 X137.190 Y101.229
G1 X137.493 Y101.365
G1 X137.794 Y101.474
G1 X138.117 Y101.621
G1 X138.399 Y101.784
G1 X138.711 Y101.946
G1 X139.004 Y102.143
G1 X139.323 Y102.361
G1 X139.610 Y102.531
G1 X139.916 Y102.705
G1 X140.215 Y102.931
G1 X140.526 Y103.116
G1 X140.821 Y103.326
G1 X141.145 Y103.509
G1 X141.426 Y103.696
G1 X141.702 Y103.839
G1 X142.031 Y104.024
; Path 40
G0 Z0
G0 X142.038 Y104.018
G0 Z2.2
G1 F3000
G1 X142.325 Y103.879
G1 X142.633 Y103.692
G1 X142.931 Y103.508
G1 X143.227 Y103.324
G1 X143.546 Y103.150
G1 X143.821 Y102.932
G1 X144.147 Y102.707
G1 X144.416 Y102.534
G1 X144.685 Y102.355
G1 X145.010 Y102.149
G1 X145.327 Y101.949
G1 X145.605 Y101.792
G1 X145.890 Y101.648
G1 X146.200 Y101.484
G1 X146.482 Y101.360
G1 X146.796 Y101.242
G1 X147.093 Y101.151
G1 X147.393 Y101.083
G1 X147.720 Y101.043
G1 X147.992 Y101.027
G1 X148.304 Y101.083
G1 X148.592 Y101.084
G1 X148.872 Y101.167
G1 X149.193 Y101.242
G1 X149.467 Y101.361
G1 X149.796 Y101.485
G1 X150.080 Y101.660
G1 X150.399 Y101.793
G1 X150.698 Y101.979
G1 X151.003 Y102.149
G1 X151.288 Y102.349
G1 X151.607 Y102.535
G1 X151.933 Y102.726
G1 X152.212 Y102.933
G1 X152.503 Y103.137
G1 X152.816 Y103.325
G1 X153.098 Y103.517
G1 X153.420 Y103.693
G1 X153.693 Y103.885
G1 X154.024 Y104.020
; Path 41
G0 Z0
G0 X154.009 Y104.027
G0 Z2.2
G1 F3000
G1 X153.990 Y105.738
G1 X153.998 Y107.447
G1 X154.002 Y109.199
G1 X153.976 Y110.911
G1 X153.995 Y112.576
G1 X153.980 Y114.311
G1 X153.994 Y116.027
; Path 42
G0 Z0
G0 X153.989 Y116.763
G0 Z2.2
G1 F3000
G1 X155.982 Y117.100
; Path 43
G0 Z0
G0 X154.434 Y124.837
G0 Z2.2
G1 F3000
G1 X155.659 Y123.114
; Path 44
G0 Z0
G0 X160.041 Y127.080
G0 Z2.2
G1 F3000
G1 X160.002 Y124.941
; Path 45
G0 Z0
G0 X164.059 Y124.140
G0 Z2.2
G1 F3000
G1 X166.058 Y123.792
; Path 46
G0 Z0
G0 X169.944 Y130.974
G0 Z2.2
G1 F3000
G1 X169.896 Y129.950
G1 X169.960 Y128.935
G1 X169.898 Y127.988
G1 X169.994 Y127.068
G1 X169.974 Y125.994
G1 X170.027 Y124.942
G1 X169.949 Y123.946
G1 X169.988 Y122.946
G1 X170.046 Y122.052
G1 X170.062 Y120.955
G1 X170.003 Y120.062
G1 X170.043 Y119.119
G1 X170.065 Y118.100
G1 X169.993 Y117.018
G1 X170.001 Y116.062
; Path 47
G0 Z0
G0 X168.062 Y114.002
G0 Z2.2
G1 F3000
G1 X167.405 Y113.351
G1 X166.691 Y112.596
G1 X166.072 Y112.046
G1 X165.302 Y111.271
G1 X164.725 Y110.621
G1 X163.968 Y110.042
G1 X163.360 Y109.406
G1 X162.735 Y108.758
G1 X162.086 Y108.061
G1 X161.405 Y107.320
G1 X160.698 Y106.717
G1 X160.004 Y106.043
; Path 48
G0 Z0
G0 X160.046 Y106.075
G0 Z2.2
G1 F3000
G1 X159.969 Y105.101
G1 X160.005 Y104.296
G1 X160.085 Y103.440
G1 X159.976 Y102.427
G1 X159.964 Y101.583
G1 X159.930 Y100.673
G1 X159.990 Y99.840
G1 X159.961 Y98.879
G1 X159.987 Y97.959
; Path 49
G0 Z0
G0 X160.027 Y105.013
G0 Z2.2
G1 F3000
G1 X160.152 Y107.079
; Path 50
G0 Z0
G0 X160.085 Y107.047
G0 Z2.2
G1 F3000
G1 X160.121 Y107.983
G1 X160.124 Y109.105
G1 X160.104 Y110.087
G1 X160.103 Y111.044
G1 X160.102 Y112.080
G1 X160.049 Y113.029
G1 X159.952 Y114.107
G1 X159.987 Y115.039
; Path 51
G0 Z0
G0 X155.966 Y110.959
G0 Z2.2
G1 F3000
G1 X156.928 Y110.989
G1 X157.892 Y111.031
G1 X158.989 Y110.965
G1 X159.946 Y110.949
G1 X160.987 Y111.092
G1 X161.901 Y111.064
G1 X162.853 Y111.072
G1 X163.928 Y111.055
; Path 52
G0 Z0
G0 X166.034 Y104.005
G0 Z2.2
G1 F3000
G1 X166.358 Y103.868
G1 X166.629 Y103.678
G1 X166.934 Y103.484
G1 X167.223 Y103.310
G1 X167.495 Y103.118
G1 X167.817 Y102.917
G1 X168.136 Y102.744
G1 X168.411 Y102.518
G1 X168.732 Y102.314
G1 X169.005 Y102.131
G1 X169.275 Y101.933
G1 X169.600 Y101.774
G1 X169.870 Y101.630
G1 X170.195 Y101.465
G1 X170.499 Y101.362
G1 X170.791 Y101.223
G1 X171.082 Y101.125
G1 X171.388 Y101.064
G1 X171.660 Y101.048
G1 X171.986 Y101.007
G1 X172.262 Y101.025
G1 X172.586 Y101.065
G1 X172.875 Y101.159
G1 X173.187 Y101.224
G1 X173.483 Y101.323
G1 X173.789 Y101.468
G1 X174.074 Y101.627
G1 X174.391 Y101.778
G1 X174.690 Y101.975
G1 X174.995 Y102.136
G1 X175.273 Y102.314
G1 X175.598 Y102.523
G1 X175.886 Y102.741
G1 X176.202 Y102.923
G1 X176.485 Y103.103
G1 X176.806 Y103.317
G1 X177.126 Y103.478
G1 X177.409 Y103.687
G1 X177.740 Y103.832
G1 X178.012 Y104.015
; Path 53
G0 Z0
G0 X178.024 Y104.033
G0 Z2.2
G1 F3000
G1 X178.014 Y106.055
G1 X178.012 Y108.013
G1 X178.035 Y110.032
G1 X178.004 Y112.029
G1 X178.009 Y114.055
G1 X178.004 Y116.024
; Path 54
G0 Z0
G0 X175.947 Y117.491
G0 Z2.2
G1 F3000
G1 X174.107 Y116.725
; Path 55
G0 Z0
G0 X175.995 Y120.026
G0 Z2.2
G1 F3000
G1 X176.026 Y121.861
G1 X175.986 Y123.682
G1 X176.034 Y125.517
G1 X176.001 Y127.340
G1 X175.996 Y129.181
G1 X176.030 Y131.013
; Path 56
G0 Z0
G0 X176.010 Y130.101
G0 Z2.2
G1 F3000
G1 X174.112 Y130.114
; Path 57
G0 Z0
G0 X174.020 Y131.039
G0 Z2.2
G1 F3000
G1 X173.994 Y129.153
G1 X174.022 Y127.339
G1 X174.006 Y125.448
G1 X173.984 Y123.607
G1 X173.983 Y121.729
G1 X173.989 Y119.892
G1 X174.005 Y118.024
; Path 58
G0 Z0
G0 X171.993 Y114.939
G0 Z2.2
G1 F3000
G1 X171.957 Y113.985
G1 X172.015 Y112.906
G1 X172.016 Y111.967
G1 X171.992 Y111.000
G1 X171.999 Y109.971
G1 X171.954 Y108.969
G1 X172.064 Y108.033
G1 X171.993 Y106.977
; Path 59
G0 Z0
G0 X172.437 Y106.915
G0 Z2.2
G1 F3000
G1 X171.588 Y105.156
; Path 60
G0 Z0
G0 X178.008 Y104.005
G0 Z2.2
G1 F3000
G1 X178.330 Y103.828
G1 X178.607 Y103.681
G1 X178.899 Y103.472
G1 X179.206 Y103.314
G1 X179.503 Y103.148
G1 X179.805 Y102.924
G1 X180.134 Y102.751
G1 X180.405 Y102.528
G1 X180.708 Y102.338
G1 X181.004 Y102.144
G1 X181.290 Y101.944
G1 X181.603 Y101.789
G1 X181.929 Y101.606
G1 X182.203 Y101.482
G1 X182.483 Y101.390
G1 X182.802 Y101.241
G1 X183.104 Y101.156
G1 X183.401 Y101.082
G1 X183.694 Y101.030
G1 X184.000 Y101.025
G1 X184.314 Y101.077
G1 X184.599 Y101.081
G1 X184.907 Y101.173
G1 X185.198 Y101.237
G1 X185.469 Y101.344
G1 X185.796 Y101.477
G1 X186.125 Y101.620
G1 X186.395 Y101.782
G1 X186.695 Y101.979
G1 X186.994 Y102.135
G1 X187.269 Y102.349
G1 X187.592 Y102.517
G1 X187.890 Y102.712
G1 X188.191 Y102.911
G1 X188.481 Y103.106
G1 X188.789 Y103.300
G1 X189.115 Y103.482
G1 X189.388 Y103.664
G1 X189.711 Y103.845
G1 X189.986 Y103.987
; Path 61
G0 Z0
G0 X190.011 Y103.987
G0 Z2.2
G1 F3000
G1 X190.322 Y103.836
G1 X190.611 Y103.660
G1 X190.881 Y103.478
G1 X191.211 Y103.290
G1 X191.504 Y103.118
G1 X191.810 Y102.896
G1 X192.082 Y102.675
G1 X192.409 Y102.497
G1 X192.713 Y102.310
G1 X193.009 Y102.109
G1 X193.289 Y101.920
G1 X193.608 Y101.752
G1 X193.902 Y101.575
G1 X194.208 Y101.443
G1 X194.504 Y101.349
G1 X194.808 Y101.200
G1 X195.114 Y101.106
G1 X195.409 Y101.042
G1 X195.698 Y101.018
G1 X196.010 Y100.987
G1 X196.289 Y100.999
G1 X196.611 Y101.047
G1 X196.905 Y101.106
G1 X197.213 Y101.210
G1 X197.517 Y101.320
G1 X197.815 Y101.457
G1 X198.145 Y101.607
G1 X198.417 Y101.771
G1 X198.695 Y101.951
G1 X199.020 Y102.133
G1 X199.320 Y102.328
G1 X199.622 Y102.526
G1 X199.924 Y102.714
G1 X200.225 Y102.930
G1 X200.543 Y103.129
G1 X200.828 Y103.329
G1 X201.139 Y103.528
G1 X201.430 Y103.703
G1 X201.726 Y103.895
G1 X202.033 Y104.035
; Path 62
G0 Z0
G0 X206.960 Y105.944
G0 Z2.2
G1 F3000
G1 X208.970 Y105.962
; Path 63
G0 Z0
G0 X208.023 Y107.010
G0 Z2.2
G1 F3000
G1 X208.071 Y107.961
G1 X207.983 Y108.960
G1 X208.032 Y110.018
G1 X207.970 Y110.956
G1 X207.961 Y112.009
G1 X208.072 Y112.976
G1 X207.929 Y113.945
G1 X207.988 Y114.979
; Path 64
G0 Z0
G0 X210.508 Y126.014
G0 Z2.2
G1 F3000
G1 X210.008 Y125.514
G1 X209.508 Y126.014
G1 X210.008 Y126.514
G1 X210.508 Y126.014
; Path 65
G0 Z0
G0 X215.978 Y117.204
G0 Z2.2
G1 F3000
G1 X213.953 Y116.709
; Path 66
G0 Z0
G0 X214.026 Y116.036
G0 Z2.2
G1 F3000
G1 X214.015 Y114.309
G1 X213.988 Y112.608
G1 X214.001 Y110.844
G1 X213.990 Y109.148
G1 X213.964 Y107.406
G1 X213.959 Y105.734
G1 X213.981 Y103.988
; Path 67
G0 Z0
G0 X213.990 Y104.006
G0 Z2.2
G1 F3000
G1 X214.299 Y103.815
G1 X214.591 Y103.682
G1 X214.915 Y103.521
G1 X215.193 Y103.317
G1 X215.504 Y103.105
G1 X215.794 Y102.928
G1 X216.101 Y102.738
G1 X216.396 Y102.533
G1 X216.677 Y102.348
G1 X216.997 Y102.150
G1 X217.293 Y101.996
G1 X217.598 Y101.797
G1 X217.881 Y101.672
G1 X218.199 Y101.491
G1 X218.475 Y101.387
G1 X218.800 Y101.251
G1 X219.097 Y101.147
G1 X219.401 Y101.094
G1 X219.696 Y101.070
G1 X220.001 Y101.038
G1 X220.272 Y101.050
G1 X220.601 Y101.095
G1 X220.895 Y101.155
G1 X221.200 Y101.253
G1 X221.503 Y101.379
G1 X221.799 Y101.494
G1 X222.069 Y101.654
G1 X222.397 Y101.800
G1 X222.700 Y101.992
G1 X222.996 Y102.155
G1 X223.311 Y102.363
G1 X223.594 Y102.539
G1 X223.888 Y102.751
G1 X224.192 Y102.934
G1 X224.489 Y103.110
G1 X224.791 Y103.324
G1 X225.060 Y103.490
G1 X225.389 Y103.690
G1 X225.701 Y103.859
G1 X225.987 Y104.015
; Path 68
G0 Z0
G0 X226.015 Y104.039
G0 Z2.2
G1 F3000
G1 X226.016 Y106.050
G1 X225.999 Y108.031
G1 X226.031 Y110.048
G1 X226.003 Y112.051
G1 X226.012 Y114.037
G1 X226.000 Y116.035
; Path 69
G0 Z0
G0 X219.984 Y115.040
G0 Z2.2
G1 F3000
G1 X220.015 Y114.219
G1 X219.922 Y113.298
G1 X220.010 Y112.375
G1 X219.965 Y111.480
G1 X219.994 Y110.608
G1 X220.035 Y109.775
G1 X220.024 Y108.766
G1 X220.010 Y107.943
G1 X220.012 Y107.031
; Path 70
G0 Z0
G0 X219.007 Y106.067
G0 Z2.2
G1 F3000
G1 X221.063 Y106.043
; Path 71
G0 Z0
G0 X214.018 Y103.984
G0 Z2.2
G1 F3000
G1 X213.704 Y103.797
G1 X213.417 Y103.660
G1 X213.124 Y103.485
G1 X212.816 Y103.293
G1 X212.512 Y103.119
G1 X212.215 Y102.903
G1 X211.886 Y102.686
G1 X211.615 Y102.506
G1 X211.324 Y102.291
G1 X211.014 Y102.122
G1 X210.729 Y101.960
G1 X210.413 Y101.767
G1 X210.129 Y101.631
G1 X209.812 Y101.460
G1 X209.504 Y101.335
G1 X209.212 Y101.219
G1 X208.908 Y101.114
G1 X208.611 Y101.062
G1 X208.326 Y101.023
G1 X208.010 Y101.006
G1 X207.737 Y101.039
G1 X207.410 Y101.064
G1 X207.128 Y101.153
G1 X206.809 Y101.223
G1 X206.524 Y101.348
G1 X206.208 Y101.466
G1 X205.935 Y101.621
G1 X205.608 Y101.775
G1 X205.300 Y101.967
G1 X205.007 Y102.132
G1 X204.684 Y102.354
G1 X204.406 Y102.518
G1 X204.135 Y102.725
G1 X203.806 Y102.917
G1 X203.523 Y103.102
G1 X203.205 Y103.309
G1 X202.892 Y103.486
G1 X202.604 Y103.678
G1 X202.329 Y103.848
G1 X202.004 Y104.004
; Path 72
G0 Z0
G0 X202.012 Y103.991
G0 Z2.2
G1 F3000
G1 X202.011 Y105.727
G1 X202.002 Y107.400
G1 X201.977 Y109.123
G1 X201.974 Y110.886
G1 X201.998 Y112.602
G1 X201.967 Y114.335
G1 X201.982 Y116.025
; Path 73
G0 Z0
G0 X195.962 Y115.051
G0 Z2.2
G1 F3000
G1 X195.964 Y114.089
G1 X195.899 Y113.341
G1 X196.019 Y112.311
G1 X195.898 Y111.419
G1 X195.886 Y110.567
G1 X195.996 Y109.702
G1 X195.984 Y108.831
G1 X196.032 Y107.904
G1 X195.964 Y107.005
; Path 74
G0 Z0
G0 X195.034 Y106.125
G0 Z2.2
G1 F3000
G1 X197.020 Y106.153
; Path 75
G0 Z0
G0 X190.019 Y104.018
G0 Z2.2
G1 F3000
G1 X190.011 Y105.753
G1 X190.030 Y107.472
G1 X190.044 Y109.182
G1 X189.997 Y110.872
G1 X189.999 Y112.618
G1 X190.036 Y114.349
G1 X190.010 Y116.037
; Path 76
G0 Z0
G0 X194.344 Y117.831
G0 Z2.2
G1 F3000
G1 X195.650 Y116.362
; Path 77
G0 Z0
G0 X187.867 Y123.400
G0 Z2.2
G1 F3000
G1 X186.279 Y124.516
; Path 78
G0 Z0
G0 X184.081 Y115.016
G0 Z2.2
G1 F3000
G1 X184.057 Y114.002
G1 X184.053 Y113.009
G1 X184.075 Y112.026
G1 X184.051 Y111.108
G1 X184.016 Y110.079
G1 X183.986 Y109.063
G1 X184.024 Y108.022
G1 X184.033 Y107.044
; Path 79
G0 Z0
G0 X184.993 Y105.959
G0 Z2.2
G1 F3000
G1 X182.985 Y105.976
; Path 80
G0 Z0
G0 X180.059 Y98.052
G0 Z2.2
G1 F3000
G1 X180.034 Y98.957
G1 X180.065 Y99.763
G1 X179.993 Y100.711
G1 X180.059 Y101.631
G1 X180.093 Y102.534
G1 X180.052 Y103.367
G1 X180.016 Y104.276
G1 X180.060 Y105.243
G1 X180.087 Y106.069
; Path 81
G0 Z0
G0 X180.001 Y106.018
G0 Z2.2
G1 F3000
G1 X180.060 Y104.045
G1 X180.170 Y102.121
G1 X180.265 Y100.163
G1 X180.345 Y98.181
G1 X180.452 Y96.231
G1 X180.495 Y94.297
G1 X180.618 Y92.309
G1 X180.690 Y90.339
G1 X180.795 Y88.391
G1 X180.860 Y86.443
G1 X180.943 Y84.505
G1 X181.011 Y82.562
G1 X181.101 Y80.568
G1 X181.196 Y78.623
G1 X181.298 Y76.652
G1 X181.380 Y74.728
G1 X181.478 Y72.762
G1 X181.564 Y70.828
G1 X181.646 Y68.856
G1 X181.746 Y66.913
G1 X181.831 Y64.907
G1 X181.891 Y63.001
G1 X181.980 Y61.018
; Path 82
G0 Z0
G0 X181.988 Y61.009
G0 Z2.2
G1 F3000
G1 X180.194 Y61.018
G1 X178.332 Y60.993
G1 X176.519 Y61.042
G1 X174.724 Y61.000
G1 X172.900 Y61.044
G1 X171.099 Y61.043
G1 X169.267 Y61.001
G1 X167.410 Y61.011
G1 X165.643 Y61.045
G1 X163.770 Y61.044
G1 X161.979 Y61.038
; Path 83
G0 Z0
G0 X162.013 Y60.996
G0 Z2.2
G1 F3000
G1 X161.920 Y62.934
G1 X161.833 Y64.922
G1 X161.773 Y66.858
G1 X161.645 Y68.832
G1 X161.580 Y70.768
G1 X161.509 Y72.752
G1 X161.427 Y74.705
G1 X161.342 Y76.670
G1 X161.253 Y78.629
G1 X161.126 Y80.552
G1 X161.053 Y82.520
G1 X161.003 Y84.467
G1 X160.913 Y86.448
G1 X160.803 Y88.420
G1 X160.742 Y90.381
G1 X160.629 Y92.334
G1 X160.544 Y94.301
G1 X160.470 Y96.238
G1 X160.380 Y98.210
G1 X160.299 Y100.133
G1 X160.221 Y102.129
G1 X160.108 Y104.068
G1 X160.025 Y106.029
; Path 84
G0 Z0
G0 X160.035 Y106.037
G0 Z2.2
G1 F3000
G1 X160.057 Y108.008
G1 X160.011 Y109.976
G1 X160.039 Y111.962
G1 X160.037 Y113.949
G1 X160.006 Y115.965
G1 X160.027 Y117.920
G1 X160.017 Y119.872
G1 X160.027 Y121.868
G1 X159.999 Y123.848
G1 X160.008 Y125.852
G1 X160.055 Y127.819
G1 X160.054 Y129.806
G1 X160.047 Y131.804
G1 X160.051 Y133.746
G1 X160.001 Y135.758
G1 X160.003 Y137.716
G1 X160.036 Y139.728
G1 X159.999 Y141.694
G1 X160.009 Y143.683
G1 X159.991 Y145.649
G1 X160.018 Y147.604
G1 X160.043 Y149.600
G1 X160.030 Y151.568
G1 X160.025 Y153.568
G1 X160.008 Y155.521
G1 X159.989 Y157.513
G1 X160.029 Y159.484
G1 X160.040 Y161.468
G1 X159.995 Y163.488
G1 X159.993 Y165.439
G1 X160.006 Y167.441
G1 X160.034 Y169.382
G1 X160.035 Y171.381
G1 X160.008 Y173.335
G1 X160.028 Y175.339
G1 X159.977 Y177.349
G1 X160.018 Y179.284
G1 X159.988 Y181.258
G1 X160.021 Y183.273
G1 X160.023 Y185.248
G1 X160.008 Y187.250
G1 X160.020 Y189.196
G1 X160.003 Y191.199
G1 X159.993 Y193.184
G1 X159.993 Y195.164
G1 X160.015 Y197.128
G1 X159.965 Y199.083
G1 X160.002 Y201.075
G1 X160.019 Y203.072
G1 X160.004 Y205.069
G1 X159.998 Y207.020
G1 X159.993 Y209.006
G1 X159.989 Y210.989
; Path 85
G0 Z0
G0 X162.797 Y202.096
G0 Z2.2
G1 F3000
G1 X163.209 Y200.049
; Path 86
G0 Z0
G0 X189.981 Y206.037
G0 Z2.2
G1 F3000
G1 X190.504 Y205.031
G1 X190.985 Y203.968
G1 X191.464 Y202.897
G1 X191.990 Y201.795
G1 X192.469 Y200.706
G1 X192.994 Y199.562
G1 X193.505 Y198.433
G1 X193.999 Y197.314
G1 X194.512 Y196.177
G1 X195.003 Y195.096
G1 X195.495 Y193.999
G1 X196.008 Y192.952
G1 X196.534 Y191.917
G1 X197.011 Y190.929
G1 X197.505 Y190.012
G1 X198.014 Y189.070
G1 X198.488 Y188.265
G1 X199.016 Y187.422
G1 X199.525 Y186.714
G1 X200.017 Y186.027
G1 X200.487 Y185.444
G1 X201.017 Y184.918
G1 X201.544 Y184.478
G1 X202.015 Y184.063
G1 X202.538 Y183.731
G1 X203.013 Y183.418
G1 X203.520 Y183.168
G1 X204.010 Y182.938
G1 X204.534 Y182.777
G1 X205.006 Y182.578
G1 X205.483 Y182.448
G1 X206.002 Y182.292
G1 X206.473 Y182.174
G1 X206.998 Y182.037
G1 X207.469 Y181.889
G1 X207.994 Y181.766
G1 X208.472 Y181.574
G1 X208.990 Y181.436
G1 X209.479 Y181.230
G1 X209.986 Y181.000
; Path 87
G0 Z0
G0 X209.992 Y181.016
G0 Z2.2
G1 F3000
G1 X210.488 Y181.239
G1 X210.996 Y181.446
G1 X211.511 Y181.604
G1 X212.000 Y181.771
G1 X212.502 Y181.915
G1 X213.004 Y182.036
G1 X213.514 Y182.140
G1 X214.009 Y182.286
G1 X214.499 Y182.444
G1 X215.013 Y182.565
G1 X215.511 Y182.750
G1 X216.017 Y182.920
G1 X216.538 Y183.169
G1 X217.021 Y183.396
G1 X217.534 Y183.698
G1 X218.024 Y184.037
G1 X218.497 Y184.475
G1 X219.027 Y184.889
G1 X219.508 Y185.437
G1 X220.029 Y185.997
G1 X220.542 Y186.665
G1 X221.030 Y187.391
G1 X221.520 Y188.221
G1 X222.031 Y189.040
G1 X222.557 Y189.949
G1 X223.031 Y190.901
G1 X223.530 Y191.913
G1 X224.031 Y192.927
G1 X224.535 Y194.011
G1 X225.031 Y195.074
G1 X225.503 Y196.181
G1 X226.030 Y197.295
G1 X226.553 Y198.439
G1 X227.030 Y199.547
G1 X227.513 Y200.662
G1 X228.029 Y201.784
G1 X228.513 Y202.857
G1 X229.029 Y203.961
G1 X229.524 Y204.985
G1 X230.028 Y206.032
; Path 88
G0 Z0
G0 X209.070 Y201.272
G0 Z2.2
G1 F3000
G1 X210.874 Y200.604
; Path 89
G0 Z0
G0 X209.089 Y196.337
G0 Z2.2
G1 F3000
G1 X210.958 Y195.792
; Path 90
G0 Z0
G0 X184.986 Y186.028
G0 Z2.2
G1 F3000
G1 X185.000 Y187.971
G1 X185.007 Y189.878
G1 X184.975 Y191.795
G1 X184.992 Y193.709
G1 X185.021 Y195.655
G1 X184.978 Y197.576
G1 X184.997 Y199.486
G1 X184.992 Y201.393
G1 X184.977 Y203.321
G1 X185.019 Y205.261
G1 X185.011 Y207.208
G1 X185.022 Y209.078
G1 X185.003 Y211.032
; Path 91
G0 Z0
G0 X185.034 Y211.007
G0 Z2.2
G1 F3000
G1 X186.191 Y209.392
G1 X187.276 Y207.815
G1 X188.420 Y206.215
G1 X189.604 Y204.652
G1 X190.702 Y203.063
G1 X191.847 Y201.445
G1 X192.989 Y199.857
G1 X194.111 Y198.315
G1 X195.221 Y196.718
G1 X196.404 Y195.095
G1 X197.509 Y193.539
G1 X198.642 Y191.912
G1 X199.790 Y190.366
G1 X200.930 Y188.762
G1 X202.061 Y187.149
G1 X203.174 Y185.564
G1 X204.356 Y184.003
G1 X205.490 Y182.401
G1 X206.575 Y180.789
G1 X207.716 Y179.211
G1 X208.861 Y177.615
G1 X210.002 Y176.039
; Path 92
G0 Z0
G0 X210.032 Y176.022
G0 Z2.2
G1 F3000
G1 X211.155 Y177.622
G1 X212.283 Y179.184
G1 X213.465 Y180.814
G1 X214.586 Y182.395
G1 X215.700 Y183.962
G1 X216.819 Y185.571
G1 X218.011 Y187.169
G1 X219.106 Y188.726
G1 X220.257 Y190.346
G1 X221.371 Y191.948
G1 X222.518 Y193.515
G1 X223.656 Y195.103
G1 X224.771 Y196.666
G1 X225.960 Y198.307
G1 X227.085 Y199.874
G1 X228.233 Y201.450
G1 X229.353 Y203.036
G1 X230.499 Y204.633
G1 X231.628 Y206.219
G1 X232.722 Y207.842
G1 X233.884 Y209.382
G1 X235.023 Y210.997
; Path 93
G0 Z0
G0 X234.989 Y211.014
G0 Z2.2
G1 F3000
G1 X234.983 Y209.070
G1 X235.016 Y207.176
G1 X234.976 Y205.254
G1 X234.985 Y203.300
G1 X235.025 Y201.404
G1 X234.988 Y199.462
G1 X234.988 Y197.571
G1 X235.026 Y195.641
G1 X235.026 Y193.704
G1 X235.022 Y191.803
G1 X235.037 Y189.860
G1 X235.045 Y187.967
G1 X235.027 Y186.033
; Path 94
G0 Z0
G0 X223.916 Y156.063
G0 Z2.2
G1 F3000
G1 X225.888 Y156.027
; Path 95
G0 Z0
G0 X238.983 Y155.964
G0 Z2.2
G1 F3000
G1 X240.951 Y156.015
; Path 96
G0 Z0
G0 X248.010 Y146.043
G0 Z2.2
G1 F3000
G1 X248.475 Y144.166
G1 X248.869 Y142.278
G1 X249.307 Y140.421
G1 X249.779 Y138.538
G1 X250.182 Y136.647
G1 X250.614 Y134.762
G1 X251.065 Y132.916
G1 X251.519 Y130.988
G1 X251.970 Y129.158
G1 X252.413 Y127.264
G1 X252.816 Y125.380
G1 X253.274 Y123.523
G1 X253.700 Y121.635
G1 X254.133 Y119.733
G1 X254.565 Y117.843
G1 X255.012 Y115.990
; Path 97
G0 Z0
G0 X254.991 Y116.035
G0 Z2.2
G1 F3000
G1 X255.445 Y117.885
G1 X255.888 Y119.752
G1 X256.318 Y121.676
G1 X256.759 Y123.521
G1 X257.171 Y125.375
G1 X257.614 Y127.281
G1 X258.058 Y129.174
G1 X258.485 Y131.026
G1 X258.954 Y132.877
G1 X259.357 Y134.752
G1 X259.793 Y136.611
G1 X260.225 Y138.522
G1 X260.646 Y140.358
G1 X261.104 Y142.276
G1 X261.547 Y144.117
G1 X261.985 Y146.006
; Path 98
G0 Z0
G0 X266.033 Y151.023
G0 Z2.2
G1 F3000
G1 X264.079 Y151.027
G1 X262.111 Y150.999
G1 X260.159 Y150.996
G1 X258.184 Y151.024
G1 X256.218 Y151.024
G1 X254.227 Y151.018
G1 X252.270 Y151.005
G1 X250.324 Y151.026
G1 X248.342 Y151.026
G1 X246.388 Y151.037
G1 X244.399 Y151.000
G1 X242.465 Y151.026
G1 X240.460 Y150.997
G1 X238.494 Y150.994
G1 X236.548 Y151.011
G1 X234.610 Y151.012
G1 X232.652 Y151.036
G1 X230.647 Y151.038
G1 X228.711 Y150.996
G1 X226.743 Y151.041
G1 X224.758 Y151.018
G1 X222.790 Y151.016
G1 X220.862 Y150.995
G1 X218.878 Y151.020
G1 X216.907 Y150.989
G1 X214.959 Y151.033
G1 X212.960 Y151.010
G1 X211.003 Y151.021
G1 X209.049 Y150.995
G1 X207.062 Y151.021
G1 X205.093 Y150.991
G1 X203.158 Y151.037
G1 X201.159 Y150.993
G1 X199.243 Y151.011
G1 X197.227 Y151.012
G1 X195.318 Y151.011
G1 X193.316 Y151.034
G1 X191.338 Y151.038
G1 X189.381 Y151.009
G1 X187.421 Y150.994
G1 X185.471 Y151.015
G1 X183.520 Y150.992
G1 X181.509 Y151.017
G1 X179.584 Y151.006
G1 X177.611 Y151.027
G1 X175.661 Y151.009
G1 X173.654 Y151.008
G1 X171.701 Y151.025
G1 X169.745 Y151.033
G1 X167.767 Y150.986
G1 X165.811 Y150.983
G1 X163.871 Y151.022
G1 X161.897 Y151.008
G1 X159.899 Y150.984
G1 X157.979 Y150.987
G1 X156.019 Y151.009
G1 X154.025 Y151.009
; Path 99
G0 Z0
G0 X151.989 Y161.039
G0 Z2.2
G1 F3000
G1 X153.945 Y161.024
G1 X155.899 Y161.026
G1 X157.892 Y161.024
G1 X159.870 Y161.034
G1 X161.797 Y161.051
G1 X163.779 Y161.026
G1 X165.748 Y161.024
G1 X167.744 Y161.014
G1 X169.679 Y161.019
G1 X171.647 Y161.066
G1 X173.639 Y161.069
G1 X175.593 Y161.041
G1 X177.559 Y161.041
G1 X179.529 Y161.037
G1 X181.521 Y161.067
G1 X183.467 Y161.039
G1 X185.395 Y161.065
G1 X187.368 Y161.020
G1 X189.341 Y161.063
G1 X191.355 Y161.029
G1 X193.303 Y161.042
G1 X195.269 Y161.064
G1 X197.240 Y161.034
G1 X199.167 Y161.064
G1 X201.148 Y161.015
G1 X203.154 Y161.060
G1 X205.092 Y161.012
G1 X207.082 Y161.028
G1 X209.016 Y161.032
G1 X211.003 Y161.068
G1 X212.949 Y161.041
G1 X214.910 Y161.031
G1 X216.902 Y161.051
G1 X218.833 Y161.064
G1 X220.823 Y161.055
G1 X222.795 Y161.039
G1 X224.768 Y161.014
G1 X226.736 Y161.069
G1 X228.694 Y161.030
G1 X230.653 Y161.019
G1 X232.637 Y161.063
G1 X234.619 Y161.017
G1 X236.569 Y161.069
G1 X238.520 Y161.046
G1 X240.483 Y161.024
G1 X242.435 Y161.025
G1 X244.447 Y161.041
G1 X246.389 Y161.023
G1 X248.383 Y161.052
G1 X250.343 Y161.068
G1 X252.280 Y161.062
G1 X254.276 Y161.071
G1 X256.232 Y161.064
G1 X258.174 Y161.046
G1 X260.152 Y161.028
G1 X262.108 Y161.024
G1 X264.114 Y161.014
G1 X266.094 Y161.026
G1 X268.032 Y161.044
; Path 100
G0 Z0
G0 X255.990 Y155.978
G0 Z2.2
G1 F3000
G1 X254.097 Y156.028
; Path 101
G0 Z0
G0 X257.026 Y186.008
G0 Z2.2
G1 F3000
G1 X258.026 Y187.647
G1 X259.024 Y189.326
G1 X260.043 Y190.982
G1 X261.020 Y192.694
G1 X262.021 Y194.338
G1 X262.990 Y195.983
G1 X264.038 Y197.682
G1 X265.028 Y199.361
G1 X266.016 Y201.015
G1 X267.023 Y202.691
G1 X267.993 Y204.355
G1 X269.011 Y206.021
G1 X270.034 Y207.635
G1 X271.018 Y209.327
G1 X272.010 Y210.992
; Path 102
G0 Z0
G0 X275.002 Y211.040
G0 Z2.2
G1 F3000
G1 X274.723 Y209.073
G1 X274.443 Y207.166
G1 X274.158 Y205.222
G1 X273.890 Y203.246
G1 X273.629 Y201.326
G1 X273.320 Y199.359
G1 X273.033 Y197.450
G1 X272.776 Y195.503
G1 X272.516 Y193.557
G1 X272.210 Y191.576
G1 X271.957 Y189.646
G1 X271.698 Y187.670
G1 X271.381 Y185.743
G1 X271.149 Y183.823
G1 X270.842 Y181.857
G1 X270.550 Y179.901
G1 X270.315 Y177.942
G1 X270.001 Y175.998
G1 X269.764 Y174.081
G1 X269.468 Y172.145
G1 X269.164 Y170.200
G1 X268.886 Y168.245
G1 X268.596 Y166.295
G1 X268.326 Y164.376
G1 X268.069 Y162.406
G1 X267.786 Y160.474
G1 X267.489 Y158.504
G1 X267.221 Y156.582
G1 X266.970 Y154.617
G1 X266.678 Y152.672
G1 X266.397 Y150.753
G1 X266.125 Y148.797
G1 X265.823 Y146.869
G1 X265.575 Y144.891
G1 X265.273 Y142.958
G1 X265.023 Y141.038
G1 X264.764 Y139.066
G1 X264.463 Y137.127
G1 X264.193 Y135.196
G1 X263.935 Y133.199
G1 X263.633 Y131.261
G1 X263.356 Y129.330
G1 X263.088 Y127.388
G1 X262.822 Y125.419
G1 X262.533 Y123.477
G1 X262.278 Y121.581
G1 X261.997 Y119.625
G1 X261.682 Y117.665
G1 X261.408 Y115.739
G1 X261.146 Y113.743
G1 X260.868 Y111.806
G1 X260.604 Y109.870
G1 X260.288 Y107.933
G1 X260.029 Y105.992
; Path 103
G0 Z0
G0 X260.036 Y106.005
G0 Z2.2
G1 F3000
G1 X259.945 Y104.054
G1 X259.876 Y102.083
G1 X259.749 Y100.116
G1 X259.687 Y98.195
G1 X259.627 Y96.208
G1 X259.542 Y94.257
G1 X259.440 Y92.310
G1 X259.333 Y90.374
G1 X259.254 Y88.420
G1 X259.160 Y86.431
G1 X259.075 Y84.489
G1 X258.998 Y82.510
G1 X258.887 Y80.583
G1 X258.805 Y78.622
G1 X258.747 Y76.673
G1 X258.626 Y74.682
G1 X258.569 Y72.732
G1 X258.474 Y70.781
G1 X258.385 Y68.816
G1 X258.300 Y66.878
G1 X258.198 Y64.898
G1 X258.089 Y62.935
G1 X258.031 Y60.993
; Path 104
G0 Z0
G0 X258.017 Y61.017
G0 Z2.2
G1 F3000
G1 X256.002 Y61.025
G1 X254.003 Y60.995
G1 X252.024 Y60.999
G1 X249.997 Y60.982
G1 X248.010 Y61.018
G1 X246.016 Y61.021
G1 X244.002 Y60.977
G1 X242.016 Y61.002
G1 X240.047 Y60.975
G1 X238.033 Y60.989
; Path 105
G0 Z0
G0 X238.031 Y61.016
G0 Z2.2
G1 F3000
G1 X238.126 Y62.990
G1 X238.199 Y64.925
G1 X238.271 Y66.892
G1 X238.385 Y68.863
G1 X238.487 Y70.802
G1 X238.520 Y72.730
G1 X238.642 Y74.691
G1 X238.699 Y76.648
G1 X238.812 Y78.645
G1 X238.899 Y80.575
G1 X238.975 Y82.526
G1 X239.049 Y84.479
G1 X239.155 Y86.459
G1 X239.208 Y88.404
G1 X239.329 Y90.350
G1 X239.379 Y92.279
G1 X239.498 Y94.241
G1 X239.578 Y96.195
G1 X239.627 Y98.204
G1 X239.729 Y100.142
G1 X239.821 Y102.105
G1 X239.898 Y104.066
G1 X239.996 Y105.997
; Path 106
G0 Z0
G0 X238.018 Y104.013
G0 Z2.2
G1 F3000
G1 X238.009 Y105.979
G1 X238.017 Y107.998
G1 X238.017 Y109.972
G1 X238.004 Y111.978
G1 X237.967 Y113.977
G1 X237.983 Y115.988
; Path 107
G0 Z0
G0 X233.909 Y117.005
G0 Z2.2
G1 F3000
G1 X235.927 Y117.093
; Path 108
G0 Z0
G0 X231.986 Y115.035
G0 Z2.2
G1 F3000
G1 X231.967 Y114.088
G1 X232.069 Y113.254
G1 X232.035 Y112.312
G1 X232.081 Y111.405
G1 X232.020 Y110.590
G1 X232.040 Y109.710
G1 X232.119 Y108.680
G1 X232.028 Y107.848
G1 X232.081 Y106.945
; Path 109
G0 Z0
G0 X233.064 Y106.073
G0 Z2.2
G1 F3000
G1 X231.004 Y106.018
; Path 110
G0 Z0
G0 X226.032 Y104.001
G0 Z2.2
G1 F3000
G1 X226.339 Y103.850
G1 X226.627 Y103.676
G1 X226.901 Y103.470
G1 X227.222 Y103.310
G1 X227.509 Y103.105
G1 X227.816 Y102.920
G1 X228.114 Y102.721
G1 X228.411 Y102.524
G1 X228.695 Y102.342
G1 X229.005 Y102.140
G1 X229.278 Y101.967
G1 X229.600 Y101.786
G1 X229.889 Y101.612
G1 X230.196 Y101.479
G1 X230.491 Y101.349
G1 X230.792 Y101.238
G1 X231.112 Y101.146
G1 X231.389 Y101.080
G1 X231.697 Y101.070
G1 X231.987 Y101.023
G1 X232.277 Y101.065
G1 X232.587 Y101.079
G1 X232.905 Y101.161
G1 X233.188 Y101.237
G1 X233.483 Y101.370
G1 X233.790 Y101.478
G1 X234.066 Y101.635
G1 X234.392 Y101.784
G1 X234.698 Y101.983
G1 X234.995 Y102.138
G1 X235.278 Y102.330
G1 X235.598 Y102.521
G1 X235.898 Y102.738
G1 X236.202 Y102.917
G1 X236.484 Y103.094
G1 X236.805 Y103.307
G1 X237.110 Y103.477
G1 X237.409 Y103.673
G1 X237.697 Y103.858
G1 X238.011 Y103.997
; Path 111
G0 Z0
G0 X238.022 Y104.010
G0 Z2.2
G1 F3000
G1 X238.318 Y103.822
G1 X238.623 Y103.684
G1 X238.900 Y103.482
G1 X239.225 Y103.316
G1 X239.512 Y103.112
G1 X239.827 Y102.924
G1 X240.143 Y102.724
G1 X240.428 Y102.527
G1 X240.745 Y102.341
G1 X241.030 Y102.141
G1 X241.305 Y101.969
G1 X241.631 Y101.785
G1 X241.955 Y101.603
G1 X242.233 Y101.476
G1 X242.522 Y101.325
G1 X242.834 Y101.234
G1 X243.133 Y101.159
G1 X243.434 Y101.075
G1 X243.730 Y101.028
G1 X244.034 Y101.018
G1 X244.326 Y101.047
G1 X244.634 Y101.075
G1 X244.962 Y101.180
G1 X245.233 Y101.233
G1 X245.522 Y101.331
G1 X245.831 Y101.474
G1 X246.101 Y101.635
G1 X246.429 Y101.782
G1 X246.722 Y101.954
G1 X247.027 Y102.137
G1 X247.327 Y102.347
G1 X247.625 Y102.522
G1 X247.898 Y102.708
G1 X248.223 Y102.919
G1 X248.516 Y103.116
G1 X248.821 Y103.311
G1 X249.098 Y103.519
G1 X249.418 Y103.678
G1 X249.694 Y103.812
G1 X250.017 Y104.003
; Path 112
G0 Z0
G0 X250.016 Y104.004
G0 Z2.2
G1 F3000
G1 X250.012 Y105.994
G1 X250.046 Y108.029
G1 X250.041 Y110.001
G1 X250.007 Y111.998
G1 X250.042 Y113.967
G1 X250.030 Y115.993
; Path 113
G0 Z0
G0 X254.362 Y116.397
G0 Z2.2
G1 F3000
G1 X255.835 Y117.780
; Path 114
G0 Z0
G0 X244.028 Y115.019
G0 Z2.2
G1 F3000
G1 X244.032 Y113.987
G1 X243.994 Y113.023
G1 X243.925 Y112.030
G1 X243.926 Y111.105
G1 X243.909 Y110.052
G1 X243.965 Y109.049
G1 X243.958 Y108.099
G1 X243.957 Y107.076
; Path 115
G0 Z0
G0 X244.379 Y105.107
G0 Z2.2
G1 F3000
G1 X243.799 Y106.895
; Path 116
G0 Z0
G0 X240.052 Y105.952
G0 Z2.2
G1 F3000
G1 X240.123 Y104.911
G1 X240.103 Y103.927
G1 X239.960 Y103.012
G1 X239.965 Y102.043
G1 X239.998 Y101.066
G1 X240.049 Y99.954
G1 X239.962 Y98.939
G1 X239.991 Y98.008
; Path 117
G0 Z0
G0 X249.885 Y85.003
G0 Z2.2
G1 F3000
G1 X249.978 Y87.012
; Path 118
G0 Z0
G0 X248.029 Y91.041
G0 Z2.2
G1 F3000
G1 X247.999 Y89.167
G1 X248.017 Y87.309
G1 X248.024 Y85.423
G1 X248.004 Y83.537
G1 X248.013 Y81.619
G1 X248.011 Y79.769
G1 X248.021 Y77.863
G1 X248.005 Y76.004
; Path 119
G0 Z0
G0 X252.978 Y82.094
G0 Z2.2
G1 F3000
G1 X252.976 Y80.024
; Path 120
G0 Z0
G0 X255.999 Y76.017
G0 Z2.2
G1 F3000
G1 X256.007 Y77.905
G1 X256.016 Y79.752
G1 X255.996 Y81.643
G1 X256.030 Y83.513
G1 X256.032 Y85.402
G1 X256.041 Y87.302
G1 X255.997 Y89.156
G1 X256.026 Y91.028
; Path 121
G0 Z0
G0 X260.032 Y97.956
G0 Z2.2
G1 F3000
G1 X259.962 Y98.846
G1 X260.009 Y99.824
G1 X260.023 Y100.648
G1 X260.039 Y101.631
G1 X260.028 Y102.499
G1 X259.957 Y103.417
G1 X259.932 Y104.326
G1 X259.910 Y105.227
G1 X259.929 Y106.069
; Path 122
G0 Z0
G0 X260.009 Y106.041
G0 Z2.2
G1 F3000
G1 X259.979 Y108.008
G1 X260.028 Y109.992
G1 X259.997 Y111.964
G1 X260.015 Y113.935
G1 X260.026 Y115.972
G1 X260.035 Y117.932
G1 X260.017 Y119.892
G1 X260.030 Y121.914
G1 X260.020 Y123.875
G1 X260.005 Y125.841
G1 X260.013 Y127.823
G1 X260.013 Y129.780
G1 X259.979 Y131.770
G1 X259.986 Y133.751
G1 X259.977 Y135.743
G1 X260.035 Y137.725
G1 X260.010 Y139.729
G1 X260.002 Y141.699
G1 X260.021 Y143.683
G1 X259.997 Y145.641
G1 X260.015 Y147.613
G1 X260.011 Y149.637
G1 X259.994 Y151.593
G1 X260.011 Y153.577
G1 X260.031 Y155.572
G1 X260.017 Y157.560
G1 X259.995 Y159.503
G1 X259.988 Y161.470
G1 X259.994 Y163.481
G1 X260.004 Y165.481
G1 X259.990 Y167.469
G1 X260.020 Y169.443
G1 X259.977 Y171.374
G1 X260.013 Y173.390
G1 X259.985 Y175.362
G1 X260.011 Y177.332
G1 X260.004 Y179.321
G1 X259.991 Y181.298
G1 X259.985 Y183.299
G1 X259.999 Y185.283
G1 X260.008 Y187.268
G1 X259.983 Y189.226
G1 X260.007 Y191.179
G1 X260.022 Y193.217
G1 X260.022 Y195.165
G1 X259.979 Y197.175
G1 X259.972 Y199.154
G1 X259.978 Y201.130
G1 X259.989 Y203.085
G1 X259.997 Y205.071
G1 X260.009 Y207.045
G1 X259.982 Y209.052
G1 X259.996 Y211.012
; Path 123
G0 Z0
G0 X256.772 Y201.963
G0 Z2.2
G1 F3000
G1 X257.124 Y199.999
; Path 124
G0 Z0
G0 X256.993 Y186.038
G0 Z2.2
G1 F3000
G1 X256.015 Y187.695
G1 X254.967 Y189.383
G1 X254.018 Y191.019
G1 X252.998 Y192.706
G1 X251.963 Y194.357
G1 X251.019 Y196.039
G1 X250.016 Y197.696
G1 X248.997 Y199.328
G1 X248.007 Y201.013
G1 X246.998 Y202.706
G1 X245.980 Y204.322
G1 X244.987 Y206.035
G1 X244.007 Y207.648
G1 X242.972 Y209.343
G1 X241.988 Y211.001
; Path 125
G0 Z0
G0 X240.013 Y211.026
G0 Z2.2
G1 F3000
G1 X239.988 Y209.068
G1 X240.025 Y207.087
G1 X240.009 Y205.074
G1 X240.041 Y203.121
G1 X240.039 Y201.093
G1 X240.022 Y199.138
G1 X239.992 Y197.134
G1 X239.996 Y195.204
G1 X240.034 Y193.207
G1 X240.034 Y191.196
G1 X240.036 Y189.244
G1 X239.986 Y187.270
G1 X240.011 Y185.289
G1 X239.993 Y183.304
G1 X239.995 Y181.329
G1 X239.999 Y179.320
G1 X240.026 Y177.327
G1 X240.018 Y175.348
G1 X239.992 Y173.374
G1 X240.045 Y171.432
G1 X240.036 Y169.410
G1 X240.021 Y167.425
G1 X240.040 Y165.482
G1 X239.999 Y163.473
G1 X240.023 Y161.490
G1 X240.043 Y159.525
G1 X240.034 Y157.571
G1 X240.003 Y155.586
G1 X240.003 Y153.609
G1 X240.012 Y151.606
G1 X240.043 Y149.614
G1 X240.017 Y147.619
G1 X240.009 Y145.647
G1 X240.036 Y143.684
G1 X240.023 Y141.682
G1 X240.030 Y139.728
G1 X240.011 Y137.762
G1 X240.037 Y135.770
G1 X240.051 Y133.779
G1 X239.997 Y131.765
G1 X240.037 Y129.795
G1 X239.995 Y127.823
G1 X240.036 Y125.863
G1 X240.002 Y123.894
G1 X240.027 Y121.908
G1 X240.036 Y119.922
G1 X240.047 Y117.930
G1 X240.013 Y115.949
G1 X239.996 Y113.956
G1 X240.049 Y111.980
G1 X240.016 Y110.021
G1 X240.047 Y108.041
G1 X240.025 Y106.043
; Path 126
G0 Z0
G0 X240.015 Y105.998
G0 Z2.2
G1 F3000
G1 X238.093 Y105.980
G1 X236.120 Y106.000
G1 X234.185 Y105.981
G1 X232.282 Y106.023
G1 X230.317 Y106.017
G1 X228.394 Y105.978
G1 X226.474 Y105.990
G1 X224.540 Y105.977
G1 X222.613 Y105.982
G1 X220.661 Y106.005
G1 X218.707 Y105.970
G1 X216.801 Y105.989
G1 X214.856 Y105.971
G1 X212.887 Y106.015
G1 X210.973 Y105.978
G1 X209.013 Y106.005
G1 X207.117 Y106.026
G1 X205.130 Y105.983
G1 X203.213 Y106.002
G1 X201.277 Y105.977
G1 X199.345 Y106.011
G1 X197.388 Y106.001
G1 X195.481 Y106.019
G1 X193.526 Y106.010
G1 X191.622 Y105.993
G1 X189.649 Y105.993
G1 X187.707 Y105.975
G1 X185.775 Y105.999
G1 X183.861 Y106.013
G1 X181.932 Y106.014
G1 X179.982 Y105.998
; Path 127
G0 Z0
G0 X179.998 Y106.005
G0 Z2.2
G1 F3000
G1 X179.973 Y107.982
G1 X179.984 Y109.956
G1 X180.003 Y111.975
G1 X179.980 Y113.919
G1 X179.984 Y115.922
G1 X179.994 Y117.898
G1 X179.991 Y119.902
G1 X179.970 Y121.861
G1 X179.978 Y123.814
G1 X179.986 Y125.790
G1 X179.971 Y127.787
G1 X179.981 Y129.802
G1 X180.015 Y131.786
G1 X179.971 Y133.765
G1 X180.004 Y135.700
G1 X179.992 Y137.729
G1 X180.001 Y139.710
G1 X180.023 Y141.650
G1 X179.977 Y143.657
G1 X179.989 Y145.609
G1 X179.991 Y147.629
G1 X179.979 Y149.571
G1 X180.019 Y151.543
G1 X179.969 Y153.564
G1 X179.981 Y155.528
G1 X180.014 Y157.537
G1 X179.972 Y159.509
G1 X179.996 Y161.451
G1 X180.006 Y163.450
G1 X179.970 Y165.449
G1 X180.009 Y167.434
G1 X180.007 Y169.426
G1 X179.993 Y171.358
G1 X180.004 Y173.373
G1 X180.005 Y175.316
G1 X180.008 Y177.303
G1 X180.001 Y179.311
G1 X179.976 Y181.266
G1 X179.978 Y183.253
G1 X180.010 Y185.275
G1 X180.023 Y187.218
G1 X179.993 Y189.193
G1 X179.976 Y191.179
G1 X180.012 Y193.186
G1 X179.979 Y195.141
G1 X180.003 Y197.130
G1 X180.010 Y199.134
G1 X180.005 Y201.104
G1 X179.974 Y203.083
G1 X179.980 Y205.064
G1 X180.009 Y207.056
G1 X179.974 Y209.054
G1 X179.994 Y211.006
; Path 128
G0 Z0
G0 X177.997 Y211.002
G0 Z2.2
G1 F3000
G1 X176.993 Y209.325
G1 X175.969 Y207.672
G1 X174.966 Y205.993
G1 X173.997 Y204.358
G1 X172.987 Y202.683
G1 X172.002 Y201.002
G1 X171.002 Y199.346
G1 X169.985 Y197.707
G1 X169.008 Y195.990
G1 X167.961 Y194.358
G1 X166.987 Y192.701
G1 X165.972 Y190.994
G1 X164.987 Y189.329
G1 X163.994 Y187.674
G1 X162.981 Y186.019
; Path 129
G0 Z0
G0 X163.003 Y185.999
G0 Z2.2
G1 F3000
G1 X162.023 Y187.669
G1 X161.029 Y189.312
G1 X160.012 Y190.991
G1 X158.986 Y192.693
G1 X157.980 Y194.338
G1 X157.016 Y195.996
G1 X156.022 Y197.678
G1 X155.026 Y199.323
G1 X154.035 Y200.989
G1 X153.006 Y202.639
G1 X152.001 Y204.319
G1 X151.028 Y205.978
G1 X150.015 Y207.633
G1 X149.006 Y209.297
G1 X148.016 Y210.988
; Path 130
G0 Z0
G0 X130.086 Y185.956
G0 Z2.2
G1 F3000
G1 X129.854 Y185.111
G1 X129.561 Y184.244
G1 X129.275 Y183.457
G1 X128.902 Y182.613
G1 X128.541 Y181.844
G1 X128.217 Y180.958
G1 X127.898 Y180.135
G1 X127.513 Y179.348
G1 X127.061 Y178.458
G1 X126.657 Y177.703
G1 X126.390 Y176.785
G1 X125.954 Y175.958
G1 X125.585 Y175.184
G1 X125.307 Y174.232
G1 X125.044 Y173.459
G1 X124.928 Y172.666
G1 X124.607 Y171.840
G1 X124.478 Y170.961
G1 X124.446 Y170.183
G1 X124.402 Y169.296
G1 X124.404 Y168.464
G1 X124.665 Y167.670
G1 X124.755 Y166.749
G1 X124.969 Y165.970
G1 X125.405 Y165.123
G1 X125.843 Y164.260
G1 X126.271 Y163.477
G1 X126.826 Y162.793
G1 X127.262 Y162.236
G1 X127.712 Y161.535
G1 X128.213 Y160.987
G1 X128.813 Y160.410
G1 X129.442 Y159.769
G1 X129.960 Y159.112
G1 X130.646 Y158.498
G1 X131.322 Y157.902
G1 X132.007 Y157.180
G1 X132.704 Y156.572
G1 X133.423 Y156.010
G1 X134.126 Y155.311
G1 X134.978 Y154.822
G1 X135.643 Y154.074
G1 X136.397 Y153.522
G1 X137.227 Y152.854
G1 X137.834 Y152.245
G1 X138.687 Y151.644
G1 X139.420 Y151.035
G1 X140.093 Y150.421
G1 X140.896 Y149.815
G1 X141.547 Y149.155
G1 X142.345 Y148.547
G1 X143.094 Y147.874
G1 X143.616 Y147.260
G1 X144.398 Y146.634
G1 X145.024 Y146.059
; Path 131
G0 Z0
G0 X142.055 Y142.999
G0 Z2.2
G1 F3000
G1 X141.018 Y143.037
G1 X140.058 Y142.971
G1 X139.137 Y143.103
G1 X138.064 Y143.054
; Path 132
G0 Z0
G0 X136.947 Y139.082
G0 Z2.2
G1 F3000
G1 X139.028 Y138.863
; Path 133
G0 Z0
G0 X132.918 Y139.922
G0 Z2.2
G1 F3000
G1 X131.002 Y139.962
; Path 134
G0 Z0
G0 X124.996 Y140.987
G0 Z2.2
G1 F3000
G1 X126.221 Y139.714
G1 X127.478 Y138.488
G1 X128.758 Y137.226
G1 X130.006 Y135.997
G1 X131.259 Y134.738
G1 X132.494 Y133.480
G1 X133.746 Y132.236
G1 X135.004 Y130.990
; Path 135
G0 Z0
G0 X132.017 Y124.307
G0 Z2.2
G1 F3000
G1 X134.014 Y123.645
; Path 136
G0 Z0
G0 X143.989 Y120.008
G0 Z2.2
G1 F3000
G1 X143.967 Y121.823
G1 X143.978 Y123.661
G1 X143.989 Y125.524
G1 X144.004 Y127.351
G1 X144.025 Y129.145
G1 X144.006 Y130.994
; Path 137
G0 Z0
G0 X144.993 Y131.042
G0 Z2.2
G1 F3000
G1 X145.145 Y129.449
G1 X145.254 Y127.818
G1 X145.331 Y126.128
G1 X145.453 Y124.405
G1 X145.519 Y122.649
G1 X145.616 Y120.884
G1 X145.695 Y119.123
G1 X145.770 Y117.336
G1 X145.881 Y115.615
G1 X145.942 Y113.842
G1 X146.058 Y112.146
G1 X146.158 Y110.483
G1 X146.313 Y108.939
G1 X146.447 Y107.340
G1 X146.640 Y105.934
G1 X146.833 Y104.495
G1 X147.073 Y103.284
G1 X147.346 Y102.028
G1 X147.649 Y101.033
G1 X148.011 Y100.020
G1 X148.434 Y99.301
G1 X148.845 Y98.526
G1 X149.359 Y97.985
G1 X149.833 Y97.491
G1 X150.404 Y97.175
G1 X150.945 Y96.835
G1 X151.562 Y96.644
G1 X152.157 Y96.476
G1 X152.773 Y96.378
G1 X153.440 Y96.333
G1 X154.076 Y96.317
G1 X154.768 Y96.325
G1 X155.441 Y96.351
G1 X156.113 Y96.372
G1 X156.756 Y96.368
G1 X157.450 Y96.391
G1 X158.126 Y96.372
G1 X158.751 Y96.302
G1 X159.351 Y96.135
G1 X159.989 Y96.024
; Path 138
G0 Z0
G0 X160.019 Y96.004
G0 Z2.2
G1 F3000
G1 X160.622 Y96.139
G1 X161.257 Y96.282
G1 X161.890 Y96.344
G1 X162.557 Y96.371
G1 X163.205 Y96.335
G1 X163.893 Y96.353
G1 X164.588 Y96.358
G1 X165.238 Y96.307
G1 X165.880 Y96.320
G1 X166.566 Y96.315
G1 X167.200 Y96.379
G1 X167.848 Y96.458
G1 X168.457 Y96.639
G1 X169.059 Y96.817
G1 X169.587 Y97.140
G1 X170.172 Y97.474
G1 X170.658 Y97.988
G1 X171.159 Y98.509
G1 X171.566 Y99.259
G1 X171.994 Y100.004
G1 X172.344 Y101.004
G1 X172.659 Y102.012
G1 X172.904 Y103.236
G1 X173.172 Y104.480
G1 X173.338 Y105.878
G1 X173.560 Y107.326
G1 X173.728 Y108.914
G1 X173.849 Y110.469
G1 X173.986 Y112.161
G1 X174.066 Y113.829
G1 X174.182 Y115.557
G1 X174.239 Y117.323
G1 X174.329 Y119.085
G1 X174.394 Y120.872
G1 X174.481 Y122.622
G1 X174.558 Y124.394
G1 X174.672 Y126.071
G1 X174.758 Y127.807
G1 X174.913 Y129.414
G1 X175.020 Y131.032
; Path 139
G0 Z0
G0 X174.982 Y131.000
G0 Z2.2
G1 F3000
G1 X176.255 Y132.231
G1 X177.499 Y133.492
G1 X178.743 Y134.790
G1 X179.976 Y136.029
G1 X181.255 Y137.247
G1 X182.499 Y138.522
G1 X183.756 Y139.765
G1 X184.991 Y141.038
; Path 140
G0 Z0
G0 X186.974 Y135.132
G0 Z2.2
G1 F3000
G1 X189.080 Y134.986
; Path 141
G0 Z0
G0 X187.986 Y129.975
G0 Z2.2
G1 F3000
G1 X187.074 Y130.013
G1 X186.035 Y129.915
G1 X184.986 Y129.992
G1 X184.122 Y129.952
G1 X183.081 Y129.937
G1 X182.110 Y130.019
G1 X181.140 Y129.937
G1 X180.119 Y129.999
G1 X179.066 Y129.900
G1 X178.148 Y129.968
G1 X177.178 Y129.991
G1 X176.168 Y129.971
G1 X175.282 Y129.951
G1 X174.213 Y129.923
G1 X173.250 Y129.899
G1 X172.278 Y129.992
G1 X171.337 Y129.907
G1 X170.347 Y129.899
G1 X169.253 Y129.925
G1 X168.286 Y129.983
G1 X167.339 Y129.936
G1 X166.417 Y129.906
G1 X165.385 Y130.008
G1 X164.414 Y130.000
G1 X163.436 Y129.925
G1 X162.444 Y130.033
G1 X161.526 Y129.963
G1 X160.553 Y130.046
G1 X159.527 Y129.909
G1 X158.435 Y130.038
G1 X157.529 Y130.018
G1 X156.589 Y129.902
G1 X155.634 Y129.910
G1 X154.509 Y129.997
G1 X153.664 Y130.042
G1 X152.631 Y129.947
G1 X151.563 Y130.025
G1 X150.700 Y130.032
G1 X149.743 Y129.921
G1 X148.700 Y130.002
G1 X147.667 Y129.992
G1 X146.642 Y130.021
G1 X145.783 Y129.940
G1 X144.726 Y129.949
G1 X143.830 Y129.996
G1 X142.779 Y129.892
G1 X141.739 Y129.895
G1 X140.882 Y129.950
G1 X139.766 Y130.029
G1 X138.859 Y129.937
G1 X137.902 Y129.993
G1 X136.863 Y129.986
G1 X135.935 Y130.036
G1 X134.908 Y129.933
G1 X133.929 Y129.971
G1 X132.946 Y129.964
G1 X131.982 Y129.965
; Path 142
G0 Z0
G0 X130.031 Y131.039
G0 Z2.2
G1 F3000
G1 X130.050 Y130.043
G1 X130.013 Y129.040
; Path 143
G0 Z0
G0 X130.002 Y129.020
G0 Z2.2
G1 F3000
G1 X131.953 Y129.041
G1 X133.852 Y129.016
G1 X135.836 Y129.036
G1 X137.777 Y129.044
G1 X139.657 Y129.029
G1 X141.630 Y128.994
G1 X143.586 Y129.014
G1 X145.486 Y129.008
G1 X147.439 Y128.988
G1 X149.386 Y129.024
G1 X151.306 Y128.987
G1 X153.237 Y129.027
G1 X155.204 Y128.993
G1 X157.090 Y129.004
G1 X159.026 Y129.016
G1 X160.981 Y129.012
G1 X162.893 Y128.995
G1 X164.854 Y129.019
G1 X166.804 Y128.993
G1 X168.737 Y128.986
G1 X170.683 Y129.012
G1 X172.623 Y129.001
G1 X174.518 Y129.004
G1 X176.472 Y129.010
G1 X178.408 Y129.004
G1 X180.339 Y128.983
G1 X182.307 Y129.018
G1 X184.242 Y128.987
G1 X186.135 Y128.988
G1 X188.077 Y128.973
G1 X190.032 Y128.987
; Path 144
G0 Z0
G0 X190.018 Y129.039
G0 Z2.2
G1 F3000
G1 X190.028 Y130.006
G1 X190.023 Y131.012
; Path 145
G0 Z0
G0 X192.008 Y131.014
G0 Z2.2
G1 F3000
G1 X128.008 Y131.014
; Path 146
G0 Z0
G0 X121.081 Y134.993
G0 Z2.2
G1 F3000
G1 X122.956 Y134.931
; Path 147
G0 Z0
G0 X125.008 Y136.014
G0 Z2.2
G1 F3000
G1 X125.008 Y131.014
; Path 148
G0 Z0
G0 X125.016 Y131.000
G0 Z2.2
G1 F3000
G1 X125.092 Y130.020
G1 X125.197 Y129.030
G1 X125.274 Y127.967
G1 X125.349 Y126.956
G1 X125.408 Y125.892
G1 X125.486 Y124.821
G1 X125.532 Y123.726
G1 X125.619 Y122.671
G1 X125.714 Y121.590
G1 X125.759 Y120.552
G1 X125.814 Y119.510
G1 X125.920 Y118.507
G1 X125.993 Y117.571
G1 X126.113 Y116.583
G1 X126.205 Y115.700
G1 X126.350 Y114.825
G1 X126.468 Y114.048
G1 X126.643 Y113.277
G1 X126.846 Y112.623
G1 X127.004 Y111.985
G1 X127.247 Y111.485
G1 X127.441 Y110.979
G1 X127.682 Y110.588
G1 X127.947 Y110.229
G1 X128.257 Y109.982
G1 X128.509 Y109.690
G1 X128.818 Y109.523
G1 X129.114 Y109.316
G1 X129.447 Y109.188
G1 X129.752 Y109.063
G1 X130.056 Y108.964
G1 X130.410 Y108.885
G1 X130.721 Y108.823
G1 X131.076 Y108.737
G1 X131.397 Y108.662
G1 X131.738 Y108.574
G1 X132.073 Y108.492
G1 X132.384 Y108.351
G1 X132.702 Y108.166
G1 X133.001 Y108.023
; Path 149
G0 Z0
G0 X132.988 Y108.024
G0 Z2.2
G1 F3000
G1 X133.314 Y108.171
G1 X133.605 Y108.355
G1 X133.901 Y108.457
G1 X134.243 Y108.582
G1 X134.566 Y108.651
G1 X134.893 Y108.748
G1 X135.230 Y108.807
G1 X135.546 Y108.899
G1 X135.866 Y108.963
G1 X136.193 Y109.080
G1 X136.520 Y109.193
G1 X136.824 Y109.336
G1 X137.115 Y109.499
G1 X137.432 Y109.713
G1 X137.741 Y110.005
G1 X138.006 Y110.255
G1 X138.262 Y110.659
G1 X138.538 Y111.007
G1 X138.753 Y111.514
G1 X139.018 Y112.015
G1 X139.224 Y112.652
G1 X139.441 Y113.309
G1 X139.597 Y114.071
G1 X139.811 Y114.858
G1 X139.985 Y115.729
G1 X140.140 Y116.617
G1 X140.294 Y117.567
G1 X140.435 Y118.542
G1 X140.582 Y119.562
G1 X140.706 Y120.587
G1 X140.830 Y121.644
G1 X140.962 Y122.707
G1 X141.063 Y123.756
G1 X141.212 Y124.857
G1 X141.367 Y125.947
G1 X141.464 Y126.992
G1 X141.582 Y128.016
G1 X141.729 Y129.068
G1 X141.846 Y130.058
G1 X142.015 Y131.037
; Path 150
G0 Z0
G0 X142.008 Y131.014
G0 Z2.2
G1 F3000
G1 X142.008 Y136.014
; Path 151
G0 Z0
G0 X144.987 Y141.014
G0 Z2.2
G1 F3000
G1 X145.496 Y139.335
G1 X145.965 Y137.701
G1 X146.484 Y136.039
G1 X146.971 Y134.382
G1 X147.479 Y132.715
G1 X147.986 Y131.038
; Path 152
G0 Z0
G0 X147.987 Y131.013
G0 Z2.2
G1 F3000
G1 X148.154 Y129.640
G1 X148.370 Y128.207
G1 X148.518 Y126.710
G1 X148.725 Y125.233
G1 X148.903 Y123.691
G1 X149.065 Y122.164
G1 X149.228 Y120.594
G1 X149.400 Y119.070
G1 X149.563 Y117.518
G1 X149.743 Y116.025
G1 X149.912 Y114.578
G1 X150.106 Y113.099
G1 X150.329 Y111.751
G1 X150.502 Y110.365
G1 X150.711 Y109.116
G1 X150.941 Y107.895
G1 X151.182 Y106.825
G1 X151.435 Y105.761
G1 X151.695 Y104.927
G1 X151.998 Y104.035
G1 X152.307 Y103.424
G1 X152.636 Y102.764
G1 X152.974 Y102.351
G1 X153.342 Y101.901
G1 X153.721 Y101.626
G1 X154.104 Y101.374
G1 X154.531 Y101.260
G1 X154.910 Y101.111
G1 X155.323 Y101.073
G1 X155.748 Y101.040
G1 X156.195 Y101.068
G1 X156.605 Y101.088
G1 X157.011 Y101.118
G1 X157.471 Y101.185
G1 X157.920 Y101.196
G1 X158.333 Y101.258
G1 X158.738 Y101.242
G1 X159.178 Y101.234
G1 X159.598 Y101.167
G1 X159.996 Y101.043
; Path 153
G0 Z0
G0 X159.998 Y101.015
G0 Z2.2
G1 F3000
G1 X160.393 Y101.113
G1 X160.820 Y101.207
G1 X161.217 Y101.204
G1 X161.670 Y101.230
G1 X162.100 Y101.200
G1 X162.536 Y101.158
G1 X162.977 Y101.092
G1 X163.406 Y101.062
G1 X163.851 Y101.030
G1 X164.268 Y101.013
G1 X164.662 Y101.026
G1 X165.110 Y101.085
G1 X165.502 Y101.223
G1 X165.919 Y101.349
G1 X166.300 Y101.593
G1 X166.684 Y101.876
G1 X167.048 Y102.299
G1 X167.391 Y102.740
G1 X167.736 Y103.378
G1 X168.030 Y104.011
G1 X168.301 Y104.853
G1 X168.590 Y105.738
G1 X168.854 Y106.802
G1 X169.082 Y107.874
G1 X169.322 Y109.128
G1 X169.517 Y110.345
G1 X169.707 Y111.693
G1 X169.907 Y113.080
G1 X170.082 Y114.545
G1 X170.264 Y116.007
G1 X170.460 Y117.520
G1 X170.601 Y119.054
G1 X170.768 Y120.573
G1 X170.930 Y122.149
G1 X171.099 Y123.683
G1 X171.263 Y125.220
G1 X171.450 Y126.680
G1 X171.612 Y128.195
G1 X171.794 Y129.598
G1 X171.990 Y131.003
; Path 154
G0 Z0
G0 X172.008 Y131.014
G0 Z2.2
G1 F3000
G1 X172.008 Y136.014
; Path 155
G0 Z0
G0 X172.987 Y140.283
G0 Z2.2
G1 F3000
G1 X171.033 Y139.717
; Path 156
G0 Z0
G0 X164.822 Y138.155
G0 Z2.2
G1 F3000
G1 X165.085 Y140.145
; Path 157
G0 Z0
G0 X165.016 Y141.013
G0 Z2.2
G1 F3000
G1 X164.498 Y139.353
G1 X164.019 Y137.657
G1 X163.530 Y136.028
G1 X162.996 Y134.378
G1 X162.498 Y132.662
G1 X161.987 Y131.017
; Path 158
G0 Z0
G0 X160.665 Y129.336
G0 Z2.2
G1 F3000
G1 X159.322 Y130.822
; Path 159
G0 Z0
G0 X160.008 Y131.014
G0 Z2.2
G1 F3000
G1 X160.008 Y116.014
; Path 160
G0 Z0
G0 X165.011 Y116.010
G0 Z2.2
G1 F3000
G1 X165.434 Y117.910
G1 X165.877 Y119.747
G1 X166.341 Y121.624
G1 X166.756 Y123.540
G1 X167.190 Y125.397
G1 X167.623 Y127.256
G1 X168.087 Y129.137
G1 X168.488 Y131.029
G1 X168.964 Y132.920
G1 X169.364 Y134.761
G1 X169.840 Y136.652
G1 X170.287 Y138.520
G1 X170.676 Y140.392
G1 X171.168 Y142.284
G1 X171.568 Y144.144
G1 X172.016 Y146.043
; Path 161
G0 Z0
G0 X164.082 Y156.047
G0 Z2.2
G1 F3000
G1 X166.075 Y156.005
; Path 162
G0 Z0
G0 X178.964 Y156.125
G0 Z2.2
G1 F3000
G1 X181.009 Y156.010
; Path 163
G0 Z0
G0 X193.947 Y155.902
G0 Z2.2
G1 F3000
G1 X195.981 Y156.008
; Path 164
G0 Z0
G0 X208.962 Y156.133
G0 Z2.2
G1 F3000
G1 X211.090 Y156.103
; Path 165
G0 Z0
G0 X210.009 Y144.018
G0 Z2.2
G1 F3000
G1 X209.275 Y143.835
G1 X208.567 Y143.666
G1 X207.798 Y143.539
G1 X207.055 Y143.383
G1 X206.256 Y143.273
G1 X205.503 Y143.140
G1 X204.714 Y143.007
G1 X203.941 Y142.908
G1 X203.149 Y142.755
G1 X202.399 Y142.655
G1 X201.658 Y142.526
G1 X200.907 Y142.352
G1 X200.195 Y142.141
G1 X199.495 Y141.970
G1 X198.855 Y141.720
G1 X198.193 Y141.477
G1 X197.599 Y141.179
G1 X197.030 Y140.843
G1 X196.558 Y140.419
G1 X196.036 Y140.040
G1 X195.635 Y139.537
G1 X195.232 Y139.045
G1 X194.915 Y138.472
G1 X194.598 Y137.881
G1 X194.334 Y137.232
G1 X194.103 Y136.576
G1 X193.882 Y135.879
G1 X193.718 Y135.161
G1 X193.594 Y134.399
G1 X193.413 Y133.666
G1 X193.272 Y132.916
G1 X193.157 Y132.121
G1 X193.023 Y131.363
G1 X192.922 Y130.556
G1 X192.776 Y129.756
G1 X192.676 Y129.001
G1 X192.544 Y128.236
G1 X192.391 Y127.486
G1 X192.239 Y126.737
G1 X192.036 Y126.041
; Path 166
G0 Z0
G0 X192.026 Y125.985
G0 Z2.2
G1 F3000
G1 X192.184 Y125.246
G1 X192.381 Y124.544
G1 X192.493 Y123.780
G1 X192.665 Y123.034
G1 X192.760 Y122.241
G1 X192.910 Y121.484
G1 X193.005 Y120.708
G1 X193.144 Y119.925
G1 X193.280 Y119.144
G1 X193.398 Y118.385
G1 X193.526 Y117.662
G1 X193.703 Y116.895
G1 X193.894 Y116.200
G1 X194.087 Y115.484
G1 X194.312 Y114.829
G1 X194.582 Y114.182
G1 X194.900 Y113.627
G1 X195.216 Y113.020
G1 X195.598 Y112.543
G1 X196.020 Y112.027
G1 X196.522 Y111.647
G1 X197.014 Y111.222
G1 X197.624 Y110.932
G1 X198.178 Y110.586
G1 X198.842 Y110.343
G1 X199.482 Y110.089
G1 X200.176 Y109.907
G1 X200.896 Y109.702
G1 X201.631 Y109.559
G1 X202.390 Y109.394
G1 X203.175 Y109.266
G1 X203.934 Y109.136
G1 X204.687 Y109.024
G1 X205.498 Y108.897
G1 X206.285 Y108.774
G1 X207.052 Y108.649
G1 X207.813 Y108.499
G1 X208.566 Y108.361
G1 X209.264 Y108.162
G1 X210.010 Y108.003
; Path 167
G0 Z0
G0 X209.979 Y108.024
G0 Z2.2
G1 F3000
G1 X210.720 Y108.174
G1 X211.425 Y108.377
G1 X212.162 Y108.506
G1 X212.941 Y108.660
G1 X213.744 Y108.766
G1 X214.496 Y108.903
G1 X215.256 Y109.021
G1 X216.062 Y109.136
G1 X216.805 Y109.283
G1 X217.608 Y109.389
G1 X218.331 Y109.556
G1 X219.104 Y109.692
G1 X219.819 Y109.870
G1 X220.519 Y110.075
G1 X221.202 Y110.293
G1 X221.825 Y110.569
G1 X222.385 Y110.865
G1 X222.991 Y111.202
G1 X223.503 Y111.631
G1 X223.987 Y112.006
G1 X224.399 Y112.503
G1 X224.794 Y113.000
G1 X225.114 Y113.610
G1 X225.430 Y114.164
G1 X225.697 Y114.814
G1 X225.926 Y115.468
G1 X226.106 Y116.182
G1 X226.313 Y116.882
G1 X226.442 Y117.648
G1 X226.620 Y118.376
G1 X226.775 Y119.173
G1 X226.876 Y119.921
G1 X226.972 Y120.693
G1 X227.113 Y121.485
G1 X227.219 Y122.281
G1 X227.359 Y123.040
G1 X227.488 Y123.782
G1 X227.646 Y124.554
G1 X227.840 Y125.292
G1 X228.003 Y125.998
; Path 168
G0 Z0
G0 X228.000 Y126.039
G0 Z2.2
G1 F3000
G1 X227.807 Y126.785
G1 X227.649 Y127.483
G1 X227.482 Y128.213
G1 X227.368 Y128.996
G1 X227.236 Y129.800
G1 X227.128 Y130.549
G1 X227.007 Y131.350
G1 X226.898 Y132.113
G1 X226.753 Y132.858
G1 X226.647 Y133.656
G1 X226.474 Y134.404
G1 X226.346 Y135.149
G1 X226.157 Y135.885
G1 X225.965 Y136.563
G1 X225.734 Y137.187
G1 X225.473 Y137.866
G1 X225.157 Y138.461
G1 X224.840 Y139.030
G1 X224.438 Y139.508
G1 X224.035 Y140.024
G1 X223.532 Y140.434
G1 X223.040 Y140.828
G1 X222.477 Y141.151
G1 X221.873 Y141.462
G1 X221.227 Y141.703
G1 X220.565 Y141.956
G1 X219.847 Y142.165
G1 X219.146 Y142.341
G1 X218.418 Y142.512
G1 X217.647 Y142.645
G1 X216.902 Y142.796
G1 X216.097 Y142.900
G1 X215.307 Y143.004
G1 X214.527 Y143.134
G1 X213.751 Y143.237
G1 X212.968 Y143.379
G1 X212.215 Y143.509
G1 X211.448 Y143.663
G1 X210.696 Y143.867
G1 X209.999 Y144.018
; Path 169
G0 Z0
G0 X207.024 Y141.011
G0 Z2.2
G1 F3000
G1 X205.082 Y141.006
G1 X203.131 Y141.026
G1 X201.129 Y141.038
G1 X199.191 Y141.040
G1 X197.223 Y141.001
G1 X195.286 Y141.031
G1 X193.296 Y141.024
G1 X191.374 Y141.030
G1 X189.396 Y141.024
G1 X187.413 Y141.013
G1 X185.462 Y141.029
G1 X183.525 Y140.985
G1 X181.531 Y141.016
G1 X179.603 Y141.031
G1 X177.628 Y141.038
G1 X175.652 Y140.983
G1 X173.714 Y141.015
G1 X171.766 Y141.012
G1 X169.806 Y141.005
G1 X167.849 Y141.000
G1 X165.909 Y140.993
G1 X163.933 Y140.992
G1 X161.949 Y141.014
G1 X160.024 Y141.000
G1 X158.053 Y141.021
G1 X156.055 Y140.997
G1 X154.126 Y140.994
G1 X152.164 Y141.031
G1 X150.184 Y140.994
G1 X148.242 Y141.017
G1 X146.307 Y141.035
G1 X144.346 Y141.019
G1 X142.384 Y141.031
G1 X140.386 Y141.025
G1 X138.433 Y141.035
G1 X136.464 Y141.028
G1 X134.537 Y140.984
G1 X132.564 Y141.032
G1 X130.641 Y140.978
G1 X128.646 Y140.976
G1 X126.674 Y141.006
G1 X124.740 Y140.989
G1 X122.793 Y140.992
G1 X120.807 Y140.997
G1 X118.883 Y140.981
G1 X116.884 Y140.999
G1 X114.922 Y141.000
G1 X112.981 Y141.003
; Path 170
G0 Z0
G0 X115.023 Y134.005
G0 Z2.2
G1 F3000
G1 X117.030 Y133.977
G1 X119.031 Y133.994
G1 X121.035 Y134.028
G1 X123.051 Y133.977
G1 X125.009 Y134.007
G1 X127.018 Y133.997
G1 X128.992 Y133.985
G1 X131.011 Y134.004
G1 X133.011 Y134.004
G1 X135.011 Y133.977
G1 X136.992 Y134.023
G1 X139.010 Y133.999
G1 X141.044 Y134.017
G1 X143.009 Y134.036
G1 X145.004 Y134.016
G1 X147.045 Y134.019
G1 X149.007 Y134.035
G1 X151.027 Y133.999
G1 X153.031 Y134.023
G1 X155.024 Y134.000
G1 X157.004 Y133.995
G1 X159.010 Y134.030
G1 X161.037 Y134.008
G1 X162.996 Y134.000
G1 X165.018 Y134.005
G1 X167.033 Y133.998
G1 X169.007 Y134.037
G1 X170.983 Y134.000
G1 X173.036 Y134.005
G1 X174.997 Y134.002
G1 X177.029 Y134.006
G1 X178.991 Y134.020
G1 X181.036 Y133.984
G1 X183.034 Y133.996
G1 X185.022 Y134.025
G1 X186.977 Y134.013
G1 X189.025 Y134.030
G1 X190.985 Y133.994
G1 X193.030 Y133.988
G1 X195.008 Y134.018
G1 X197.029 Y134.007
G1 X199.029 Y134.012
G1 X200.975 Y134.038
G1 X202.977 Y134.031
G1 X205.003 Y134.010
; Path 171
G0 Z0
G0 X205.021 Y131.043
G0 Z2.2
G1 F3000
G1 X203.064 Y131.043
G1 X201.122 Y131.041
G1 X199.161 Y131.043
G1 X197.189 Y131.012
G1 X195.226 Y131.008
G1 X193.266 Y131.059
G1 X191.315 Y131.031
G1 X189.337 Y131.019
G1 X187.391 Y131.013
G1 X185.427 Y131.008
G1 X183.509 Y131.053
G1 X181.554 Y131.028
G1 X179.597 Y131.049
G1 X177.652 Y131.012
G1 X175.644 Y131.000
G1 X173.740 Y130.997
G1 X171.765 Y131.053
G1 X169.768 Y131.032
G1 X167.822 Y131.040
G1 X165.854 Y131.036
G1 X163.952 Y131.033
G1 X161.949 Y131.015
G1 X160.026 Y131.021
G1 X158.076 Y131.026
G1 X156.124 Y130.984
G1 X154.169 Y130.997
G1 X152.190 Y131.013
G1 X150.236 Y131.007
G1 X148.265 Y131.034
G1 X146.339 Y131.004
G1 X144.387 Y130.989
G1 X142.390 Y131.007
G1 X140.433 Y131.028
G1 X138.470 Y131.032
G1 X136.526 Y131.012
G1 X134.562 Y131.024
G1 X132.622 Y130.982
G1 X130.652 Y131.011
G1 X128.696 Y131.000
G1 X126.768 Y130.999
G1 X124.809 Y130.973
G1 X122.816 Y130.988
G1 X120.883 Y130.984
G1 X118.923 Y130.976
G1 X116.956 Y130.987
G1 X115.004 Y130.989
; Path 172
G0 Z0
G0 X118.003 Y137.011
G0 Z2.2
G1 F3000
G1 X119.983 Y137.015
G1 X121.972 Y137.040
G1 X123.983 Y136.985
G1 X125.976 Y137.020
G1 X128.012 Y136.993
G1 X129.985 Y136.985
G1 X132.010 Y136.986
G1 X134.010 Y137.032
G1 X136.004 Y136.983
G1 X137.994 Y137.004
G1 X140.024 Y137.022
G1 X141.979 Y137.011
G1 X144.020 Y136.994
G1 X146.004 Y137.005
G1 X148.019 Y136.979
G1 X149.974 Y136.983
G1 X151.991 Y137.020
G1 X154.001 Y136.977
G1 X156.004 Y137.004
G1 X157.997 Y137.000
G1 X159.988 Y137.030
G1 X162.002 Y136.974
G1 X163.978 Y136.976
G1 X166.017 Y136.975
G1 X167.998 Y137.028
G1 X169.994 Y136.978
G1 X172.013 Y137.029
G1 X174.009 Y136.985
G1 X175.968 Y137.022
G1 X178.001 Y137.024
G1 X179.990 Y136.969
G1 X181.966 Y137.006
G1 X183.994 Y137.004
G1 X186.010 Y136.992
G1 X187.990 Y137.015
G1 X190.000 Y136.967
G1 X191.965 Y136.972
G1 X193.960 Y137.019
G1 X195.980 Y137.016
G1 X197.986 Y136.974
G1 X199.995 Y136.968
G1 X201.980 Y136.994
; Path 173
G0 Z0
G0 X198.984 Y137.813
G0 Z2.2
G1 F3000
G1 X196.949 Y138.191
; Path 174
G0 Z0
G0 X195.008 Y136.014
G0 Z2.2
G1 F3000
G1 X195.008 Y131.014
; Path 175
G0 Z0
G0 X194.989 Y131.042
G0 Z2.2
G1 F3000
G1 X194.886 Y130.071
G1 X194.810 Y129.070
G1 X194.751 Y128.057
G1 X194.659 Y126.992
G1 X194.579 Y125.935
G1 X194.524 Y124.854
G1 X194.473 Y123.762
G1 X194.392 Y122.700
G1 X194.295 Y121.655
G1 X194.253 Y120.577
G1 X194.177 Y119.566
G1 X194.094 Y118.529
G1 X193.983 Y117.540
G1 X193.903 Y116.602
G1 X193.805 Y115.714
G1 X193.667 Y114.841
G1 X193.501 Y114.061
G1 X193.376 Y113.291
G1 X193.177 Y112.653
G1 X193.016 Y111.997
G1 X192.823 Y111.468
G1 X192.580 Y110.990
G1 X192.314 Y110.590
G1 X192.075 Y110.240
G1 X191.801 Y109.988
G1 X191.515 Y109.700
G1 X191.225 Y109.522
G1 X190.910 Y109.327
G1 X190.589 Y109.200
G1 X190.274 Y109.074
G1 X189.956 Y108.989
G1 X189.617 Y108.896
G1 X189.314 Y108.806
G1 X188.952 Y108.749
G1 X188.603 Y108.661
G1 X188.292 Y108.587
G1 X187.985 Y108.474
G1 X187.647 Y108.364
G1 X187.311 Y108.178
G1 X187.030 Y108.036
; Path 176
G0 Z0
G0 X187.018 Y108.009
G0 Z2.2
G1 F3000
G1 X186.697 Y108.196
G1 X186.401 Y108.340
G1 X186.100 Y108.448
G1 X185.763 Y108.566
G1 X185.452 Y108.635
G1 X185.113 Y108.731
G1 X184.776 Y108.798
G1 X184.460 Y108.881
G1 X184.125 Y108.998
G1 X183.813 Y109.061
G1 X183.473 Y109.165
G1 X183.181 Y109.317
G1 X182.876 Y109.492
G1 X182.573 Y109.693
G1 X182.306 Y109.952
G1 X181.999 Y110.235
G1 X181.704 Y110.612
G1 X181.467 Y110.987
G1 X181.251 Y111.511
G1 X180.987 Y111.996
G1 X180.756 Y112.657
G1 X180.564 Y113.290
G1 X180.372 Y114.040
G1 X180.193 Y114.841
G1 X180.019 Y115.726
G1 X179.865 Y116.602
G1 X179.726 Y117.554
G1 X179.570 Y118.529
G1 X179.446 Y119.577
G1 X179.299 Y120.577
G1 X179.166 Y121.643
G1 X179.043 Y122.700
G1 X178.941 Y123.749
G1 X178.794 Y124.853
G1 X178.691 Y125.910
G1 X178.541 Y126.991
G1 X178.394 Y128.052
G1 X178.276 Y129.068
G1 X178.113 Y130.051
G1 X177.991 Y131.041
; Path 177
G0 Z0
G0 X178.008 Y131.014
G0 Z2.2
G1 F3000
G1 X178.008 Y136.014
; Path 178
G0 Z0
G0 X177.008 Y131.014
G0 Z2.2
G1 F3000
G1 X177.008 Y98.014
; Path 179
G0 Z0
G0 X172.012 Y91.040
G0 Z2.2
G1 F3000
G1 X172.017 Y89.162
G1 X171.999 Y87.309
G1 X172.000 Y85.436
G1 X172.026 Y83.557
G1 X171.984 Y81.669
G1 X171.980 Y79.818
G1 X172.025 Y77.933
G1 X171.997 Y76.041
; Path 180
G0 Z0
G0 X168.092 Y79.911
G0 Z2.2
G1 F3000
G1 X167.969 Y82.038
; Path 181
G0 Z0
G0 X164.987 Y85.011
G0 Z2.2
G1 F3000
G1 X165.105 Y87.010
; Path 182
G0 Z0
G0 X163.995 Y91.009
G0 Z2.2
G1 F3000
G1 X163.993 Y89.113
G1 X163.984 Y87.255
G1 X164.005 Y85.389
G1 X163.986 Y83.502
G1 X163.994 Y81.638
G1 X163.973 Y79.769
G1 X163.973 Y77.863
G1 X163.979 Y76.018
G0 Z0
M5
G4 P0.3
G0 X0 Y0
; End