; Generated by Sketch DSL for Machine
; Work area: 420mm x 297mm (A3)
G21
G90
M5
G4 P0.5
G0 F11000
; 71 paths
; Path 1
G0 X139.948 Y81.963
G0 Z2.2
G1 F3000
G1 X139.852 Y83.916
G1 X139.701 Y85.924
G1 X139.587 Y87.919
G1 X139.467 Y89.859
G1 X139.368 Y91.838
G1 X139.230 Y93.828
G1 X139.112 Y95.791
G1 X139.030 Y97.799
G1 X138.905 Y99.766
G1 X138.806 Y101.728
G1 X138.691 Y103.715
G1 X138.560 Y105.719
G1 X138.469 Y107.645
G1 X138.308 Y109.655
G1 X138.219 Y111.641
G1 X138.090 Y113.577
G1 X137.991 Y115.554
G1 X137.883 Y117.542
G1 X137.746 Y119.518
G1 X137.614 Y121.513
G1 X137.545 Y123.489
G1 X137.435 Y125.443
G1 X137.302 Y127.434
G1 X137.160 Y129.446
G1 X137.037 Y131.403
G1 X136.957 Y133.372
G1 X136.847 Y135.365
G1 X136.735 Y137.321
G1 X136.627 Y139.299
G1 X136.482 Y141.260
G1 X136.361 Y143.252
G1 X136.272 Y145.222
G1 X136.142 Y147.188
G1 X136.017 Y149.163
G1 X135.906 Y151.151
G1 X135.803 Y153.117
G1 X135.701 Y155.133
G1 X135.580 Y157.081
G1 X135.453 Y159.079
G1 X135.345 Y161.036
G1 X135.232 Y163.029
G1 X135.082 Y165.014
G1 X134.988 Y166.984
; Path 2
G0 Z0
G0 X129.973 Y175.005
G0 Z2.2
G1 F3000
G1 X129.986 Y176.698
G1 X129.992 Y178.464
G1 X129.973 Y180.155
G1 X129.964 Y181.876
G1 X129.964 Y183.568
G1 X130.006 Y185.292
G1 X129.996 Y187.008
; Path 3
G0 Z0
G0 X117.958 Y171.956
G0 Z2.2
G1 F3000
G1 X117.944 Y173.851
G1 X117.950 Y175.733
G1 X117.938 Y177.613
G1 X117.955 Y179.457
G1 X117.951 Y181.322
G1 X117.987 Y183.230
G1 X117.950 Y185.103
G1 X117.963 Y186.963
; Path 4
G0 Z0
G0 X109.984 Y187.015
G0 Z2.2
G1 F3000
G1 X111.996 Y187.038
G1 X113.979 Y187.006
G1 X116.010 Y187.033
G1 X118.007 Y186.986
G1 X119.990 Y187.012
G1 X121.960 Y186.988
G1 X123.963 Y187.039
G1 X126.000 Y187.022
G1 X128.000 Y186.993
G1 X130.000 Y187.021
G1 X131.950 Y187.028
G1 X133.974 Y187.028
G1 X135.956 Y187.023
G1 X137.957 Y187.029
G1 X139.960 Y187.002
G1 X141.987 Y186.989
G1 X143.979 Y186.991
G1 X145.951 Y186.997
G1 X148.004 Y187.036
G1 X149.994 Y186.995
G1 X151.978 Y186.990
G1 X153.997 Y187.028
G1 X155.955 Y187.000
G1 X157.978 Y186.998
G1 X159.998 Y187.013
G1 X161.988 Y187.040
G1 X163.957 Y187.036
G1 X165.956 Y187.039
G1 X167.964 Y187.017
G1 X169.995 Y187.006
G1 X171.968 Y186.992
G1 X173.959 Y187.001
G1 X175.985 Y187.019
G1 X177.973 Y186.997
G1 X179.979 Y187.024
G1 X181.959 Y187.039
G1 X183.984 Y187.027
G1 X185.998 Y187.017
G1 X187.943 Y186.984
G1 X189.982 Y186.994
G1 X191.940 Y187.003
G1 X193.979 Y187.024
G1 X195.945 Y187.035
G1 X197.969 Y187.030
G1 X199.978 Y187.025
G1 X201.988 Y187.014
G1 X203.954 Y187.013
G1 X205.936 Y187.001
G1 X207.989 Y187.006
G1 X209.954 Y187.027
G1 X211.985 Y187.028
G1 X213.950 Y187.009
G1 X215.963 Y187.039
G1 X217.948 Y187.032
G1 X219.974 Y187.006
G1 X221.961 Y187.012
G1 X223.952 Y187.007
G1 X225.941 Y187.032
G1 X227.934 Y187.037
G1 X229.940 Y187.038
G1 X231.983 Y187.009
G1 X233.982 Y187.041
G1 X235.966 Y186.984
G1 X237.942 Y187.011
G1 X239.966 Y187.034
G1 X241.956 Y187.029
G1 X243.942 Y187.026
G1 X245.947 Y187.006
G1 X247.960 Y187.009
G1 X249.966 Y187.001
G1 X251.939 Y187.011
G1 X253.966 Y187.019
G1 X255.930 Y186.984
G1 X257.972 Y187.033
G1 X259.942 Y187.040
G1 X261.955 Y187.033
G1 X263.944 Y187.013
G1 X265.937 Y186.983
G1 X267.943 Y186.997
G1 X269.965 Y187.034
G1 X271.978 Y187.027
G1 X273.958 Y187.012
G1 X275.940 Y187.009
G1 X277.956 Y187.033
G1 X279.960 Y186.989
G1 X281.941 Y186.998
G1 X283.965 Y187.021
G1 X285.945 Y187.017
G1 X287.952 Y187.028
G1 X289.976 Y187.004
G1 X291.918 Y187.003
G1 X293.926 Y186.991
G1 X295.918 Y186.991
G1 X297.952 Y186.981
G1 X299.951 Y187.004
G1 X301.942 Y187.003
G1 X303.956 Y187.018
G1 X305.966 Y187.037
G1 X307.953 Y186.995
G1 X309.942 Y187.009
; Path 5
G0 Z0
G0 X309.985 Y191.965
G0 Z2.2
G1 F3000
G1 X307.955 Y191.941
G1 X305.994 Y191.952
G1 X304.012 Y191.969
G1 X301.998 Y191.986
G1 X299.992 Y191.956
G1 X297.989 Y191.962
G1 X296.012 Y191.988
G1 X293.966 Y191.941
G1 X291.967 Y191.941
G1 X289.956 Y191.938
G1 X287.972 Y191.976
G1 X285.983 Y191.972
G1 X283.982 Y191.956
G1 X282.013 Y191.989
G1 X279.979 Y191.938
G1 X277.976 Y191.943
G1 X276.007 Y191.981
G1 X273.978 Y191.944
G1 X271.994 Y191.973
G1 X269.980 Y191.993
G1 X268.003 Y191.973
G1 X266.016 Y191.980
G1 X264.009 Y191.977
G1 X261.993 Y191.939
G1 X259.963 Y191.954
G1 X257.959 Y191.949
G1 X255.976 Y191.981
G1 X254.008 Y191.981
G1 X251.982 Y191.954
G1 X250.009 Y191.973
G1 X247.983 Y191.986
G1 X246.004 Y191.967
G1 X243.978 Y191.937
G1 X242.016 Y191.966
G1 X239.979 Y191.961
G1 X237.992 Y191.987
G1 X235.983 Y191.950
G1 X234.005 Y191.956
G1 X231.960 Y191.955
G1 X230.004 Y191.950
G1 X228.014 Y191.938
G1 X226.016 Y191.972
G1 X224.010 Y191.978
G1 X221.977 Y191.994
G1 X220.003 Y191.954
G1 X218.013 Y191.975
G1 X215.961 Y191.962
G1 X213.985 Y191.985
G1 X211.989 Y191.972
G1 X209.970 Y191.986
G1 X208.006 Y191.950
G1 X205.964 Y191.951
G1 X204.019 Y191.948
G1 X201.965 Y191.962
G1 X199.995 Y191.977
G1 X197.968 Y191.971
G1 X195.998 Y191.963
G1 X193.962 Y191.956
G1 X192.018 Y191.951
G1 X189.986 Y191.942
G1 X188.016 Y191.989
G1 X185.975 Y191.939
G1 X183.981 Y191.946
G1 X181.980 Y191.941
G1 X179.984 Y191.978
G1 X177.962 Y191.965
G1 X175.996 Y191.979
G1 X173.988 Y191.985
G1 X171.985 Y191.941
G1 X169.999 Y191.970
G1 X168.017 Y191.946
G1 X165.994 Y191.951
G1 X163.992 Y191.963
G1 X161.982 Y191.949
G1 X160.019 Y191.983
G1 X157.981 Y191.969
G1 X155.989 Y191.990
G1 X153.970 Y191.986
G1 X152.019 Y191.984
G1 X149.977 Y191.947
G1 X147.968 Y191.991
G1 X146.017 Y191.967
G1 X143.979 Y191.999
G1 X142.017 Y191.991
G1 X140.017 Y191.974
G1 X137.982 Y191.989
G1 X135.985 Y191.965
G1 X133.998 Y191.952
G1 X132.007 Y191.965
G1 X129.978 Y191.953
G1 X127.999 Y191.987
G1 X126.022 Y191.948
G1 X124.008 Y191.952
G1 X121.972 Y191.972
G1 X119.973 Y191.953
G1 X118.007 Y191.995
G1 X115.979 Y191.989
G1 X113.992 Y191.950
G1 X112.009 Y191.962
G1 X109.994 Y191.970
; Path 6
G0 Z0
G0 X114.903 Y201.917
G0 Z2.2
G1 F3000
G1 X115.783 Y202.064
G1 X116.616 Y202.275
G1 X117.416 Y202.364
G1 X118.187 Y202.477
G1 X119.044 Y202.665
G1 X119.930 Y202.891
G1 X120.690 Y203.040
G1 X121.586 Y203.255
G1 X122.445 Y203.450
G1 X123.245 Y203.694
G1 X124.092 Y203.735
G1 X124.960 Y203.994
G1 X125.784 Y204.083
G1 X126.664 Y204.323
G1 X127.473 Y204.473
G1 X128.349 Y204.596
G1 X129.149 Y204.719
G1 X129.986 Y204.839
G1 X130.864 Y204.884
G1 X131.648 Y204.965
G1 X132.498 Y205.045
G1 X133.353 Y204.969
G1 X134.194 Y205.014
G1 X135.007 Y205.043
G1 X135.878 Y205.021
G1 X136.759 Y204.803
G1 X137.515 Y204.799
G1 X138.318 Y204.651
G1 X139.178 Y204.475
G1 X140.021 Y204.347
G1 X140.780 Y204.088
G1 X141.667 Y203.933
G1 X142.525 Y203.734
G1 X143.339 Y203.487
G1 X144.172 Y203.174
G1 X145.028 Y203.009
G1 X145.794 Y202.789
G1 X146.676 Y202.464
G1 X147.531 Y202.220
G1 X148.437 Y201.980
G1 X149.178 Y201.761
G1 X150.034 Y201.414
G1 X150.834 Y201.181
G1 X151.779 Y200.932
G1 X152.537 Y200.641
G1 X153.349 Y200.485
G1 X154.236 Y200.159
G1 X155.040 Y199.948
; Path 7
G0 Z0
G0 X150.011 Y212.029
G0 Z2.2
G1 F3000
G1 X150.782 Y212.194
G1 X151.633 Y212.242
G1 X152.303 Y212.329
G1 X153.126 Y212.455
G1 X153.920 Y212.575
G1 X154.741 Y212.685
G1 X155.449 Y212.918
G1 X156.240 Y212.969
G1 X156.944 Y213.085
G1 X157.864 Y213.235
G1 X158.542 Y213.363
G1 X159.354 Y213.517
G1 X160.184 Y213.643
G1 X160.864 Y213.814
G1 X161.762 Y213.850
G1 X162.468 Y214.048
G1 X163.316 Y214.129
G1 X164.065 Y214.321
G1 X164.724 Y214.403
G1 X165.583 Y214.509
G1 X166.410 Y214.649
G1 X167.085 Y214.639
G1 X167.985 Y214.706
G1 X168.699 Y214.849
G1 X169.485 Y214.913
G1 X170.322 Y214.924
G1 X171.103 Y214.978
G1 X171.818 Y215.014
G1 X172.522 Y215.075
G1 X173.308 Y215.039
G1 X174.145 Y214.961
G1 X174.940 Y214.953
G1 X175.647 Y214.820
G1 X176.451 Y214.804
G1 X177.206 Y214.790
G1 X178.066 Y214.631
G1 X178.801 Y214.426
G1 X179.564 Y214.384
G1 X180.445 Y214.176
G1 X181.195 Y214.083
G1 X181.940 Y213.838
G1 X182.789 Y213.662
G1 X183.574 Y213.605
G1 X184.326 Y213.361
G1 X185.125 Y213.085
G1 X185.884 Y212.930
G1 X186.749 Y212.768
G1 X187.459 Y212.517
G1 X188.198 Y212.300
G1 X189.092 Y212.029
G1 X189.833 Y211.830
G1 X190.593 Y211.604
G1 X191.442 Y211.300
G1 X192.106 Y211.078
G1 X192.935 Y210.946
G1 X193.727 Y210.673
G1 X194.532 Y210.375
G1 X195.324 Y210.225
G1 X196.090 Y209.992
G1 X196.861 Y209.777
G1 X197.634 Y209.646
G1 X198.456 Y209.297
G1 X199.177 Y209.101
G1 X199.993 Y208.967
; Path 8
G0 Z0
G0 X195.040 Y221.915
G0 Z2.2
G1 F3000
G1 X195.947 Y222.102
G1 X196.779 Y222.093
G1 X197.509 Y222.303
G1 X198.401 Y222.352
G1 X199.277 Y222.549
G1 X200.085 Y222.535
G1 X200.860 Y222.766
G1 X201.750 Y222.876
G1 X202.611 Y223.030
G1 X203.491 Y223.139
G1 X204.275 Y223.341
G1 X205.096 Y223.435
G1 X205.976 Y223.491
G1 X206.722 Y223.639
G1 X207.546 Y223.902
G1 X208.444 Y223.976
G1 X209.278 Y224.148
G1 X210.134 Y224.155
G1 X210.998 Y224.257
G1 X211.800 Y224.447
G1 X212.569 Y224.504
G1 X213.528 Y224.614
G1 X214.281 Y224.703
G1 X215.170 Y224.798
G1 X215.979 Y224.833
G1 X216.933 Y224.828
G1 X217.686 Y224.914
G1 X218.562 Y224.974
G1 X219.461 Y224.931
G1 X220.281 Y224.912
G1 X221.069 Y224.945
G1 X221.981 Y224.926
G1 X222.820 Y224.773
G1 X223.777 Y224.702
G1 X224.544 Y224.767
G1 X225.431 Y224.617
G1 X226.312 Y224.429
G1 X227.097 Y224.411
G1 X227.991 Y224.296
G1 X228.908 Y224.083
G1 X229.720 Y223.958
G1 X230.697 Y223.796
G1 X231.578 Y223.588
G1 X232.406 Y223.375
G1 X233.335 Y223.245
G1 X234.148 Y222.991
G1 X234.982 Y222.721
G1 X235.919 Y222.546
G1 X236.796 Y222.387
G1 X237.684 Y222.065
G1 X238.483 Y221.847
G1 X239.440 Y221.647
G1 X240.348 Y221.457
G1 X241.258 Y221.172
G1 X242.048 Y220.979
G1 X242.963 Y220.732
G1 X243.874 Y220.470
G1 X244.798 Y220.252
G1 X245.627 Y220.051
G1 X246.482 Y219.851
G1 X247.379 Y219.644
G1 X248.259 Y219.463
G1 X249.106 Y219.273
G1 X249.990 Y219.056
; Path 9
G0 Z0
G0 X239.891 Y230.054
G0 Z2.2
G1 F3000
G1 X238.979 Y230.199
G1 X237.946 Y230.359
G1 X237.025 Y230.630
G1 X236.156 Y230.716
G1 X235.196 Y230.956
G1 X234.257 Y231.162
G1 X233.299 Y231.266
G1 X232.422 Y231.454
G1 X231.449 Y231.670
G1 X230.554 Y231.783
G1 X229.698 Y232.093
G1 X228.689 Y232.222
G1 X227.802 Y232.395
G1 X226.878 Y232.638
G1 X225.861 Y232.838
G1 X224.955 Y232.975
G1 X224.097 Y233.208
G1 X223.117 Y233.359
G1 X222.180 Y233.564
G1 X221.220 Y233.667
G1 X220.254 Y233.837
G1 X219.341 Y233.979
G1 X218.415 Y234.103
G1 X217.484 Y234.253
G1 X216.583 Y234.289
G1 X215.549 Y234.409
G1 X214.749 Y234.617
G1 X213.744 Y234.688
G1 X212.822 Y234.688
G1 X211.819 Y234.824
G1 X211.003 Y234.844
G1 X210.001 Y234.925
G1 X209.072 Y234.891
G1 X208.146 Y234.975
G1 X207.222 Y234.896
G1 X206.254 Y234.935
G1 X205.309 Y234.914
G1 X204.301 Y234.769
G1 X203.428 Y234.790
G1 X202.503 Y234.748
G1 X201.563 Y234.682
G1 X200.598 Y234.577
G1 X199.756 Y234.473
G1 X198.749 Y234.410
G1 X197.793 Y234.249
G1 X196.872 Y234.114
G1 X195.945 Y234.096
G1 X194.993 Y233.965
G1 X194.107 Y233.774
G1 X193.161 Y233.640
G1 X192.110 Y233.539
G1 X191.237 Y233.460
G1 X190.247 Y233.341
G1 X189.344 Y233.164
G1 X188.465 Y233.005
G1 X187.480 Y232.939
G1 X186.537 Y232.855
G1 X185.610 Y232.724
G1 X184.675 Y232.526
G1 X183.723 Y232.449
G1 X182.787 Y232.408
G1 X181.913 Y232.235
G1 X180.984 Y232.215
G1 X179.968 Y232.035
; Path 10
G0 Z0
G0 X160.031 Y215.000
G0 Z2.2
G1 F3000
G1 X159.290 Y215.102
G1 X158.532 Y215.280
G1 X157.604 Y215.538
G1 X156.890 Y215.679
G1 X156.170 Y215.942
G1 X155.333 Y216.037
G1 X154.462 Y216.304
G1 X153.746 Y216.436
G1 X153.009 Y216.698
G1 X152.249 Y216.784
G1 X151.402 Y217.063
G1 X150.601 Y217.226
G1 X149.779 Y217.444
G1 X148.951 Y217.666
G1 X148.288 Y217.778
G1 X147.457 Y217.999
G1 X146.642 Y218.159
G1 X145.944 Y218.384
G1 X145.089 Y218.457
G1 X144.314 Y218.710
G1 X143.461 Y218.788
G1 X142.801 Y218.994
G1 X141.883 Y219.223
G1 X141.174 Y219.310
G1 X140.389 Y219.392
G1 X139.631 Y219.559
G1 X138.791 Y219.662
G1 X138.038 Y219.753
G1 X137.278 Y219.884
G1 X136.451 Y219.840
G1 X135.671 Y219.937
G1 X134.907 Y219.991
G1 X134.107 Y219.991
G1 X133.322 Y219.953
G1 X132.536 Y219.943
G1 X131.781 Y219.993
G1 X130.948 Y220.019
G1 X130.207 Y219.970
G1 X129.419 Y219.900
G1 X128.660 Y219.791
G1 X127.807 Y219.729
G1 X127.108 Y219.550
G1 X126.309 Y219.465
G1 X125.543 Y219.431
G1 X124.822 Y219.374
G1 X123.969 Y219.240
G1 X123.145 Y219.015
G1 X122.429 Y218.961
G1 X121.723 Y218.841
G1 X120.830 Y218.660
G1 X120.098 Y218.617
G1 X119.316 Y218.428
G1 X118.580 Y218.255
G1 X117.730 Y218.229
G1 X116.978 Y217.984
G1 X116.204 Y217.880
G1 X115.399 Y217.677
G1 X114.699 Y217.632
G1 X113.914 Y217.526
G1 X113.090 Y217.362
G1 X112.340 Y217.270
G1 X111.472 Y217.186
G1 X110.750 Y216.962
G1 X109.975 Y216.924
; Path 11
G0 Z0
G0 X109.987 Y241.986
G0 Z2.2
G1 F3000
G1 X111.983 Y242.004
G1 X113.992 Y241.999
G1 X116.007 Y241.976
G1 X117.995 Y242.010
G1 X120.009 Y241.989
G1 X122.006 Y241.994
G1 X123.971 Y241.960
G1 X126.000 Y241.966
G1 X127.958 Y242.011
G1 X130.008 Y241.981
G1 X131.987 Y241.958
G1 X134.013 Y241.984
G1 X136.011 Y241.966
G1 X137.982 Y242.005
G1 X139.967 Y241.984
G1 X141.969 Y242.014
G1 X144.012 Y241.973
G1 X146.001 Y241.971
G1 X147.959 Y241.980
G1 X149.977 Y241.968
G1 X151.993 Y241.995
G1 X153.997 Y241.975
G1 X156.009 Y241.988
G1 X157.983 Y241.972
G1 X159.955 Y241.998
G1 X161.972 Y242.013
G1 X163.961 Y242.004
G1 X165.996 Y242.018
G1 X167.962 Y241.987
G1 X169.959 Y242.009
G1 X172.008 Y241.978
G1 X174.003 Y242.016
G1 X176.009 Y241.998
G1 X178.009 Y241.991
G1 X179.961 Y242.005
G1 X181.950 Y241.981
G1 X183.977 Y241.982
G1 X185.966 Y241.966
G1 X187.975 Y241.995
G1 X189.953 Y242.020
G1 X191.983 Y241.984
G1 X193.984 Y241.978
G1 X195.955 Y241.973
G1 X198.000 Y241.985
G1 X199.962 Y241.986
G1 X201.966 Y241.984
G1 X203.956 Y242.023
G1 X205.990 Y242.006
G1 X207.962 Y241.995
G1 X209.955 Y241.996
G1 X211.986 Y241.998
G1 X213.990 Y242.010
G1 X215.983 Y241.987
G1 X217.959 Y241.979
G1 X219.991 Y242.006
G1 X221.955 Y241.980
G1 X223.972 Y241.975
G1 X226.002 Y241.981
G1 X227.988 Y242.019
G1 X229.956 Y241.979
G1 X231.954 Y241.973
G1 X233.979 Y242.000
G1 X235.985 Y241.973
G1 X237.982 Y241.967
G1 X239.981 Y242.005
G1 X241.969 Y241.972
G1 X243.983 Y242.021
G1 X245.984 Y242.011
G1 X247.946 Y242.007
G1 X249.980 Y241.990
G1 X251.971 Y241.971
G1 X253.946 Y242.010
G1 X255.988 Y242.020
G1 X257.954 Y241.992
G1 X259.943 Y242.010
G1 X261.992 Y241.970
G1 X263.951 Y241.979
G1 X265.963 Y242.019
G1 X267.961 Y241.980
G1 X269.949 Y242.010
G1 X271.995 Y241.984
G1 X273.972 Y242.025
G1 X275.962 Y242.026
G1 X277.975 Y241.978
G1 X279.941 Y242.024
G1 X281.985 Y242.027
G1 X283.951 Y242.024
G1 X285.940 Y241.990
G1 X287.955 Y241.975
G1 X289.947 Y241.980
G1 X291.938 Y242.008
G1 X293.959 Y242.030
G1 X295.962 Y242.008
G1 X297.951 Y242.014
G1 X299.947 Y241.991
G1 X301.970 Y242.028
G1 X303.951 Y241.991
G1 X305.939 Y241.998
G1 X307.969 Y242.014
G1 X309.964 Y242.002
; Path 12
G0 Z0
G0 X310.033 Y225.036
G0 Z2.2
G1 F3000
G1 X309.221 Y225.211
G1 X308.395 Y225.560
G1 X307.535 Y225.720
G1 X306.743 Y225.968
G1 X305.946 Y226.236
G1 X305.039 Y226.482
G1 X304.222 Y226.817
G1 X303.436 Y227.077
G1 X302.544 Y227.276
G1 X301.663 Y227.498
G1 X300.815 Y227.794
G1 X300.048 Y228.055
G1 X299.268 Y228.285
G1 X298.440 Y228.602
G1 X297.551 Y228.770
G1 X296.691 Y228.948
G1 X295.872 Y229.202
G1 X295.052 Y229.374
G1 X294.205 Y229.565
G1 X293.324 Y229.693
G1 X292.550 Y229.820
G1 X291.767 Y229.911
G1 X290.922 Y230.020
G1 X290.045 Y230.060
G1 X289.223 Y230.028
G1 X288.396 Y230.045
G1 X287.535 Y230.063
G1 X286.687 Y230.045
G1 X285.783 Y229.911
G1 X285.021 Y229.860
G1 X284.172 Y229.763
G1 X283.282 Y229.653
G1 X282.504 Y229.499
G1 X281.607 Y229.340
G1 X280.901 Y229.150
G1 X279.986 Y229.027
G1 X279.139 Y228.903
G1 X278.315 Y228.614
G1 X277.466 Y228.492
G1 X276.680 Y228.348
G1 X275.809 Y228.066
G1 X274.946 Y227.941
G1 X274.085 Y227.758
G1 X273.345 Y227.599
G1 X272.426 Y227.422
G1 X271.613 Y227.222
G1 X270.677 Y227.167
G1 X269.908 Y226.981
; Path 13
G0 Z0
G0 X289.947 Y205.065
G0 Z2.2
G1 F3000
G1 X289.207 Y205.329
G1 X288.452 Y205.400
G1 X287.591 Y205.694
G1 X286.828 Y205.882
G1 X286.108 Y206.049
G1 X285.310 Y206.292
G1 X284.510 Y206.637
G1 X283.711 Y206.798
G1 X282.902 Y207.063
G1 X282.198 Y207.204
G1 X281.402 Y207.497
G1 X280.593 Y207.752
G1 X279.859 Y207.936
G1 X278.965 Y208.182
G1 X278.209 Y208.517
G1 X277.476 Y208.688
G1 X276.710 Y208.848
G1 X275.914 Y209.193
G1 X275.211 Y209.365
G1 X274.357 Y209.544
G1 X273.610 Y209.660
G1 X272.762 Y209.920
G1 X271.962 Y210.089
G1 X271.237 Y210.262
G1 X270.478 Y210.389
G1 X269.657 Y210.559
G1 X268.856 Y210.702
G1 X268.114 Y210.782
G1 X267.327 Y210.884
G1 X266.493 Y210.948
G1 X265.794 Y210.936
G1 X264.988 Y211.046
G1 X264.146 Y211.101
G1 X263.366 Y211.030
G1 X262.623 Y211.014
G1 X261.858 Y211.014
G1 X261.054 Y210.917
G1 X260.312 Y210.868
G1 X259.524 Y210.821
G1 X258.726 Y210.725
G1 X257.967 Y210.570
G1 X257.104 Y210.484
G1 X256.304 Y210.298
G1 X255.590 Y210.239
G1 X254.795 Y210.017
G1 X253.990 Y209.854
G1 X253.284 Y209.757
G1 X252.453 Y209.614
G1 X251.736 Y209.480
G1 X250.837 Y209.336
G1 X250.110 Y209.166
G1 X249.315 Y208.911
G1 X248.519 Y208.705
G1 X247.793 Y208.605
G1 X246.926 Y208.407
G1 X246.177 Y208.187
G1 X245.456 Y208.071
G1 X244.622 Y207.885
G1 X243.774 Y207.685
G1 X243.039 Y207.504
G1 X242.226 Y207.410
G1 X241.501 Y207.147
G1 X240.625 Y207.083
G1 X239.903 Y206.918
; Path 14
G0 Z0
G0 X251.951 Y166.988
G0 Z2.2
G1 F3000
G1 X251.930 Y165.349
G1 X251.924 Y163.659
G1 X251.952 Y161.998
; Path 15
G0 Z0
G0 X257.944 Y166.973
G0 Z2.2
G1 F3000
G1 X257.910 Y165.017
G1 X257.822 Y163.081
G1 X257.789 Y161.106
G1 X257.743 Y159.152
G1 X257.724 Y157.191
G1 X257.644 Y155.245
G1 X257.597 Y153.340
G1 X257.574 Y151.392
G1 X257.514 Y149.412
G1 X257.464 Y147.461
G1 X257.420 Y145.506
G1 X257.396 Y143.585
G1 X257.327 Y141.605
G1 X257.240 Y139.680
G1 X257.198 Y137.683
G1 X257.157 Y135.775
G1 X257.155 Y133.789
G1 X257.088 Y131.851
G1 X257.040 Y129.922
G1 X256.996 Y127.940
G1 X256.907 Y126.019
G1 X256.873 Y124.019
G1 X256.864 Y122.112
G1 X256.788 Y120.113
G1 X256.762 Y118.177
G1 X256.681 Y116.230
G1 X256.653 Y114.315
G1 X256.584 Y112.336
G1 X256.531 Y110.375
G1 X256.508 Y108.443
G1 X256.423 Y106.505
G1 X256.399 Y104.545
G1 X256.356 Y102.578
G1 X256.313 Y100.601
G1 X256.266 Y98.705
G1 X256.209 Y96.714
G1 X256.153 Y94.752
G1 X256.122 Y92.845
G1 X256.090 Y90.847
G1 X256.024 Y88.948
G1 X255.970 Y86.970
; Path 16
G0 Z0
G0 X255.944 Y86.961
G0 Z2.2
G1 F3000
G1 X257.847 Y86.943
G1 X259.736 Y86.972
G1 X261.628 Y86.963
G1 X263.563 Y86.989
G1 X265.446 Y86.947
G1 X267.352 Y86.982
G1 X269.272 Y86.959
G1 X271.135 Y86.983
G1 X273.039 Y86.988
G1 X274.948 Y86.991
; Path 17
G0 Z0
G0 X274.953 Y86.968
G0 Z2.2
G1 F3000
G1 X275.082 Y88.941
G1 X275.170 Y90.849
G1 X275.341 Y92.819
G1 X275.412 Y94.772
G1 X275.591 Y96.723
G1 X275.675 Y98.698
G1 X275.785 Y100.653
G1 X275.915 Y102.577
G1 X276.042 Y104.514
G1 X276.179 Y106.487
G1 X276.316 Y108.416
G1 X276.391 Y110.392
G1 X276.554 Y112.334
G1 X276.668 Y114.307
G1 X276.805 Y116.241
G1 X276.885 Y118.192
G1 X277.019 Y120.160
G1 X277.150 Y122.120
G1 X277.259 Y124.026
G1 X277.390 Y125.975
G1 X277.537 Y127.965
G1 X277.651 Y129.903
G1 X277.740 Y131.832
G1 X277.907 Y133.786
G1 X278.034 Y135.761
G1 X278.152 Y137.722
G1 X278.265 Y139.660
G1 X278.399 Y141.598
G1 X278.508 Y143.538
G1 X278.591 Y145.500
G1 X278.724 Y147.456
G1 X278.835 Y149.426
G1 X278.982 Y151.396
G1 X279.115 Y153.354
G1 X279.208 Y155.298
G1 X279.360 Y157.255
G1 X279.489 Y159.191
G1 X279.583 Y161.114
G1 X279.731 Y163.084
G1 X279.807 Y165.020
G1 X279.958 Y166.989
; Path 18
G0 Z0
G0 X287.996 Y176.969
G0 Z2.2
G1 F3000
G1 X288.046 Y176.619
G1 X288.070 Y176.252
G1 X288.095 Y175.898
G1 X288.109 Y175.508
G1 X288.105 Y175.104
G1 X288.128 Y174.748
G1 X288.160 Y174.340
G1 X288.141 Y173.984
G1 X288.134 Y173.615
G1 X288.165 Y173.228
G1 X288.169 Y172.855
G1 X288.213 Y172.492
G1 X288.278 Y172.133
G1 X288.302 Y171.788
G1 X288.359 Y171.432
G1 X288.447 Y171.127
G1 X288.558 Y170.838
G1 X288.662 Y170.523
G1 X288.785 Y170.271
G1 X288.964 Y169.986
G1 X289.177 Y169.741
G1 X289.361 Y169.525
G1 X289.590 Y169.340
G1 X289.843 Y169.132
G1 X290.137 Y168.989
G1 X290.397 Y168.794
G1 X290.688 Y168.662
G1 X291.006 Y168.500
G1 X291.329 Y168.377
G1 X291.655 Y168.239
G1 X291.971 Y168.134
G1 X292.330 Y167.997
G1 X292.678 Y167.859
G1 X293.014 Y167.763
G1 X293.325 Y167.626
G1 X293.694 Y167.525
G1 X294.018 Y167.411
G1 X294.353 Y167.271
G1 X294.650 Y167.153
G1 X294.977 Y166.990
; Path 19
G0 Z0
G0 X294.945 Y167.002
G0 Z2.2
G1 F3000
G1 X295.316 Y167.151
G1 X295.676 Y167.283
G1 X296.043 Y167.381
G1 X296.449 Y167.535
G1 X296.839 Y167.675
G1 X297.247 Y167.771
G1 X297.662 Y167.880
G1 X298.051 Y168.004
G1 X298.467 Y168.119
G1 X298.843 Y168.244
G1 X299.222 Y168.385
G1 X299.604 Y168.504
G1 X299.966 Y168.655
G1 X300.317 Y168.797
G1 X300.630 Y168.936
G1 X300.963 Y169.134
G1 X301.254 Y169.343
G1 X301.525 Y169.527
G1 X301.727 Y169.728
G1 X301.984 Y169.988
G1 X302.163 Y170.232
G1 X302.327 Y170.525
G1 X302.423 Y170.836
G1 X302.568 Y171.131
G1 X302.646 Y171.480
G1 X302.724 Y171.793
G1 X302.786 Y172.170
G1 X302.813 Y172.500
G1 X302.859 Y172.879
G1 X302.854 Y173.238
G1 X302.881 Y173.598
G1 X302.865 Y173.996
G1 X302.873 Y174.384
G1 X302.864 Y174.763
G1 X302.850 Y175.123
G1 X302.868 Y175.525
G1 X302.853 Y175.914
G1 X302.897 Y176.272
G1 X302.920 Y176.638
G1 X302.968 Y176.990
; Path 20
G0 Z0
G0 X294.948 Y177.014
G0 Z2.2
G1 F3000
G1 X294.937 Y179.006
G1 X294.980 Y181.010
G1 X294.945 Y182.988
G1 X294.989 Y184.992
G1 X294.989 Y187.007
; Path 21
G0 Z0
G0 X309.967 Y131.986
G0 Z2.2
G1 F3000
G1 X109.967 Y131.986
; Path 22
G0 Z0
G0 X111.965 Y171.974
G0 Z2.2
G1 F3000
G1 X112.024 Y171.619
G1 X112.046 Y171.257
G1 X112.046 Y170.866
G1 X112.100 Y170.512
G1 X112.136 Y170.106
G1 X112.137 Y169.751
G1 X112.136 Y169.364
G1 X112.170 Y168.985
G1 X112.201 Y168.635
G1 X112.211 Y168.228
G1 X112.232 Y167.860
G1 X112.272 Y167.491
G1 X112.301 Y167.127
G1 X112.366 Y166.786
G1 X112.456 Y166.452
G1 X112.504 Y166.125
G1 X112.585 Y165.824
G1 X112.698 Y165.520
G1 X112.802 Y165.236
G1 X112.961 Y164.983
G1 X113.128 Y164.759
G1 X113.301 Y164.523
G1 X113.511 Y164.309
G1 X113.709 Y164.130
G1 X113.955 Y163.955
G1 X114.174 Y163.794
G1 X114.401 Y163.625
G1 X114.683 Y163.502
G1 X114.941 Y163.379
G1 X115.224 Y163.242
G1 X115.503 Y163.103
G1 X115.785 Y163.003
G1 X116.081 Y162.878
G1 X116.355 Y162.771
G1 X116.663 Y162.656
G1 X116.920 Y162.535
G1 X117.186 Y162.387
G1 X117.469 Y162.283
G1 X117.748 Y162.140
G1 X117.991 Y162.003
; Path 23
G0 Z0
G0 X117.989 Y162.004
G0 Z2.2
G1 F3000
G1 X118.326 Y162.134
G1 X118.609 Y162.285
G1 X118.939 Y162.382
G1 X119.264 Y162.537
G1 X119.604 Y162.654
G1 X119.938 Y162.774
G1 X120.290 Y162.862
G1 X120.618 Y163.006
G1 X120.946 Y163.125
G1 X121.288 Y163.246
G1 X121.618 Y163.362
G1 X121.932 Y163.507
G1 X122.228 Y163.661
G1 X122.537 Y163.799
G1 X122.808 Y163.938
G1 X123.087 Y164.135
G1 X123.314 Y164.336
G1 X123.568 Y164.527
G1 X123.767 Y164.732
G1 X123.964 Y164.988
G1 X124.105 Y165.259
G1 X124.265 Y165.524
G1 X124.353 Y165.806
G1 X124.482 Y166.128
G1 X124.581 Y166.436
G1 X124.629 Y166.788
G1 X124.649 Y167.121
G1 X124.721 Y167.492
G1 X124.724 Y167.886
G1 X124.774 Y168.227
G1 X124.762 Y168.602
G1 X124.802 Y168.983
G1 X124.782 Y169.362
G1 X124.819 Y169.747
G1 X124.853 Y170.119
G1 X124.842 Y170.507
G1 X124.888 Y170.882
G1 X124.885 Y171.251
G1 X124.911 Y171.593
G1 X124.962 Y171.967
; Path 24
G0 Z0
G0 X123.947 Y174.996
G0 Z2.2
G1 F3000
G1 X124.007 Y174.618
G1 X124.032 Y174.277
G1 X124.038 Y173.891
G1 X124.090 Y173.529
G1 X124.108 Y173.134
G1 X124.131 Y172.766
G1 X124.161 Y172.366
G1 X124.169 Y171.999
G1 X124.188 Y171.593
G1 X124.214 Y171.239
G1 X124.258 Y170.855
G1 X124.279 Y170.500
G1 X124.314 Y170.121
G1 X124.376 Y169.793
G1 X124.468 Y169.483
G1 X124.517 Y169.130
G1 X124.605 Y168.856
G1 X124.713 Y168.524
G1 X124.820 Y168.258
G1 X124.977 Y167.987
G1 X125.141 Y167.746
G1 X125.316 Y167.526
G1 X125.490 Y167.317
G1 X125.723 Y167.133
G1 X125.963 Y166.957
G1 X126.185 Y166.797
G1 X126.444 Y166.639
G1 X126.690 Y166.505
G1 X126.970 Y166.374
G1 X127.228 Y166.246
G1 X127.502 Y166.124
G1 X127.785 Y166.007
G1 X128.043 Y165.864
G1 X128.350 Y165.775
G1 X128.660 Y165.680
G1 X128.911 Y165.540
G1 X129.169 Y165.400
G1 X129.457 Y165.289
G1 X129.689 Y165.154
G1 X129.974 Y165.009
; Path 25
G0 Z0
G0 X129.950 Y165.012
G0 Z2.2
G1 F3000
G1 X130.240 Y165.147
G1 X130.572 Y165.289
G1 X130.885 Y165.436
G1 X131.228 Y165.538
G1 X131.590 Y165.642
G1 X131.905 Y165.771
G1 X132.268 Y165.858
G1 X132.586 Y165.999
G1 X132.917 Y166.122
G1 X133.258 Y166.236
G1 X133.593 Y166.388
G1 X133.905 Y166.493
G1 X134.217 Y166.626
G1 X134.512 Y166.782
G1 X134.778 Y166.954
G1 X135.064 Y167.116
G1 X135.299 Y167.286
G1 X135.547 Y167.507
G1 X135.727 Y167.751
G1 X135.946 Y167.967
G1 X136.122 Y168.256
G1 X136.250 Y168.504
G1 X136.331 Y168.809
G1 X136.470 Y169.110
G1 X136.565 Y169.430
G1 X136.620 Y169.773
G1 X136.667 Y170.114
G1 X136.716 Y170.480
G1 X136.720 Y170.826
G1 X136.772 Y171.220
G1 X136.776 Y171.628
G1 X136.803 Y171.981
G1 X136.803 Y172.357
G1 X136.824 Y172.749
G1 X136.851 Y173.118
G1 X136.850 Y173.513
G1 X136.891 Y173.883
G1 X136.896 Y174.261
G1 X136.924 Y174.642
G1 X136.977 Y174.981
; Path 26
G0 Z0
G0 X159.966 Y161.997
G0 Z2.2
G1 F3000
G1 X159.961 Y163.684
G1 X159.932 Y165.339
G1 X159.945 Y166.981
; Path 27
G0 Z0
G0 X161.978 Y161.983
G0 Z2.2
G1 F3000
G1 X161.720 Y160.745
G1 X161.513 Y159.463
G1 X161.240 Y158.175
G1 X160.949 Y156.908
G1 X160.618 Y155.624
G1 X160.329 Y154.334
G1 X159.985 Y153.026
G1 X159.695 Y151.755
G1 X159.363 Y150.460
G1 X159.090 Y149.185
G1 X158.802 Y147.895
G1 X158.554 Y146.640
G1 X158.354 Y145.400
G1 X158.131 Y144.135
G1 X157.997 Y142.899
G1 X157.861 Y141.684
G1 X157.843 Y140.464
G1 X157.789 Y139.303
G1 X157.897 Y138.128
G1 X157.955 Y137.005
G1 X158.181 Y135.896
G1 X158.387 Y134.801
G1 X158.700 Y133.718
G1 X159.058 Y132.681
G1 X159.475 Y131.680
G1 X159.925 Y130.630
G1 X160.423 Y129.654
G1 X160.947 Y128.634
G1 X161.543 Y127.640
G1 X162.081 Y126.677
G1 X162.654 Y125.720
G1 X163.285 Y124.744
G1 X163.884 Y123.786
G1 X164.517 Y122.822
G1 X165.126 Y121.867
G1 X165.735 Y120.894
G1 X166.317 Y119.916
G1 X166.897 Y118.947
G1 X167.454 Y117.934
G1 X167.961 Y116.966
; Path 28
G0 Z0
G0 X184.955 Y114.996
G0 Z2.2
G1 F3000
G1 X184.430 Y115.982
G1 X183.886 Y116.965
G1 X183.303 Y117.918
G1 X182.711 Y118.884
G1 X182.069 Y119.809
G1 X181.476 Y120.775
G1 X180.829 Y121.745
G1 X180.226 Y122.659
G1 X179.628 Y123.620
G1 X179.006 Y124.558
G1 X178.422 Y125.540
G1 X177.861 Y126.491
G1 X177.330 Y127.498
G1 X176.837 Y128.480
G1 X176.396 Y129.487
G1 X175.978 Y130.546
G1 X175.667 Y131.622
G1 X175.330 Y132.711
G1 X175.150 Y133.851
G1 X174.939 Y134.994
G1 X174.883 Y136.230
G1 X174.833 Y137.410
G1 X174.889 Y138.687
G1 X174.983 Y139.945
G1 X175.169 Y141.267
G1 X175.344 Y142.577
G1 X175.588 Y143.912
G1 X175.871 Y145.287
G1 X176.190 Y146.653
G1 X176.518 Y148.053
G1 X176.862 Y149.461
G1 X177.241 Y150.854
G1 X177.619 Y152.232
G1 X177.994 Y153.669
G1 X178.342 Y155.043
G1 X178.731 Y156.477
G1 X179.062 Y157.870
G1 X179.409 Y159.256
G1 X179.693 Y160.613
G1 X179.981 Y161.987
; Path 29
G0 Z0
G0 X195.963 Y166.972
G0 Z2.2
G1 F3000
G1 X195.948 Y165.334
G1 X195.957 Y163.629
G1 X195.968 Y161.996
; Path 30
G0 Z0
G0 X197.942 Y161.989
G0 Z2.2
G1 F3000
G1 X197.674 Y160.590
G1 X197.383 Y159.154
G1 X197.047 Y157.708
G1 X196.726 Y156.264
G1 X196.397 Y154.807
G1 X196.014 Y153.342
G1 X195.672 Y151.897
G1 X195.287 Y150.412
G1 X194.946 Y148.926
G1 X194.589 Y147.498
G1 X194.266 Y146.082
G1 X193.960 Y144.624
G1 X193.679 Y143.207
G1 X193.443 Y141.814
G1 X193.245 Y140.447
G1 X193.079 Y139.090
G1 X193.014 Y137.792
G1 X192.911 Y136.479
G1 X192.930 Y135.253
G1 X192.980 Y134.003
G1 X193.131 Y132.832
G1 X193.315 Y131.677
G1 X193.629 Y130.584
G1 X193.887 Y129.488
G1 X194.274 Y128.424
G1 X194.654 Y127.409
G1 X195.116 Y126.443
G1 X195.574 Y125.418
G1 X196.081 Y124.433
G1 X196.607 Y123.491
G1 X197.186 Y122.542
G1 X197.709 Y121.603
G1 X198.248 Y120.648
G1 X198.839 Y119.732
G1 X199.420 Y118.778
G1 X199.955 Y117.852
G1 X200.498 Y116.892
G1 X201.016 Y115.941
G1 X201.473 Y114.938
G1 X201.978 Y113.974
; Path 31
G0 Z0
G0 X219.944 Y101.987
G0 Z2.2
G1 F3000
G1 X217.966 Y102.003
G1 X215.936 Y101.998
G1 X213.953 Y101.973
G1 X211.966 Y101.982
G1 X209.940 Y101.981
G1 X207.947 Y101.951
G1 X205.947 Y101.980
G1 X203.962 Y101.938
G1 X201.949 Y101.990
G1 X199.947 Y101.959
; Path 32
G0 Z0
G0 X199.978 Y101.990
G0 Z2.2
G1 F3000
G1 X200.398 Y100.125
G1 X200.795 Y98.241
G1 X201.158 Y96.353
G1 X201.580 Y94.496
G1 X201.998 Y92.589
G1 X202.371 Y90.685
G1 X202.760 Y88.797
G1 X203.173 Y86.973
G1 X203.587 Y85.079
G1 X203.950 Y83.209
G1 X204.398 Y81.329
G1 X204.756 Y79.430
G1 X205.162 Y77.549
G1 X205.552 Y75.665
G1 X205.963 Y73.773
G1 X206.380 Y71.886
G1 X206.768 Y70.034
G1 X207.190 Y68.134
G1 X207.595 Y66.267
G1 X207.955 Y64.375
G1 X208.347 Y62.508
G1 X208.770 Y60.602
G1 X209.155 Y58.729
G1 X209.593 Y56.830
G1 X209.975 Y54.976
; Path 33
G0 Z0
G0 X209.993 Y54.970
G0 Z2.2
G1 F3000
G1 X210.385 Y56.869
G1 X210.777 Y58.757
G1 X211.161 Y60.584
G1 X211.568 Y62.514
G1 X212.011 Y64.380
G1 X212.373 Y66.254
G1 X212.772 Y68.156
G1 X213.193 Y70.027
G1 X213.561 Y71.876
G1 X213.957 Y73.789
G1 X214.349 Y75.642
G1 X214.798 Y77.556
G1 X215.145 Y79.431
G1 X215.553 Y81.299
G1 X215.984 Y83.171
G1 X216.366 Y85.081
G1 X216.770 Y86.933
G1 X217.173 Y88.839
G1 X217.534 Y90.672
G1 X217.986 Y92.544
G1 X218.361 Y94.438
G1 X218.728 Y96.348
G1 X219.121 Y98.233
G1 X219.526 Y100.095
G1 X219.947 Y101.973
; Path 34
G0 Z0
G0 X216.962 Y91.973
G0 Z2.2
G1 F3000
G1 X214.995 Y92.004
G1 X213.000 Y92.010
G1 X210.978 Y91.993
G1 X208.954 Y92.021
G1 X206.994 Y91.987
G1 X204.995 Y91.985
G1 X202.997 Y92.009
; Path 35
G0 Z0
G0 X205.954 Y76.979
G0 Z2.2
G1 F3000
G1 X207.531 Y76.995
G1 X209.145 Y76.970
G1 X210.733 Y76.966
G1 X212.358 Y77.018
G1 X213.954 Y77.001
; Path 36
G0 Z0
G0 X255.978 Y87.008
G0 Z2.2
G1 F3000
G1 X256.764 Y85.618
G1 X257.604 Y84.207
G1 X258.397 Y82.774
G1 X259.171 Y81.363
G1 X259.981 Y79.963
; Path 37
G0 Z0
G0 X259.978 Y79.991
G0 Z2.2
G1 F3000
G1 X261.793 Y79.984
G1 X263.649 Y79.986
G1 X265.480 Y79.982
G1 X267.320 Y79.950
G1 X269.137 Y79.949
G1 X270.959 Y79.969
; Path 38
G0 Z0
G0 X270.940 Y79.963
G0 Z2.2
G1 F3000
G1 X271.734 Y81.366
G1 X272.545 Y82.777
G1 X273.320 Y84.140
G1 X274.151 Y85.566
G1 X274.939 Y86.960
; Path 39
G0 Z0
G0 X254.943 Y111.975
G0 Z2.2
G1 F3000
G1 X255.295 Y113.942
G1 X255.689 Y115.906
G1 X255.999 Y117.844
G1 X256.348 Y119.818
G1 X256.756 Y121.771
G1 X257.086 Y123.785
G1 X257.477 Y125.717
G1 X257.802 Y127.693
G1 X258.145 Y129.639
G1 X258.522 Y131.636
G1 X258.879 Y133.570
G1 X259.219 Y135.516
G1 X259.603 Y137.531
G1 X259.971 Y139.498
G1 X260.303 Y141.419
G1 X260.648 Y143.379
G1 X261.020 Y145.390
G1 X261.412 Y147.331
G1 X261.775 Y149.308
G1 X262.084 Y151.236
G1 X262.482 Y153.202
G1 X262.823 Y155.197
G1 X263.176 Y157.164
G1 X263.526 Y159.112
G1 X263.898 Y161.073
G1 X264.283 Y163.062
G1 X264.588 Y164.981
G1 X264.971 Y166.973
; Path 40
G0 Z0
G0 X264.957 Y166.978
G0 Z2.2
G1 F3000
G1 X262.937 Y166.962
G1 X260.956 Y166.972
G1 X258.939 Y166.994
G1 X256.955 Y166.983
G1 X254.955 Y166.960
G1 X252.933 Y167.002
G1 X250.952 Y166.957
G1 X248.981 Y167.009
G1 X246.938 Y166.959
G1 X244.944 Y167.005
G1 X242.985 Y166.966
G1 X240.955 Y166.949
G1 X238.941 Y166.970
G1 X236.960 Y166.963
G1 X234.935 Y166.957
G1 X232.972 Y166.949
G1 X230.962 Y166.957
G1 X228.948 Y167.006
G1 X226.952 Y166.967
G1 X224.975 Y166.989
G1 X222.966 Y166.982
G1 X220.988 Y166.978
G1 X218.963 Y166.954
G1 X216.986 Y166.989
G1 X214.964 Y166.977
G1 X212.975 Y166.959
G1 X210.996 Y166.990
G1 X208.975 Y166.958
G1 X206.989 Y166.968
G1 X204.949 Y167.004
G1 X202.990 Y166.956
G1 X200.967 Y166.986
G1 X198.951 Y166.998
G1 X196.997 Y167.006
G1 X194.944 Y166.965
G1 X192.953 Y166.954
G1 X190.992 Y166.965
G1 X188.980 Y166.964
G1 X186.956 Y166.980
G1 X184.987 Y167.011
G1 X182.953 Y166.958
G1 X180.966 Y166.960
G1 X178.995 Y166.969
G1 X177.006 Y167.007
G1 X174.983 Y166.983
G1 X172.986 Y166.965
G1 X170.969 Y166.961
G1 X168.953 Y166.984
G1 X166.985 Y167.004
G1 X164.962 Y167.003
G1 X162.965 Y167.011
G1 X160.967 Y167.003
G1 X158.988 Y166.981
G1 X156.995 Y166.976
G1 X154.984 Y166.982
; Path 41
G0 Z0
G0 X154.983 Y167.011
G0 Z2.2
G1 F3000
G1 X155.366 Y165.048
G1 X155.686 Y163.060
G1 X156.042 Y161.124
G1 X156.414 Y159.165
G1 X156.784 Y157.165
G1 X157.113 Y155.243
G1 X157.452 Y153.249
G1 X157.839 Y151.281
G1 X158.215 Y149.297
G1 X158.531 Y147.335
G1 X158.896 Y145.420
G1 X159.264 Y143.453
G1 X159.596 Y141.469
G1 X160.003 Y139.500
G1 X160.313 Y137.501
G1 X160.692 Y135.553
G1 X161.056 Y133.572
G1 X161.418 Y131.634
G1 X161.746 Y129.696
G1 X162.121 Y127.695
G1 X162.486 Y125.736
G1 X162.826 Y123.797
G1 X163.202 Y121.813
G1 X163.558 Y119.852
G1 X163.922 Y117.885
G1 X164.274 Y115.924
G1 X164.636 Y113.957
G1 X164.980 Y111.979
; Path 42
G0 Z0
G0 X164.951 Y111.993
G0 Z2.2
G1 F3000
G1 X164.961 Y109.982
G1 X164.954 Y107.992
G1 X164.997 Y105.998
G1 X165.000 Y104.016
G1 X164.995 Y101.996
; Path 43
G0 Z0
G0 X164.970 Y101.961
G0 Z2.2
G1 F3000
G1 X166.924 Y101.985
G1 X168.856 Y101.977
G1 X170.861 Y101.944
G1 X172.787 Y101.977
G1 X174.743 Y101.940
G1 X176.712 Y101.984
G1 X178.674 Y101.969
G1 X180.627 Y101.945
G1 X182.562 Y101.950
G1 X184.566 Y101.978
G1 X186.522 Y101.966
G1 X188.428 Y101.943
G1 X190.391 Y101.954
G1 X192.357 Y101.948
G1 X194.344 Y101.970
G1 X196.292 Y101.945
G1 X198.221 Y101.971
G1 X200.169 Y101.943
G1 X202.172 Y101.984
G1 X204.114 Y101.975
G1 X206.049 Y101.953
G1 X207.988 Y101.972
G1 X210.001 Y101.980
G1 X211.917 Y101.947
G1 X213.889 Y101.977
G1 X215.823 Y101.990
G1 X217.791 Y101.967
G1 X219.750 Y101.965
G1 X221.686 Y101.939
G1 X223.695 Y101.990
G1 X225.641 Y101.967
G1 X227.609 Y101.953
G1 X229.551 Y101.950
G1 X231.517 Y101.957
G1 X233.467 Y101.953
G1 X235.382 Y101.986
G1 X237.365 Y101.936
G1 X239.319 Y101.980
G1 X241.258 Y101.975
G1 X243.257 Y101.932
G1 X245.204 Y101.986
G1 X247.170 Y101.961
G1 X249.086 Y101.945
G1 X251.060 Y101.940
G1 X253.023 Y101.956
G1 X254.977 Y101.962
; Path 44
G0 Z0
G0 X254.986 Y102.005
G0 Z2.2
G1 F3000
G1 X254.963 Y103.974
G1 X254.949 Y106.002
G1 X254.984 Y107.999
G1 X254.946 Y109.967
G1 X254.948 Y111.986
; Path 45
G0 Z0
G0 X251.996 Y116.996
G0 Z2.2
G1 F3000
G1 X251.602 Y118.004
G1 X251.242 Y118.971
G1 X250.821 Y119.960
G1 X250.403 Y120.911
G1 X249.954 Y121.897
G1 X249.517 Y122.831
G1 X249.089 Y123.766
G1 X248.618 Y124.746
G1 X248.180 Y125.687
G1 X247.744 Y126.671
G1 X247.332 Y127.663
G1 X246.929 Y128.621
G1 X246.558 Y129.634
G1 X246.210 Y130.612
G1 X245.914 Y131.622
G1 X245.623 Y132.658
G1 X245.426 Y133.729
G1 X245.204 Y134.775
G1 X245.078 Y135.867
G1 X244.987 Y136.977
G1 X244.966 Y138.154
G1 X244.999 Y139.275
G1 X245.099 Y140.493
G1 X245.214 Y141.659
G1 X245.414 Y142.912
G1 X245.596 Y144.113
G1 X245.834 Y145.357
G1 X246.110 Y146.623
G1 X246.420 Y147.903
G1 X246.720 Y149.173
G1 X247.078 Y150.435
G1 X247.390 Y151.749
G1 X247.720 Y153.034
G1 X248.083 Y154.334
G1 X248.453 Y155.642
G1 X248.765 Y156.915
G1 X249.081 Y158.192
G1 X249.399 Y159.475
G1 X249.658 Y160.725
G1 X249.949 Y162.000
; Path 46
G0 Z0
G0 X247.994 Y161.959
G0 Z2.2
G1 F3000
G1 X248.012 Y163.628
G1 X247.980 Y165.305
G1 X247.957 Y166.960
; Path 47
G0 Z0
G0 X233.978 Y167.011
G0 Z2.2
G1 F3000
G1 X233.978 Y165.357
G1 X233.945 Y163.663
G1 X233.952 Y161.991
; Path 48
G0 Z0
G0 X231.967 Y162.002
G0 Z2.2
G1 F3000
G1 X231.677 Y160.649
G1 X231.412 Y159.269
G1 X231.106 Y157.868
G1 X230.765 Y156.486
G1 X230.395 Y155.087
G1 X230.067 Y153.676
G1 X229.711 Y152.255
G1 X229.356 Y150.858
G1 X229.025 Y149.465
G1 X228.670 Y148.055
G1 X228.349 Y146.673
G1 X228.050 Y145.287
G1 X227.810 Y143.952
G1 X227.533 Y142.574
G1 X227.355 Y141.260
G1 X227.159 Y139.939
G1 X227.075 Y138.646
G1 X226.966 Y137.402
G1 X226.993 Y136.165
G1 X226.994 Y134.983
G1 X227.106 Y133.825
G1 X227.268 Y132.698
G1 X227.505 Y131.636
G1 X227.763 Y130.532
G1 X228.094 Y129.499
G1 X228.439 Y128.464
G1 X228.852 Y127.462
G1 X229.258 Y126.473
G1 X229.697 Y125.484
G1 X230.180 Y124.538
G1 X230.671 Y123.565
G1 X231.167 Y122.638
G1 X231.659 Y121.719
G1 X232.181 Y120.752
G1 X232.706 Y119.815
G1 X233.181 Y118.859
G1 X233.628 Y117.920
G1 X234.129 Y116.938
G1 X234.573 Y115.941
G1 X234.987 Y114.968
; Path 49
G0 Z0
G0 X227.983 Y118.969
G0 Z2.2
G1 F3000
G1 X226.092 Y118.996
G1 X224.184 Y118.942
G1 X222.287 Y118.976
G1 X220.411 Y118.971
G1 X218.505 Y118.963
G1 X216.627 Y118.977
G1 X214.709 Y118.971
G1 X212.822 Y118.956
G1 X210.898 Y118.982
G1 X209.019 Y118.974
G1 X207.120 Y118.991
G1 X205.225 Y118.965
G1 X203.349 Y118.973
G1 X201.425 Y118.960
G1 X199.541 Y119.000
G1 X197.650 Y119.006
G1 X195.740 Y118.967
G1 X193.857 Y118.995
G1 X191.976 Y118.989
; Path 50
G0 Z0
G0 X191.956 Y119.013
G0 Z2.2
G1 F3000
G1 X191.947 Y121.029
G1 X191.952 Y123.029
G1 X191.982 Y125.023
G1 X191.942 Y127.007
G1 X191.941 Y129.029
G1 X191.989 Y131.017
G1 X191.986 Y133.025
G1 X191.963 Y134.985
G1 X191.940 Y136.999
G1 X191.962 Y139.019
G1 X191.974 Y141.010
G1 X191.958 Y143.001
G1 X191.972 Y144.961
G1 X191.974 Y146.983
; Path 51
G0 Z0
G0 X191.951 Y146.987
G0 Z2.2
G1 F3000
G1 X193.935 Y146.981
G1 X195.970 Y146.979
G1 X197.938 Y146.996
G1 X199.956 Y147.003
G1 X201.926 Y146.984
G1 X203.947 Y146.992
G1 X205.942 Y146.957
G1 X207.941 Y146.981
G1 X209.922 Y146.961
G1 X211.972 Y147.002
G1 X213.930 Y146.980
G1 X215.954 Y146.952
G1 X217.931 Y146.987
G1 X219.963 Y146.942
G1 X221.971 Y146.958
G1 X223.941 Y146.938
G1 X225.958 Y146.972
G1 X227.946 Y146.963
; Path 52
G0 Z0
G0 X227.980 Y146.965
G0 Z2.2
G1 F3000
G1 X227.985 Y144.982
G1 X227.992 Y142.985
G1 X227.984 Y140.955
G1 X227.951 Y138.956
G1 X227.980 Y136.986
G1 X227.985 Y134.959
G1 X227.961 Y132.975
G1 X227.990 Y130.971
G1 X227.988 Y128.986
G1 X227.992 Y127.011
G1 X227.944 Y124.990
G1 X227.959 Y122.991
G1 X227.986 Y121.003
G1 X227.967 Y118.992
; Path 53
G0 Z0
G0 X221.986 Y124.989
G0 Z2.2
G1 F3000
G1 X222.119 Y125.293
G1 X222.298 Y125.587
G1 X222.483 Y125.874
G1 X222.630 Y126.184
G1 X222.794 Y126.494
G1 X222.974 Y126.782
G1 X223.141 Y127.061
G1 X223.321 Y127.379
G1 X223.484 Y127.681
G1 X223.662 Y127.976
G1 X223.796 Y128.278
G1 X223.988 Y128.573
G1 X224.113 Y128.855
G1 X224.290 Y129.171
G1 X224.423 Y129.486
G1 X224.560 Y129.769
G1 X224.681 Y130.084
G1 X224.789 Y130.368
G1 X224.878 Y130.657
G1 X224.967 Y130.968
G1 X225.049 Y131.264
G1 X225.088 Y131.569
G1 X225.102 Y131.887
G1 X225.159 Y132.170
G1 X225.190 Y132.457
G1 X225.189 Y132.772
G1 X225.188 Y133.047
G1 X225.186 Y133.375
G1 X225.193 Y133.658
G1 X225.159 Y133.978
G1 X225.138 Y134.270
G1 X225.118 Y134.581
G1 X225.091 Y134.892
G1 X225.071 Y135.185
G1 X225.027 Y135.509
G1 X225.026 Y135.788
G1 X224.991 Y136.075
G1 X224.994 Y136.391
G1 X224.979 Y136.689
G1 X224.982 Y136.994
; Path 54
G0 Z0
G0 X224.974 Y136.967
G0 Z2.2
G1 F3000
G1 X224.751 Y137.306
G1 X224.497 Y137.592
G1 X224.287 Y137.934
G1 X224.056 Y138.252
G1 X223.870 Y138.618
G1 X223.634 Y138.932
G1 X223.450 Y139.250
G1 X223.218 Y139.617
G1 X223.002 Y139.981
G1 X222.792 Y140.292
G1 X222.536 Y140.641
G1 X222.340 Y140.942
G1 X222.074 Y141.242
G1 X221.848 Y141.552
G1 X221.547 Y141.838
G1 X221.301 Y142.107
G1 X221.020 Y142.361
G1 X220.684 Y142.591
G1 X220.307 Y142.772
G1 X219.982 Y142.990
G1 X219.595 Y143.116
G1 X219.184 Y143.294
G1 X218.768 Y143.422
G1 X218.301 Y143.513
G1 X217.831 Y143.609
G1 X217.347 Y143.662
G1 X216.855 Y143.688
G1 X216.338 Y143.755
G1 X215.802 Y143.807
G1 X215.289 Y143.808
G1 X214.735 Y143.801
G1 X214.215 Y143.837
G1 X213.699 Y143.852
G1 X213.131 Y143.855
G1 X212.580 Y143.850
G1 X212.052 Y143.878
G1 X211.546 Y143.902
G1 X210.993 Y143.921
G1 X210.468 Y143.985
G1 X209.970 Y144.000
; Path 55
G0 Z0
G0 X209.963 Y144.004
G0 Z2.2
G1 F3000
G1 X209.459 Y143.942
G1 X208.938 Y143.928
G1 X208.422 Y143.885
G1 X207.877 Y143.887
G1 X207.318 Y143.848
G1 X206.797 Y143.866
G1 X206.271 Y143.856
G1 X205.712 Y143.850
G1 X205.155 Y143.845
G1 X204.636 Y143.824
G1 X204.124 Y143.817
G1 X203.586 Y143.773
G1 X203.074 Y143.722
G1 X202.576 Y143.681
G1 X202.103 Y143.605
G1 X201.622 Y143.535
G1 X201.194 Y143.428
G1 X200.738 Y143.318
G1 X200.351 Y143.193
G1 X199.940 Y143.015
G1 X199.573 Y142.802
G1 X199.237 Y142.617
G1 X198.942 Y142.360
G1 X198.621 Y142.133
G1 X198.324 Y141.835
G1 X198.074 Y141.579
G1 X197.858 Y141.282
G1 X197.584 Y140.970
G1 X197.370 Y140.669
G1 X197.133 Y140.321
G1 X196.904 Y139.992
G1 X196.708 Y139.646
G1 X196.497 Y139.301
G1 X196.293 Y138.961
G1 X196.092 Y138.639
G1 X195.872 Y138.282
G1 X195.680 Y137.942
G1 X195.432 Y137.622
G1 X195.218 Y137.289
G1 X194.956 Y136.998
; Path 56
G0 Z0
G0 X194.963 Y136.992
G0 Z2.2
G1 F3000
G1 X194.955 Y136.709
G1 X194.947 Y136.390
G1 X194.955 Y136.076
G1 X194.910 Y135.787
G1 X194.914 Y135.480
G1 X194.860 Y135.184
G1 X194.849 Y134.887
G1 X194.808 Y134.581
G1 X194.779 Y134.305
G1 X194.761 Y133.978
G1 X194.748 Y133.705
G1 X194.730 Y133.375
G1 X194.722 Y133.071
G1 X194.723 Y132.773
G1 X194.734 Y132.484
G1 X194.750 Y132.171
G1 X194.794 Y131.859
G1 X194.820 Y131.569
G1 X194.865 Y131.289
G1 X194.942 Y130.968
G1 X195.022 Y130.683
G1 X195.122 Y130.368
G1 X195.257 Y130.092
G1 X195.354 Y129.768
G1 X195.476 Y129.458
G1 X195.629 Y129.169
G1 X195.798 Y128.866
G1 X195.937 Y128.570
G1 X196.111 Y128.273
G1 X196.270 Y127.971
G1 X196.449 Y127.666
G1 X196.619 Y127.373
G1 X196.803 Y127.087
G1 X196.973 Y126.774
G1 X197.141 Y126.466
G1 X197.324 Y126.176
G1 X197.465 Y125.862
G1 X197.664 Y125.577
G1 X197.848 Y125.252
G1 X197.981 Y124.978
; Path 57
G0 Z0
G0 X197.965 Y124.985
G0 Z2.2
G1 F3000
G1 X198.247 Y124.789
G1 X198.563 Y124.571
G1 X198.870 Y124.345
G1 X199.160 Y124.135
G1 X199.452 Y123.903
G1 X199.757 Y123.686
G1 X200.046 Y123.479
G1 X200.353 Y123.235
G1 X200.648 Y123.021
G1 X200.950 Y122.790
G1 X201.219 Y122.601
G1 X201.547 Y122.360
G1 X201.846 Y122.149
G1 X202.145 Y121.954
G1 X202.419 Y121.773
G1 X202.743 Y121.582
G1 X203.045 Y121.447
G1 X203.341 Y121.252
G1 X203.662 Y121.117
G1 X203.941 Y120.974
G1 X204.238 Y120.874
G1 X204.541 Y120.754
G1 X204.845 Y120.694
G1 X205.142 Y120.585
G1 X205.466 Y120.494
G1 X205.743 Y120.459
G1 X206.044 Y120.392
G1 X206.345 Y120.366
G1 X206.646 Y120.325
G1 X206.948 Y120.297
G1 X207.257 Y120.268
G1 X207.550 Y120.243
G1 X207.871 Y120.194
G1 X208.153 Y120.196
G1 X208.462 Y120.148
G1 X208.755 Y120.146
G1 X209.086 Y120.141
G1 X209.358 Y120.083
G1 X209.685 Y120.057
G1 X209.960 Y119.999
; Path 58
G0 Z0
G0 X209.956 Y119.987
G0 Z2.2
G1 F3000
G1 X210.264 Y120.007
G1 X210.558 Y120.070
G1 X210.878 Y120.088
G1 X211.160 Y120.131
G1 X211.442 Y120.152
G1 X211.762 Y120.181
G1 X212.081 Y120.218
G1 X212.365 Y120.227
G1 X212.671 Y120.234
G1 X212.967 Y120.279
G1 X213.264 Y120.311
G1 X213.569 Y120.346
G1 X213.893 Y120.409
G1 X214.171 Y120.439
G1 X214.487 Y120.480
G1 X214.773 Y120.565
G1 X215.082 Y120.663
G1 X215.374 Y120.734
G1 X215.686 Y120.844
G1 X215.974 Y120.956
G1 X216.275 Y121.116
G1 X216.574 Y121.236
G1 X216.873 Y121.413
G1 X217.173 Y121.569
G1 X217.498 Y121.773
G1 X217.772 Y121.945
G1 X218.071 Y122.163
G1 X218.371 Y122.354
G1 X218.693 Y122.571
G1 X218.969 Y122.789
G1 X219.295 Y122.989
G1 X219.567 Y123.238
G1 X219.857 Y123.453
G1 X220.165 Y123.694
G1 X220.441 Y123.897
G1 X220.763 Y124.147
G1 X221.080 Y124.379
G1 X221.361 Y124.588
G1 X221.680 Y124.808
G1 X221.960 Y125.007
; Path 59
G0 Z0
G0 X217.987 Y113.979
G0 Z2.2
G1 F3000
G1 X217.564 Y114.988
G1 X217.126 Y115.944
G1 X216.648 Y116.904
G1 X216.175 Y117.854
G1 X215.701 Y118.776
G1 X215.171 Y119.732
G1 X214.657 Y120.652
G1 X214.154 Y121.603
G1 X213.653 Y122.516
G1 X213.164 Y123.489
G1 X212.690 Y124.460
G1 X212.238 Y125.414
G1 X211.800 Y126.380
G1 X211.416 Y127.404
G1 X211.071 Y128.458
G1 X210.738 Y129.481
G1 X210.489 Y130.559
G1 X210.242 Y131.669
G1 X210.112 Y132.841
G1 X209.967 Y133.993
G1 X209.934 Y135.225
G1 X209.939 Y136.467
G1 X210.054 Y137.760
G1 X210.133 Y139.077
G1 X210.335 Y140.422
G1 X210.509 Y141.798
G1 X210.740 Y143.175
G1 X211.028 Y144.607
G1 X211.321 Y146.067
G1 X211.651 Y147.479
G1 X211.996 Y148.932
G1 X212.339 Y150.391
G1 X212.705 Y151.855
G1 X213.053 Y153.319
G1 X213.411 Y154.794
G1 X213.754 Y156.239
G1 X214.067 Y157.673
G1 X214.403 Y159.127
G1 X214.682 Y160.517
G1 X214.961 Y161.960
; Path 60
G0 Z0
G0 X229.959 Y166.986
G0 Z2.2
G1 F3000
G1 X229.962 Y165.301
G1 X229.956 Y163.613
G1 X229.940 Y161.967
; Path 61
G0 Z0
G0 X216.980 Y161.974
G0 Z2.2
G1 F3000
G1 X216.974 Y163.675
G1 X216.995 Y165.324
G1 X216.968 Y166.991
; Path 62
G0 Z0
G0 X212.964 Y166.995
G0 Z2.2
G1 F3000
G1 X212.961 Y165.337
G1 X212.991 Y163.664
G1 X212.989 Y161.966
; Path 63
G0 Z0
G0 X199.984 Y166.963
G0 Z2.2
G1 F3000
G1 X199.986 Y165.323
G1 X199.980 Y163.611
G1 X199.944 Y161.978
; Path 64
G0 Z0
G0 X181.984 Y161.969
G0 Z2.2
G1 F3000
G1 X181.966 Y163.651
G1 X181.954 Y165.312
G1 X181.961 Y167.008
; Path 65
G0 Z0
G0 X177.975 Y167.014
G0 Z2.2
G1 F3000
G1 X177.964 Y165.320
G1 X177.957 Y163.683
G1 X177.970 Y161.981
; Path 66
G0 Z0
G0 X163.972 Y162.008
G0 Z2.2
G1 F3000
G1 X163.992 Y163.682
G1 X163.974 Y165.356
G1 X163.995 Y167.013
; Path 67
G0 Z0
G0 X159.965 Y167.012
G0 Z2.2
G1 F3000
G1 X160.020 Y165.060
G1 X160.075 Y163.053
G1 X160.111 Y161.054
G1 X160.176 Y159.108
G1 X160.225 Y157.138
G1 X160.215 Y155.142
G1 X160.296 Y153.177
G1 X160.362 Y151.177
G1 X160.357 Y149.227
G1 X160.451 Y147.226
G1 X160.493 Y145.249
G1 X160.523 Y143.255
G1 X160.569 Y141.273
G1 X160.614 Y139.308
G1 X160.681 Y137.321
G1 X160.705 Y135.389
G1 X160.753 Y133.390
G1 X160.770 Y131.391
G1 X160.865 Y129.447
G1 X160.903 Y127.483
G1 X160.938 Y125.493
G1 X160.993 Y123.526
G1 X161.010 Y121.546
G1 X161.075 Y119.569
G1 X161.145 Y117.539
G1 X161.177 Y115.587
G1 X161.190 Y113.632
G1 X161.241 Y111.617
G1 X161.318 Y109.667
G1 X161.376 Y107.703
G1 X161.379 Y105.713
G1 X161.426 Y103.747
G1 X161.503 Y101.736
G1 X161.551 Y99.736
G1 X161.577 Y97.761
G1 X161.658 Y95.784
G1 X161.672 Y93.843
G1 X161.699 Y91.871
G1 X161.781 Y89.864
G1 X161.789 Y87.867
G1 X161.893 Y85.906
G1 X161.936 Y83.931
G1 X161.958 Y81.963
; Path 68
G0 Z0
G0 X161.947 Y81.980
G0 Z2.2
G1 F3000
G1 X160.943 Y80.581
G1 X159.986 Y79.149
G1 X158.965 Y77.766
G1 X157.977 Y76.373
G1 X156.980 Y74.957
; Path 69
G0 Z0
G0 X156.990 Y75.003
G0 Z2.2
G1 F3000
G1 X155.258 Y74.985
G1 X153.572 Y75.027
G1 X151.806 Y75.019
G1 X150.100 Y74.980
G1 X148.367 Y74.973
G1 X146.644 Y74.982
G1 X144.939 Y74.983
; Path 70
G0 Z0
G0 X144.955 Y75.004
G0 Z2.2
G1 F3000
G1 X143.930 Y76.408
G1 X142.974 Y77.770
G1 X141.986 Y79.191
G1 X140.967 Y80.579
G1 X139.974 Y81.965
; Path 71
G0 Z0
G0 X139.976 Y81.976
G0 Z2.2
G1 F3000
G1 X141.790 Y81.992
G1 X143.619 Y81.990
G1 X145.453 Y81.970
G1 X147.296 Y81.959
G1 X149.141 Y82.000
G1 X150.969 Y81.992
G1 X152.840 Y82.010
G1 X154.675 Y81.978
G1 X156.483 Y82.006
G1 X158.337 Y81.995
G1 X160.159 Y82.014
G1 X161.993 Y82.005
G0 Z0
M5
G4 P0.3
G0 X0 Y0
; End