; Generated by Sketch DSL for Machine
; Work area: 420mm x 297mm (A3)
G21
G90
M5
G4 P0.5
G0 F11000
; 511 paths
; Path 1
G0 X119.994 Y94.983
G0 Z2.2
G1 F3000
G1 X121.803 Y95.773
G1 X123.639 Y96.551
G1 X125.443 Y97.307
G1 X127.300 Y98.114
G1 X129.109 Y98.876
G1 X130.914 Y99.663
G1 X132.740 Y100.424
G1 X134.561 Y101.225
G1 X136.399 Y101.984
G1 X138.196 Y102.739
G1 X140.037 Y103.523
G1 X141.879 Y104.296
G1 X143.652 Y105.108
G1 X145.527 Y105.847
G1 X147.297 Y106.634
G1 X149.168 Y107.395
G1 X150.946 Y108.212
G1 X152.796 Y109.000
G1 X154.596 Y109.738
G1 X156.433 Y110.550
G1 X158.259 Y111.294
G1 X160.057 Y112.102
G1 X161.872 Y112.856
G1 X163.702 Y113.642
G1 X165.549 Y114.396
G1 X167.361 Y115.219
G1 X169.168 Y115.991
G1 X171.026 Y116.747
G1 X172.835 Y117.531
G1 X174.648 Y118.309
G1 X176.465 Y119.102
G1 X178.271 Y119.849
G1 X180.098 Y120.660
G1 X181.969 Y121.448
G1 X183.738 Y122.181
G1 X185.593 Y122.955
G1 X187.432 Y123.775
G1 X189.204 Y124.513
G1 X191.028 Y125.298
G1 X192.865 Y126.087
G1 X194.701 Y126.858
G1 X196.493 Y127.658
G1 X198.326 Y128.443
G1 X200.183 Y129.176
G1 X201.984 Y129.972
; Path 2
G0 Z0
G0 X201.986 Y129.977
G0 Z2.2
G1 F3000
G1 X200.070 Y129.528
G1 X198.153 Y129.075
G1 X196.268 Y128.599
G1 X194.367 Y128.107
G1 X192.449 Y127.673
G1 X190.532 Y127.182
G1 X188.620 Y126.741
G1 X186.720 Y126.236
G1 X184.846 Y125.787
G1 X182.888 Y125.307
G1 X181.032 Y124.839
G1 X179.084 Y124.422
G1 X177.176 Y123.944
G1 X175.294 Y123.450
G1 X173.398 Y122.989
G1 X171.500 Y122.530
G1 X169.544 Y122.106
G1 X167.672 Y121.613
G1 X165.752 Y121.123
G1 X163.858 Y120.694
G1 X161.952 Y120.200
G1 X160.055 Y119.740
G1 X158.129 Y119.291
G1 X156.239 Y118.833
G1 X154.316 Y118.335
G1 X152.374 Y117.917
G1 X150.516 Y117.443
G1 X148.593 Y116.959
G1 X146.664 Y116.487
G1 X144.742 Y116.019
G1 X142.843 Y115.604
G1 X140.982 Y115.129
G1 X139.041 Y114.643
G1 X137.145 Y114.202
G1 X135.213 Y113.744
G1 X133.307 Y113.238
G1 X131.409 Y112.810
G1 X129.498 Y112.323
G1 X127.602 Y111.846
G1 X125.726 Y111.379
G1 X123.817 Y110.930
G1 X121.863 Y110.478
G1 X119.975 Y110.001
; Path 3
G0 Z0
G0 X119.977 Y129.978
G0 Z2.2
G1 F3000
G1 X269.977 Y129.978
; Path 4
G0 Z0
G0 X273.991 Y133.966
G0 Z2.2
G1 F3000
G1 X273.178 Y135.461
G1 X272.314 Y136.969
G1 X271.461 Y138.496
G1 X270.623 Y139.955
G1 X269.806 Y141.474
G1 X268.958 Y142.973
; Path 5
G0 Z0
G0 X275.948 Y147.001
G0 Z2.2
G1 F3000
G1 X276.206 Y147.305
G1 X276.466 Y147.594
G1 X276.721 Y147.892
G1 X277.013 Y148.179
G1 X277.323 Y148.476
G1 X277.576 Y148.761
G1 X277.858 Y149.044
G1 X278.143 Y149.341
G1 X278.429 Y149.610
G1 X278.702 Y149.923
G1 X278.947 Y150.210
G1 X279.240 Y150.511
G1 X279.464 Y150.785
G1 X279.747 Y151.107
G1 X279.964 Y151.434
G1 X280.210 Y151.714
G1 X280.385 Y152.035
G1 X280.616 Y152.335
G1 X280.803 Y152.646
G1 X280.954 Y152.974
G1 X281.058 Y153.328
G1 X281.216 Y153.632
G1 X281.334 Y153.946
G1 X281.410 Y154.308
G1 X281.494 Y154.662
G1 X281.548 Y154.998
G1 X281.602 Y155.337
G1 X281.642 Y155.699
G1 X281.653 Y156.071
G1 X281.703 Y156.409
G1 X281.725 Y156.789
G1 X281.745 Y157.124
G1 X281.790 Y157.479
G1 X281.778 Y157.840
G1 X281.807 Y158.192
G1 X281.815 Y158.556
G1 X281.847 Y158.905
G1 X281.869 Y159.268
G1 X281.914 Y159.595
G1 X281.951 Y159.972
; Path 6
G0 Z0
G0 X281.947 Y159.972
G0 Z2.2
G1 F3000
G1 X283.566 Y159.993
G1 X285.142 Y159.986
G1 X286.772 Y159.983
G1 X288.353 Y159.995
G1 X289.949 Y159.970
; Path 7
G0 Z0
G0 X289.954 Y159.994
G0 Z2.2
G1 F3000
G1 X289.967 Y159.646
G1 X289.971 Y159.293
G1 X289.981 Y158.964
G1 X290.017 Y158.592
G1 X290.057 Y158.217
G1 X290.078 Y157.891
G1 X290.124 Y157.554
G1 X290.143 Y157.189
G1 X290.161 Y156.844
G1 X290.200 Y156.488
G1 X290.236 Y156.120
G1 X290.238 Y155.787
G1 X290.236 Y155.412
G1 X290.243 Y155.086
G1 X290.208 Y154.727
G1 X290.205 Y154.386
G1 X290.168 Y154.051
G1 X290.111 Y153.686
G1 X290.020 Y153.347
G1 X289.949 Y152.986
G1 X289.814 Y152.618
G1 X289.712 Y152.287
G1 X289.550 Y151.966
G1 X289.407 Y151.588
G1 X289.204 Y151.227
G1 X289.046 Y150.890
G1 X288.862 Y150.533
G1 X288.641 Y150.192
G1 X288.441 Y149.815
G1 X288.205 Y149.494
G1 X287.993 Y149.148
G1 X287.749 Y148.796
G1 X287.542 Y148.469
G1 X287.284 Y148.098
G1 X287.048 Y147.765
G1 X286.824 Y147.401
G1 X286.578 Y147.056
G1 X286.380 Y146.703
G1 X286.181 Y146.329
G1 X285.963 Y146.005
; Path 8
G0 Z0
G0 X285.981 Y145.959
G0 Z2.2
G1 F3000
G1 X285.802 Y145.668
G1 X285.587 Y145.349
G1 X285.375 Y145.062
G1 X285.206 Y144.724
G1 X285.019 Y144.406
G1 X284.832 Y144.092
G1 X284.628 Y143.774
G1 X284.460 Y143.458
G1 X284.279 Y143.140
G1 X284.085 Y142.828
G1 X283.866 Y142.527
G1 X283.700 Y142.208
G1 X283.490 Y141.913
G1 X283.299 Y141.604
G1 X283.117 Y141.290
G1 X282.878 Y141.022
G1 X282.684 Y140.759
G1 X282.430 Y140.469
G1 X282.187 Y140.197
G1 X281.949 Y139.951
G1 X281.673 Y139.725
G1 X281.431 Y139.471
G1 X281.135 Y139.254
G1 X280.881 Y139.026
G1 X280.575 Y138.806
G1 X280.304 Y138.609
G1 X280.011 Y138.405
G1 X279.706 Y138.215
G1 X279.397 Y138.003
G1 X279.093 Y137.837
G1 X278.755 Y137.654
G1 X278.470 Y137.469
G1 X278.161 Y137.300
G1 X277.843 Y137.106
G1 X277.548 Y136.933
G1 X277.218 Y136.740
G1 X276.912 Y136.540
G1 X276.601 Y136.366
G1 X276.317 Y136.156
G1 X275.998 Y135.978
; Path 9
G0 Z0
G0 X275.956 Y136.002
G0 Z2.2
G1 F3000
G1 X275.614 Y135.829
G1 X275.256 Y135.691
G1 X274.928 Y135.533
G1 X274.557 Y135.366
G1 X274.224 Y135.188
G1 X273.858 Y135.033
G1 X273.528 Y134.842
G1 X273.158 Y134.698
G1 X272.803 Y134.559
G1 X272.459 Y134.367
G1 X272.108 Y134.215
G1 X271.759 Y134.046
G1 X271.412 Y133.878
G1 X271.060 Y133.741
G1 X270.720 Y133.578
G1 X270.360 Y133.458
G1 X270.018 Y133.337
G1 X269.660 Y133.203
G1 X269.304 Y133.090
G1 X268.960 Y132.982
G1 X268.636 Y132.889
G1 X268.260 Y132.799
G1 X267.935 Y132.749
G1 X267.560 Y132.650
G1 X267.223 Y132.597
G1 X266.859 Y132.529
G1 X266.495 Y132.472
G1 X266.158 Y132.430
G1 X265.838 Y132.406
G1 X265.457 Y132.347
G1 X265.128 Y132.288
G1 X264.756 Y132.274
G1 X264.411 Y132.223
G1 X264.055 Y132.205
G1 X263.733 Y132.147
G1 X263.354 Y132.134
G1 X262.977 Y132.078
G1 X262.654 Y132.055
G1 X262.287 Y131.990
G1 X261.953 Y131.962
; Path 10
G0 Z0
G0 X261.973 Y131.950
G0 Z2.2
G1 F3000
G1 X261.635 Y131.977
G1 X261.273 Y132.046
G1 X260.908 Y132.099
G1 X260.573 Y132.128
G1 X260.220 Y132.176
G1 X259.873 Y132.202
G1 X259.522 Y132.259
G1 X259.174 Y132.274
G1 X258.825 Y132.329
G1 X258.474 Y132.350
G1 X258.132 Y132.366
G1 X257.774 Y132.436
G1 X257.434 Y132.516
G1 X257.074 Y132.537
G1 X256.719 Y132.607
G1 X256.374 Y132.660
G1 X256.050 Y132.734
G1 X255.674 Y132.811
G1 X255.344 Y132.890
G1 X254.974 Y132.994
G1 X254.617 Y133.107
G1 X254.274 Y133.215
G1 X253.932 Y133.328
G1 X253.574 Y133.469
G1 X253.197 Y133.621
G1 X252.873 Y133.750
G1 X252.519 Y133.922
G1 X252.173 Y134.053
G1 X251.849 Y134.188
G1 X251.472 Y134.371
G1 X251.105 Y134.565
G1 X250.772 Y134.700
G1 X250.410 Y134.883
G1 X250.071 Y135.032
G1 X249.731 Y135.210
G1 X249.371 Y135.362
G1 X249.003 Y135.549
G1 X248.670 Y135.684
G1 X248.346 Y135.820
G1 X247.970 Y135.993
; Path 11
G0 Z0
G0 X247.973 Y135.995
G0 Z2.2
G1 F3000
G1 X247.668 Y136.169
G1 X247.362 Y136.385
G1 X247.076 Y136.598
G1 X246.736 Y136.761
G1 X246.413 Y136.949
G1 X246.102 Y137.128
G1 X245.798 Y137.297
G1 X245.466 Y137.494
G1 X245.175 Y137.695
G1 X244.834 Y137.864
G1 X244.533 Y138.051
G1 X244.212 Y138.244
G1 X243.883 Y138.422
G1 X243.607 Y138.640
G1 X243.330 Y138.877
G1 X243.025 Y139.058
G1 X242.749 Y139.254
G1 X242.471 Y139.504
G1 X242.229 Y139.735
G1 X241.953 Y139.984
G1 X241.705 Y140.236
G1 X241.474 Y140.503
G1 X241.239 Y140.761
G1 X241.030 Y141.056
G1 X240.810 Y141.370
G1 X240.615 Y141.637
G1 X240.438 Y141.968
G1 X240.223 Y142.240
G1 X240.036 Y142.537
G1 X239.847 Y142.859
G1 X239.661 Y143.159
G1 X239.482 Y143.488
G1 X239.293 Y143.784
G1 X239.121 Y144.122
G1 X238.913 Y144.455
G1 X238.758 Y144.753
G1 X238.594 Y145.073
G1 X238.386 Y145.376
G1 X238.219 Y145.666
G1 X238.000 Y145.985
; Path 12
G0 Z0
G0 X238.003 Y145.951
G0 Z2.2
G1 F3000
G1 X237.778 Y146.321
G1 X237.583 Y146.651
G1 X237.352 Y146.974
G1 X237.134 Y147.350
G1 X236.888 Y147.694
G1 X236.669 Y148.050
G1 X236.416 Y148.422
G1 X236.200 Y148.749
G1 X235.944 Y149.069
G1 X235.739 Y149.448
G1 X235.545 Y149.819
G1 X235.298 Y150.148
G1 X235.066 Y150.510
G1 X234.889 Y150.848
G1 X234.702 Y151.189
G1 X234.525 Y151.548
G1 X234.378 Y151.878
G1 X234.217 Y152.248
G1 X234.078 Y152.621
G1 X233.977 Y152.949
G1 X233.889 Y153.307
G1 X233.814 Y153.650
G1 X233.750 Y154.004
G1 X233.719 Y154.351
G1 X233.684 Y154.679
G1 X233.681 Y155.053
G1 X233.673 Y155.378
G1 X233.687 Y155.755
G1 X233.692 Y156.091
G1 X233.725 Y156.458
G1 X233.764 Y156.825
G1 X233.783 Y157.160
G1 X233.812 Y157.518
G1 X233.849 Y157.863
G1 X233.861 Y158.222
G1 X233.912 Y158.565
G1 X233.962 Y158.901
G1 X233.958 Y159.268
G1 X233.953 Y159.628
G1 X233.976 Y159.970
; Path 13
G0 Z0
G0 X233.983 Y160.003
G0 Z2.2
G1 F3000
G1 X233.985 Y160.355
G1 X233.964 Y160.699
G1 X233.941 Y161.073
G1 X233.916 Y161.396
G1 X233.898 Y161.742
G1 X233.852 Y162.092
G1 X233.812 Y162.410
G1 X233.785 Y162.788
G1 X233.754 Y163.154
G1 X233.725 Y163.484
G1 X233.683 Y163.810
G1 X233.685 Y164.181
G1 X233.683 Y164.523
G1 X233.678 Y164.878
G1 X233.725 Y165.229
G1 X233.715 Y165.575
G1 X233.757 Y165.899
G1 X233.808 Y166.274
G1 X233.867 Y166.622
G1 X233.969 Y166.973
G1 X234.077 Y167.298
G1 X234.207 Y167.674
G1 X234.356 Y168.040
G1 X234.513 Y168.376
G1 X234.690 Y168.703
G1 X234.876 Y169.078
G1 X235.098 Y169.420
G1 X235.282 Y169.782
G1 X235.528 Y170.155
G1 X235.721 Y170.485
G1 X235.930 Y170.826
G1 X236.180 Y171.189
G1 X236.434 Y171.565
G1 X236.647 Y171.894
G1 X236.867 Y172.270
G1 X237.110 Y172.598
G1 X237.354 Y172.938
G1 X237.557 Y173.302
G1 X237.796 Y173.678
G1 X237.976 Y174.005
; Path 14
G0 Z0
G0 X237.983 Y173.963
G0 Z2.2
G1 F3000
G1 X238.196 Y174.247
G1 X238.373 Y174.575
G1 X238.542 Y174.911
G1 X238.748 Y175.201
G1 X238.960 Y175.515
G1 X239.116 Y175.835
G1 X239.301 Y176.134
G1 X239.481 Y176.471
G1 X239.651 Y176.782
G1 X239.851 Y177.103
G1 X240.053 Y177.410
G1 X240.230 Y177.725
G1 X240.451 Y178.011
G1 X240.626 Y178.330
G1 X240.808 Y178.609
G1 X241.044 Y178.914
G1 X241.282 Y179.211
G1 X241.491 Y179.469
G1 X241.708 Y179.741
G1 X241.972 Y179.989
G1 X242.231 Y180.246
G1 X242.492 Y180.471
G1 X242.750 Y180.712
G1 X243.047 Y180.919
G1 X243.335 Y181.126
G1 X243.629 Y181.338
G1 X243.957 Y181.565
G1 X244.235 Y181.735
G1 X244.560 Y181.946
G1 X244.856 Y182.116
G1 X245.146 Y182.315
G1 X245.488 Y182.487
G1 X245.796 Y182.663
G1 X246.123 Y182.853
G1 X246.430 Y183.045
G1 X246.757 Y183.222
G1 X247.075 Y183.383
G1 X247.382 Y183.598
G1 X247.715 Y183.799
G1 X247.994 Y183.989
; Path 15
G0 Z0
G0 X247.998 Y183.954
G0 Z2.2
G1 F3000
G1 X248.324 Y184.086
G1 X248.697 Y184.268
G1 X249.049 Y184.448
G1 X249.396 Y184.595
G1 X249.743 Y184.776
G1 X250.094 Y184.931
G1 X250.426 Y185.073
G1 X250.793 Y185.269
G1 X251.158 Y185.410
G1 X251.491 Y185.603
G1 X251.814 Y185.773
G1 X252.190 Y185.927
G1 X252.519 Y186.109
G1 X252.888 Y186.234
G1 X253.249 Y186.394
G1 X253.587 Y186.519
G1 X253.936 Y186.637
G1 X254.286 Y186.775
G1 X254.641 Y186.858
G1 X254.985 Y186.996
G1 X255.332 Y187.089
G1 X255.683 Y187.179
G1 X256.013 Y187.239
G1 X256.382 Y187.327
G1 X256.741 Y187.368
G1 X257.081 Y187.447
G1 X257.434 Y187.515
G1 X257.780 Y187.544
G1 X258.138 Y187.561
G1 X258.479 Y187.624
G1 X258.829 Y187.649
G1 X259.178 Y187.695
G1 X259.510 Y187.714
G1 X259.877 Y187.761
G1 X260.200 Y187.819
G1 X260.575 Y187.829
G1 X260.900 Y187.877
G1 X261.274 Y187.906
G1 X261.626 Y187.937
G1 X261.973 Y187.997
; Path 16
G0 Z0
G0 X261.948 Y187.990
G0 Z2.2
G1 F3000
G1 X262.328 Y187.923
G1 X262.651 Y187.898
G1 X263.015 Y187.876
G1 X263.354 Y187.821
G1 X263.691 Y187.811
G1 X264.057 Y187.751
G1 X264.399 Y187.726
G1 X264.760 Y187.683
G1 X265.133 Y187.639
G1 X265.463 Y187.611
G1 X265.841 Y187.562
G1 X266.166 Y187.530
G1 X266.488 Y187.469
G1 X266.869 Y187.432
G1 X267.224 Y187.383
G1 X267.571 Y187.313
G1 X267.909 Y187.256
G1 X268.273 Y187.166
G1 X268.604 Y187.078
G1 X268.974 Y186.985
G1 X269.325 Y186.886
G1 X269.674 Y186.766
G1 X269.999 Y186.632
G1 X270.373 Y186.514
G1 X270.714 Y186.354
G1 X271.072 Y186.234
G1 X271.409 Y186.062
G1 X271.771 Y185.932
G1 X272.129 Y185.795
G1 X272.469 Y185.615
G1 X272.841 Y185.446
G1 X273.168 Y185.287
G1 X273.518 Y185.116
G1 X273.866 Y184.955
G1 X274.204 Y184.796
G1 X274.564 Y184.626
G1 X274.886 Y184.441
G1 X275.262 Y184.304
G1 X275.617 Y184.128
G1 X275.960 Y183.996
; Path 17
G0 Z0
G0 X275.985 Y183.993
G0 Z2.2
G1 F3000
G1 X276.295 Y183.802
G1 X276.592 Y183.599
G1 X276.913 Y183.391
G1 X277.213 Y183.219
G1 X277.513 Y183.057
G1 X277.843 Y182.847
G1 X278.174 Y182.645
G1 X278.474 Y182.477
G1 X278.798 Y182.317
G1 X279.101 Y182.103
G1 X279.413 Y181.882
G1 X279.719 Y181.719
G1 X280.007 Y181.544
G1 X280.320 Y181.319
G1 X280.632 Y181.126
G1 X280.899 Y180.897
G1 X281.183 Y180.655
G1 X281.451 Y180.448
G1 X281.714 Y180.215
G1 X281.968 Y179.965
G1 X282.232 Y179.692
G1 X282.447 Y179.445
G1 X282.665 Y179.175
G1 X282.892 Y178.890
G1 X283.077 Y178.611
G1 X283.309 Y178.308
G1 X283.480 Y177.992
G1 X283.704 Y177.705
G1 X283.891 Y177.409
G1 X284.083 Y177.085
G1 X284.255 Y176.748
G1 X284.452 Y176.456
G1 X284.610 Y176.122
G1 X284.817 Y175.822
G1 X284.996 Y175.488
G1 X285.184 Y175.191
G1 X285.394 Y174.876
G1 X285.559 Y174.567
G1 X285.762 Y174.271
G1 X285.948 Y173.957
; Path 18
G0 Z0
G0 X285.950 Y173.958
G0 Z2.2
G1 F3000
G1 X286.162 Y173.598
G1 X286.371 Y173.260
G1 X286.569 Y172.902
G1 X286.821 Y172.562
G1 X287.030 Y172.211
G1 X287.287 Y171.864
G1 X287.523 Y171.543
G1 X287.756 Y171.166
G1 X287.958 Y170.811
G1 X288.218 Y170.469
G1 X288.434 Y170.095
G1 X288.659 Y169.771
G1 X288.836 Y169.407
G1 X289.069 Y169.073
G1 X289.250 Y168.712
G1 X289.433 Y168.375
G1 X289.577 Y168.023
G1 X289.742 Y167.677
G1 X289.890 Y167.317
G1 X289.982 Y166.979
G1 X290.058 Y166.619
G1 X290.146 Y166.281
G1 X290.168 Y165.927
G1 X290.241 Y165.583
G1 X290.242 Y165.223
G1 X290.279 Y164.885
G1 X290.251 Y164.515
G1 X290.274 Y164.187
G1 X290.239 Y163.863
G1 X290.236 Y163.489
G1 X290.220 Y163.156
G1 X290.178 Y162.791
G1 X290.148 Y162.414
G1 X290.111 Y162.093
G1 X290.092 Y161.727
G1 X290.049 Y161.394
G1 X290.030 Y161.023
G1 X290.003 Y160.696
G1 X290.015 Y160.363
G1 X289.986 Y159.998
; Path 19
G0 Z0
G0 X293.936 Y159.913
G0 Z2.2
G1 F3000
G1 X294.688 Y159.875
G1 X295.573 Y159.976
G1 X296.298 Y159.905
G1 X297.086 Y159.922
G1 X297.963 Y160.004
; Path 20
G0 Z0
G0 X287.986 Y172.003
G0 Z2.2
G1 F3000
G1 X286.479 Y171.166
G1 X284.963 Y170.307
G1 X283.522 Y169.527
G1 X282.019 Y168.691
G1 X280.498 Y167.830
G1 X279.003 Y166.996
; Path 21
G0 Z0
G0 X275.968 Y172.950
G0 Z2.2
G1 F3000
G1 X276.972 Y174.268
G1 X277.960 Y175.638
G1 X278.959 Y176.965
G1 X279.953 Y178.311
G1 X280.949 Y179.663
G1 X281.948 Y180.977
; Path 22
G0 Z0
G0 X274.982 Y177.969
G0 Z2.2
G1 F3000
G1 X272.982 Y178.217
G1 X271.054 Y178.491
G1 X269.083 Y178.759
G1 X267.069 Y179.036
G1 X265.116 Y179.306
G1 X263.165 Y179.591
G1 X261.207 Y179.817
G1 X259.187 Y180.116
G1 X257.231 Y180.365
G1 X255.291 Y180.629
G1 X253.333 Y180.867
G1 X251.340 Y181.178
G1 X249.353 Y181.401
G1 X247.421 Y181.678
G1 X245.427 Y181.958
G1 X243.433 Y182.229
G1 X241.475 Y182.467
G1 X239.483 Y182.730
G1 X237.562 Y182.990
G1 X235.547 Y183.250
G1 X233.626 Y183.530
G1 X231.632 Y183.784
G1 X229.664 Y184.066
G1 X227.658 Y184.361
G1 X225.729 Y184.607
G1 X223.738 Y184.863
G1 X221.795 Y185.123
G1 X219.809 Y185.392
G1 X217.826 Y185.654
G1 X215.878 Y185.904
G1 X213.914 Y186.212
G1 X211.948 Y186.441
G1 X209.928 Y186.716
G1 X207.977 Y186.988
; Path 23
G0 Z0
G0 X209.994 Y184.955
G0 Z2.2
G1 F3000
G1 X209.996 Y183.315
G1 X209.990 Y181.603
G1 X209.954 Y179.970
; Path 24
G0 Z0
G0 X207.951 Y179.981
G0 Z2.2
G1 F3000
G1 X207.684 Y178.582
G1 X207.392 Y177.146
G1 X207.056 Y175.700
G1 X206.736 Y174.256
G1 X206.406 Y172.799
G1 X206.023 Y171.334
G1 X205.681 Y169.889
G1 X205.297 Y168.404
G1 X204.956 Y166.919
G1 X204.598 Y165.490
G1 X204.275 Y164.074
G1 X203.969 Y162.616
G1 X203.689 Y161.199
G1 X203.452 Y159.806
G1 X203.255 Y158.439
G1 X203.089 Y157.083
G1 X203.024 Y155.784
G1 X202.921 Y154.471
G1 X202.939 Y153.245
G1 X202.990 Y151.995
G1 X203.141 Y150.824
G1 X203.324 Y149.669
G1 X203.638 Y148.576
G1 X203.896 Y147.480
G1 X204.284 Y146.417
G1 X204.663 Y145.401
G1 X205.125 Y144.435
G1 X205.584 Y143.410
G1 X206.090 Y142.425
G1 X206.616 Y141.483
G1 X207.196 Y140.534
G1 X207.719 Y139.595
G1 X208.258 Y138.640
G1 X208.849 Y137.724
G1 X209.429 Y136.770
G1 X209.965 Y135.844
G1 X210.508 Y134.884
G1 X211.025 Y133.933
G1 X211.482 Y132.931
G1 X211.988 Y131.966
; Path 25
G0 Z0
G0 X232.022 Y136.953
G0 Z2.2
G1 F3000
G1 X231.296 Y136.511
G1 X230.495 Y136.219
G1 X229.550 Y135.855
G1 X228.831 Y135.367
G1 X228.020 Y135.008
; Path 26
G0 Z0
G0 X227.996 Y131.971
G0 Z2.2
G1 F3000
G1 X227.573 Y132.980
G1 X227.136 Y133.936
G1 X226.657 Y134.896
G1 X226.184 Y135.846
G1 X225.711 Y136.768
G1 X225.180 Y137.724
G1 X224.666 Y138.644
G1 X224.164 Y139.595
G1 X223.662 Y140.508
G1 X223.173 Y141.481
G1 X222.699 Y142.453
G1 X222.247 Y143.407
G1 X221.809 Y144.372
G1 X221.426 Y145.396
G1 X221.080 Y146.450
G1 X220.748 Y147.473
G1 X220.498 Y148.551
G1 X220.251 Y149.661
G1 X220.122 Y150.833
G1 X219.977 Y151.985
G1 X219.943 Y153.217
G1 X219.949 Y154.459
G1 X220.063 Y155.752
G1 X220.142 Y157.069
G1 X220.344 Y158.414
G1 X220.518 Y159.790
G1 X220.750 Y161.167
G1 X221.037 Y162.599
G1 X221.330 Y164.059
G1 X221.660 Y165.471
G1 X222.006 Y166.925
G1 X222.348 Y168.383
G1 X222.714 Y169.847
G1 X223.063 Y171.311
G1 X223.420 Y172.786
G1 X223.764 Y174.231
G1 X224.076 Y175.665
G1 X224.413 Y177.119
G1 X224.691 Y178.509
G1 X224.971 Y179.952
; Path 27
G0 Z0
G0 X226.989 Y179.966
G0 Z2.2
G1 F3000
G1 X226.983 Y181.667
G1 X227.004 Y183.316
G1 X226.977 Y184.983
; Path 28
G0 Z0
G0 X228.004 Y184.963
G0 Z2.2
G1 F3000
G1 X228.818 Y184.569
G1 X229.653 Y184.206
G1 X230.394 Y183.810
G1 X231.193 Y183.304
G1 X231.937 Y182.945
; Path 29
G0 Z0
G0 X239.950 Y179.959
G0 Z2.2
G1 F3000
G1 X239.966 Y181.605
G1 X239.972 Y183.293
G1 X239.968 Y184.978
; Path 30
G0 Z0
G0 X229.962 Y189.966
G0 Z2.2
G1 F3000
G1 X230.212 Y188.184
G1 X230.440 Y186.398
G1 X230.675 Y184.539
G1 X230.883 Y182.725
G1 X231.086 Y180.843
G1 X231.305 Y178.991
G1 X231.504 Y177.146
G1 X231.723 Y175.243
G1 X231.927 Y173.407
G1 X232.150 Y171.524
G1 X232.387 Y169.709
G1 X232.603 Y167.881
G1 X232.833 Y166.104
G1 X233.096 Y164.358
G1 X233.367 Y162.662
G1 X233.644 Y161.000
G1 X233.965 Y159.427
G1 X234.262 Y157.853
G1 X234.601 Y156.415
G1 X234.966 Y154.962
G1 X235.343 Y153.625
G1 X235.733 Y152.303
G1 X236.138 Y151.069
G1 X236.537 Y149.816
G1 X236.970 Y148.643
G1 X237.383 Y147.493
G1 X237.800 Y146.382
G1 X238.277 Y145.322
G1 X238.733 Y144.337
G1 X239.226 Y143.296
G1 X239.742 Y142.368
G1 X240.234 Y141.405
G1 X240.753 Y140.518
G1 X241.308 Y139.639
G1 X241.893 Y138.795
G1 X242.454 Y137.990
G1 X243.054 Y137.205
G1 X243.677 Y136.447
G1 X244.331 Y135.715
G1 X244.983 Y135.003
G1 X245.681 Y134.358
G1 X246.399 Y133.717
G1 X247.173 Y133.177
G1 X247.934 Y132.635
G1 X248.733 Y132.180
G1 X249.566 Y131.720
G1 X250.428 Y131.300
G1 X251.274 Y130.936
G1 X252.175 Y130.612
G1 X253.038 Y130.248
G1 X253.909 Y129.918
G1 X254.838 Y129.620
G1 X255.752 Y129.305
G1 X256.651 Y129.015
G1 X257.579 Y128.698
G1 X258.457 Y128.398
G1 X259.372 Y128.067
G1 X260.235 Y127.734
G1 X261.116 Y127.352
G1 X261.964 Y126.986
; Path 31
G0 Z0
G0 X261.991 Y126.975
G0 Z2.2
G1 F3000
G1 X262.884 Y127.342
G1 X263.721 Y127.719
G1 X264.613 Y128.064
G1 X265.500 Y128.378
G1 X266.404 Y128.677
G1 X267.307 Y128.988
G1 X268.238 Y129.273
G1 X269.121 Y129.587
G1 X270.009 Y129.899
G1 X270.921 Y130.209
G1 X271.823 Y130.553
G1 X272.686 Y130.893
G1 X273.559 Y131.267
G1 X274.395 Y131.672
G1 X275.193 Y132.129
G1 X276.027 Y132.585
G1 X276.787 Y133.136
G1 X277.562 Y133.666
G1 X278.283 Y134.291
G1 X278.978 Y134.953
G1 X279.632 Y135.664
G1 X280.283 Y136.402
G1 X280.880 Y137.206
G1 X281.504 Y137.952
G1 X282.063 Y138.766
G1 X282.648 Y139.610
G1 X283.177 Y140.474
G1 X283.719 Y141.387
G1 X284.225 Y142.329
G1 X284.725 Y143.291
G1 X285.198 Y144.289
G1 X285.671 Y145.329
G1 X286.127 Y146.391
G1 X286.563 Y147.511
G1 X287.005 Y148.676
G1 X287.408 Y149.845
G1 X287.838 Y151.102
G1 X288.211 Y152.340
G1 X288.584 Y153.687
G1 X288.978 Y155.004
G1 X289.348 Y156.471
G1 X289.682 Y157.898
G1 X289.985 Y159.454
G1 X290.302 Y161.046
G1 X290.573 Y162.739
G1 X290.852 Y164.402
G1 X291.112 Y166.140
G1 X291.347 Y167.923
G1 X291.591 Y169.759
G1 X291.803 Y171.564
G1 X292.023 Y173.450
G1 X292.233 Y175.279
G1 X292.434 Y177.179
G1 X292.654 Y179.024
G1 X292.855 Y180.892
G1 X293.080 Y182.754
G1 X293.324 Y184.596
G1 X293.526 Y186.425
G1 X293.763 Y188.217
G1 X294.006 Y189.990
; Path 32
G0 Z0
G0 X295.977 Y191.978
G0 Z2.2
G1 F3000
G1 X295.669 Y189.026
G1 X295.402 Y186.017
G1 X295.164 Y182.970
G1 X294.940 Y179.904
G1 X294.715 Y176.837
G1 X294.477 Y173.790
G1 X294.210 Y170.781
G1 X293.902 Y167.830
G1 X293.539 Y164.954
G1 X293.106 Y162.175
G1 X292.590 Y159.509
G1 X291.977 Y156.978
G1 X291.276 Y154.542
G1 X290.509 Y152.156
G1 X289.680 Y149.829
G1 X288.791 Y147.570
G1 X287.847 Y145.388
G1 X286.852 Y143.290
G1 X285.807 Y141.287
G1 X284.717 Y139.385
G1 X283.586 Y137.595
G1 X282.416 Y135.925
G1 X281.212 Y134.383
G1 X279.977 Y132.978
G1 X278.687 Y131.751
G1 X277.324 Y130.719
G1 X275.898 Y129.853
G1 X274.421 Y129.126
G1 X272.902 Y128.510
G1 X271.352 Y127.978
G1 X269.780 Y127.501
G1 X268.199 Y127.052
G1 X266.617 Y126.603
G1 X265.046 Y126.126
G1 X263.496 Y125.594
G1 X261.977 Y124.978
; Path 33
G1 X260.457 Y125.594
G1 X258.907 Y126.126
G1 X257.336 Y126.603
G1 X255.754 Y127.052
G1 X254.173 Y127.501
G1 X252.602 Y127.978
G1 X251.051 Y128.510
G1 X249.532 Y129.126
G1 X248.055 Y129.853
G1 X246.629 Y130.719
G1 X245.266 Y131.751
G1 X243.977 Y132.978
G1 X242.741 Y134.383
G1 X241.537 Y135.925
G1 X240.367 Y137.595
G1 X239.236 Y139.385
G1 X238.146 Y141.287
G1 X237.102 Y143.290
G1 X236.106 Y145.388
G1 X235.162 Y147.570
G1 X234.273 Y149.829
G1 X233.444 Y152.156
G1 X232.677 Y154.542
G1 X231.977 Y156.978
G1 X231.363 Y159.509
G1 X230.847 Y162.175
G1 X230.414 Y164.954
G1 X230.051 Y167.830
G1 X229.743 Y170.781
G1 X229.477 Y173.790
G1 X229.238 Y176.837
G1 X229.014 Y179.904
G1 X228.789 Y182.970
G1 X228.551 Y186.017
G1 X228.284 Y189.026
G1 X227.977 Y191.978
; Path 34
G0 Z0
G0 X222.998 Y179.958
G0 Z2.2
G1 F3000
G1 X223.001 Y181.656
G1 X222.970 Y183.329
G1 X222.974 Y184.987
; Path 35
G0 Z0
G0 X224.952 Y183.002
G0 Z2.2
G1 F3000
G1 X224.978 Y181.103
G1 X225.054 Y179.192
G1 X225.099 Y177.280
G1 X225.170 Y175.364
G1 X225.192 Y173.479
G1 X225.268 Y171.553
G1 X225.286 Y169.647
G1 X225.362 Y167.740
G1 X225.371 Y165.864
G1 X225.427 Y163.949
G1 X225.502 Y162.015
G1 X225.528 Y160.122
G1 X225.589 Y158.225
G1 X225.623 Y156.329
G1 X225.658 Y154.425
G1 X225.702 Y152.509
G1 X225.785 Y150.594
G1 X225.806 Y148.683
G1 X225.902 Y146.781
G1 X225.905 Y144.889
G1 X225.968 Y142.971
; Path 36
G0 Z0
G0 X226.005 Y159.941
G0 Z2.2
G1 F3000
G1 X227.032 Y160.014
G1 X228.024 Y159.893
G1 X228.880 Y159.965
G1 X229.925 Y159.943
; Path 37
G0 Z0
G0 X229.246 Y160.594
G0 Z2.2
G1 F3000
G1 X230.721 Y159.315
; Path 38
G0 Z0
G0 X234.934 Y157.959
G0 Z2.2
G1 F3000
G1 X234.969 Y155.949
; Path 39
G0 Z0
G0 X234.991 Y154.986
G0 Z2.2
G1 F3000
G1 X234.988 Y154.681
G1 X235.003 Y154.383
G1 X235.001 Y154.067
G1 X235.036 Y153.780
G1 X235.036 Y153.501
G1 X235.080 Y153.177
G1 X235.100 Y152.884
G1 X235.127 Y152.574
G1 X235.148 Y152.262
G1 X235.169 Y151.970
G1 X235.202 Y151.650
G1 X235.196 Y151.367
G1 X235.198 Y151.039
G1 X235.199 Y150.764
G1 X235.199 Y150.450
G1 X235.169 Y150.162
G1 X235.111 Y149.879
G1 X235.098 Y149.561
G1 X235.058 Y149.256
G1 X234.976 Y148.960
G1 X234.887 Y148.649
G1 X234.798 Y148.360
G1 X234.690 Y148.076
G1 X234.570 Y147.761
G1 X234.432 Y147.478
G1 X234.300 Y147.163
G1 X234.122 Y146.847
G1 X233.997 Y146.565
G1 X233.806 Y146.270
G1 X233.671 Y145.968
G1 X233.493 Y145.673
G1 X233.330 Y145.371
G1 X233.150 Y145.053
G1 X232.983 Y144.774
G1 X232.804 Y144.486
G1 X232.639 Y144.176
G1 X232.492 Y143.866
G1 X232.307 Y143.579
G1 X232.129 Y143.285
G1 X231.996 Y142.982
; Path 40
G0 Z0
G0 X231.969 Y142.999
G0 Z2.2
G1 F3000
G1 X231.690 Y142.800
G1 X231.371 Y142.580
G1 X231.090 Y142.371
G1 X230.773 Y142.139
G1 X230.450 Y141.890
G1 X230.175 Y141.686
G1 X229.867 Y141.445
G1 X229.577 Y141.230
G1 X229.304 Y140.981
G1 X228.978 Y140.781
G1 X228.703 Y140.563
G1 X228.380 Y140.346
G1 X228.081 Y140.155
G1 X227.782 Y139.937
G1 X227.507 Y139.765
G1 X227.183 Y139.561
G1 X226.882 Y139.405
G1 X226.584 Y139.228
G1 X226.284 Y139.108
G1 X225.984 Y138.948
G1 X225.696 Y138.836
G1 X225.383 Y138.726
G1 X225.092 Y138.655
G1 X224.782 Y138.557
G1 X224.496 Y138.472
G1 X224.181 Y138.431
G1 X223.903 Y138.401
G1 X223.579 Y138.339
G1 X223.274 Y138.303
G1 X222.977 Y138.271
G1 X222.680 Y138.226
G1 X222.374 Y138.219
G1 X222.090 Y138.210
G1 X221.772 Y138.173
G1 X221.452 Y138.144
G1 X221.169 Y138.124
G1 X220.888 Y138.080
G1 X220.567 Y138.062
G1 X220.273 Y137.999
G1 X219.965 Y137.979
; Path 41
G0 Z0
G0 X219.969 Y137.991
G0 Z2.2
G1 F3000
G1 X219.695 Y138.049
G1 X219.367 Y138.075
G1 X219.096 Y138.133
G1 X218.765 Y138.138
G1 X218.471 Y138.140
G1 X218.162 Y138.188
G1 X217.880 Y138.186
G1 X217.560 Y138.236
G1 X217.267 Y138.260
G1 X216.957 Y138.289
G1 X216.656 Y138.317
G1 X216.355 Y138.358
G1 X216.053 Y138.384
G1 X215.753 Y138.451
G1 X215.476 Y138.486
G1 X215.151 Y138.577
G1 X214.855 Y138.686
G1 X214.550 Y138.746
G1 X214.248 Y138.866
G1 X213.950 Y138.966
G1 X213.671 Y139.109
G1 X213.351 Y139.245
G1 X213.054 Y139.439
G1 X212.752 Y139.574
G1 X212.428 Y139.765
G1 X212.154 Y139.947
G1 X211.856 Y140.142
G1 X211.557 Y140.352
G1 X211.229 Y140.593
G1 X210.960 Y140.782
G1 X210.657 Y141.013
G1 X210.363 Y141.227
G1 X210.055 Y141.471
G1 X209.766 Y141.678
G1 X209.462 Y141.895
G1 X209.169 Y142.127
G1 X208.880 Y142.337
G1 X208.572 Y142.563
G1 X208.256 Y142.781
G1 X207.975 Y142.977
; Path 42
G0 Z0
G0 X207.991 Y142.970
G0 Z2.2
G1 F3000
G1 X207.857 Y143.244
G1 X207.673 Y143.569
G1 X207.474 Y143.854
G1 X207.334 Y144.168
G1 X207.151 Y144.458
G1 X206.983 Y144.766
G1 X206.813 Y145.079
G1 X206.628 Y145.365
G1 X206.459 Y145.659
G1 X206.280 Y145.963
G1 X206.121 Y146.265
G1 X205.947 Y146.562
G1 X205.807 Y146.858
G1 X205.638 Y147.161
G1 X205.485 Y147.450
G1 X205.363 Y147.760
G1 X205.266 Y148.084
G1 X205.131 Y148.360
G1 X205.031 Y148.675
G1 X204.952 Y148.960
G1 X204.875 Y149.281
G1 X204.830 Y149.561
G1 X204.803 Y149.851
G1 X204.760 Y150.163
G1 X204.744 Y150.476
G1 X204.733 Y150.765
G1 X204.731 Y151.063
G1 X204.740 Y151.367
G1 X204.758 Y151.697
G1 X204.771 Y151.970
G1 X204.788 Y152.297
G1 X204.817 Y152.573
G1 X204.858 Y152.879
G1 X204.870 Y153.176
G1 X204.924 Y153.472
G1 X204.919 Y153.779
G1 X204.965 Y154.068
G1 X204.957 Y154.382
G1 X204.965 Y154.701
G1 X204.973 Y154.984
; Path 43
G0 Z0
G0 X204.966 Y154.990
G0 Z2.2
G1 F3000
G1 X205.227 Y155.281
G1 X205.442 Y155.614
G1 X205.689 Y155.935
G1 X205.882 Y156.274
G1 X206.102 Y156.631
G1 X206.302 Y156.953
G1 X206.507 Y157.293
G1 X206.717 Y157.638
G1 X206.913 Y157.984
G1 X207.143 Y158.313
G1 X207.380 Y158.661
G1 X207.593 Y158.962
G1 X207.867 Y159.274
G1 X208.084 Y159.571
G1 X208.333 Y159.827
G1 X208.630 Y160.125
G1 X208.951 Y160.352
G1 X209.247 Y160.609
G1 X209.583 Y160.794
G1 X209.949 Y161.007
G1 X210.360 Y161.185
G1 X210.748 Y161.310
G1 X211.203 Y161.420
G1 X211.631 Y161.527
G1 X212.113 Y161.597
G1 X212.586 Y161.673
G1 X213.083 Y161.714
G1 X213.596 Y161.765
G1 X214.133 Y161.809
G1 X214.646 Y161.816
G1 X215.165 Y161.837
G1 X215.721 Y161.842
G1 X216.280 Y161.848
G1 X216.806 Y161.858
G1 X217.328 Y161.840
G1 X217.887 Y161.879
G1 X218.431 Y161.877
G1 X218.947 Y161.920
G1 X219.469 Y161.934
G1 X219.972 Y161.997
; Path 44
G0 Z0
G0 X219.979 Y161.992
G0 Z2.2
G1 F3000
G1 X220.478 Y161.977
G1 X221.003 Y161.913
G1 X221.555 Y161.894
G1 X222.062 Y161.870
G1 X222.589 Y161.842
G1 X223.141 Y161.847
G1 X223.708 Y161.844
G1 X224.225 Y161.829
G1 X224.744 Y161.793
G1 X225.299 Y161.801
G1 X225.812 Y161.799
G1 X226.348 Y161.747
G1 X226.865 Y161.680
G1 X227.357 Y161.654
G1 X227.841 Y161.601
G1 X228.310 Y161.505
G1 X228.777 Y161.414
G1 X229.193 Y161.287
G1 X229.605 Y161.108
G1 X229.991 Y160.983
G1 X230.316 Y160.764
G1 X230.694 Y160.583
G1 X231.029 Y160.353
G1 X231.311 Y160.099
G1 X231.557 Y159.830
G1 X231.858 Y159.544
G1 X232.083 Y159.234
G1 X232.350 Y158.934
G1 X232.546 Y158.633
G1 X232.801 Y158.284
G1 X233.011 Y157.973
G1 X233.228 Y157.609
G1 X233.459 Y157.242
G1 X233.644 Y156.924
G1 X233.880 Y156.610
G1 X234.065 Y156.244
G1 X234.297 Y155.926
G1 X234.507 Y155.584
G1 X234.760 Y155.298
G1 X234.984 Y154.959
; Path 45
G0 Z0
G0 X240.513 Y154.824
G0 Z2.2
G1 F3000
G1 X239.457 Y153.174
; Path 46
G0 Z0
G0 X237.905 Y154.929
G0 Z2.2
G1 F3000
G1 X238.365 Y154.089
G1 X238.984 Y153.390
G1 X239.366 Y152.465
G1 X239.881 Y151.718
G1 X240.431 Y150.851
G1 X240.852 Y150.185
G1 X241.374 Y149.313
G1 X241.888 Y148.581
G1 X242.458 Y147.706
G1 X242.941 Y146.916
; Path 47
G0 Z0
G0 X239.994 Y142.959
G0 Z2.2
G1 F3000
G1 X239.498 Y143.785
G1 X239.071 Y144.589
G1 X238.573 Y145.300
G1 X238.224 Y146.046
G1 X237.685 Y146.843
G1 X237.233 Y147.690
G1 X236.830 Y148.370
G1 X236.355 Y149.308
G1 X235.901 Y150.015
; Path 48
G0 Z0
G0 X236.001 Y147.955
G0 Z2.2
G1 F3000
G1 X237.494 Y148.817
G1 X238.992 Y149.633
G1 X240.511 Y150.483
G1 X241.982 Y151.288
G1 X243.526 Y152.115
G1 X244.997 Y152.955
; Path 49
G0 Z0
G0 X245.836 Y153.508
G0 Z2.2
G1 F3000
G1 X244.087 Y152.444
; Path 50
G0 Z0
G0 X250.881 Y149.939
G0 Z2.2
G1 F3000
G1 X248.884 Y149.992
; Path 51
G0 Z0
G0 X248.005 Y146.999
G0 Z2.2
G1 F3000
G1 X246.990 Y145.664
G1 X246.012 Y144.312
G1 X244.987 Y143.014
G1 X243.943 Y141.683
G1 X242.945 Y140.335
G1 X241.952 Y138.993
; Path 52
G0 Z0
G0 X245.988 Y139.007
G0 Z2.2
G1 F3000
G1 X245.934 Y140.949
G1 X245.895 Y142.909
G1 X245.851 Y144.866
G1 X245.776 Y146.844
G1 X245.758 Y148.768
G1 X245.669 Y150.727
G1 X245.643 Y152.646
G1 X245.588 Y154.596
G1 X245.528 Y156.600
G1 X245.486 Y158.555
G1 X245.474 Y160.463
G1 X245.386 Y162.459
G1 X245.361 Y164.383
G1 X245.293 Y166.308
G1 X245.236 Y168.295
G1 X245.202 Y170.250
G1 X245.145 Y172.205
G1 X245.113 Y174.153
G1 X245.069 Y176.111
G1 X245.007 Y178.047
G1 X244.960 Y179.996
; Path 53
G0 Z0
G0 X243.962 Y179.983
G0 Z2.2
G1 F3000
G1 X243.955 Y181.655
G1 X243.987 Y183.349
G1 X243.988 Y185.003
; Path 54
G0 Z0
G0 X244.984 Y192.994
G0 Z2.2
G1 F3000
G1 X244.954 Y194.897
G1 X244.957 Y196.761
G1 X244.960 Y198.630
G1 X244.953 Y200.516
G1 X244.951 Y202.440
G1 X244.961 Y204.306
G1 X244.955 Y206.166
G1 X244.956 Y208.064
G1 X244.954 Y209.967
; Path 55
G0 Z0
G0 X249.956 Y209.998
G0 Z2.2
G1 F3000
G1 X249.986 Y208.090
G1 X249.983 Y206.198
G1 X249.966 Y204.309
G1 X249.962 Y202.430
G1 X249.952 Y200.549
G1 X249.979 Y198.642
G1 X249.938 Y196.726
G1 X249.950 Y194.868
G1 X249.971 Y192.964
; Path 56
G0 Z0
G0 X249.949 Y192.963
G0 Z2.2
G1 F3000
G1 X249.883 Y192.854
G1 X249.852 Y192.758
G1 X249.780 Y192.665
G1 X249.755 Y192.546
G1 X249.714 Y192.446
G1 X249.659 Y192.330
G1 X249.617 Y192.219
G1 X249.562 Y192.113
G1 X249.509 Y192.021
G1 X249.465 Y191.898
G1 X249.400 Y191.800
G1 X249.369 Y191.688
G1 X249.302 Y191.600
G1 X249.272 Y191.486
G1 X249.214 Y191.418
G1 X249.175 Y191.296
G1 X249.101 Y191.209
G1 X249.078 Y191.119
G1 X249.049 Y191.062
G1 X248.980 Y190.960
G1 X248.945 Y190.893
G1 X248.882 Y190.820
G1 X248.808 Y190.741
G1 X248.784 Y190.697
G1 X248.705 Y190.613
G1 X248.686 Y190.588
G1 X248.658 Y190.561
G1 X248.587 Y190.491
G1 X248.534 Y190.458
G1 X248.488 Y190.402
G1 X248.469 Y190.380
G1 X248.390 Y190.317
G1 X248.310 Y190.296
G1 X248.291 Y190.235
G1 X248.258 Y190.223
G1 X248.192 Y190.152
G1 X248.144 Y190.117
G1 X248.093 Y190.064
G1 X248.043 Y190.010
G1 X247.995 Y189.970
; Path 57
G0 Z0
G0 X246.958 Y189.953
G0 Z2.2
G1 F3000
G1 X246.919 Y190.001
G1 X246.862 Y190.048
G1 X246.795 Y190.068
G1 X246.765 Y190.137
G1 X246.724 Y190.175
G1 X246.669 Y190.222
G1 X246.617 Y190.281
G1 X246.572 Y190.306
G1 X246.545 Y190.347
G1 X246.476 Y190.392
G1 X246.426 Y190.420
G1 X246.379 Y190.482
G1 X246.311 Y190.508
G1 X246.282 Y190.581
G1 X246.211 Y190.656
G1 X246.185 Y190.692
G1 X246.125 Y190.740
G1 X246.088 Y190.816
G1 X246.027 Y190.865
G1 X245.990 Y190.957
G1 X245.919 Y191.045
G1 X245.892 Y191.118
G1 X245.844 Y191.189
G1 X245.794 Y191.296
G1 X245.719 Y191.374
G1 X245.695 Y191.488
G1 X245.652 Y191.613
G1 X245.596 Y191.692
G1 X245.521 Y191.804
G1 X245.496 Y191.903
G1 X245.446 Y191.988
G1 X245.397 Y192.120
G1 X245.376 Y192.245
G1 X245.298 Y192.338
G1 X245.220 Y192.474
G1 X245.198 Y192.556
G1 X245.129 Y192.648
G1 X245.099 Y192.769
G1 X245.042 Y192.885
G1 X245.000 Y192.976
; Path 58
G0 Z0
G0 X250.003 Y185.991
G0 Z2.2
G1 F3000
G1 X250.841 Y184.503
G1 X251.645 Y182.975
G1 X252.475 Y181.472
G1 X253.324 Y179.990
G1 X254.147 Y178.503
G1 X255.000 Y176.994
; Path 59
G0 Z0
G0 X258.004 Y179.951
G0 Z2.2
G1 F3000
G1 X258.021 Y181.620
G1 X257.990 Y183.297
G1 X257.966 Y184.952
; Path 60
G0 Z0
G0 X259.958 Y179.992
G0 Z2.2
G1 F3000
G1 X259.668 Y178.717
G1 X259.408 Y177.467
G1 X259.091 Y176.184
G1 X258.774 Y174.907
G1 X258.462 Y173.634
G1 X258.093 Y172.327
G1 X257.729 Y171.026
G1 X257.399 Y169.741
G1 X257.087 Y168.427
G1 X256.729 Y167.166
G1 X256.430 Y165.895
G1 X256.120 Y164.615
G1 X255.843 Y163.349
G1 X255.605 Y162.105
G1 X255.424 Y160.904
G1 X255.223 Y159.651
G1 X255.108 Y158.485
G1 X255.008 Y157.267
G1 X254.975 Y156.146
G1 X254.997 Y154.969
G1 X255.087 Y153.859
G1 X255.213 Y152.767
G1 X255.436 Y151.721
G1 X255.633 Y150.650
G1 X255.924 Y149.614
G1 X256.220 Y148.604
G1 X256.567 Y147.627
G1 X256.939 Y146.614
G1 X257.342 Y145.655
G1 X257.753 Y144.663
G1 X258.189 Y143.679
G1 X258.628 Y142.738
G1 X259.098 Y141.758
G1 X259.526 Y140.823
G1 X259.963 Y139.889
G1 X260.413 Y138.903
G1 X260.830 Y137.952
G1 X261.251 Y136.963
G1 X261.612 Y135.996
G1 X262.006 Y134.988
; Path 61
G0 Z0
G0 X267.977 Y136.978
G0 Z2.2
G1 F3000
G1 X267.896 Y136.805
G1 X267.821 Y136.621
G1 X267.750 Y136.431
G1 X267.680 Y136.237
G1 X267.611 Y136.043
G1 X267.539 Y135.853
G1 X267.464 Y135.669
G1 X267.384 Y135.496
G1 X267.297 Y135.337
G1 X267.201 Y135.195
G1 X267.095 Y135.074
G1 X266.977 Y134.978
G1 X266.845 Y134.908
G1 X266.701 Y134.862
G1 X266.547 Y134.837
G1 X266.384 Y134.830
G1 X266.214 Y134.836
G1 X266.039 Y134.853
G1 X265.861 Y134.877
G1 X265.680 Y134.904
G1 X265.500 Y134.931
G1 X265.321 Y134.955
G1 X265.146 Y134.971
G1 X264.977 Y134.978
; Path 62
G0 Z0
G0 X262.994 Y134.978
G0 Z2.2
G1 F3000
G1 X262.970 Y136.865
G1 X262.928 Y138.768
G1 X262.839 Y140.706
G1 X262.788 Y142.621
G1 X262.768 Y144.497
G1 X262.743 Y146.417
G1 X262.643 Y148.320
G1 X262.645 Y150.272
G1 X262.588 Y152.162
G1 X262.551 Y154.057
G1 X262.487 Y155.969
G1 X262.430 Y157.896
G1 X262.418 Y159.807
G1 X262.370 Y161.684
G1 X262.266 Y163.611
G1 X262.255 Y165.540
G1 X262.201 Y167.469
G1 X262.179 Y169.322
G1 X262.106 Y171.269
G1 X262.061 Y173.156
G1 X262.040 Y175.104
G1 X261.970 Y176.990
; Path 63
G0 Z0
G0 X251.910 Y164.511
G0 Z2.2
G1 F3000
G1 X250.041 Y165.357
; Path 64
G0 Z0
G0 X247.313 Y160.880
G0 Z2.2
G1 F3000
G1 X248.495 Y159.226
; Path 65
G0 Z0
G0 X249.111 Y157.518
G0 Z2.2
G1 F3000
G1 X250.827 Y158.511
; Path 66
G0 Z0
G0 X255.000 Y155.979
G0 Z2.2
G1 F3000
G1 X254.997 Y153.991
; Path 67
G0 Z0
G0 X252.849 Y154.687
G0 Z2.2
G1 F3000
G1 X251.014 Y155.252
; Path 68
G0 Z0
G0 X242.054 Y152.988
G0 Z2.2
G1 F3000
G1 X241.498 Y153.728
G1 X240.933 Y154.459
G1 X240.453 Y155.377
G1 X239.857 Y156.054
G1 X239.297 Y156.912
G1 X238.742 Y157.649
G1 X238.073 Y158.348
G1 X237.527 Y159.097
G1 X237.013 Y159.918
; Path 69
G0 Z0
G0 X233.983 Y159.962
G0 Z2.2
G1 F3000
G1 X235.998 Y159.971
G1 X237.989 Y159.954
G1 X239.985 Y159.967
G1 X241.960 Y159.955
; Path 70
G0 Z0
G0 X243.055 Y157.999
G0 Z2.2
G1 F3000
G1 X242.475 Y158.744
G1 X241.962 Y159.574
G1 X241.395 Y160.371
G1 X240.740 Y161.088
G1 X240.117 Y161.936
G1 X239.658 Y162.587
G1 X239.124 Y163.485
G1 X238.468 Y164.245
G1 X237.909 Y164.974
; Path 71
G0 Z0
G0 X237.955 Y164.955
G0 Z2.2
G1 F3000
G1 X235.968 Y164.964
G1 X233.950 Y164.930
G1 X231.981 Y164.951
G1 X229.973 Y164.934
G1 X227.941 Y164.979
G1 X225.963 Y164.944
G1 X223.940 Y164.972
G1 X221.981 Y164.994
G1 X219.931 Y164.953
G1 X217.950 Y164.973
G1 X215.951 Y164.949
G1 X213.957 Y164.984
G1 X211.935 Y164.976
G1 X209.965 Y164.995
G1 X207.947 Y164.988
G1 X205.980 Y164.972
G1 X203.944 Y164.973
G1 X201.960 Y164.979
; Path 72
G0 Z0
G0 X201.983 Y164.975
G0 Z2.2
G1 F3000
G1 X201.981 Y162.953
G1 X201.967 Y160.993
G1 X201.984 Y159.002
G1 X201.972 Y157.011
G1 X201.949 Y154.991
G1 X201.972 Y152.977
G1 X201.996 Y151.017
G1 X201.999 Y149.009
G1 X201.951 Y147.021
G1 X201.952 Y144.999
G1 X201.991 Y143.015
G1 X201.962 Y141.021
G1 X201.957 Y139.021
G1 X201.966 Y137.005
; Path 73
G0 Z0
G0 X201.985 Y136.981
G0 Z2.2
G1 F3000
G1 X203.866 Y136.987
G1 X205.749 Y136.959
G1 X207.659 Y136.998
G1 X209.550 Y136.992
G1 X211.434 Y136.952
G1 X213.358 Y136.965
G1 X215.234 Y136.957
G1 X217.130 Y136.983
G1 X219.028 Y136.967
G1 X220.907 Y136.974
G1 X222.831 Y136.948
G1 X224.719 Y136.963
G1 X226.637 Y136.969
G1 X228.515 Y136.955
G1 X230.421 Y136.963
G1 X232.296 Y136.968
G1 X234.194 Y136.934
G1 X236.101 Y136.988
G1 X237.992 Y136.961
; Path 74
G0 Z0
G0 X237.976 Y136.984
G0 Z2.2
G1 F3000
G1 X237.996 Y138.995
G1 X237.969 Y140.983
G1 X237.954 Y142.982
G1 X238.002 Y145.003
G1 X237.998 Y146.978
G1 X238.000 Y148.963
G1 X237.970 Y150.967
G1 X237.995 Y152.951
G1 X237.990 Y154.978
G1 X237.960 Y156.948
G1 X237.993 Y158.947
G1 X238.001 Y160.977
G1 X237.994 Y162.975
G1 X237.990 Y164.957
; Path 75
G0 Z0
G0 X244.913 Y161.906
G0 Z2.2
G1 F3000
G1 X244.300 Y162.648
G1 X243.880 Y163.353
G1 X243.241 Y164.085
G1 X242.743 Y164.812
G1 X242.194 Y165.594
G1 X241.701 Y166.363
G1 X241.140 Y167.018
G1 X240.617 Y167.826
G1 X240.101 Y168.520
G1 X239.444 Y169.255
G1 X238.976 Y170.004
; Path 76
G0 Z0
G0 X235.961 Y171.999
G0 Z2.2
G1 F3000
G1 X237.461 Y171.156
G1 X238.942 Y170.303
G1 X240.469 Y169.486
G1 X241.978 Y168.621
G1 X243.435 Y167.783
G1 X244.955 Y166.956
; Path 77
G0 Z0
G0 X245.931 Y167.177
G0 Z2.2
G1 F3000
G1 X247.933 Y166.904
; Path 78
G0 Z0
G0 X247.956 Y172.961
G0 Z2.2
G1 F3000
G1 X248.302 Y173.191
G1 X248.660 Y173.477
G1 X249.003 Y173.722
G1 X249.365 Y174.013
G1 X249.709 Y174.302
G1 X250.071 Y174.562
G1 X250.408 Y174.851
G1 X250.776 Y175.113
G1 X251.128 Y175.400
G1 X251.481 Y175.658
G1 X251.854 Y175.920
G1 X252.186 Y176.189
G1 X252.530 Y176.471
G1 X252.891 Y176.695
G1 X253.237 Y176.922
G1 X253.595 Y177.169
G1 X253.959 Y177.375
G1 X254.298 Y177.600
G1 X254.646 Y177.768
G1 X255.001 Y177.980
G1 X255.378 Y178.128
G1 X255.703 Y178.303
G1 X256.067 Y178.412
G1 X256.403 Y178.575
G1 X256.770 Y178.663
G1 X257.104 Y178.806
G1 X257.450 Y178.913
G1 X257.803 Y179.003
G1 X258.171 Y179.115
G1 X258.502 Y179.176
G1 X258.880 Y179.226
G1 X259.201 Y179.334
G1 X259.557 Y179.423
G1 X259.900 Y179.486
G1 X260.256 Y179.534
G1 X260.599 Y179.641
G1 X260.968 Y179.712
G1 X261.298 Y179.808
G1 X261.630 Y179.913
G1 X261.997 Y179.996
; Path 79
G0 Z0
G0 X261.962 Y179.990
G0 Z2.2
G1 F3000
G1 X261.933 Y181.651
G1 X261.939 Y183.341
G1 X261.961 Y184.980
; Path 80
G0 Z0
G0 X262.005 Y187.952
G0 Z2.2
G1 F3000
G1 X262.015 Y185.978
G1 X262.010 Y183.983
G1 X262.005 Y181.994
G1 X261.982 Y179.972
; Path 81
G0 Z0
G0 X261.994 Y179.960
G0 Z2.2
G1 F3000
G1 X262.367 Y179.869
G1 X262.691 Y179.775
G1 X263.027 Y179.714
G1 X263.387 Y179.610
G1 X263.747 Y179.550
G1 X264.083 Y179.458
G1 X264.425 Y179.375
G1 X264.779 Y179.309
G1 X265.121 Y179.257
G1 X265.475 Y179.154
G1 X265.805 Y179.082
G1 X266.172 Y178.984
G1 X266.524 Y178.892
G1 X266.869 Y178.789
G1 X267.224 Y178.667
G1 X267.566 Y178.562
G1 X267.944 Y178.431
G1 X268.264 Y178.291
G1 X268.632 Y178.137
G1 X268.963 Y177.970
G1 X269.324 Y177.793
G1 X269.663 Y177.591
G1 X270.026 Y177.368
G1 X270.364 Y177.160
G1 X270.705 Y176.909
G1 X271.065 Y176.687
G1 X271.392 Y176.441
G1 X271.767 Y176.181
G1 X272.092 Y175.943
G1 X272.470 Y175.651
G1 X272.816 Y175.407
G1 X273.172 Y175.106
G1 X273.536 Y174.826
G1 X273.875 Y174.554
G1 X274.229 Y174.301
G1 X274.578 Y174.006
G1 X274.945 Y173.709
G1 X275.280 Y173.469
G1 X275.648 Y173.210
G1 X275.983 Y172.954
; Path 82
G0 Z0
G0 X275.978 Y172.997
G0 Z2.2
G1 F3000
G1 X276.207 Y172.716
G1 X276.495 Y172.401
G1 X276.761 Y172.081
G1 X277.039 Y171.813
G1 X277.293 Y171.545
G1 X277.600 Y171.228
G1 X277.905 Y170.924
G1 X278.164 Y170.645
G1 X278.440 Y170.341
G1 X278.721 Y170.060
G1 X279.013 Y169.745
G1 X279.257 Y169.469
G1 X279.520 Y169.153
G1 X279.762 Y168.870
G1 X279.974 Y168.579
G1 X280.224 Y168.260
G1 X280.425 Y167.945
G1 X280.630 Y167.635
G1 X280.771 Y167.288
G1 X280.969 Y166.993
G1 X281.081 Y166.650
G1 X281.233 Y166.331
G1 X281.328 Y165.983
G1 X281.430 Y165.651
G1 X281.472 Y165.305
G1 X281.571 Y164.956
G1 X281.619 Y164.609
G1 X281.669 Y164.251
G1 X281.726 Y163.885
G1 X281.735 Y163.536
G1 X281.780 Y163.165
G1 X281.781 Y162.817
G1 X281.791 Y162.457
G1 X281.819 Y162.096
G1 X281.837 Y161.741
G1 X281.862 Y161.375
G1 X281.870 Y160.997
G1 X281.920 Y160.659
G1 X281.958 Y160.322
G1 X282.006 Y159.950
; Path 83
G0 Z0
G0 X283.977 Y154.978
G0 Z2.2
G1 F3000
G1 X284.146 Y154.971
G1 X284.321 Y154.955
G1 X284.500 Y154.931
G1 X284.680 Y154.904
G1 X284.861 Y154.877
G1 X285.039 Y154.853
G1 X285.214 Y154.836
G1 X285.384 Y154.830
G1 X285.547 Y154.837
G1 X285.701 Y154.862
G1 X285.845 Y154.908
G1 X285.977 Y154.978
G1 X286.095 Y155.074
G1 X286.201 Y155.195
G1 X286.297 Y155.337
G1 X286.384 Y155.496
G1 X286.464 Y155.669
G1 X286.539 Y155.853
G1 X286.611 Y156.043
G1 X286.680 Y156.237
G1 X286.750 Y156.431
G1 X286.821 Y156.621
G1 X286.896 Y156.805
G1 X286.977 Y156.978
; Path 84
G0 Z0
G0 X287.957 Y147.983
G0 Z2.2
G1 F3000
G1 X286.482 Y148.831
G1 X284.977 Y149.628
G1 X283.502 Y150.479
G1 X281.999 Y151.280
G1 X280.503 Y152.148
G1 X278.999 Y152.961
; Path 85
G0 Z0
G0 X275.003 Y157.068
G0 Z2.2
G1 F3000
G1 X273.003 Y156.797
; Path 86
G0 Z0
G0 X273.019 Y149.942
G0 Z2.2
G1 F3000
G1 X270.980 Y150.052
; Path 87
G0 Z0
G0 X271.023 Y149.998
G0 Z2.2
G1 F3000
G1 X269.014 Y150.024
; Path 88
G0 Z0
G0 X264.029 Y152.628
G0 Z2.2
G1 F3000
G1 X265.912 Y153.328
; Path 89
G0 Z0
G0 X269.970 Y154.970
G0 Z2.2
G1 F3000
G1 X268.149 Y154.316
G1 X266.266 Y153.593
G1 X264.437 Y152.972
G1 X262.625 Y152.283
G1 X260.759 Y151.611
G1 X258.919 Y150.892
G1 X257.101 Y150.212
G1 X255.268 Y149.582
G1 X253.400 Y148.901
G1 X251.593 Y148.192
G1 X249.775 Y147.568
G1 X247.898 Y146.878
G1 X246.058 Y146.174
G1 X244.265 Y145.525
G1 X242.412 Y144.857
G1 X240.553 Y144.179
G1 X238.724 Y143.509
G1 X236.895 Y142.814
G1 X235.047 Y142.165
G1 X233.201 Y141.462
G1 X231.391 Y140.787
G1 X229.526 Y140.091
G1 X227.687 Y139.456
G1 X225.852 Y138.767
G1 X224.033 Y138.100
G1 X222.208 Y137.434
G1 X220.313 Y136.735
G1 X218.493 Y136.070
G1 X216.665 Y135.359
G1 X214.849 Y134.722
G1 X213.008 Y134.005
G1 X211.153 Y133.352
G1 X209.296 Y132.675
G1 X207.471 Y131.979
G1 X205.611 Y131.353
G1 X203.798 Y130.680
G1 X201.960 Y129.975
; Path 90
G0 Z0
G0 X201.952 Y129.996
G0 Z2.2
G1 F3000
G1 X200.089 Y130.655
G1 X198.244 Y131.385
G1 X196.350 Y132.052
G1 X194.471 Y132.731
G1 X192.623 Y133.429
G1 X190.757 Y134.093
G1 X188.915 Y134.770
G1 X187.071 Y135.464
G1 X185.165 Y136.143
G1 X183.309 Y136.812
G1 X181.464 Y137.501
G1 X179.624 Y138.196
G1 X177.745 Y138.835
G1 X175.884 Y139.559
G1 X174.011 Y140.229
G1 X172.131 Y140.917
G1 X170.256 Y141.585
G1 X168.428 Y142.285
G1 X166.580 Y142.914
G1 X164.712 Y143.630
G1 X162.845 Y144.289
G1 X160.946 Y144.955
G1 X159.081 Y145.650
G1 X157.247 Y146.346
G1 X155.358 Y147.011
G1 X153.546 Y147.731
G1 X151.639 Y148.359
G1 X149.805 Y149.058
G1 X147.944 Y149.767
G1 X146.055 Y150.420
G1 X144.191 Y151.107
G1 X142.327 Y151.809
G1 X140.461 Y152.447
G1 X138.640 Y153.184
G1 X136.734 Y153.845
G1 X134.886 Y154.510
G1 X133.033 Y155.200
G1 X131.139 Y155.874
G1 X129.296 Y156.557
G1 X127.431 Y157.244
G1 X125.596 Y157.919
G1 X123.705 Y158.595
G1 X121.826 Y159.260
G1 X119.990 Y159.966
; Path 91
G0 Z0
G0 X119.977 Y149.978
G0 Z2.2
G1 F3000
G1 X319.977 Y149.978
; Path 92
G0 Z0
G0 X295.975 Y136.936
G0 Z2.2
G1 F3000
G1 X295.236 Y136.491
G1 X294.304 Y136.163
G1 X293.577 Y135.827
G1 X292.660 Y135.490
G1 X291.907 Y135.052
; Path 93
G0 Z0
G0 X279.977 Y142.978
G0 Z2.2
G1 F3000
G1 X280.146 Y142.971
G1 X280.321 Y142.955
G1 X280.500 Y142.931
G1 X280.680 Y142.904
G1 X280.861 Y142.877
G1 X281.039 Y142.853
G1 X281.214 Y142.836
G1 X281.384 Y142.830
G1 X281.547 Y142.837
G1 X281.701 Y142.862
G1 X281.845 Y142.908
G1 X281.977 Y142.978
G1 X282.095 Y143.074
G1 X282.201 Y143.195
G1 X282.297 Y143.337
G1 X282.384 Y143.496
G1 X282.464 Y143.669
G1 X282.539 Y143.853
G1 X282.611 Y144.043
G1 X282.680 Y144.237
G1 X282.750 Y144.431
G1 X282.821 Y144.621
G1 X282.896 Y144.805
G1 X282.977 Y144.978
; Path 94
G0 Z0
G0 X281.960 Y138.970
G0 Z2.2
G1 F3000
G1 X280.757 Y140.587
G1 X279.578 Y142.185
G1 X278.359 Y143.772
G1 X277.171 Y145.376
G1 X275.983 Y146.970
; Path 95
G0 Z0
G0 X275.964 Y146.972
G0 Z2.2
G1 F3000
G1 X275.629 Y146.697
G1 X275.263 Y146.457
G1 X274.884 Y146.165
G1 X274.563 Y145.920
G1 X274.227 Y145.668
G1 X273.863 Y145.371
G1 X273.487 Y145.076
G1 X273.163 Y144.818
G1 X272.836 Y144.522
G1 X272.463 Y144.272
G1 X272.092 Y143.989
G1 X271.762 Y143.741
G1 X271.393 Y143.481
G1 X271.062 Y143.235
G1 X270.734 Y143.028
G1 X270.362 Y142.762
G1 X270.040 Y142.520
G1 X269.661 Y142.333
G1 X269.341 Y142.148
G1 X268.960 Y141.955
G1 X268.587 Y141.816
G1 X268.259 Y141.635
G1 X267.911 Y141.520
G1 X267.558 Y141.367
G1 X267.212 Y141.252
G1 X266.857 Y141.142
G1 X266.531 Y141.075
G1 X266.156 Y140.950
G1 X265.835 Y140.880
G1 X265.455 Y140.783
G1 X265.078 Y140.733
G1 X264.754 Y140.632
G1 X264.406 Y140.589
G1 X264.052 Y140.486
G1 X263.727 Y140.386
G1 X263.351 Y140.338
G1 X263.002 Y140.257
G1 X262.650 Y140.177
G1 X262.282 Y140.069
G1 X261.949 Y139.995
; Path 96
G0 Z0
G0 X254.963 Y142.954
G0 Z2.2
G1 F3000
G1 X254.130 Y141.444
G1 X253.263 Y139.950
G1 X252.429 Y138.498
G1 X251.645 Y136.974
G1 X250.802 Y135.459
G1 X249.949 Y133.995
; Path 97
G0 Z0
G0 X255.977 Y136.978
G0 Z2.2
G1 F3000
G1 X256.057 Y136.805
G1 X256.132 Y136.621
G1 X256.203 Y136.431
G1 X256.273 Y136.237
G1 X256.343 Y136.043
G1 X256.414 Y135.853
G1 X256.489 Y135.669
G1 X256.569 Y135.496
G1 X256.656 Y135.337
G1 X256.752 Y135.195
G1 X256.858 Y135.074
G1 X256.977 Y134.978
G1 X257.108 Y134.908
G1 X257.252 Y134.862
G1 X257.406 Y134.837
G1 X257.569 Y134.830
G1 X257.739 Y134.836
G1 X257.914 Y134.853
G1 X258.093 Y134.877
G1 X258.273 Y134.904
G1 X258.453 Y134.931
G1 X258.632 Y134.955
G1 X258.807 Y134.971
G1 X258.977 Y134.978
; Path 98
G0 Z0
G0 X261.976 Y131.996
G0 Z2.2
G1 F3000
G1 X261.964 Y133.971
G1 X262.011 Y135.959
G1 X261.961 Y137.972
G1 X261.990 Y139.955
; Path 99
G0 Z0
G0 X261.996 Y139.973
G0 Z2.2
G1 F3000
G1 X261.630 Y140.055
G1 X261.295 Y140.162
G1 X260.971 Y140.274
G1 X260.593 Y140.330
G1 X260.231 Y140.385
G1 X259.892 Y140.486
G1 X259.527 Y140.579
G1 X259.190 Y140.639
G1 X258.831 Y140.714
G1 X258.488 Y140.798
G1 X258.141 Y140.896
G1 X257.787 Y140.971
G1 X257.426 Y141.088
G1 X257.085 Y141.169
G1 X256.736 Y141.282
G1 X256.384 Y141.398
G1 X256.041 Y141.541
G1 X255.683 Y141.669
G1 X255.329 Y141.809
G1 X254.982 Y141.991
G1 X254.625 Y142.161
G1 X254.282 Y142.368
G1 X253.926 Y142.600
G1 X253.582 Y142.796
G1 X253.218 Y143.034
G1 X252.882 Y143.264
G1 X252.558 Y143.506
G1 X252.182 Y143.766
G1 X251.849 Y144.057
G1 X251.482 Y144.291
G1 X251.132 Y144.589
G1 X250.782 Y144.830
G1 X250.411 Y145.081
G1 X250.083 Y145.376
G1 X249.704 Y145.674
G1 X249.383 Y145.918
G1 X249.006 Y146.186
G1 X248.684 Y146.449
G1 X248.348 Y146.705
G1 X247.984 Y146.959
; Path 100
G0 Z0
G0 X247.980 Y146.968
G0 Z2.2
G1 F3000
G1 X247.748 Y147.268
G1 X247.462 Y147.563
G1 X247.199 Y147.854
G1 X246.917 Y148.151
G1 X246.653 Y148.429
G1 X246.355 Y148.734
G1 X246.090 Y149.025
G1 X245.790 Y149.317
G1 X245.515 Y149.630
G1 X245.233 Y149.901
G1 X244.942 Y150.194
G1 X244.695 Y150.491
G1 X244.420 Y150.819
G1 X244.189 Y151.089
G1 X243.938 Y151.418
G1 X243.727 Y151.698
G1 X243.535 Y152.031
G1 X243.321 Y152.322
G1 X243.132 Y152.662
G1 X242.981 Y152.963
G1 X242.842 Y153.269
G1 X242.718 Y153.624
G1 X242.611 Y153.945
G1 X242.522 Y154.302
G1 X242.435 Y154.632
G1 X242.381 Y154.995
G1 X242.347 Y155.370
G1 X242.284 Y155.699
G1 X242.258 Y156.062
G1 X242.219 Y156.411
G1 X242.217 Y156.766
G1 X242.174 Y157.128
G1 X242.176 Y157.495
G1 X242.137 Y157.848
G1 X242.124 Y158.233
G1 X242.096 Y158.566
G1 X242.038 Y158.903
G1 X242.039 Y159.280
G1 X242.023 Y159.626
G1 X241.954 Y159.987
; Path 101
G0 Z0
G0 X241.959 Y160.001
G0 Z2.2
G1 F3000
G1 X242.002 Y160.345
G1 X242.044 Y160.701
G1 X242.054 Y161.082
G1 X242.101 Y161.407
G1 X242.146 Y161.760
G1 X242.143 Y162.117
G1 X242.191 Y162.490
G1 X242.181 Y162.828
G1 X242.215 Y163.212
G1 X242.226 Y163.537
G1 X242.288 Y163.906
G1 X242.291 Y164.241
G1 X242.340 Y164.593
G1 X242.388 Y164.938
G1 X242.453 Y165.263
G1 X242.528 Y165.625
G1 X242.647 Y165.943
G1 X242.724 Y166.298
G1 X242.847 Y166.609
G1 X242.987 Y166.955
G1 X243.147 Y167.287
G1 X243.325 Y167.595
G1 X243.517 Y167.890
G1 X243.730 Y168.218
G1 X243.982 Y168.548
G1 X244.190 Y168.829
G1 X244.471 Y169.156
G1 X244.694 Y169.429
G1 X244.967 Y169.729
G1 X245.230 Y170.022
G1 X245.491 Y170.327
G1 X245.785 Y170.610
G1 X246.078 Y170.880
G1 X246.348 Y171.196
G1 X246.633 Y171.481
G1 X246.907 Y171.783
G1 X247.167 Y172.048
G1 X247.451 Y172.373
G1 X247.699 Y172.667
G1 X247.966 Y172.971
; Path 102
G0 Z0
G0 X247.961 Y173.003
G0 Z2.2
G1 F3000
G1 X246.755 Y174.604
G1 X245.547 Y176.177
G1 X244.372 Y177.774
G1 X243.169 Y179.374
G1 X242.001 Y180.960
; Path 103
G0 Z0
G0 X241.977 Y179.994
G0 Z2.2
G1 F3000
G1 X241.687 Y178.641
G1 X241.421 Y177.261
G1 X241.115 Y175.860
G1 X240.775 Y174.478
G1 X240.404 Y173.079
G1 X240.076 Y171.668
G1 X239.721 Y170.247
G1 X239.365 Y168.851
G1 X239.034 Y167.457
G1 X238.680 Y166.047
G1 X238.358 Y164.665
G1 X238.059 Y163.279
G1 X237.819 Y161.944
G1 X237.542 Y160.566
G1 X237.365 Y159.252
G1 X237.168 Y157.931
G1 X237.084 Y156.638
G1 X236.976 Y155.394
G1 X237.002 Y154.158
G1 X237.003 Y152.975
G1 X237.116 Y151.817
G1 X237.278 Y150.690
G1 X237.515 Y149.628
G1 X237.772 Y148.524
G1 X238.103 Y147.491
G1 X238.448 Y146.456
G1 X238.861 Y145.454
G1 X239.267 Y144.465
G1 X239.706 Y143.476
G1 X240.190 Y142.530
G1 X240.680 Y141.557
G1 X241.177 Y140.630
G1 X241.669 Y139.711
G1 X242.190 Y138.744
G1 X242.716 Y137.807
G1 X243.190 Y136.851
G1 X243.637 Y135.912
G1 X244.139 Y134.930
G1 X244.583 Y133.934
G1 X244.996 Y132.960
; Path 104
G0 Z0
G0 X245.939 Y121.012
G0 Z2.2
G1 F3000
G1 X243.941 Y120.928
; Path 105
G0 Z0
G0 X238.006 Y119.982
G0 Z2.2
G1 F3000
G1 X239.900 Y120.328
G1 X241.818 Y120.631
G1 X243.739 Y120.987
G1 X245.624 Y121.300
G1 X247.545 Y121.658
G1 X249.395 Y121.952
G1 X251.296 Y122.343
G1 X253.231 Y122.660
G1 X255.143 Y122.965
G1 X257.033 Y123.299
G1 X258.910 Y123.643
G1 X260.808 Y123.989
G1 X262.719 Y124.343
G1 X264.635 Y124.639
G1 X266.573 Y124.998
G1 X268.464 Y125.321
G1 X270.343 Y125.631
G1 X272.252 Y125.996
G1 X274.176 Y126.284
G1 X276.041 Y126.625
G1 X277.959 Y126.979
; Path 106
G0 Z0
G0 X278.005 Y126.959
G0 Z2.2
G1 F3000
G1 X278.034 Y128.913
G1 X278.130 Y130.877
G1 X278.153 Y132.831
G1 X278.221 Y134.773
G1 X278.235 Y136.728
G1 X278.315 Y138.665
G1 X278.364 Y140.622
G1 X278.370 Y142.545
G1 X278.419 Y144.514
G1 X278.488 Y146.447
G1 X278.573 Y148.401
G1 X278.578 Y150.369
G1 X278.622 Y152.328
G1 X278.683 Y154.260
G1 X278.713 Y156.203
G1 X278.791 Y158.199
G1 X278.849 Y160.100
G1 X278.879 Y162.057
G1 X278.958 Y164.009
G1 X278.985 Y165.984
G1 X279.026 Y167.954
G1 X279.091 Y169.870
G1 X279.144 Y171.853
G1 X279.179 Y173.797
G1 X279.243 Y175.708
G1 X279.255 Y177.663
G1 X279.348 Y179.655
G1 X279.404 Y181.584
G1 X279.457 Y183.564
G1 X279.480 Y185.507
G1 X279.549 Y187.457
G1 X279.587 Y189.398
G1 X279.636 Y191.343
G1 X279.698 Y193.312
G1 X279.715 Y195.227
G1 X279.770 Y197.217
G1 X279.795 Y199.155
G1 X279.844 Y201.084
G1 X279.907 Y203.060
G1 X279.970 Y204.995
; Path 107
G0 Z0
G0 X279.952 Y204.984
G0 Z2.2
G1 F3000
G1 X278.054 Y205.389
G1 X276.129 Y205.742
G1 X274.177 Y206.136
G1 X272.250 Y206.501
G1 X270.338 Y206.909
G1 X268.389 Y207.273
G1 X266.507 Y207.685
G1 X264.599 Y208.079
G1 X262.659 Y208.417
G1 X260.744 Y208.805
G1 X258.777 Y209.212
G1 X256.905 Y209.616
G1 X254.937 Y209.955
G1 X253.015 Y210.367
G1 X251.099 Y210.770
G1 X249.175 Y211.117
G1 X247.284 Y211.498
G1 X245.336 Y211.921
G1 X243.402 Y212.268
G1 X241.492 Y212.687
G1 X239.581 Y213.052
G1 X237.645 Y213.465
G1 X235.706 Y213.838
G1 X233.803 Y214.246
G1 X231.896 Y214.585
G1 X229.944 Y215.007
G1 X228.011 Y215.399
G1 X226.090 Y215.759
G1 X224.178 Y216.137
G1 X222.299 Y216.525
G1 X220.338 Y216.909
G1 X218.429 Y217.314
G1 X216.511 Y217.701
G1 X214.607 Y218.054
G1 X212.635 Y218.457
G1 X210.749 Y218.832
G1 X208.789 Y219.205
G1 X206.918 Y219.596
G1 X204.965 Y219.986
; Path 108
G0 Z0
G0 X204.975 Y219.961
G0 Z2.2
G1 F3000
G1 X205.018 Y217.974
G1 X205.102 Y216.028
G1 X205.194 Y214.011
G1 X205.275 Y212.049
G1 X205.336 Y210.065
G1 X205.394 Y208.123
G1 X205.493 Y206.145
G1 X205.527 Y204.188
G1 X205.609 Y202.209
G1 X205.715 Y200.225
G1 X205.758 Y198.253
G1 X205.846 Y196.233
G1 X205.875 Y194.294
G1 X205.948 Y192.315
G1 X206.039 Y190.344
G1 X206.103 Y188.383
G1 X206.189 Y186.368
G1 X206.249 Y184.415
G1 X206.335 Y182.425
G1 X206.415 Y180.430
G1 X206.491 Y178.509
G1 X206.520 Y176.478
G1 X206.636 Y174.518
G1 X206.681 Y172.566
G1 X206.757 Y170.597
G1 X206.801 Y168.613
G1 X206.867 Y166.619
G1 X206.990 Y164.661
G1 X207.031 Y162.673
G1 X207.107 Y160.682
G1 X207.177 Y158.724
G1 X207.224 Y156.735
G1 X207.301 Y154.791
G1 X207.417 Y152.824
G1 X207.435 Y150.823
G1 X207.535 Y148.876
G1 X207.624 Y146.899
G1 X207.685 Y144.898
G1 X207.754 Y142.952
G1 X207.840 Y140.946
G1 X207.883 Y138.969
G1 X207.959 Y137.000
; Path 109
G0 Z0
G0 X207.990 Y137.001
G0 Z2.2
G1 F3000
G1 X206.073 Y136.787
G1 X204.132 Y136.564
G1 X202.207 Y136.345
G1 X200.233 Y136.106
G1 X198.300 Y135.865
G1 X196.360 Y135.665
G1 X194.437 Y135.426
G1 X192.530 Y135.209
G1 X190.583 Y134.981
G1 X188.610 Y134.722
G1 X186.722 Y134.496
G1 X184.783 Y134.259
G1 X182.810 Y134.045
G1 X180.906 Y133.821
G1 X178.985 Y133.597
G1 X177.023 Y133.358
G1 X175.116 Y133.135
G1 X173.138 Y132.904
G1 X171.197 Y132.678
G1 X169.261 Y132.453
G1 X167.368 Y132.226
G1 X165.399 Y131.986
G1 X163.486 Y131.788
G1 X161.556 Y131.554
G1 X159.621 Y131.314
G1 X157.659 Y131.091
G1 X155.748 Y130.896
G1 X153.819 Y130.624
G1 X151.851 Y130.420
G1 X149.920 Y130.200
G1 X147.998 Y129.969
; Path 110
G0 Z0
G0 X147.991 Y129.958
G0 Z2.2
G1 F3000
G1 X148.740 Y129.571
G1 X149.489 Y129.156
G1 X150.253 Y128.769
G1 X150.987 Y128.348
G1 X151.716 Y127.930
G1 X152.486 Y127.536
G1 X153.256 Y127.118
G1 X153.984 Y126.722
G1 X154.720 Y126.343
G1 X155.482 Y125.911
G1 X156.246 Y125.517
G1 X156.980 Y125.105
G1 X157.723 Y124.721
G1 X158.479 Y124.306
G1 X159.210 Y123.890
G1 X159.978 Y123.518
G1 X160.718 Y123.106
G1 X161.478 Y122.744
G1 X162.245 Y122.351
G1 X162.978 Y121.986
G1 X163.752 Y121.593
G1 X164.479 Y121.246
G1 X165.248 Y120.882
G1 X165.981 Y120.523
G1 X166.743 Y120.191
G1 X167.483 Y119.814
G1 X168.211 Y119.482
G1 X168.986 Y119.115
G1 X169.745 Y118.743
G1 X170.489 Y118.424
G1 X171.241 Y118.076
G1 X171.992 Y117.738
G1 X172.760 Y117.417
G1 X173.496 Y117.054
G1 X174.219 Y116.681
G1 X174.999 Y116.369
G1 X175.776 Y116.049
G1 X176.502 Y115.680
G1 X177.248 Y115.309
G1 X178.005 Y114.984
; Path 111
G0 Z0
G0 X177.982 Y114.981
G0 Z2.2
G1 F3000
G1 X179.911 Y114.677
G1 X181.857 Y114.430
G1 X183.838 Y114.121
G1 X185.766 Y113.843
G1 X187.712 Y113.596
G1 X189.659 Y113.318
G1 X191.573 Y113.009
G1 X193.558 Y112.733
G1 X195.466 Y112.488
G1 X197.441 Y112.176
G1 X199.380 Y111.919
G1 X201.315 Y111.642
G1 X203.272 Y111.400
G1 X205.196 Y111.102
G1 X207.186 Y110.841
G1 X209.108 Y110.522
G1 X211.043 Y110.256
G1 X212.992 Y109.984
; Path 112
G0 Z0
G0 X213.006 Y110.002
G0 Z2.2
G1 F3000
G1 X215.005 Y109.977
G1 X217.004 Y109.979
G1 X218.963 Y110.013
G1 X220.988 Y109.985
G1 X223.010 Y110.002
G1 X225.005 Y109.996
G1 X226.972 Y109.965
; Path 113
G0 Z0
G0 X229.968 Y110.008
G0 Z2.2
G1 F3000
G1 X229.990 Y112.015
G1 X229.970 Y113.962
G1 X229.995 Y115.995
G1 X229.999 Y117.992
G1 X229.994 Y119.959
; Path 114
G0 Z0
G0 X229.956 Y119.965
G0 Z2.2
G1 F3000
G1 X229.535 Y118.087
G1 X229.130 Y116.225
G1 X228.737 Y114.340
G1 X228.371 Y112.431
G1 X227.995 Y110.536
G1 X227.544 Y108.664
G1 X227.182 Y106.831
G1 X226.779 Y104.925
G1 X226.375 Y103.073
G1 X225.994 Y101.163
G1 X225.562 Y99.291
G1 X225.154 Y97.423
G1 X224.807 Y95.548
G1 X224.359 Y93.634
G1 X223.966 Y91.781
G1 X223.571 Y89.869
G1 X223.202 Y88.019
G1 X222.781 Y86.148
G1 X222.382 Y84.246
G1 X222.020 Y82.372
G1 X221.577 Y80.506
G1 X221.170 Y78.576
G1 X220.787 Y76.749
G1 X220.394 Y74.861
G1 X220.002 Y72.962
; Path 115
G0 Z0
G0 X219.985 Y72.968
G0 Z2.2
G1 F3000
G1 X219.603 Y74.822
G1 X219.164 Y76.721
G1 X218.780 Y78.594
G1 X218.356 Y80.500
G1 X217.964 Y82.367
G1 X217.605 Y84.259
G1 X217.199 Y86.126
G1 X216.777 Y88.026
G1 X216.390 Y89.878
G1 X215.972 Y91.765
G1 X215.561 Y93.657
G1 X215.172 Y95.541
G1 X214.766 Y97.422
G1 X214.408 Y99.321
G1 X213.960 Y101.201
G1 X213.596 Y103.071
G1 X213.183 Y104.965
G1 X212.770 Y106.789
G1 X212.381 Y108.677
G1 X212.007 Y110.581
G1 X211.590 Y112.489
G1 X211.168 Y114.345
G1 X210.804 Y116.233
G1 X210.407 Y118.117
G1 X209.988 Y119.982
; Path 116
G0 Z0
G0 X209.957 Y119.951
G0 Z2.2
G1 F3000
G1 X211.958 Y119.982
G1 X213.971 Y119.930
G1 X215.956 Y119.973
G1 X217.956 Y119.943
G1 X219.950 Y119.973
G1 X221.976 Y119.974
G1 X223.962 Y119.965
G1 X225.946 Y119.990
G1 X227.975 Y119.995
G1 X229.953 Y119.979
; Path 117
G0 Z0
G0 X229.157 Y120.269
G0 Z2.2
G1 F3000
G1 X231.031 Y119.702
; Path 118
G0 Z0
G0 X229.742 Y118.032
G0 Z2.2
G1 F3000
G1 X230.015 Y120.018
; Path 119
G0 Z0
G0 X234.974 Y120.986
G0 Z2.2
G1 F3000
G1 X234.961 Y118.960
G1 X234.975 Y116.996
G1 X235.002 Y115.005
G1 X234.951 Y113.003
G1 X234.982 Y111.011
G1 X234.982 Y108.983
G1 X235.003 Y106.987
G1 X235.003 Y104.979
G1 X234.966 Y102.968
G1 X234.968 Y101.020
G1 X234.971 Y98.970
G1 X234.986 Y97.019
G1 X234.983 Y95.006
G1 X235.007 Y93.003
G1 X234.991 Y91.001
; Path 120
G0 Z0
G0 X244.980 Y83.988
G0 Z2.2
G1 F3000
G1 X244.994 Y85.951
G1 X244.972 Y87.962
; Path 121
G0 Z0
G0 X243.972 Y104.963
G0 Z2.2
G1 F3000
G1 X243.964 Y103.006
G1 X243.967 Y101.017
G1 X243.997 Y99.007
; Path 122
G0 Z0
G0 X243.989 Y98.965
G0 Z2.2
G1 F3000
G1 X242.446 Y97.956
G1 X240.961 Y96.960
; Path 123
G0 Z0
G0 X240.972 Y96.954
G0 Z2.2
G1 F3000
G1 X239.455 Y97.929
G1 X237.959 Y98.960
; Path 124
G0 Z0
G0 X237.991 Y98.957
G0 Z2.2
G1 F3000
G1 X238.015 Y100.961
G1 X237.997 Y102.924
G1 X237.999 Y104.951
; Path 125
G0 Z0
G0 X230.468 Y107.983
G0 Z2.2
G1 F3000
G1 X229.968 Y108.483
G1 X229.468 Y107.983
G1 X229.968 Y107.483
G1 X230.468 Y107.983
; Path 126
G0 Z0
G0 X222.978 Y109.948
G0 Z2.2
G1 F3000
G1 X222.255 Y108.178
G1 X221.495 Y106.451
G1 X220.748 Y104.723
G1 X219.982 Y102.970
; Path 127
G0 Z0
G0 X219.986 Y102.979
G0 Z2.2
G1 F3000
G1 X219.207 Y104.722
G1 X218.478 Y106.502
G1 X217.725 Y108.225
G1 X216.952 Y109.981
; Path 128
G0 Z0
G0 X219.948 Y103.007
G0 Z2.2
G1 F3000
G1 X219.967 Y104.996
G1 X219.965 Y107.007
G1 X220.002 Y108.980
G1 X219.966 Y110.968
G1 X220.001 Y112.966
; Path 129
G0 Z0
G0 X220.874 Y116.924
G0 Z2.2
G1 F3000
G1 X218.866 Y116.913
; Path 130
G0 Z0
G0 X215.970 Y116.990
G0 Z2.2
G1 F3000
G1 X215.896 Y117.134
G1 X215.768 Y117.271
G1 X215.646 Y117.418
G1 X215.558 Y117.523
G1 X215.440 Y117.622
G1 X215.345 Y117.760
G1 X215.250 Y117.875
G1 X215.130 Y117.992
G1 X215.038 Y118.129
G1 X214.918 Y118.233
G1 X214.842 Y118.370
G1 X214.711 Y118.494
G1 X214.582 Y118.619
G1 X214.511 Y118.787
G1 X214.391 Y118.940
G1 X214.323 Y119.124
G1 X214.237 Y119.296
G1 X214.148 Y119.518
G1 X214.091 Y119.719
G1 X213.990 Y119.980
G1 X213.895 Y120.277
G1 X213.852 Y120.519
G1 X213.782 Y120.814
G1 X213.730 Y121.126
G1 X213.648 Y121.436
G1 X213.622 Y121.790
G1 X213.559 Y122.115
G1 X213.524 Y122.498
G1 X213.470 Y122.888
G1 X213.435 Y123.238
G1 X213.391 Y123.646
G1 X213.351 Y123.999
G1 X213.303 Y124.384
G1 X213.269 Y124.767
G1 X213.224 Y125.123
G1 X213.186 Y125.532
G1 X213.145 Y125.899
G1 X213.099 Y126.280
G1 X213.070 Y126.638
G1 X213.004 Y127.000
; Path 131
G0 Z0
G0 X215.075 Y121.982
G0 Z2.2
G1 F3000
G1 X215.089 Y119.986
; Path 132
G0 Z0
G0 X215.062 Y120.040
G0 Z2.2
G1 F3000
G1 X215.018 Y118.050
; Path 133
G0 Z0
G0 X213.965 Y112.986
G0 Z2.2
G1 F3000
G1 X214.042 Y112.533
G1 X214.065 Y112.068
G1 X214.136 Y111.575
G1 X214.164 Y111.122
G1 X214.198 Y110.659
G1 X214.264 Y110.160
G1 X214.327 Y109.687
G1 X214.363 Y109.194
G1 X214.416 Y108.701
G1 X214.462 Y108.236
G1 X214.532 Y107.741
G1 X214.562 Y107.298
G1 X214.588 Y106.872
G1 X214.662 Y106.392
G1 X214.738 Y105.953
G1 X214.762 Y105.530
G1 X214.817 Y105.149
G1 X214.862 Y104.725
G1 X214.932 Y104.344
G1 X214.962 Y103.988
G1 X215.033 Y103.677
G1 X215.063 Y103.327
G1 X215.108 Y103.050
G1 X215.164 Y102.734
G1 X215.215 Y102.473
G1 X215.266 Y102.198
G1 X215.327 Y101.935
G1 X215.367 Y101.705
G1 X215.424 Y101.460
G1 X215.469 Y101.245
G1 X215.512 Y100.999
G1 X215.571 Y100.805
G1 X215.640 Y100.608
G1 X215.673 Y100.373
G1 X215.751 Y100.154
G1 X215.774 Y99.937
G1 X215.834 Y99.694
G1 X215.876 Y99.485
G1 X215.941 Y99.220
G1 X215.978 Y99.005
; Path 134
G0 Z0
G0 X213.977 Y98.978
G0 Z2.2
G1 F3000
G1 X213.977 Y102.978
; Path 135
G0 Z0
G0 X210.500 Y106.953
G0 Z2.2
G1 F3000
G1 X210.000 Y106.453
G1 X209.500 Y106.953
G1 X210.000 Y107.453
G1 X210.500 Y106.953
; Path 136
G0 Z0
G0 X209.978 Y109.000
G0 Z2.2
G1 F3000
G1 X209.950 Y111.005
G1 X209.994 Y112.974
G1 X209.941 Y114.965
G1 X209.938 Y116.976
G1 X209.961 Y118.985
; Path 137
G0 Z0
G0 X209.595 Y115.788
G0 Z2.2
G1 F3000
G1 X210.507 Y113.932
; Path 138
G0 Z0
G0 X204.977 Y118.965
G0 Z2.2
G1 F3000
G1 X204.972 Y116.963
G1 X204.997 Y114.988
G1 X204.958 Y112.993
G1 X204.969 Y110.979
G1 X204.978 Y108.977
G1 X204.974 Y106.978
G1 X205.011 Y104.980
G1 X205.006 Y103.006
G1 X204.994 Y101.004
G1 X204.973 Y99.003
G1 X205.013 Y96.951
G1 X204.968 Y94.973
G1 X204.983 Y92.972
G1 X204.990 Y90.986
; Path 139
G0 Z0
G0 X202.963 Y98.967
G0 Z2.2
G1 F3000
G1 X202.810 Y99.171
G1 X202.652 Y99.338
G1 X202.511 Y99.519
G1 X202.328 Y99.667
G1 X202.136 Y99.844
G1 X201.995 Y99.972
G1 X201.844 Y100.120
G1 X201.660 Y100.271
G1 X201.521 Y100.456
G1 X201.329 Y100.582
G1 X201.164 Y100.771
G1 X201.009 Y100.923
G1 X200.834 Y101.134
G1 X200.705 Y101.313
G1 X200.563 Y101.550
G1 X200.423 Y101.768
G1 X200.272 Y102.051
G1 X200.171 Y102.308
G1 X200.039 Y102.620
G1 X199.953 Y102.950
G1 X199.876 Y103.309
G1 X199.774 Y103.706
G1 X199.730 Y104.123
G1 X199.630 Y104.565
G1 X199.572 Y105.017
G1 X199.515 Y105.508
G1 X199.458 Y106.036
G1 X199.422 Y106.517
G1 X199.393 Y107.030
G1 X199.346 Y107.574
G1 X199.339 Y108.113
G1 X199.280 Y108.662
G1 X199.251 Y109.225
G1 X199.219 Y109.761
G1 X199.194 Y110.287
G1 X199.155 Y110.854
G1 X199.119 Y111.391
G1 X199.083 Y111.924
G1 X199.015 Y112.417
G1 X198.996 Y112.951
; Path 140
G0 Z0
G0 X198.952 Y112.968
G0 Z2.2
G1 F3000
G1 X198.911 Y114.877
G1 X198.805 Y116.862
G1 X198.740 Y118.777
G1 X198.695 Y120.706
G1 X198.638 Y122.679
G1 X198.596 Y124.607
G1 X198.510 Y126.530
G1 X198.447 Y128.484
G1 X198.403 Y130.420
G1 X198.359 Y132.317
G1 X198.297 Y134.260
G1 X198.211 Y136.221
G1 X198.170 Y138.148
G1 X198.085 Y140.110
G1 X198.015 Y142.035
G1 X197.967 Y143.967
; Path 141
G0 Z0
G0 X199.956 Y143.996
G0 Z2.2
G1 F3000
G1 X200.019 Y142.077
G1 X200.060 Y140.128
G1 X200.154 Y138.153
G1 X200.185 Y136.260
G1 X200.298 Y134.333
G1 X200.356 Y132.389
G1 X200.415 Y130.456
G1 X200.475 Y128.483
G1 X200.549 Y126.537
G1 X200.582 Y124.605
G1 X200.628 Y122.692
G1 X200.723 Y120.760
G1 X200.781 Y118.782
G1 X200.816 Y116.848
G1 X200.911 Y114.919
G1 X200.971 Y112.982
; Path 142
G0 Z0
G0 X200.977 Y112.978
G0 Z2.2
G1 F3000
G1 X198.977 Y104.978
; Path 143
G1 X196.977 Y112.978
; Path 144
G0 Z0
G0 X196.991 Y113.000
G0 Z2.2
G1 F3000
G1 X196.911 Y114.909
G1 X196.854 Y116.858
G1 X196.786 Y118.801
G1 X196.764 Y120.719
G1 X196.688 Y122.709
G1 X196.587 Y124.618
G1 X196.574 Y126.577
G1 X196.485 Y128.515
G1 X196.406 Y130.420
G1 X196.342 Y132.362
G1 X196.270 Y134.278
G1 X196.215 Y136.209
G1 X196.154 Y138.174
G1 X196.092 Y140.115
G1 X196.042 Y142.039
G1 X195.978 Y143.982
; Path 145
G0 Z0
G0 X196.003 Y142.955
G0 Z2.2
G1 F3000
G1 X194.998 Y141.437
G1 X194.001 Y139.977
G1 X192.958 Y138.492
G1 X191.975 Y136.991
; Path 146
G0 Z0
G0 X196.941 Y135.945
G0 Z2.2
G1 F3000
G1 X197.731 Y136.024
G1 X198.495 Y135.981
G1 X199.221 Y136.033
G1 X199.992 Y136.053
; Path 147
G0 Z0
G0 X200.995 Y136.976
G0 Z2.2
G1 F3000
G1 X200.962 Y138.964
G1 X200.935 Y140.923
G1 X200.945 Y142.920
G1 X200.905 Y144.864
G1 X200.859 Y146.840
G1 X200.860 Y148.841
G1 X200.831 Y150.823
G1 X200.824 Y152.811
G1 X200.791 Y154.749
G1 X200.764 Y156.706
G1 X200.712 Y158.733
G1 X200.727 Y160.677
G1 X200.692 Y162.670
G1 X200.669 Y164.663
G1 X200.613 Y166.642
G1 X200.594 Y168.594
G1 X200.552 Y170.552
G1 X200.571 Y172.557
G1 X200.505 Y174.505
G1 X200.517 Y176.503
G1 X200.489 Y178.491
G1 X200.475 Y180.467
G1 X200.428 Y182.444
G1 X200.412 Y184.406
G1 X200.392 Y186.374
G1 X200.360 Y188.347
G1 X200.334 Y190.306
G1 X200.297 Y192.313
G1 X200.269 Y194.280
G1 X200.258 Y196.259
G1 X200.243 Y198.225
G1 X200.206 Y200.175
G1 X200.174 Y202.203
G1 X200.136 Y204.143
G1 X200.104 Y206.149
G1 X200.122 Y208.129
G1 X200.104 Y210.097
G1 X200.037 Y212.048
G1 X200.051 Y214.050
G1 X200.027 Y216.032
G1 X199.986 Y217.986
; Path 148
G0 Z0
G0 X197.925 Y216.964
G0 Z2.2
G1 F3000
G1 X196.912 Y216.809
G1 X196.072 Y216.500
G1 X195.087 Y216.387
G1 X194.215 Y216.109
G1 X193.161 Y215.831
G1 X192.240 Y215.728
G1 X191.399 Y215.464
G1 X190.463 Y215.193
G1 X189.511 Y215.056
G1 X188.570 Y214.882
G1 X187.630 Y214.598
G1 X186.603 Y214.422
G1 X185.746 Y214.217
G1 X184.785 Y214.078
G1 X183.799 Y213.857
G1 X182.841 Y213.614
G1 X181.862 Y213.413
G1 X180.914 Y213.193
G1 X180.039 Y212.939
; Path 149
G0 Z0
G0 X184.987 Y214.993
G0 Z2.2
G1 F3000
G1 X185.018 Y213.013
G1 X185.032 Y211.059
G1 X185.058 Y209.054
G1 X185.071 Y207.070
G1 X185.106 Y205.141
G1 X185.133 Y203.115
G1 X185.192 Y201.169
G1 X185.177 Y199.181
G1 X185.244 Y197.231
G1 X185.239 Y195.220
G1 X185.284 Y193.230
G1 X185.277 Y191.277
G1 X185.337 Y189.290
G1 X185.366 Y187.324
G1 X185.345 Y185.367
G1 X185.402 Y183.354
G1 X185.433 Y181.421
G1 X185.432 Y179.441
G1 X185.479 Y177.427
G1 X185.485 Y175.501
G1 X185.539 Y173.508
G1 X185.546 Y171.496
G1 X185.561 Y169.570
G1 X185.599 Y167.560
G1 X185.598 Y165.576
G1 X185.627 Y163.630
G1 X185.658 Y161.622
G1 X185.684 Y159.680
G1 X185.740 Y157.664
G1 X185.735 Y155.733
G1 X185.755 Y153.765
G1 X185.789 Y151.772
G1 X185.808 Y149.790
G1 X185.832 Y147.844
G1 X185.861 Y145.811
G1 X185.914 Y143.884
G1 X185.956 Y141.896
G1 X185.926 Y139.906
G1 X185.950 Y137.954
G1 X186.005 Y135.959
; Path 150
G0 Z0
G0 X183.955 Y138.039
G0 Z2.2
G1 F3000
G1 X182.936 Y138.019
G1 X181.961 Y137.907
G1 X181.022 Y137.957
; Path 151
G0 Z0
G0 X177.970 Y134.958
G0 Z2.2
G1 F3000
G1 X177.463 Y135.927
G1 X176.906 Y136.939
G1 X176.326 Y137.908
G1 X175.744 Y138.887
G1 X175.135 Y139.859
G1 X174.526 Y140.814
G1 X173.894 Y141.778
G1 X173.294 Y142.736
G1 X172.664 Y143.713
G1 X172.090 Y144.669
G1 X171.552 Y145.632
G1 X170.956 Y146.626
G1 X170.433 Y147.646
G1 X169.935 Y148.622
G1 X169.485 Y149.672
G1 X169.067 Y150.673
G1 X168.709 Y151.710
G1 X168.397 Y152.793
G1 X168.190 Y153.888
G1 X167.964 Y154.997
G1 X167.907 Y156.120
G1 X167.798 Y157.295
G1 X167.853 Y158.456
G1 X167.871 Y159.677
G1 X168.007 Y160.891
G1 X168.140 Y162.127
G1 X168.364 Y163.393
G1 X168.563 Y164.633
G1 X168.812 Y165.887
G1 X169.099 Y167.177
G1 X169.372 Y168.452
G1 X169.705 Y169.747
G1 X169.995 Y171.018
G1 X170.339 Y172.326
G1 X170.627 Y173.617
G1 X170.958 Y174.900
G1 X171.249 Y176.167
G1 X171.522 Y177.455
G1 X171.730 Y178.737
G1 X171.988 Y179.975
; Path 152
G0 Z0
G0 X169.976 Y179.989
G0 Z2.2
G1 F3000
G1 X169.970 Y181.676
G1 X169.941 Y183.331
G1 X169.955 Y184.973
; Path 153
G0 Z0
G0 X169.975 Y185.004
G0 Z2.2
G1 F3000
G1 X170.029 Y183.052
G1 X170.085 Y181.045
G1 X170.120 Y179.046
G1 X170.185 Y177.100
G1 X170.235 Y175.130
G1 X170.224 Y173.134
G1 X170.306 Y171.169
G1 X170.372 Y169.169
G1 X170.367 Y167.219
G1 X170.461 Y165.218
G1 X170.502 Y163.241
G1 X170.533 Y161.247
G1 X170.578 Y159.265
G1 X170.624 Y157.300
G1 X170.691 Y155.313
G1 X170.715 Y153.381
G1 X170.763 Y151.382
G1 X170.779 Y149.383
G1 X170.874 Y147.439
G1 X170.912 Y145.475
G1 X170.947 Y143.485
G1 X171.002 Y141.518
G1 X171.020 Y139.538
G1 X171.084 Y137.561
G1 X171.155 Y135.531
G1 X171.187 Y133.579
G1 X171.199 Y131.624
G1 X171.250 Y129.610
G1 X171.328 Y127.659
G1 X171.386 Y125.695
G1 X171.388 Y123.705
G1 X171.435 Y121.739
G1 X171.513 Y119.728
G1 X171.561 Y117.728
G1 X171.586 Y115.753
G1 X171.668 Y113.776
G1 X171.682 Y111.835
G1 X171.709 Y109.863
G1 X171.790 Y107.856
G1 X171.799 Y105.859
G1 X171.902 Y103.898
G1 X171.945 Y101.923
G1 X171.967 Y99.955
; Path 154
G0 Z0
G0 X172.008 Y96.953
G0 Z2.2
G1 F3000
G1 X171.320 Y96.345
G1 X170.638 Y95.581
G1 X170.030 Y95.023
G1 X169.311 Y94.244
G1 X168.701 Y93.670
G1 X168.015 Y92.914
G1 X167.339 Y92.230
G1 X166.735 Y91.685
G1 X166.041 Y90.977
; Path 155
G0 Z0
G0 X164.037 Y90.977
G0 Z2.2
G1 F3000
G1 X163.945 Y88.982
; Path 156
G0 Z0
G0 X161.024 Y88.036
G0 Z2.2
G1 F3000
G1 X160.907 Y88.949
G1 X160.746 Y89.875
G1 X160.769 Y90.738
G1 X160.694 Y91.636
G1 X160.597 Y92.569
G1 X160.391 Y93.471
G1 X160.342 Y94.291
G1 X160.148 Y95.201
G1 X160.085 Y96.127
G1 X160.017 Y97.022
; Path 157
G0 Z0
G0 X160.728 Y95.849
G0 Z2.2
G1 F3000
G1 X161.301 Y97.916
; Path 158
G0 Z0
G0 X161.175 Y95.914
G0 Z2.2
G1 F3000
G1 X160.744 Y94.019
; Path 159
G0 Z0
G0 X160.989 Y92.963
G0 Z2.2
G1 F3000
G1 X160.465 Y91.312
G1 X159.986 Y89.645
G1 X159.515 Y87.984
G1 X158.988 Y86.294
G1 X158.520 Y84.666
G1 X157.994 Y83.002
; Path 160
G0 Z0
G0 X157.947 Y82.998
G0 Z2.2
G1 F3000
G1 X157.461 Y84.655
G1 X156.949 Y86.297
G1 X156.441 Y88.011
G1 X155.971 Y89.627
G1 X155.480 Y91.275
G1 X154.989 Y92.965
; Path 161
G0 Z0
G0 X157.977 Y92.978
G0 Z2.2
G1 F3000
G1 X157.977 Y82.978
; Path 162
G0 Z0
G0 X158.481 Y81.001
G0 Z2.2
G1 F3000
G1 X157.981 Y81.501
G1 X157.481 Y81.001
G1 X157.981 Y80.501
G1 X158.481 Y81.001
; Path 163
G0 Z0
G0 X159.952 Y77.980
G0 Z2.2
G1 F3000
G1 X159.470 Y76.492
G1 X158.960 Y74.988
; Path 164
G0 Z0
G0 X158.976 Y74.976
G0 Z2.2
G1 F3000
G1 X157.459 Y74.961
G1 X155.982 Y74.992
; Path 165
G0 Z0
G0 X155.994 Y74.987
G0 Z2.2
G1 F3000
G1 X155.999 Y76.445
G1 X155.959 Y77.949
; Path 166
G0 Z0
G0 X151.993 Y76.954
G0 Z2.2
G1 F3000
G1 X151.450 Y75.472
G1 X150.954 Y73.996
; Path 167
G0 Z0
G0 X150.978 Y73.960
G0 Z2.2
G1 F3000
G1 X149.493 Y73.980
G1 X147.950 Y74.006
; Path 168
G0 Z0
G0 X148.005 Y73.998
G0 Z2.2
G1 F3000
G1 X147.960 Y75.465
G1 X147.961 Y76.956
; Path 169
G0 Z0
G0 X145.962 Y83.002
G0 Z2.2
G1 F3000
G1 X147.715 Y83.102
G1 X149.522 Y83.235
G1 X151.302 Y83.332
G1 X153.069 Y83.403
G1 X154.832 Y83.553
G1 X156.600 Y83.660
G1 X158.391 Y83.776
G1 X160.196 Y83.844
G1 X161.956 Y83.961
; Path 170
G0 Z0
G0 X163.923 Y82.974
G0 Z2.2
G1 F3000
G1 X164.052 Y83.955
G1 X164.081 Y84.915
G1 X164.202 Y85.898
G1 X164.259 Y86.769
G1 X164.351 Y87.814
G1 X164.357 Y88.751
G1 X164.424 Y89.801
G1 X164.513 Y90.617
G1 X164.610 Y91.583
G1 X164.672 Y92.568
G1 X164.659 Y93.523
G1 X164.710 Y94.494
G1 X164.918 Y95.512
G1 X164.989 Y96.461
G1 X164.968 Y97.424
G1 X165.023 Y98.324
G1 X165.102 Y99.290
G1 X165.270 Y100.405
G1 X165.245 Y101.305
G1 X165.323 Y102.298
G1 X165.372 Y103.164
G1 X165.557 Y104.138
G1 X165.509 Y105.209
G1 X165.671 Y106.111
G1 X165.721 Y107.128
G1 X165.713 Y107.972
G1 X165.895 Y108.966
G1 X165.919 Y109.975
; Path 171
G0 Z0
G0 X165.977 Y108.978
G0 Z2.2
G1 F3000
G1 X165.977 Y104.978
; Path 172
G0 Z0
G0 X164.972 Y99.909
G0 Z2.2
G1 F3000
G1 X162.964 Y99.924
; Path 173
G0 Z0
G0 X162.013 Y97.970
G0 Z2.2
G1 F3000
G1 X161.863 Y96.978
G1 X161.590 Y96.106
G1 X161.421 Y95.219
G1 X161.250 Y94.216
G1 X161.176 Y93.395
G1 X160.895 Y92.362
G1 X160.713 Y91.497
G1 X160.581 Y90.655
G1 X160.480 Y89.725
G1 X160.220 Y88.672
G1 X160.157 Y87.891
G1 X159.914 Y86.906
; Path 174
G0 Z0
G0 X161.972 Y85.023
G0 Z2.2
G1 F3000
G1 X161.819 Y85.961
G1 X161.669 Y86.868
G1 X161.335 Y87.832
G1 X161.214 Y88.788
G1 X160.996 Y89.719
G1 X160.907 Y90.590
G1 X160.630 Y91.620
G1 X160.393 Y92.569
G1 X160.345 Y93.407
G1 X160.157 Y94.389
G1 X159.858 Y95.258
G1 X159.648 Y96.211
G1 X159.538 Y97.227
G1 X159.250 Y98.101
G1 X159.193 Y99.065
G1 X158.952 Y99.997
; Path 175
G0 Z0
G0 X159.051 Y100.053
G0 Z2.2
G1 F3000
G1 X158.563 Y99.104
G1 X158.284 Y98.177
G1 X157.832 Y97.385
G1 X157.345 Y96.353
G1 X157.049 Y95.456
G1 X156.612 Y94.679
G1 X156.126 Y93.714
G1 X155.737 Y92.743
G1 X155.441 Y91.874
G1 X154.965 Y90.974
; Path 176
G0 Z0
G0 X155.911 Y90.937
G0 Z2.2
G1 F3000
G1 X156.373 Y90.176
G1 X156.811 Y89.281
G1 X157.225 Y88.508
G1 X157.559 Y87.655
G1 X157.969 Y86.911
; Path 177
G0 Z0
G0 X157.959 Y86.906
G0 Z2.2
G1 F3000
G1 X158.413 Y87.655
G1 X158.722 Y88.522
G1 X159.148 Y89.297
G1 X159.590 Y90.093
G1 X159.971 Y90.918
; Path 178
G0 Z0
G0 X159.944 Y89.908
G0 Z2.2
G1 F3000
G1 X160.215 Y90.699
G1 X160.582 Y91.596
G1 X160.899 Y92.540
G1 X161.330 Y93.366
G1 X161.591 Y94.096
G1 X161.918 Y95.013
; Path 179
G0 Z0
G0 X164.070 Y96.070
G0 Z2.2
G1 F3000
G1 X163.711 Y94.048
; Path 180
G0 Z0
G0 X161.822 Y93.545
G0 Z2.2
G1 F3000
G1 X160.142 Y92.451
; Path 181
G0 Z0
G0 X159.967 Y91.996
G0 Z2.2
G1 F3000
G1 X159.837 Y91.817
G1 X159.666 Y91.581
G1 X159.527 Y91.352
G1 X159.365 Y91.145
G1 X159.233 Y90.914
G1 X159.064 Y90.698
G1 X158.937 Y90.456
G1 X158.762 Y90.247
G1 X158.598 Y90.003
G1 X158.461 Y89.802
G1 X158.292 Y89.588
G1 X158.160 Y89.373
G1 X158.040 Y89.193
G1 X157.860 Y88.967
G1 X157.699 Y88.807
G1 X157.559 Y88.594
G1 X157.422 Y88.452
G1 X157.259 Y88.264
G1 X157.083 Y88.121
G1 X156.959 Y87.985
G1 X156.782 Y87.897
G1 X156.659 Y87.762
G1 X156.487 Y87.658
G1 X156.360 Y87.591
G1 X156.237 Y87.527
G1 X156.061 Y87.462
G1 X155.914 Y87.408
G1 X155.762 Y87.366
G1 X155.601 Y87.309
G1 X155.463 Y87.294
G1 X155.314 Y87.287
G1 X155.164 Y87.237
G1 X155.003 Y87.227
G1 X154.866 Y87.186
G1 X154.718 Y87.178
G1 X154.567 Y87.132
G1 X154.409 Y87.098
G1 X154.269 Y87.065
G1 X154.122 Y87.044
G1 X153.970 Y86.978
; Path 182
G0 Z0
G0 X153.991 Y87.000
G0 Z2.2
G1 F3000
G1 X154.007 Y88.965
G1 X153.982 Y90.993
G1 X153.984 Y93.014
G1 X153.954 Y94.979
G1 X153.986 Y96.951
G1 X153.999 Y98.983
G1 X153.970 Y100.967
; Path 183
G0 Z0
G0 X153.040 Y99.911
G0 Z2.2
G1 F3000
G1 X152.797 Y99.012
G1 X152.444 Y98.119
G1 X152.193 Y97.215
G1 X151.827 Y96.321
G1 X151.541 Y95.350
G1 X151.155 Y94.465
G1 X150.922 Y93.644
G1 X150.513 Y92.764
G1 X150.346 Y91.795
G1 X149.973 Y90.912
; Path 184
G0 Z0
G0 X148.993 Y91.005
G0 Z2.2
G1 F3000
G1 X149.097 Y90.864
G1 X149.186 Y90.692
G1 X149.250 Y90.547
G1 X149.373 Y90.364
G1 X149.434 Y90.179
G1 X149.555 Y90.028
G1 X149.638 Y89.882
G1 X149.737 Y89.690
G1 X149.858 Y89.534
G1 X149.920 Y89.356
G1 X150.009 Y89.171
G1 X150.109 Y89.033
G1 X150.236 Y88.904
G1 X150.306 Y88.726
G1 X150.431 Y88.613
G1 X150.513 Y88.441
G1 X150.607 Y88.328
G1 X150.735 Y88.185
G1 X150.865 Y88.072
G1 X150.973 Y87.963
G1 X151.086 Y87.899
G1 X151.231 Y87.780
G1 X151.363 Y87.707
G1 X151.506 Y87.632
G1 X151.640 Y87.570
G1 X151.794 Y87.513
G1 X151.948 Y87.460
G1 X152.094 Y87.416
G1 X152.228 Y87.387
G1 X152.402 Y87.335
G1 X152.553 Y87.286
G1 X152.715 Y87.265
G1 X152.891 Y87.231
G1 X153.029 Y87.198
G1 X153.204 Y87.153
G1 X153.343 Y87.130
G1 X153.515 Y87.097
G1 X153.653 Y87.053
G1 X153.833 Y87.007
G1 X153.955 Y86.962
; Path 185
G0 Z0
G0 X149.969 Y82.987
G0 Z2.2
G1 F3000
G1 X149.974 Y84.903
G1 X149.967 Y86.826
G1 X149.974 Y88.791
G1 X149.988 Y90.665
G1 X149.951 Y92.639
G1 X149.958 Y94.572
G1 X150.002 Y96.483
G1 X150.000 Y98.423
G1 X149.991 Y100.352
G1 X150.007 Y102.282
G1 X149.998 Y104.153
G1 X149.963 Y106.100
G1 X149.958 Y108.017
G1 X149.986 Y109.961
; Path 186
G0 Z0
G0 X150.962 Y107.989
G0 Z2.2
G1 F3000
G1 X150.960 Y106.498
G1 X150.972 Y104.974
; Path 187
G0 Z0
G0 X150.996 Y104.978
G0 Z2.2
G1 F3000
G1 X150.907 Y104.908
G1 X150.792 Y104.866
G1 X150.668 Y104.789
G1 X150.580 Y104.740
G1 X150.474 Y104.648
G1 X150.365 Y104.605
G1 X150.249 Y104.560
G1 X150.149 Y104.468
G1 X150.070 Y104.413
G1 X149.935 Y104.336
G1 X149.840 Y104.257
G1 X149.726 Y104.214
G1 X149.614 Y104.156
G1 X149.525 Y104.107
G1 X149.457 Y104.073
G1 X149.335 Y104.024
G1 X149.228 Y104.017
G1 X149.159 Y103.969
G1 X149.054 Y103.938
G1 X149.000 Y103.948
G1 X148.912 Y103.962
G1 X148.860 Y103.967
G1 X148.774 Y103.982
G1 X148.736 Y104.020
G1 X148.708 Y104.059
G1 X148.627 Y104.101
G1 X148.551 Y104.136
G1 X148.529 Y104.205
G1 X148.494 Y104.257
G1 X148.439 Y104.325
G1 X148.390 Y104.362
G1 X148.354 Y104.455
G1 X148.290 Y104.549
G1 X148.271 Y104.590
G1 X148.212 Y104.639
G1 X148.186 Y104.722
G1 X148.171 Y104.760
G1 X148.098 Y104.847
G1 X148.033 Y104.922
G1 X148.003 Y104.957
; Path 188
G0 Z0
G0 X147.993 Y104.978
G0 Z2.2
G1 F3000
G1 X147.984 Y106.492
G1 X148.006 Y107.992
; Path 189
G0 Z0
G0 X144.959 Y109.985
G0 Z2.2
G1 F3000
G1 X145.003 Y108.024
G1 X145.046 Y106.080
G1 X145.160 Y104.174
G1 X145.211 Y102.242
G1 X145.232 Y100.262
G1 X145.305 Y98.322
G1 X145.397 Y96.415
G1 X145.401 Y94.468
G1 X145.481 Y92.557
G1 X145.533 Y90.564
G1 X145.583 Y88.666
G1 X145.646 Y86.708
G1 X145.722 Y84.787
G1 X145.758 Y82.827
G1 X145.838 Y80.899
G1 X145.888 Y78.968
G1 X145.950 Y77.008
; Path 190
G0 Z0
G0 X145.950 Y76.967
G0 Z2.2
G1 F3000
G1 X147.858 Y77.168
G1 X149.732 Y77.431
G1 X151.638 Y77.629
G1 X153.494 Y77.859
G1 X155.434 Y78.056
G1 X157.307 Y78.274
G1 X159.163 Y78.487
G1 X161.051 Y78.766
G1 X162.968 Y78.960
; Path 191
G0 Z0
G0 X162.953 Y78.963
G0 Z2.2
G1 F3000
G1 X164.307 Y79.279
G1 X165.615 Y79.632
G1 X166.957 Y79.951
; Path 192
G0 Z0
G0 X166.963 Y79.982
G0 Z2.2
G1 F3000
G1 X168.829 Y79.724
G1 X170.750 Y79.461
G1 X172.625 Y79.221
G1 X174.455 Y78.954
G1 X176.361 Y78.713
G1 X178.252 Y78.430
G1 X180.102 Y78.177
G1 X182.002 Y77.948
; Path 193
G0 Z0
G0 X181.970 Y78.006
G0 Z2.2
G1 F3000
G1 X181.915 Y79.966
G1 X181.861 Y81.883
G1 X181.801 Y83.839
G1 X181.713 Y85.751
G1 X181.685 Y87.703
G1 X181.625 Y89.669
G1 X181.544 Y91.607
G1 X181.513 Y93.519
G1 X181.473 Y95.473
G1 X181.402 Y97.385
G1 X181.318 Y99.352
G1 X181.285 Y101.267
G1 X181.228 Y103.259
G1 X181.171 Y105.176
G1 X181.091 Y107.100
G1 X181.019 Y109.031
G1 X180.976 Y110.999
; Path 194
G0 Z0
G0 X182.597 Y112.260
G0 Z2.2
G1 F3000
G1 X181.409 Y113.731
; Path 195
G0 Z0
G0 X183.217 Y112.868
G0 Z2.2
G1 F3000
G1 X182.830 Y114.952
; Path 196
G0 Z0
G0 X183.000 Y114.979
G0 Z2.2
G1 F3000
G1 X183.089 Y114.466
G1 X183.190 Y113.950
G1 X183.300 Y113.422
G1 X183.372 Y112.879
G1 X183.435 Y112.351
G1 X183.550 Y111.784
G1 X183.616 Y111.248
G1 X183.727 Y110.683
G1 X183.837 Y110.145
G1 X183.906 Y109.594
G1 X184.026 Y109.060
G1 X184.090 Y108.536
G1 X184.179 Y108.006
G1 X184.283 Y107.525
G1 X184.406 Y107.053
G1 X184.489 Y106.580
G1 X184.581 Y106.124
G1 X184.709 Y105.719
G1 X184.834 Y105.319
G1 X184.948 Y104.961
G1 X185.072 Y104.620
G1 X185.208 Y104.317
G1 X185.320 Y104.026
G1 X185.486 Y103.775
G1 X185.637 Y103.573
G1 X185.780 Y103.317
G1 X185.905 Y103.104
G1 X186.085 Y102.925
G1 X186.262 Y102.742
G1 X186.400 Y102.582
G1 X186.589 Y102.427
G1 X186.720 Y102.268
G1 X186.906 Y102.129
G1 X187.042 Y101.966
G1 X187.189 Y101.826
G1 X187.363 Y101.659
G1 X187.514 Y101.518
G1 X187.679 Y101.327
G1 X187.846 Y101.133
G1 X187.988 Y100.953
; Path 197
G0 Z0
G0 X187.001 Y103.001
G0 Z2.2
G1 F3000
G1 X186.837 Y103.244
G1 X186.688 Y103.480
G1 X186.499 Y103.717
G1 X186.361 Y103.931
G1 X186.193 Y104.139
G1 X186.026 Y104.366
G1 X185.884 Y104.607
G1 X185.689 Y104.796
G1 X185.538 Y104.986
G1 X185.356 Y105.235
G1 X185.194 Y105.446
G1 X185.033 Y105.694
G1 X184.907 Y105.915
G1 X184.726 Y106.185
G1 X184.592 Y106.449
G1 X184.442 Y106.720
G1 X184.314 Y107.014
G1 X184.186 Y107.312
G1 X184.046 Y107.639
G1 X183.964 Y107.973
G1 X183.846 Y108.332
G1 X183.781 Y108.711
G1 X183.694 Y109.119
G1 X183.633 Y109.517
G1 X183.580 Y109.960
G1 X183.513 Y110.380
G1 X183.450 Y110.845
G1 X183.415 Y111.288
G1 X183.400 Y111.763
G1 X183.333 Y112.227
G1 X183.274 Y112.691
G1 X183.262 Y113.187
G1 X183.254 Y113.669
G1 X183.195 Y114.155
G1 X183.173 Y114.646
G1 X183.125 Y115.119
G1 X183.081 Y115.585
G1 X183.048 Y116.067
G1 X183.031 Y116.527
G1 X182.956 Y116.987
; Path 198
G0 Z0
G0 X185.123 Y117.972
G0 Z2.2
G1 F3000
G1 X184.956 Y119.932
; Path 199
G0 Z0
G0 X180.886 Y119.905
G0 Z2.2
G1 F3000
G1 X178.961 Y119.891
; Path 200
G0 Z0
G0 X176.931 Y117.982
G0 Z2.2
G1 F3000
G1 X176.303 Y118.437
G1 X175.586 Y118.932
G1 X174.919 Y119.555
G1 X174.218 Y120.057
G1 X173.684 Y120.534
G1 X172.953 Y121.036
; Path 201
G0 Z0
G0 X172.970 Y119.966
G0 Z2.2
G1 F3000
G1 X174.996 Y119.944
G1 X176.967 Y119.994
G1 X178.941 Y119.953
G1 X180.956 Y119.970
G1 X182.947 Y119.999
G1 X184.967 Y119.996
G1 X186.963 Y119.991
; Path 202
G0 Z0
G0 X190.990 Y119.970
G0 Z2.2
G1 F3000
G1 X188.872 Y119.976
; Path 203
G0 Z0
G0 X189.462 Y116.960
G0 Z2.2
G1 F3000
G1 X188.962 Y117.460
G1 X188.462 Y116.960
G1 X188.962 Y116.460
G1 X189.462 Y116.960
; Path 204
G0 Z0
G0 X192.001 Y112.967
G0 Z2.2
G1 F3000
G1 X191.478 Y111.446
G1 X191.002 Y109.980
G1 X190.495 Y108.479
G1 X189.974 Y106.989
; Path 205
G0 Z0
G0 X187.448 Y108.978
G0 Z2.2
G1 F3000
G1 X186.948 Y109.478
G1 X186.448 Y108.978
G1 X186.948 Y108.478
G1 X187.448 Y108.978
; Path 206
G0 Z0
G0 X186.503 Y108.058
G0 Z2.2
G1 F3000
G1 X185.403 Y109.828
; Path 207
G0 Z0
G0 X184.932 Y109.924
G0 Z2.2
G1 F3000
G1 X185.133 Y111.971
; Path 208
G0 Z0
G0 X184.062 Y112.050
G0 Z2.2
G1 F3000
G1 X183.754 Y114.006
; Path 209
G0 Z0
G0 X184.211 Y112.838
G0 Z2.2
G1 F3000
G1 X183.950 Y110.926
; Path 210
G0 Z0
G0 X183.974 Y110.013
G0 Z2.2
G1 F3000
G1 X185.982 Y109.837
; Path 211
G0 Z0
G0 X185.981 Y109.960
G0 Z2.2
G1 F3000
G1 X184.007 Y109.975
G1 X181.987 Y109.979
G1 X179.995 Y109.975
G1 X177.981 Y109.967
G1 X176.007 Y109.995
G1 X173.989 Y109.992
; Path 212
G0 Z0
G0 X173.454 Y108.989
G0 Z2.2
G1 F3000
G1 X172.954 Y109.489
G1 X172.454 Y108.989
G1 X172.954 Y108.489
G1 X173.454 Y108.989
; Path 213
G0 Z0
G0 X172.991 Y108.994
G0 Z2.2
G1 F3000
G1 X172.995 Y107.487
G1 X172.955 Y105.948
; Path 214
G0 Z0
G0 X172.970 Y106.001
G0 Z2.2
G1 F3000
G1 X172.877 Y105.941
G1 X172.767 Y105.890
G1 X172.668 Y105.830
G1 X172.557 Y105.765
G1 X172.449 Y105.700
G1 X172.343 Y105.631
G1 X172.239 Y105.563
G1 X172.128 Y105.496
G1 X172.032 Y105.411
G1 X171.915 Y105.365
G1 X171.786 Y105.279
G1 X171.707 Y105.243
G1 X171.583 Y105.186
G1 X171.507 Y105.139
G1 X171.431 Y105.070
G1 X171.317 Y105.056
G1 X171.245 Y105.055
G1 X171.142 Y105.003
G1 X171.053 Y104.966
G1 X170.982 Y104.984
G1 X170.941 Y105.021
G1 X170.842 Y105.003
G1 X170.769 Y105.052
G1 X170.718 Y105.058
G1 X170.684 Y105.113
G1 X170.607 Y105.141
G1 X170.566 Y105.166
G1 X170.507 Y105.246
G1 X170.455 Y105.299
G1 X170.416 Y105.368
G1 X170.376 Y105.423
G1 X170.329 Y105.500
G1 X170.277 Y105.580
G1 X170.244 Y105.636
G1 X170.196 Y105.704
G1 X170.158 Y105.770
G1 X170.096 Y105.809
G1 X170.068 Y105.896
G1 X170.048 Y105.951
G1 X169.971 Y106.007
; Path 215
G0 Z0
G0 X169.966 Y105.950
G0 Z2.2
G1 F3000
G1 X169.972 Y107.469
G1 X169.960 Y108.993
; Path 216
G0 Z0
G0 X169.975 Y108.967
G0 Z2.2
G1 F3000
G1 X168.978 Y107.484
G1 X167.954 Y106.000
; Path 217
G0 Z0
G0 X166.993 Y104.949
G0 Z2.2
G1 F3000
G1 X168.731 Y104.715
G1 X170.464 Y104.437
G1 X172.234 Y104.179
G1 X173.956 Y103.973
G1 X175.718 Y103.726
G1 X177.495 Y103.462
G1 X179.240 Y103.244
G1 X180.978 Y102.967
; Path 218
G0 Z0
G0 X182.004 Y99.002
G0 Z2.2
G1 F3000
G1 X182.496 Y98.010
G1 X182.997 Y96.981
; Path 219
G0 Z0
G0 X183.452 Y92.975
G0 Z2.2
G1 F3000
G1 X182.952 Y92.475
G1 X182.452 Y92.975
G1 X182.952 Y93.475
G1 X183.452 Y92.975
; Path 220
G0 Z0
G0 X189.964 Y93.004
G0 Z2.2
G1 F3000
G1 X189.969 Y94.984
G1 X189.952 Y97.009
G1 X189.943 Y99.002
G1 X189.985 Y101.008
G1 X189.977 Y103.032
G1 X189.985 Y104.984
G1 X189.950 Y106.979
G1 X189.989 Y109.008
G1 X189.975 Y111.014
G1 X189.946 Y112.987
G1 X189.947 Y114.978
G1 X189.961 Y117.003
; Path 221
G0 Z0
G0 X190.004 Y116.999
G0 Z2.2
G1 F3000
G1 X190.019 Y115.325
G1 X189.970 Y113.660
G1 X189.982 Y111.997
G1 X189.978 Y110.309
G1 X190.013 Y108.668
G1 X189.993 Y106.997
; Path 222
G0 Z0
G0 X189.998 Y106.983
G0 Z2.2
G1 F3000
G1 X189.481 Y108.503
G1 X188.999 Y109.974
G1 X188.493 Y111.485
G1 X187.963 Y113.007
; Path 223
G0 Z0
G0 X184.957 Y112.997
G0 Z2.2
G1 F3000
G1 X184.501 Y113.992
G1 X183.996 Y114.972
; Path 224
G0 Z0
G0 X183.006 Y114.984
G0 Z2.2
G1 F3000
G1 X182.928 Y116.843
G1 X182.884 Y118.726
G1 X182.804 Y120.658
G1 X182.776 Y122.511
G1 X182.687 Y124.380
G1 X182.665 Y126.268
G1 X182.593 Y128.158
G1 X182.515 Y130.021
G1 X182.453 Y131.928
G1 X182.383 Y133.826
G1 X182.334 Y135.673
G1 X182.310 Y137.571
G1 X182.222 Y139.464
G1 X182.149 Y141.330
G1 X182.126 Y143.251
G1 X182.056 Y145.091
G1 X181.983 Y146.990
; Path 225
G0 Z0
G0 X183.986 Y146.960
G0 Z2.2
G1 F3000
G1 X184.037 Y144.964
G1 X184.138 Y142.960
G1 X184.164 Y140.965
G1 X184.236 Y138.954
G1 X184.296 Y136.983
G1 X184.354 Y134.946
G1 X184.422 Y132.972
G1 X184.503 Y130.976
G1 X184.520 Y128.951
G1 X184.615 Y126.951
G1 X184.648 Y124.956
G1 X184.748 Y122.989
G1 X184.785 Y121.003
G1 X184.849 Y119.007
G1 X184.934 Y116.986
G1 X184.977 Y114.984
; Path 226
G0 Z0
G0 X184.977 Y114.978
G0 Z2.2
G1 F3000
G1 X182.977 Y106.978
; Path 227
G0 Z0
G0 X183.973 Y109.986
G0 Z2.2
G1 F3000
G1 X184.977 Y108.491
G1 X185.973 Y106.987
; Path 228
G0 Z0
G0 X185.970 Y106.995
G0 Z2.2
G1 F3000
G1 X184.999 Y105.492
G1 X183.973 Y103.960
; Path 229
G0 Z0
G0 X183.995 Y105.006
G0 Z2.2
G1 F3000
G1 X183.484 Y105.949
G1 X182.959 Y106.952
; Path 230
G0 Z0
G0 X182.979 Y106.019
G0 Z2.2
G1 F3000
G1 X182.988 Y103.936
; Path 231
G0 Z0
G0 X182.977 Y102.978
G0 Z2.2
G1 F3000
G1 X182.977 Y106.978
; Path 232
G1 X180.977 Y114.978
; Path 233
G0 Z0
G0 X180.972 Y114.965
G0 Z2.2
G1 F3000
G1 X180.925 Y116.842
G1 X180.861 Y118.739
G1 X180.812 Y120.614
G1 X180.742 Y122.496
G1 X180.678 Y124.394
G1 X180.637 Y126.238
G1 X180.578 Y128.118
G1 X180.499 Y130.040
G1 X180.445 Y131.909
G1 X180.391 Y133.814
G1 X180.349 Y135.654
G1 X180.286 Y137.583
G1 X180.211 Y139.469
G1 X180.165 Y141.312
G1 X180.083 Y143.188
G1 X180.061 Y145.069
G1 X179.974 Y146.976
; Path 234
G0 Z0
G0 X178.980 Y146.948
G0 Z2.2
G1 F3000
G1 X178.922 Y147.018
G1 X178.879 Y147.144
G1 X178.824 Y147.265
G1 X178.777 Y147.332
G1 X178.756 Y147.409
G1 X178.676 Y147.516
G1 X178.653 Y147.613
G1 X178.574 Y147.699
G1 X178.513 Y147.769
G1 X178.472 Y147.885
G1 X178.427 Y147.990
G1 X178.371 Y148.075
G1 X178.317 Y148.179
G1 X178.270 Y148.274
G1 X178.243 Y148.361
G1 X178.169 Y148.483
G1 X178.120 Y148.603
G1 X178.068 Y148.708
G1 X177.991 Y148.845
G1 X177.968 Y148.949
G1 X177.910 Y149.076
G1 X177.869 Y149.211
G1 X177.801 Y149.356
G1 X177.770 Y149.489
G1 X177.716 Y149.610
G1 X177.671 Y149.782
G1 X177.622 Y149.910
G1 X177.573 Y150.087
G1 X177.521 Y150.214
G1 X177.475 Y150.399
G1 X177.422 Y150.566
G1 X177.377 Y150.717
G1 X177.344 Y150.878
G1 X177.280 Y151.036
G1 X177.259 Y151.183
G1 X177.182 Y151.355
G1 X177.105 Y151.539
G1 X177.084 Y151.670
G1 X177.058 Y151.826
G1 X176.986 Y151.977
; Path 235
G0 Z0
G0 X176.994 Y152.004
G0 Z2.2
G1 F3000
G1 X177.170 Y151.866
G1 X177.312 Y151.696
G1 X177.487 Y151.512
G1 X177.659 Y151.381
G1 X177.847 Y151.242
G1 X178.022 Y151.062
G1 X178.181 Y150.918
G1 X178.389 Y150.741
G1 X178.570 Y150.565
G1 X178.747 Y150.423
G1 X178.934 Y150.262
G1 X179.086 Y150.110
G1 X179.263 Y149.966
G1 X179.392 Y149.806
G1 X179.542 Y149.659
G1 X179.654 Y149.513
G1 X179.747 Y149.347
G1 X179.859 Y149.235
G1 X179.937 Y149.131
G1 X179.996 Y148.975
G1 X180.024 Y148.856
G1 X180.056 Y148.734
G1 X180.034 Y148.639
G1 X180.047 Y148.512
G1 X180.043 Y148.408
G1 X179.981 Y148.305
G1 X179.954 Y148.228
G1 X179.871 Y148.109
G1 X179.821 Y148.000
G1 X179.729 Y147.922
G1 X179.660 Y147.804
G1 X179.567 Y147.739
G1 X179.489 Y147.636
G1 X179.396 Y147.559
G1 X179.342 Y147.465
G1 X179.229 Y147.378
G1 X179.169 Y147.294
G1 X179.079 Y147.193
G1 X179.005 Y147.110
G1 X178.957 Y147.001
; Path 236
G0 Z0
G0 X174.975 Y149.958
G0 Z2.2
G1 F3000
G1 X174.949 Y147.974
G1 X174.964 Y145.938
G1 X174.990 Y143.972
G1 X174.963 Y141.962
G1 X174.950 Y139.981
G1 X174.958 Y137.958
G1 X174.980 Y135.955
G1 X174.945 Y133.937
G1 X174.987 Y131.955
G1 X174.982 Y129.945
G1 X174.954 Y127.976
G1 X174.949 Y125.960
G1 X174.937 Y123.977
G1 X174.966 Y121.993
G1 X174.965 Y120.001
G1 X174.954 Y117.988
G1 X174.981 Y115.976
G1 X174.933 Y113.959
G1 X174.949 Y111.979
G1 X174.930 Y109.961
G1 X174.966 Y107.994
G1 X174.934 Y105.999
G1 X174.950 Y103.958
G1 X174.939 Y102.014
G1 X174.947 Y100.011
G1 X174.962 Y97.998
G1 X174.974 Y96.014
G1 X174.949 Y93.995
G1 X174.965 Y91.962
G1 X174.928 Y89.981
G1 X174.974 Y87.969
G1 X174.962 Y85.972
G1 X174.977 Y84.009
G1 X174.969 Y82.022
G1 X174.948 Y79.996
; Path 237
G0 Z0
G0 X174.969 Y78.989
G0 Z2.2
G1 F3000
G1 X174.950 Y76.994
G1 X174.962 Y74.992
; Path 238
G0 Z0
G0 X174.961 Y74.948
G0 Z2.2
G1 F3000
G1 X176.474 Y74.981
G1 X178.001 Y74.978
; Path 239
G0 Z0
G0 X177.977 Y73.978
G0 Z2.2
G1 F3000
G1 X181.977 Y73.978
; Path 240
G0 Z0
G0 X180.456 Y71.983
G0 Z2.2
G1 F3000
G1 X179.956 Y71.483
G1 X179.456 Y71.983
G1 X179.956 Y72.483
G1 X180.456 Y71.983
; Path 241
G0 Z0
G0 X179.977 Y70.978
G0 Z2.2
G1 F3000
G1 X179.977 Y78.978
; Path 242
G0 Z0
G0 X178.003 Y77.985
G0 Z2.2
G1 F3000
G1 X177.985 Y76.469
G1 X177.960 Y74.986
; Path 243
G0 Z0
G0 X177.968 Y78.964
G0 Z2.2
G1 F3000
G1 X177.877 Y80.931
G1 X177.796 Y82.889
G1 X177.727 Y84.855
G1 X177.684 Y86.814
G1 X177.588 Y88.793
G1 X177.548 Y90.735
G1 X177.415 Y92.741
G1 X177.398 Y94.690
G1 X177.270 Y96.663
G1 X177.232 Y98.620
G1 X177.118 Y100.542
G1 X177.043 Y102.550
G1 X176.997 Y104.496
G1 X176.909 Y106.482
G1 X176.819 Y108.438
G1 X176.785 Y110.391
G1 X176.715 Y112.349
G1 X176.648 Y114.326
G1 X176.536 Y116.265
G1 X176.464 Y118.245
G1 X176.372 Y120.228
G1 X176.323 Y122.163
G1 X176.217 Y124.166
G1 X176.197 Y126.087
G1 X176.116 Y128.065
G1 X176.045 Y130.035
G1 X175.948 Y131.993
; Path 244
G0 Z0
G0 X171.977 Y129.978
G0 Z2.2
G1 F3000
G1 X175.977 Y129.978
; Path 245
G0 Z0
G0 X175.969 Y129.979
G0 Z2.2
G1 F3000
G1 X175.314 Y128.638
G1 X174.657 Y127.308
G1 X173.995 Y125.977
; Path 246
G0 Z0
G0 X173.951 Y125.982
G0 Z2.2
G1 F3000
G1 X173.308 Y127.315
G1 X172.593 Y128.618
G1 X171.947 Y129.951
; Path 247
G0 Z0
G0 X166.911 Y127.029
G0 Z2.2
G1 F3000
G1 X165.945 Y126.918
G1 X165.069 Y126.963
G1 X164.031 Y126.928
; Path 248
G0 Z0
G0 X167.977 Y122.978
G0 Z2.2
G1 F3000
G1 X164.977 Y86.978
; Path 249
G1 X274.977 Y88.978
; Path 250
G1 X271.977 Y124.978
; Path 251
G0 Z0
G0 X277.951 Y126.981
G0 Z2.2
G1 F3000
G1 X275.987 Y127.231
G1 X274.075 Y127.516
G1 X272.097 Y127.832
G1 X270.186 Y128.079
G1 X268.223 Y128.394
G1 X266.288 Y128.636
G1 X264.318 Y128.929
G1 X262.374 Y129.186
G1 X260.440 Y129.484
G1 X258.534 Y129.765
G1 X256.590 Y130.010
G1 X254.592 Y130.276
G1 X252.651 Y130.568
G1 X250.732 Y130.841
G1 X248.779 Y131.106
G1 X246.862 Y131.431
G1 X244.886 Y131.704
G1 X242.965 Y131.975
G1 X240.985 Y132.229
G1 X239.074 Y132.527
G1 X237.105 Y132.770
G1 X235.204 Y133.094
G1 X233.216 Y133.336
G1 X231.284 Y133.630
G1 X229.371 Y133.895
G1 X227.386 Y134.165
G1 X225.426 Y134.448
G1 X223.500 Y134.730
G1 X221.556 Y135.006
G1 X219.604 Y135.265
G1 X217.660 Y135.569
G1 X215.734 Y135.851
G1 X213.783 Y136.143
G1 X211.849 Y136.414
G1 X209.899 Y136.657
G1 X207.955 Y136.949
; Path 252
G0 Z0
G0 X208.006 Y136.958
G0 Z2.2
G1 F3000
G1 X208.390 Y135.051
G1 X208.714 Y133.087
G1 X209.057 Y131.172
G1 X209.419 Y129.222
G1 X209.755 Y127.330
G1 X210.106 Y125.406
G1 X210.482 Y123.460
G1 X210.835 Y121.497
G1 X211.166 Y119.596
G1 X211.545 Y117.665
G1 X211.887 Y115.726
G1 X212.276 Y113.783
G1 X212.622 Y111.867
G1 X212.961 Y109.953
; Path 253
G0 Z0
G0 X212.961 Y109.988
G0 Z2.2
G1 F3000
G1 X214.736 Y110.712
G1 X216.542 Y111.431
G1 X218.330 Y112.141
G1 X220.079 Y112.827
G1 X221.910 Y113.539
G1 X223.651 Y114.264
G1 X225.469 Y114.992
G1 X227.225 Y115.703
G1 X229.036 Y116.420
G1 X230.815 Y117.118
G1 X232.608 Y117.838
G1 X234.405 Y118.547
G1 X236.159 Y119.293
G1 X237.951 Y119.987
; Path 254
G0 Z0
G0 X237.968 Y119.992
G0 Z2.2
G1 F3000
G1 X236.014 Y120.217
G1 X234.032 Y120.447
G1 X232.082 Y120.626
G1 X230.138 Y120.864
G1 X228.217 Y121.104
G1 X226.202 Y121.309
G1 X224.249 Y121.524
G1 X222.348 Y121.722
G1 X220.338 Y121.968
G1 X218.414 Y122.145
G1 X216.447 Y122.409
G1 X214.479 Y122.578
G1 X212.522 Y122.815
G1 X210.595 Y123.037
G1 X208.641 Y123.279
G1 X206.685 Y123.449
G1 X204.729 Y123.676
G1 X202.777 Y123.883
G1 X200.808 Y124.105
G1 X198.832 Y124.308
G1 X196.883 Y124.542
G1 X194.921 Y124.796
G1 X192.969 Y124.958
G1 X190.995 Y125.227
G1 X189.080 Y125.418
G1 X187.084 Y125.642
G1 X185.172 Y125.874
G1 X183.212 Y126.077
G1 X181.266 Y126.304
G1 X179.291 Y126.482
G1 X177.304 Y126.706
G1 X175.370 Y126.928
G1 X173.435 Y127.175
G1 X171.429 Y127.394
G1 X169.493 Y127.583
G1 X167.546 Y127.805
G1 X165.590 Y128.055
G1 X163.647 Y128.270
G1 X161.681 Y128.490
G1 X159.716 Y128.665
G1 X157.757 Y128.921
G1 X155.838 Y129.101
G1 X153.857 Y129.322
G1 X151.912 Y129.535
G1 X149.922 Y129.769
G1 X147.984 Y129.984
; Path 255
G0 Z0
G0 X147.950 Y129.967
G0 Z2.2
G1 F3000
G1 X147.897 Y131.924
G1 X147.783 Y133.855
G1 X147.757 Y135.833
G1 X147.642 Y137.791
G1 X147.620 Y139.725
G1 X147.494 Y141.708
G1 X147.451 Y143.644
G1 X147.398 Y145.585
G1 X147.315 Y147.530
G1 X147.212 Y149.463
G1 X147.164 Y151.447
G1 X147.097 Y153.408
G1 X147.007 Y155.337
G1 X146.956 Y157.308
G1 X146.856 Y159.238
G1 X146.778 Y161.192
G1 X146.715 Y163.171
G1 X146.628 Y165.128
G1 X146.615 Y167.024
G1 X146.489 Y169.002
G1 X146.460 Y170.985
G1 X146.361 Y172.906
G1 X146.299 Y174.882
G1 X146.243 Y176.791
G1 X146.167 Y178.756
G1 X146.101 Y180.739
G1 X145.987 Y182.676
G1 X145.956 Y184.629
G1 X145.891 Y186.598
G1 X145.808 Y188.516
G1 X145.750 Y190.475
G1 X145.652 Y192.406
G1 X145.597 Y194.369
G1 X145.514 Y196.306
G1 X145.412 Y198.280
G1 X145.344 Y200.262
G1 X145.274 Y202.206
G1 X145.208 Y204.153
G1 X145.171 Y206.114
G1 X145.065 Y208.057
G1 X145.006 Y209.996
; Path 256
G0 Z0
G0 X144.955 Y209.997
G0 Z2.2
G1 F3000
G1 X146.865 Y210.349
G1 X148.852 Y210.671
G1 X150.782 Y210.940
G1 X152.714 Y211.307
G1 X154.646 Y211.635
G1 X156.553 Y211.919
G1 X158.514 Y212.282
G1 X160.412 Y212.567
G1 X162.399 Y212.905
G1 X164.290 Y213.245
G1 X166.265 Y213.517
G1 X168.152 Y213.848
G1 X170.125 Y214.189
G1 X172.049 Y214.529
G1 X174.003 Y214.843
G1 X175.905 Y215.153
G1 X177.846 Y215.492
G1 X179.801 Y215.802
G1 X181.737 Y216.130
G1 X183.686 Y216.426
G1 X185.593 Y216.751
G1 X187.561 Y217.071
G1 X189.463 Y217.416
G1 X191.392 Y217.719
G1 X193.326 Y218.074
G1 X195.251 Y218.404
G1 X197.197 Y218.705
G1 X199.156 Y219.002
G1 X201.060 Y219.374
G1 X202.988 Y219.685
G1 X204.951 Y220.000
; Path 257
G0 Z0
G0 X210.003 Y226.959
G0 Z2.2
G1 F3000
G1 X209.186 Y227.093
G1 X208.465 Y227.289
G1 X207.644 Y227.638
G1 X206.870 Y227.769
G1 X206.099 Y227.984
G1 X205.333 Y228.217
G1 X204.541 Y228.367
G1 X203.737 Y228.665
G1 X202.945 Y228.938
G1 X202.116 Y229.070
G1 X201.452 Y229.292
G1 X200.602 Y229.596
G1 X199.842 Y229.822
G1 X199.101 Y230.021
G1 X198.207 Y230.292
G1 X197.468 Y230.509
G1 X196.759 Y230.760
G1 X195.894 Y230.923
G1 X195.134 Y231.077
G1 X194.335 Y231.353
G1 X193.583 Y231.597
G1 X192.798 Y231.654
G1 X191.949 Y231.830
G1 X191.204 Y232.075
G1 X190.454 Y232.168
G1 X189.574 Y232.376
G1 X188.810 Y232.418
G1 X188.075 Y232.623
G1 X187.216 Y232.782
G1 X186.460 Y232.796
G1 X185.657 Y232.812
G1 X184.950 Y232.945
G1 X184.155 Y232.953
G1 X183.317 Y233.031
G1 X182.531 Y233.067
G1 X181.827 Y233.006
G1 X181.112 Y232.970
G1 X180.331 Y232.916
G1 X179.495 Y232.905
G1 X178.709 Y232.841
G1 X177.994 Y232.698
G1 X177.095 Y232.631
G1 X176.420 Y232.641
G1 X175.592 Y232.501
G1 X174.734 Y232.395
G1 X174.074 Y232.313
G1 X173.325 Y232.121
G1 X172.477 Y232.040
G1 X171.771 Y231.842
G1 X170.873 Y231.806
G1 X170.193 Y231.635
G1 X169.363 Y231.509
G1 X168.551 Y231.356
G1 X167.874 Y231.227
G1 X166.954 Y231.078
G1 X166.250 Y230.961
G1 X165.459 Y230.910
G1 X164.750 Y230.677
G1 X163.930 Y230.567
G1 X163.136 Y230.447
G1 X162.313 Y230.321
G1 X161.642 Y230.235
G1 X160.791 Y230.186
G1 X160.020 Y230.021
; Path 258
G0 Z0
G0 X170.041 Y232.992
G0 Z2.2
G1 F3000
G1 X169.299 Y233.094
G1 X168.541 Y233.273
G1 X167.613 Y233.530
G1 X166.899 Y233.671
G1 X166.180 Y233.934
G1 X165.343 Y234.029
G1 X164.471 Y234.296
G1 X163.755 Y234.429
G1 X163.019 Y234.690
G1 X162.258 Y234.777
G1 X161.411 Y235.055
G1 X160.611 Y235.218
G1 X159.789 Y235.436
G1 X158.960 Y235.658
G1 X158.298 Y235.770
G1 X157.466 Y235.991
G1 X156.652 Y236.151
G1 X155.953 Y236.376
G1 X155.098 Y236.449
G1 X154.324 Y236.702
G1 X153.470 Y236.781
G1 X152.811 Y236.986
G1 X151.892 Y237.215
G1 X151.184 Y237.302
G1 X150.399 Y237.384
G1 X149.640 Y237.551
G1 X148.800 Y237.655
G1 X148.048 Y237.745
G1 X147.288 Y237.876
G1 X146.461 Y237.832
G1 X145.681 Y237.930
G1 X144.916 Y237.983
G1 X144.116 Y237.983
G1 X143.332 Y237.945
G1 X142.546 Y237.935
G1 X141.790 Y237.986
G1 X140.958 Y238.011
G1 X140.216 Y237.963
G1 X139.429 Y237.892
G1 X138.670 Y237.783
G1 X137.816 Y237.721
G1 X137.118 Y237.542
G1 X136.318 Y237.457
G1 X135.553 Y237.423
G1 X134.832 Y237.366
G1 X133.979 Y237.232
G1 X133.155 Y237.007
G1 X132.438 Y236.953
G1 X131.733 Y236.834
G1 X130.839 Y236.652
G1 X130.108 Y236.609
G1 X129.326 Y236.420
G1 X128.589 Y236.247
G1 X127.739 Y236.221
G1 X126.987 Y235.976
G1 X126.213 Y235.872
G1 X125.409 Y235.669
G1 X124.709 Y235.624
G1 X123.924 Y235.518
G1 X123.100 Y235.354
G1 X122.350 Y235.262
G1 X121.481 Y235.179
G1 X120.759 Y234.954
G1 X119.985 Y234.916
; Path 259
G0 Z0
G0 X119.996 Y259.978
G0 Z2.2
G1 F3000
G1 X121.992 Y259.996
G1 X124.001 Y259.991
G1 X126.017 Y259.968
G1 X128.004 Y260.002
G1 X130.018 Y259.981
G1 X132.015 Y259.986
G1 X133.981 Y259.952
G1 X136.010 Y259.958
G1 X137.968 Y260.003
G1 X140.017 Y259.974
G1 X141.996 Y259.950
G1 X144.023 Y259.977
G1 X146.020 Y259.958
G1 X147.991 Y259.997
G1 X149.977 Y259.976
G1 X151.978 Y260.006
G1 X154.022 Y259.965
G1 X156.010 Y259.963
G1 X157.968 Y259.972
G1 X159.986 Y259.960
G1 X162.002 Y259.987
G1 X164.006 Y259.967
G1 X166.018 Y259.980
G1 X167.993 Y259.965
G1 X169.964 Y259.990
G1 X171.981 Y260.005
G1 X173.970 Y259.996
G1 X176.005 Y260.010
G1 X177.972 Y259.979
G1 X179.969 Y260.001
G1 X182.018 Y259.970
G1 X184.013 Y260.008
G1 X186.018 Y259.990
G1 X188.018 Y259.984
G1 X189.970 Y259.997
G1 X191.960 Y259.973
G1 X193.986 Y259.974
G1 X195.975 Y259.958
G1 X197.985 Y259.987
G1 X199.962 Y260.012
G1 X201.992 Y259.976
G1 X203.994 Y259.970
G1 X205.964 Y259.965
G1 X208.009 Y259.977
G1 X209.972 Y259.978
G1 X211.976 Y259.976
G1 X213.966 Y260.015
G1 X216.000 Y259.998
G1 X217.971 Y259.987
G1 X219.964 Y259.988
G1 X221.995 Y259.990
G1 X224.000 Y260.002
G1 X225.993 Y259.979
G1 X227.968 Y259.972
G1 X230.001 Y259.998
G1 X231.964 Y259.972
G1 X233.982 Y259.968
G1 X236.011 Y259.973
G1 X237.998 Y260.012
G1 X239.965 Y259.971
G1 X241.963 Y259.965
G1 X243.988 Y259.992
G1 X245.995 Y259.965
G1 X247.991 Y259.959
G1 X249.990 Y259.998
G1 X251.979 Y259.964
G1 X253.992 Y260.013
G1 X255.994 Y260.003
G1 X257.955 Y259.999
G1 X259.990 Y259.982
G1 X261.980 Y259.964
G1 X263.956 Y260.003
G1 X265.997 Y260.012
G1 X267.964 Y259.984
G1 X269.952 Y260.002
G1 X272.001 Y259.962
G1 X273.961 Y259.971
G1 X275.973 Y260.011
G1 X277.971 Y259.972
G1 X279.958 Y260.002
G1 X282.004 Y259.976
G1 X283.982 Y260.017
G1 X285.972 Y260.018
G1 X287.984 Y259.970
G1 X289.950 Y260.016
G1 X291.995 Y260.019
G1 X293.960 Y260.016
G1 X295.950 Y259.982
G1 X297.964 Y259.967
G1 X299.957 Y259.972
G1 X301.948 Y260.000
G1 X303.968 Y260.022
G1 X305.972 Y260.000
G1 X307.961 Y260.006
G1 X309.957 Y259.983
G1 X311.979 Y260.020
G1 X313.960 Y259.983
G1 X315.949 Y259.990
G1 X317.978 Y260.006
G1 X319.973 Y259.995
; Path 260
G0 Z0
G0 X320.042 Y243.028
G0 Z2.2
G1 F3000
G1 X319.231 Y243.203
G1 X318.405 Y243.552
G1 X317.545 Y243.712
G1 X316.752 Y243.960
G1 X315.955 Y244.228
G1 X315.049 Y244.474
G1 X314.231 Y244.809
G1 X313.446 Y245.069
G1 X312.553 Y245.268
G1 X311.673 Y245.490
G1 X310.824 Y245.786
G1 X310.058 Y246.047
G1 X309.278 Y246.277
G1 X308.449 Y246.594
G1 X307.561 Y246.762
G1 X306.700 Y246.940
G1 X305.882 Y247.194
G1 X305.062 Y247.366
G1 X304.214 Y247.557
G1 X303.334 Y247.686
G1 X302.560 Y247.812
G1 X301.776 Y247.904
G1 X300.932 Y248.012
G1 X300.054 Y248.052
G1 X299.232 Y248.020
G1 X298.405 Y248.037
G1 X297.544 Y248.055
G1 X296.696 Y248.037
G1 X295.793 Y247.903
G1 X295.030 Y247.852
G1 X294.182 Y247.755
G1 X293.292 Y247.645
G1 X292.514 Y247.491
G1 X291.616 Y247.332
G1 X290.910 Y247.143
G1 X289.995 Y247.019
G1 X289.148 Y246.895
G1 X288.325 Y246.607
G1 X287.475 Y246.484
G1 X286.689 Y246.340
G1 X285.819 Y246.058
G1 X284.955 Y245.933
G1 X284.095 Y245.751
G1 X283.354 Y245.591
G1 X282.436 Y245.414
G1 X281.623 Y245.214
G1 X280.687 Y245.159
G1 X279.918 Y244.973
; Path 261
G0 Z0
G0 X260.000 Y237.048
G0 Z2.2
G1 F3000
G1 X259.115 Y237.265
G1 X258.269 Y237.455
G1 X257.389 Y237.636
G1 X256.491 Y237.843
G1 X255.637 Y238.043
G1 X254.808 Y238.244
