; Generated by Sketch DSL for Machine
; Work area: 420mm x 297mm (A3)
G21
G90
M5
G4 P0.5
G0 F11000
; 164 paths
; Path 1
G0 X119.994 Y78.495
G0 Z2.2
G1 F3000
G1 X121.803 Y79.285
G1 X123.639 Y80.062
G1 X125.443 Y80.818
G1 X127.300 Y81.625
G1 X129.109 Y82.387
G1 X130.914 Y83.174
G1 X132.740 Y83.936
G1 X134.561 Y84.737
G1 X136.399 Y85.495
G1 X138.196 Y86.251
G1 X140.037 Y87.035
G1 X141.879 Y87.807
G1 X143.652 Y88.619
G1 X145.527 Y89.358
G1 X147.297 Y90.145
G1 X149.168 Y90.906
G1 X150.946 Y91.724
G1 X152.796 Y92.512
G1 X154.596 Y93.249
G1 X156.433 Y94.062
G1 X158.259 Y94.805
G1 X160.057 Y95.613
G1 X161.872 Y96.368
G1 X163.702 Y97.153
G1 X165.549 Y97.908
G1 X167.361 Y98.730
G1 X169.168 Y99.502
G1 X171.026 Y100.259
G1 X172.835 Y101.043
G1 X174.648 Y101.820
G1 X176.465 Y102.614
G1 X178.271 Y103.360
G1 X180.098 Y104.172
G1 X181.969 Y104.959
G1 X183.738 Y105.693
G1 X185.593 Y106.467
G1 X187.432 Y107.286
G1 X189.204 Y108.025
G1 X191.028 Y108.809
G1 X192.865 Y109.598
G1 X194.701 Y110.370
G1 X196.493 Y111.170
G1 X198.326 Y111.954
G1 X200.183 Y112.687
G1 X201.984 Y113.484
; Path 2
G0 Z0
G0 X201.986 Y113.489
G0 Z2.2
G1 F3000
G1 X200.070 Y113.040
G1 X198.153 Y112.586
G1 X196.268 Y112.111
G1 X194.367 Y111.619
G1 X192.449 Y111.185
G1 X190.532 Y110.694
G1 X188.620 Y110.252
G1 X186.720 Y109.748
G1 X184.846 Y109.299
G1 X182.888 Y108.818
G1 X181.032 Y108.351
G1 X179.084 Y107.934
G1 X177.176 Y107.456
G1 X175.294 Y106.961
G1 X173.398 Y106.501
G1 X171.500 Y106.042
G1 X169.544 Y105.617
G1 X167.672 Y105.125
G1 X165.752 Y104.634
G1 X163.858 Y104.205
G1 X161.952 Y103.711
G1 X160.055 Y103.251
G1 X158.129 Y102.803
G1 X156.239 Y102.345
G1 X154.316 Y101.846
G1 X152.374 Y101.428
G1 X150.516 Y100.954
G1 X148.593 Y100.470
G1 X146.664 Y99.998
G1 X144.742 Y99.531
G1 X142.843 Y99.115
G1 X140.982 Y98.640
G1 X139.041 Y98.154
G1 X137.145 Y97.714
G1 X135.213 Y97.256
G1 X133.307 Y96.750
G1 X131.409 Y96.322
G1 X129.498 Y95.834
G1 X127.602 Y95.358
G1 X125.726 Y94.890
G1 X123.817 Y94.441
G1 X121.863 Y93.989
G1 X119.975 Y93.512
; Path 3
G0 Z0
G0 X119.977 Y113.489
G0 Z2.2
G1 F3000
G1 X269.977 Y113.489
; Path 4
G0 Z0
G0 X277.951 Y110.493
G0 Z2.2
G1 F3000
G1 X275.987 Y110.743
G1 X274.075 Y111.027
G1 X272.097 Y111.344
G1 X270.186 Y111.590
G1 X268.223 Y111.905
G1 X266.288 Y112.147
G1 X264.318 Y112.441
G1 X262.374 Y112.698
G1 X260.440 Y112.995
G1 X258.534 Y113.276
G1 X256.590 Y113.521
G1 X254.592 Y113.788
G1 X252.651 Y114.079
G1 X250.732 Y114.353
G1 X248.779 Y114.618
G1 X246.862 Y114.942
G1 X244.886 Y115.215
G1 X242.965 Y115.486
G1 X240.985 Y115.740
G1 X239.074 Y116.038
G1 X237.105 Y116.282
G1 X235.204 Y116.606
G1 X233.216 Y116.848
G1 X231.284 Y117.141
G1 X229.371 Y117.407
G1 X227.386 Y117.676
G1 X225.426 Y117.959
G1 X223.500 Y118.242
G1 X221.556 Y118.517
G1 X219.604 Y118.776
G1 X217.660 Y119.080
G1 X215.734 Y119.363
G1 X213.783 Y119.655
G1 X211.849 Y119.925
G1 X209.899 Y120.169
G1 X207.955 Y120.461
; Path 5
G0 Z0
G0 X208.006 Y120.469
G0 Z2.2
G1 F3000
G1 X208.390 Y118.563
G1 X208.714 Y116.599
G1 X209.057 Y114.683
G1 X209.419 Y112.734
G1 X209.755 Y110.842
G1 X210.106 Y108.918
G1 X210.482 Y106.971
G1 X210.835 Y105.009
G1 X211.166 Y103.108
G1 X211.545 Y101.176
G1 X211.887 Y99.237
G1 X212.276 Y97.295
G1 X212.622 Y95.378
G1 X212.961 Y93.464
; Path 6
G0 Z0
G0 X212.961 Y93.499
G0 Z2.2
G1 F3000
G1 X214.736 Y94.223
G1 X216.542 Y94.943
G1 X218.330 Y95.653
G1 X220.079 Y96.338
G1 X221.910 Y97.050
G1 X223.651 Y97.776
G1 X225.469 Y98.504
G1 X227.225 Y99.214
G1 X229.036 Y99.931
G1 X230.815 Y100.629
G1 X232.608 Y101.350
G1 X234.405 Y102.058
G1 X236.159 Y102.805
G1 X237.951 Y103.498
; Path 7
G0 Z0
G0 X230.015 Y103.529
G0 Z2.2
G1 F3000
G1 X229.742 Y101.543
; Path 8
G0 Z0
G0 X229.956 Y103.477
G0 Z2.2
G1 F3000
G1 X229.535 Y101.598
G1 X229.130 Y99.737
G1 X228.737 Y97.851
G1 X228.371 Y95.942
G1 X227.995 Y94.047
G1 X227.544 Y92.175
G1 X227.182 Y90.343
G1 X226.779 Y88.436
G1 X226.375 Y86.584
G1 X225.994 Y84.674
G1 X225.562 Y82.802
G1 X225.154 Y80.934
G1 X224.807 Y79.060
G1 X224.359 Y77.145
G1 X223.966 Y75.293
G1 X223.571 Y73.380
G1 X223.202 Y71.530
G1 X222.781 Y69.660
G1 X222.382 Y67.758
G1 X222.020 Y65.884
G1 X221.577 Y64.018
G1 X221.170 Y62.088
G1 X220.787 Y60.261
G1 X220.394 Y58.372
G1 X220.002 Y56.473
; Path 9
G0 Z0
G0 X219.985 Y56.480
G0 Z2.2
G1 F3000
G1 X219.603 Y58.333
G1 X219.164 Y60.232
G1 X218.780 Y62.105
G1 X218.356 Y64.011
G1 X217.964 Y65.878
G1 X217.605 Y67.771
G1 X217.199 Y69.637
G1 X216.777 Y71.537
G1 X216.390 Y73.389
G1 X215.972 Y75.277
G1 X215.561 Y77.169
G1 X215.172 Y79.053
G1 X214.766 Y80.933
G1 X214.408 Y82.833
G1 X213.960 Y84.713
G1 X213.596 Y86.582
G1 X213.183 Y88.476
G1 X212.770 Y90.301
G1 X212.381 Y92.188
G1 X212.007 Y94.092
G1 X211.590 Y96.000
G1 X211.168 Y97.856
G1 X210.804 Y99.744
G1 X210.407 Y101.629
G1 X209.988 Y103.493
; Path 10
G0 Z0
G0 X209.957 Y103.463
G0 Z2.2
G1 F3000
G1 X211.958 Y103.494
G1 X213.971 Y103.441
G1 X215.956 Y103.484
G1 X217.956 Y103.454
G1 X219.950 Y103.485
G1 X221.976 Y103.486
G1 X223.962 Y103.476
G1 X225.946 Y103.501
G1 X227.975 Y103.507
G1 X229.953 Y103.490
; Path 11
G0 Z0
G0 X227.996 Y115.482
G0 Z2.2
G1 F3000
G1 X227.573 Y116.492
G1 X227.136 Y117.448
G1 X226.657 Y118.408
G1 X226.184 Y119.358
G1 X225.711 Y120.280
G1 X225.180 Y121.236
G1 X224.666 Y122.156
G1 X224.164 Y123.106
G1 X223.662 Y124.019
G1 X223.173 Y124.992
G1 X222.699 Y125.964
G1 X222.247 Y126.918
G1 X221.809 Y127.884
G1 X221.426 Y128.907
G1 X221.080 Y129.962
G1 X220.748 Y130.984
G1 X220.498 Y132.063
G1 X220.251 Y133.173
G1 X220.122 Y134.344
G1 X219.977 Y135.496
G1 X219.943 Y136.729
G1 X219.949 Y137.971
G1 X220.063 Y139.264
G1 X220.142 Y140.581
G1 X220.344 Y141.925
G1 X220.518 Y143.302
G1 X220.750 Y144.679
G1 X221.037 Y146.110
G1 X221.330 Y147.571
G1 X221.660 Y148.983
G1 X222.006 Y150.436
G1 X222.348 Y151.895
G1 X222.714 Y153.359
G1 X223.063 Y154.823
G1 X223.420 Y156.297
G1 X223.764 Y157.743
G1 X224.076 Y159.177
G1 X224.413 Y160.631
G1 X224.691 Y162.020
G1 X224.971 Y163.463
; Path 12
G0 Z0
G0 X226.989 Y163.478
G0 Z2.2
G1 F3000
G1 X226.983 Y165.179
G1 X227.004 Y166.828
G1 X226.977 Y168.495
; Path 13
G0 Z0
G0 X222.998 Y163.470
G0 Z2.2
G1 F3000
G1 X223.001 Y165.167
G1 X222.970 Y166.841
G1 X222.974 Y168.498
; Path 14
G0 Z0
G0 X224.952 Y166.514
G0 Z2.2
G1 F3000
G1 X224.978 Y164.615
G1 X225.054 Y162.704
G1 X225.099 Y160.791
G1 X225.170 Y158.875
G1 X225.192 Y156.990
G1 X225.268 Y155.064
G1 X225.286 Y153.159
G1 X225.362 Y151.252
G1 X225.371 Y149.376
G1 X225.427 Y147.461
G1 X225.502 Y145.526
G1 X225.528 Y143.634
G1 X225.589 Y141.737
G1 X225.623 Y139.841
G1 X225.658 Y137.937
G1 X225.702 Y136.021
G1 X225.785 Y134.105
G1 X225.806 Y132.194
G1 X225.902 Y130.292
G1 X225.905 Y128.400
G1 X225.968 Y126.483
; Path 15
G0 Z0
G0 X231.969 Y126.510
G0 Z2.2
G1 F3000
G1 X231.690 Y126.312
G1 X231.371 Y126.091
G1 X231.090 Y125.883
G1 X230.773 Y125.651
G1 X230.450 Y125.401
G1 X230.175 Y125.198
G1 X229.867 Y124.957
G1 X229.577 Y124.742
G1 X229.304 Y124.493
G1 X228.978 Y124.292
G1 X228.703 Y124.074
G1 X228.380 Y123.858
G1 X228.081 Y123.666
G1 X227.782 Y123.448
G1 X227.507 Y123.276
G1 X227.183 Y123.072
G1 X226.882 Y122.917
G1 X226.584 Y122.740
G1 X226.284 Y122.619
G1 X225.984 Y122.459
G1 X225.696 Y122.348
G1 X225.383 Y122.238
G1 X225.092 Y122.166
G1 X224.782 Y122.068
G1 X224.496 Y121.984
G1 X224.181 Y121.942
G1 X223.903 Y121.912
G1 X223.579 Y121.850
G1 X223.274 Y121.814
G1 X222.977 Y121.782
G1 X222.680 Y121.738
G1 X222.374 Y121.730
G1 X222.090 Y121.722
G1 X221.772 Y121.684
G1 X221.452 Y121.656
G1 X221.169 Y121.635
G1 X220.888 Y121.592
G1 X220.567 Y121.574
G1 X220.273 Y121.511
G1 X219.965 Y121.491
; Path 16
G0 Z0
G0 X219.969 Y121.503
G0 Z2.2
G1 F3000
G1 X219.695 Y121.560
G1 X219.367 Y121.586
G1 X219.096 Y121.645
G1 X218.765 Y121.649
G1 X218.471 Y121.651
G1 X218.162 Y121.700
G1 X217.880 Y121.697
G1 X217.560 Y121.747
G1 X217.267 Y121.772
G1 X216.957 Y121.800
G1 X216.656 Y121.829
G1 X216.355 Y121.869
G1 X216.053 Y121.896
G1 X215.753 Y121.962
G1 X215.476 Y121.998
G1 X215.151 Y122.089
G1 X214.855 Y122.198
G1 X214.550 Y122.257
G1 X214.248 Y122.378
G1 X213.950 Y122.478
G1 X213.671 Y122.620
G1 X213.351 Y122.756
G1 X213.054 Y122.951
G1 X212.752 Y123.086
G1 X212.428 Y123.277
G1 X212.154 Y123.458
G1 X211.856 Y123.653
G1 X211.557 Y123.864
G1 X211.229 Y124.104
G1 X210.960 Y124.294
G1 X210.657 Y124.525
G1 X210.363 Y124.739
G1 X210.055 Y124.983
G1 X209.766 Y125.190
G1 X209.462 Y125.407
G1 X209.169 Y125.638
G1 X208.880 Y125.848
G1 X208.572 Y126.074
G1 X208.256 Y126.293
G1 X207.975 Y126.489
; Path 17
G0 Z0
G0 X207.991 Y126.482
G0 Z2.2
G1 F3000
G1 X207.857 Y126.756
G1 X207.673 Y127.081
G1 X207.474 Y127.365
G1 X207.334 Y127.679
G1 X207.151 Y127.970
G1 X206.983 Y128.278
G1 X206.813 Y128.591
G1 X206.628 Y128.876
G1 X206.459 Y129.170
G1 X206.280 Y129.475
G1 X206.121 Y129.777
G1 X205.947 Y130.073
G1 X205.807 Y130.369
G1 X205.638 Y130.672
G1 X205.485 Y130.962
G1 X205.363 Y131.272
G1 X205.266 Y131.595
G1 X205.131 Y131.871
G1 X205.031 Y132.187
G1 X204.952 Y132.472
G1 X204.875 Y132.792
G1 X204.830 Y133.073
G1 X204.803 Y133.363
G1 X204.760 Y133.674
G1 X204.744 Y133.987
G1 X204.733 Y134.276
G1 X204.731 Y134.575
G1 X204.740 Y134.879
G1 X204.758 Y135.209
G1 X204.771 Y135.482
G1 X204.788 Y135.808
G1 X204.817 Y136.085
G1 X204.858 Y136.391
G1 X204.870 Y136.688
G1 X204.924 Y136.983
G1 X204.919 Y137.291
G1 X204.965 Y137.580
G1 X204.957 Y137.893
G1 X204.965 Y138.213
G1 X204.973 Y138.496
; Path 18
G0 Z0
G0 X204.966 Y138.501
G0 Z2.2
G1 F3000
G1 X205.227 Y138.792
G1 X205.442 Y139.126
G1 X205.689 Y139.446
G1 X205.882 Y139.785
G1 X206.102 Y140.143
G1 X206.302 Y140.465
G1 X206.507 Y140.804
G1 X206.717 Y141.150
G1 X206.913 Y141.496
G1 X207.143 Y141.824
G1 X207.380 Y142.173
G1 X207.593 Y142.474
G1 X207.867 Y142.785
G1 X208.084 Y143.083
G1 X208.333 Y143.339
G1 X208.630 Y143.637
G1 X208.951 Y143.864
G1 X209.247 Y144.120
G1 X209.583 Y144.305
G1 X209.949 Y144.519
G1 X210.360 Y144.697
G1 X210.748 Y144.821
G1 X211.203 Y144.931
G1 X211.631 Y145.038
G1 X212.113 Y145.108
G1 X212.586 Y145.185
G1 X213.083 Y145.225
G1 X213.596 Y145.276
G1 X214.133 Y145.321
G1 X214.646 Y145.328
G1 X215.165 Y145.349
G1 X215.721 Y145.354
G1 X216.280 Y145.360
G1 X216.806 Y145.370
G1 X217.328 Y145.352
G1 X217.887 Y145.391
G1 X218.431 Y145.389
G1 X218.947 Y145.432
G1 X219.469 Y145.446
G1 X219.972 Y145.508
; Path 19
G0 Z0
G0 X219.979 Y145.503
G0 Z2.2
G1 F3000
G1 X220.478 Y145.489
G1 X221.003 Y145.425
G1 X221.555 Y145.405
G1 X222.062 Y145.382
G1 X222.589 Y145.353
G1 X223.141 Y145.358
G1 X223.708 Y145.355
G1 X224.225 Y145.340
G1 X224.744 Y145.304
G1 X225.299 Y145.312
G1 X225.812 Y145.311
G1 X226.348 Y145.259
G1 X226.865 Y145.192
G1 X227.357 Y145.165
G1 X227.841 Y145.112
G1 X228.310 Y145.017
G1 X228.777 Y144.925
G1 X229.193 Y144.798
G1 X229.605 Y144.619
G1 X229.991 Y144.494
G1 X230.316 Y144.275
G1 X230.694 Y144.095
G1 X231.029 Y143.864
G1 X231.311 Y143.610
G1 X231.557 Y143.342
G1 X231.858 Y143.056
G1 X232.083 Y142.746
G1 X232.350 Y142.446
G1 X232.546 Y142.145
G1 X232.801 Y141.796
G1 X233.011 Y141.484
G1 X233.228 Y141.121
G1 X233.459 Y140.754
G1 X233.644 Y140.436
G1 X233.880 Y140.121
G1 X234.065 Y139.755
G1 X234.297 Y139.437
G1 X234.507 Y139.095
G1 X234.760 Y138.810
G1 X234.984 Y138.471
; Path 20
G0 Z0
G0 X234.991 Y138.498
G0 Z2.2
G1 F3000
G1 X234.988 Y138.192
G1 X235.003 Y137.895
G1 X235.001 Y137.578
G1 X235.036 Y137.292
G1 X235.036 Y137.012
G1 X235.080 Y136.688
G1 X235.100 Y136.395
G1 X235.127 Y136.085
G1 X235.148 Y135.774
G1 X235.169 Y135.482
G1 X235.202 Y135.162
G1 X235.196 Y134.879
G1 X235.198 Y134.551
G1 X235.199 Y134.276
G1 X235.199 Y133.961
G1 X235.169 Y133.674
G1 X235.111 Y133.391
G1 X235.098 Y133.072
G1 X235.058 Y132.767
G1 X234.976 Y132.472
G1 X234.887 Y132.160
G1 X234.798 Y131.872
G1 X234.690 Y131.587
G1 X234.570 Y131.273
G1 X234.432 Y130.990
G1 X234.300 Y130.675
G1 X234.122 Y130.359
G1 X233.997 Y130.077
G1 X233.806 Y129.782
G1 X233.671 Y129.479
G1 X233.493 Y129.185
G1 X233.330 Y128.882
G1 X233.150 Y128.564
G1 X232.983 Y128.285
G1 X232.804 Y127.997
G1 X232.639 Y127.688
G1 X232.492 Y127.378
G1 X232.307 Y127.091
G1 X232.129 Y126.796
G1 X231.996 Y126.493
; Path 21
G0 Z0
G0 X237.976 Y120.495
G0 Z2.2
G1 F3000
G1 X237.996 Y122.507
G1 X237.969 Y124.495
G1 X237.954 Y126.494
G1 X238.002 Y128.515
G1 X237.998 Y130.489
G1 X238.000 Y132.475
G1 X237.970 Y134.479
G1 X237.995 Y136.462
G1 X237.990 Y138.489
G1 X237.960 Y140.460
G1 X237.993 Y142.458
G1 X238.001 Y144.489
G1 X237.994 Y146.486
G1 X237.990 Y148.469
; Path 22
G0 Z0
G0 X237.955 Y148.467
G0 Z2.2
G1 F3000
G1 X235.968 Y148.476
G1 X233.950 Y148.442
G1 X231.981 Y148.462
G1 X229.973 Y148.446
G1 X227.941 Y148.490
G1 X225.963 Y148.455
G1 X223.940 Y148.483
G1 X221.981 Y148.506
G1 X219.931 Y148.464
G1 X217.950 Y148.485
G1 X215.951 Y148.461
G1 X213.957 Y148.496
G1 X211.935 Y148.488
G1 X209.965 Y148.507
G1 X207.947 Y148.499
G1 X205.980 Y148.483
G1 X203.944 Y148.484
G1 X201.960 Y148.491
; Path 23
G0 Z0
G0 X201.983 Y148.486
G0 Z2.2
G1 F3000
G1 X201.981 Y146.465
G1 X201.967 Y144.505
G1 X201.984 Y142.514
G1 X201.972 Y140.522
G1 X201.949 Y138.503
G1 X201.972 Y136.489
G1 X201.996 Y134.528
G1 X201.999 Y132.521
G1 X201.951 Y130.533
G1 X201.952 Y128.511
G1 X201.991 Y126.526
G1 X201.962 Y124.533
G1 X201.957 Y122.533
G1 X201.966 Y120.516
; Path 24
G0 Z0
G0 X201.985 Y120.492
G0 Z2.2
G1 F3000
G1 X203.866 Y120.499
G1 X205.749 Y120.470
G1 X207.659 Y120.510
G1 X209.550 Y120.503
G1 X211.434 Y120.464
G1 X213.358 Y120.477
G1 X215.234 Y120.468
G1 X217.130 Y120.495
G1 X219.028 Y120.478
G1 X220.907 Y120.486
G1 X222.831 Y120.459
G1 X224.719 Y120.474
G1 X226.637 Y120.480
G1 X228.515 Y120.467
G1 X230.421 Y120.475
G1 X232.296 Y120.479
G1 X234.194 Y120.445
G1 X236.101 Y120.499
G1 X237.992 Y120.473
; Path 25
G0 Z0
G0 X244.996 Y116.471
G0 Z2.2
G1 F3000
G1 X244.583 Y117.445
G1 X244.139 Y118.441
G1 X243.637 Y119.424
G1 X243.190 Y120.362
G1 X242.716 Y121.319
G1 X242.190 Y122.255
G1 X241.669 Y123.222
G1 X241.177 Y124.141
G1 X240.680 Y125.069
G1 X240.190 Y126.041
G1 X239.706 Y126.987
G1 X239.267 Y127.976
G1 X238.861 Y128.965
G1 X238.448 Y129.967
G1 X238.103 Y131.002
G1 X237.772 Y132.036
G1 X237.515 Y133.140
G1 X237.278 Y134.202
G1 X237.116 Y135.328
G1 X237.003 Y136.487
G1 X237.002 Y137.669
G1 X236.976 Y138.905
G1 X237.084 Y140.149
G1 X237.168 Y141.442
G1 X237.365 Y142.763
G1 X237.542 Y144.078
G1 X237.819 Y145.455
G1 X238.059 Y146.790
G1 X238.358 Y148.176
G1 X238.680 Y149.559
G1 X239.034 Y150.968
G1 X239.365 Y152.362
G1 X239.721 Y153.759
G1 X240.076 Y155.179
G1 X240.404 Y156.590
G1 X240.775 Y157.990
G1 X241.115 Y159.372
G1 X241.421 Y160.772
G1 X241.687 Y162.152
G1 X241.977 Y163.506
; Path 26
G0 Z0
G0 X239.950 Y163.470
G0 Z2.2
G1 F3000
G1 X239.966 Y165.116
G1 X239.972 Y166.805
G1 X239.968 Y168.489
; Path 27
G0 Z0
G0 X243.988 Y168.514
G0 Z2.2
G1 F3000
G1 X243.987 Y166.860
G1 X243.955 Y165.167
G1 X243.962 Y163.495
; Path 28
G0 Z0
G0 X244.960 Y163.508
G0 Z2.2
G1 F3000
G1 X245.007 Y161.559
G1 X245.069 Y159.622
G1 X245.113 Y157.664
G1 X245.145 Y155.717
G1 X245.202 Y153.762
G1 X245.236 Y151.807
G1 X245.293 Y149.820
G1 X245.361 Y147.894
G1 X245.386 Y145.970
G1 X245.474 Y143.974
G1 X245.486 Y142.067
G1 X245.528 Y140.111
G1 X245.588 Y138.108
G1 X245.643 Y136.158
G1 X245.669 Y134.238
G1 X245.758 Y132.279
G1 X245.776 Y130.355
G1 X245.851 Y128.378
G1 X245.895 Y126.421
G1 X245.934 Y124.460
G1 X245.988 Y122.519
; Path 29
G0 Z0
G0 X262.006 Y118.499
G0 Z2.2
G1 F3000
G1 X261.612 Y119.508
G1 X261.251 Y120.475
G1 X260.830 Y121.463
G1 X260.413 Y122.415
G1 X259.963 Y123.401
G1 X259.526 Y124.335
G1 X259.098 Y125.270
G1 X258.628 Y126.250
G1 X258.189 Y127.191
G1 X257.753 Y128.175
G1 X257.342 Y129.167
G1 X256.939 Y130.125
G1 X256.567 Y131.138
G1 X256.220 Y132.116
G1 X255.924 Y133.126
G1 X255.633 Y134.162
G1 X255.436 Y135.233
G1 X255.213 Y136.278
G1 X255.087 Y137.371
G1 X254.997 Y138.480
G1 X254.975 Y139.657
G1 X255.008 Y140.779
G1 X255.108 Y141.996
G1 X255.223 Y143.162
G1 X255.424 Y144.415
G1 X255.605 Y145.617
G1 X255.843 Y146.861
G1 X256.120 Y148.127
G1 X256.430 Y149.407
G1 X256.729 Y150.677
G1 X257.087 Y151.939
G1 X257.399 Y153.252
G1 X257.729 Y154.538
G1 X258.093 Y155.838
G1 X258.462 Y157.146
G1 X258.774 Y158.419
G1 X259.091 Y159.696
G1 X259.408 Y160.979
G1 X259.668 Y162.228
G1 X259.958 Y163.504
; Path 30
G0 Z0
G0 X258.004 Y163.462
G0 Z2.2
G1 F3000
G1 X258.021 Y165.132
G1 X257.990 Y166.808
G1 X257.966 Y168.464
; Path 31
G0 Z0
G0 X261.961 Y168.492
G0 Z2.2
G1 F3000
G1 X261.939 Y166.853
G1 X261.933 Y165.163
G1 X261.962 Y163.501
; Path 32
G0 Z0
G0 X261.970 Y160.502
G0 Z2.2
G1 F3000
G1 X262.040 Y158.616
G1 X262.061 Y156.668
G1 X262.106 Y154.780
G1 X262.179 Y152.834
G1 X262.201 Y150.981
G1 X262.255 Y149.051
G1 X262.266 Y147.123
G1 X262.370 Y145.196
G1 X262.418 Y143.319
G1 X262.430 Y141.407
G1 X262.487 Y139.480
G1 X262.551 Y137.569
G1 X262.588 Y135.673
G1 X262.645 Y133.784
G1 X262.643 Y131.832
G1 X262.743 Y129.929
G1 X262.768 Y128.008
G1 X262.788 Y126.133
G1 X262.839 Y124.218
G1 X262.928 Y122.280
G1 X262.970 Y120.377
G1 X262.994 Y118.489
; Path 33
G0 Z0
G0 X264.953 Y113.478
G0 Z2.2
G1 F3000
G1 X265.304 Y115.446
G1 X265.699 Y117.409
G1 X266.008 Y119.347
G1 X266.358 Y121.322
G1 X266.765 Y123.274
G1 X267.095 Y125.288
G1 X267.486 Y127.221
G1 X267.812 Y129.196
G1 X268.154 Y131.143
G1 X268.532 Y133.140
G1 X268.888 Y135.074
G1 X269.228 Y137.020
G1 X269.612 Y139.035
G1 X269.981 Y141.001
G1 X270.312 Y142.922
G1 X270.658 Y144.882
G1 X271.030 Y146.894
G1 X271.422 Y148.835
G1 X271.785 Y150.811
G1 X272.093 Y152.739
G1 X272.492 Y154.705
G1 X272.832 Y156.700
G1 X273.185 Y158.668
G1 X273.535 Y160.615
G1 X273.907 Y162.577
G1 X274.293 Y164.565
G1 X274.598 Y166.484
G1 X274.981 Y168.476
; Path 34
G0 Z0
G0 X274.966 Y168.482
G0 Z2.2
G1 F3000
G1 X272.947 Y168.466
G1 X270.966 Y168.476
G1 X268.948 Y168.498
G1 X266.964 Y168.486
G1 X264.964 Y168.464
G1 X262.942 Y168.506
G1 X260.961 Y168.461
G1 X258.991 Y168.512
G1 X256.948 Y168.462
G1 X254.954 Y168.508
G1 X252.995 Y168.469
G1 X250.965 Y168.453
G1 X248.950 Y168.473
G1 X246.970 Y168.467
G1 X244.944 Y168.461
G1 X242.981 Y168.453
G1 X240.971 Y168.461
G1 X238.957 Y168.509
G1 X236.962 Y168.470
G1 X234.984 Y168.493
G1 X232.975 Y168.486
G1 X230.998 Y168.482
G1 X228.972 Y168.458
G1 X226.995 Y168.493
G1 X224.974 Y168.480
G1 X222.984 Y168.463
G1 X221.006 Y168.494
G1 X218.985 Y168.462
G1 X216.998 Y168.471
G1 X214.958 Y168.508
G1 X213.000 Y168.460
G1 X210.977 Y168.490
G1 X208.960 Y168.502
G1 X207.007 Y168.509
G1 X204.954 Y168.469
G1 X202.962 Y168.457
G1 X201.002 Y168.469
G1 X198.989 Y168.467
G1 X196.965 Y168.483
G1 X194.997 Y168.515
G1 X192.962 Y168.462
G1 X190.976 Y168.464
G1 X189.004 Y168.473
G1 X187.015 Y168.510
G1 X184.993 Y168.487
G1 X182.995 Y168.468
G1 X180.979 Y168.465
G1 X178.963 Y168.487
G1 X176.995 Y168.507
G1 X174.971 Y168.506
G1 X172.974 Y168.515
G1 X170.976 Y168.507
G1 X168.997 Y168.485
G1 X167.004 Y168.480
G1 X164.993 Y168.486
; Path 35
G0 Z0
G0 X164.993 Y168.515
G0 Z2.2
G1 F3000
G1 X165.375 Y166.552
G1 X165.696 Y164.563
G1 X166.051 Y162.628
G1 X166.423 Y160.668
G1 X166.793 Y158.669
G1 X167.123 Y156.747
G1 X167.462 Y154.753
G1 X167.849 Y152.785
G1 X168.225 Y150.800
G1 X168.540 Y148.838
G1 X168.906 Y146.924
G1 X169.274 Y144.956
G1 X169.606 Y142.973
G1 X170.012 Y141.004
G1 X170.322 Y139.005
G1 X170.701 Y137.057
G1 X171.066 Y135.076
G1 X171.427 Y133.138
G1 X171.756 Y131.199
G1 X172.130 Y129.199
G1 X172.495 Y127.240
G1 X172.835 Y125.301
G1 X173.211 Y123.316
G1 X173.567 Y121.355
G1 X173.932 Y119.389
G1 X174.283 Y117.428
G1 X174.646 Y115.460
G1 X174.989 Y113.483
; Path 36
G0 Z0
G0 X174.961 Y113.497
G0 Z2.2
G1 F3000
G1 X174.970 Y111.486
G1 X174.963 Y109.495
G1 X175.006 Y107.502
G1 X175.009 Y105.519
G1 X175.005 Y103.499
; Path 37
G0 Z0
G0 X174.980 Y103.465
G0 Z2.2
G1 F3000
G1 X176.933 Y103.489
G1 X178.865 Y103.480
G1 X180.871 Y103.447
G1 X182.797 Y103.480
G1 X184.752 Y103.444
G1 X186.722 Y103.487
G1 X188.683 Y103.472
G1 X190.637 Y103.449
G1 X192.572 Y103.454
G1 X194.575 Y103.482
G1 X196.531 Y103.469
G1 X198.437 Y103.447
G1 X200.401 Y103.458
G1 X202.367 Y103.452
G1 X204.354 Y103.473
G1 X206.301 Y103.448
G1 X208.230 Y103.475
G1 X210.178 Y103.447
G1 X212.181 Y103.488
G1 X214.124 Y103.478
G1 X216.058 Y103.456
G1 X217.997 Y103.475
G1 X220.010 Y103.483
G1 X221.926 Y103.451
G1 X223.898 Y103.481
G1 X225.832 Y103.493
G1 X227.801 Y103.471
G1 X229.759 Y103.469
G1 X231.695 Y103.442
G1 X233.705 Y103.493
G1 X235.650 Y103.470
G1 X237.619 Y103.457
G1 X239.560 Y103.453
G1 X241.527 Y103.460
G1 X243.477 Y103.456
G1 X245.391 Y103.490
G1 X247.374 Y103.440
G1 X249.329 Y103.483
G1 X251.267 Y103.479
G1 X253.267 Y103.436
G1 X255.214 Y103.489
G1 X257.180 Y103.465
G1 X259.096 Y103.448
G1 X261.069 Y103.444
G1 X263.032 Y103.460
G1 X264.987 Y103.466
; Path 38
G0 Z0
G0 X264.996 Y103.509
G0 Z2.2
G1 F3000
G1 X264.972 Y105.477
G1 X264.959 Y107.506
G1 X264.994 Y109.503
G1 X264.956 Y111.470
G1 X264.958 Y113.489
; Path 39
G0 Z0
G0 X269.014 Y133.535
G0 Z2.2
G1 F3000
G1 X271.023 Y133.510
; Path 40
G0 Z0
G0 X265.912 Y136.840
G0 Z2.2
G1 F3000
G1 X264.029 Y136.140
; Path 41
G0 Z0
G0 X254.997 Y137.503
G0 Z2.2
G1 F3000
G1 X255.000 Y139.491
; Path 42
G0 Z0
G0 X250.827 Y142.022
G0 Z2.2
G1 F3000
G1 X249.111 Y141.030
; Path 43
G0 Z0
G0 X240.513 Y138.336
G0 Z2.2
G1 F3000
G1 X239.457 Y136.685
; Path 44
G0 Z0
G0 X234.969 Y139.461
G0 Z2.2
G1 F3000
G1 X234.934 Y141.470
; Path 45
G0 Z0
G0 X230.721 Y142.827
G0 Z2.2
G1 F3000
G1 X229.246 Y144.105
; Path 46
G0 Z0
G0 X214.979 Y130.492
G0 Z2.2
G1 F3000
G1 X214.957 Y128.507
G1 X214.959 Y126.481
G1 X214.990 Y124.510
G1 X214.967 Y122.480
G1 X214.974 Y120.501
G1 X214.990 Y118.499
G1 X214.998 Y116.511
G1 X214.956 Y114.462
G1 X214.986 Y112.477
G1 X214.958 Y110.483
G1 X215.000 Y108.507
G1 X214.992 Y106.503
G1 X214.992 Y104.510
G1 X214.946 Y102.464
G1 X214.940 Y100.519
G1 X214.951 Y98.500
G1 X214.940 Y96.472
G1 X214.937 Y94.483
G1 X214.936 Y92.465
G1 X214.974 Y90.519
G1 X214.988 Y88.510
G1 X214.984 Y86.498
G1 X214.962 Y84.463
G1 X214.966 Y82.505
G1 X214.950 Y80.478
G1 X214.944 Y78.493
G1 X214.963 Y76.497
G1 X214.974 Y74.510
G1 X214.967 Y72.481
G1 X214.959 Y70.496
G1 X214.930 Y68.488
G1 X214.956 Y66.493
; Path 47
G0 Z0
G0 X223.964 Y78.505
G0 Z2.2
G1 F3000
G1 X222.368 Y78.522
G1 X220.742 Y78.469
G1 X219.155 Y78.474
G1 X217.540 Y78.499
G1 X215.963 Y78.483
; Path 48
G0 Z0
G0 X219.963 Y78.478
G0 Z2.2
G1 F3000
G1 X218.062 Y79.007
G1 X216.177 Y79.609
G1 X214.275 Y80.145
G1 X212.335 Y80.702
G1 X210.438 Y81.255
G1 X208.511 Y81.836
G1 X206.630 Y82.389
G1 X204.755 Y82.915
G1 X202.793 Y83.468
G1 X200.924 Y84.050
G1 X199.025 Y84.615
G1 X197.099 Y85.124
G1 X195.204 Y85.697
G1 X193.277 Y86.287
G1 X191.418 Y86.785
G1 X189.473 Y87.348
G1 X187.586 Y87.929
G1 X185.706 Y88.507
G1 X183.770 Y89.066
G1 X181.861 Y89.568
G1 X179.986 Y90.135
G1 X178.050 Y90.716
G1 X176.132 Y91.234
G1 X174.248 Y91.808
G1 X172.373 Y92.353
G1 X170.457 Y92.904
G1 X168.515 Y93.467
G1 X166.615 Y94.057
G1 X164.701 Y94.580
G1 X162.817 Y95.170
G1 X160.899 Y95.711
G1 X159.005 Y96.239
G1 X157.094 Y96.832
G1 X155.177 Y97.363
G1 X153.269 Y97.942
G1 X151.383 Y98.467
G1 X149.492 Y99.059
G1 X147.554 Y99.607
G1 X145.650 Y100.134
G1 X143.795 Y100.698
G1 X141.889 Y101.290
G1 X139.937 Y101.825
G1 X138.066 Y102.366
G1 X136.180 Y102.958
G1 X134.226 Y103.480
G1 X132.347 Y104.043
G1 X130.464 Y104.590
G1 X128.537 Y105.174
G1 X126.611 Y105.706
G1 X124.743 Y106.248
G1 X122.796 Y106.795
G1 X120.896 Y107.396
G1 X119.012 Y107.908
G1 X117.110 Y108.463
G1 X115.216 Y109.027
G1 X113.315 Y109.604
G1 X111.378 Y110.134
G1 X109.504 Y110.684
G1 X107.600 Y111.260
G1 X105.693 Y111.812
G1 X103.783 Y112.389
G1 X101.840 Y112.918
G1 X99.962 Y113.491
; Path 49
G0 Z0
G0 X99.958 Y113.485
G0 Z2.2
G1 F3000
G1 X101.672 Y112.498
G1 X103.412 Y111.499
G1 X105.157 Y110.530
G1 X106.918 Y109.591
G1 X108.650 Y108.578
G1 X110.418 Y107.614
G1 X112.131 Y106.658
G1 X113.892 Y105.660
G1 X115.594 Y104.692
G1 X117.386 Y103.677
G1 X119.112 Y102.711
G1 X120.845 Y101.743
G1 X122.605 Y100.764
G1 X124.337 Y99.778
G1 X126.064 Y98.817
G1 X127.826 Y97.837
G1 X129.525 Y96.879
G1 X131.289 Y95.872
G1 X133.001 Y94.917
G1 X134.765 Y93.925
G1 X136.520 Y92.920
G1 X138.225 Y91.950
G1 X139.977 Y90.986
G1 X141.720 Y90.004
G1 X143.455 Y89.056
G1 X145.206 Y88.065
G1 X146.941 Y87.102
G1 X148.659 Y86.078
G1 X150.413 Y85.107
G1 X152.157 Y84.138
G1 X153.897 Y83.157
G1 X155.632 Y82.207
G1 X157.393 Y81.220
G1 X159.135 Y80.247
G1 X160.832 Y79.227
G1 X162.595 Y78.273
G1 X164.343 Y77.289
G1 X166.093 Y76.287
G1 X167.839 Y75.357
G1 X169.525 Y74.351
G1 X171.323 Y73.365
G1 X173.030 Y72.377
G1 X174.784 Y71.448
G1 X176.535 Y70.428
G1 X178.236 Y69.449
G1 X179.994 Y68.488
; Path 50
G0 Z0
G0 X174.948 Y63.507
G0 Z2.2
G1 F3000
G1 X174.969 Y65.534
G1 X174.977 Y67.521
G1 X174.962 Y69.483
G1 X174.974 Y71.481
G1 X174.928 Y73.493
G1 X174.965 Y75.473
G1 X174.949 Y77.506
G1 X174.974 Y79.525
G1 X174.962 Y81.510
G1 X174.947 Y83.523
G1 X174.939 Y85.525
G1 X174.950 Y87.470
G1 X174.934 Y89.510
G1 X174.966 Y91.505
G1 X174.930 Y93.472
G1 X174.949 Y95.490
G1 X174.933 Y97.470
G1 X174.981 Y99.488
G1 X174.954 Y101.500
G1 X174.965 Y103.513
G1 X174.966 Y105.504
G1 X174.937 Y107.488
G1 X174.949 Y109.471
G1 X174.954 Y111.488
G1 X174.982 Y113.457
G1 X174.987 Y115.467
G1 X174.945 Y117.449
G1 X174.980 Y119.466
G1 X174.958 Y121.469
G1 X174.950 Y123.493
G1 X174.963 Y125.473
G1 X174.990 Y127.483
G1 X174.964 Y129.450
G1 X174.949 Y131.485
G1 X174.975 Y133.470
; Path 51
G0 Z0
G0 X176.994 Y135.515
G0 Z2.2
G1 F3000
G1 X177.170 Y135.377
G1 X177.312 Y135.208
G1 X177.487 Y135.024
G1 X177.659 Y134.893
G1 X177.847 Y134.753
G1 X178.022 Y134.573
G1 X178.181 Y134.429
G1 X178.389 Y134.253
G1 X178.570 Y134.076
G1 X178.747 Y133.935
G1 X178.934 Y133.773
G1 X179.086 Y133.622
G1 X179.263 Y133.478
G1 X179.392 Y133.317
G1 X179.542 Y133.171
G1 X179.654 Y133.024
G1 X179.747 Y132.858
G1 X179.859 Y132.746
G1 X179.937 Y132.642
G1 X179.996 Y132.486
G1 X180.024 Y132.368
G1 X180.056 Y132.246
G1 X180.034 Y132.151
G1 X180.047 Y132.024
G1 X180.043 Y131.919
G1 X179.981 Y131.816
G1 X179.954 Y131.740
G1 X179.871 Y131.620
G1 X179.821 Y131.511
G1 X179.729 Y131.433
G1 X179.660 Y131.315
G1 X179.567 Y131.251
G1 X179.489 Y131.148
G1 X179.396 Y131.071
G1 X179.342 Y130.976
G1 X179.229 Y130.890
G1 X179.169 Y130.805
G1 X179.079 Y130.705
G1 X179.005 Y130.622
G1 X178.957 Y130.512
; Path 52
G0 Z0
G0 X178.980 Y130.460
G0 Z2.2
G1 F3000
G1 X178.922 Y130.529
G1 X178.879 Y130.655
G1 X178.824 Y130.776
G1 X178.777 Y130.844
G1 X178.756 Y130.921
G1 X178.676 Y131.028
G1 X178.653 Y131.125
G1 X178.574 Y131.211
G1 X178.513 Y131.281
G1 X178.472 Y131.396
G1 X178.427 Y131.501
G1 X178.371 Y131.587
G1 X178.317 Y131.690
G1 X178.270 Y131.785
G1 X178.243 Y131.873
G1 X178.169 Y131.995
G1 X178.120 Y132.114
G1 X178.068 Y132.219
G1 X177.991 Y132.356
G1 X177.968 Y132.461
G1 X177.910 Y132.588
G1 X177.869 Y132.722
G1 X177.801 Y132.868
G1 X177.770 Y133.001
G1 X177.716 Y133.121
G1 X177.671 Y133.294
G1 X177.622 Y133.422
G1 X177.573 Y133.598
G1 X177.521 Y133.725
G1 X177.475 Y133.911
G1 X177.422 Y134.078
G1 X177.377 Y134.228
G1 X177.344 Y134.390
G1 X177.280 Y134.548
G1 X177.259 Y134.695
G1 X177.182 Y134.867
G1 X177.105 Y135.050
G1 X177.084 Y135.181
G1 X177.058 Y135.337
G1 X176.986 Y135.488
; Path 53
G0 Z0
G0 X176.965 Y135.462
G0 Z2.2
G1 F3000
G1 X176.830 Y137.384
G1 X176.731 Y139.353
G1 X176.608 Y141.327
G1 X176.527 Y143.271
G1 X176.393 Y145.165
G1 X176.289 Y147.122
G1 X176.216 Y149.117
G1 X176.111 Y151.052
G1 X175.970 Y153.007
G1 X175.903 Y154.921
G1 X175.753 Y156.884
G1 X175.626 Y158.792
G1 X175.518 Y160.777
G1 X175.447 Y162.734
G1 X175.353 Y164.681
G1 X175.218 Y166.629
G1 X175.124 Y168.580
G1 X175.001 Y170.498
; Path 54
G0 Z0
G0 X174.004 Y168.517
G0 Z2.2
G1 F3000
G1 X173.983 Y166.859
G1 X174.002 Y165.185
G1 X173.982 Y163.512
; Path 55
G0 Z0
G0 X171.988 Y163.486
G0 Z2.2
G1 F3000
G1 X171.730 Y162.249
G1 X171.522 Y160.966
G1 X171.249 Y159.678
G1 X170.958 Y158.412
G1 X170.627 Y157.128
G1 X170.339 Y155.837
G1 X169.995 Y154.530
G1 X169.705 Y153.258
G1 X169.372 Y151.964
G1 X169.099 Y150.689
G1 X168.812 Y149.398
G1 X168.563 Y148.144
G1 X168.364 Y146.904
G1 X168.140 Y145.639
G1 X168.007 Y144.402
G1 X167.871 Y143.188
G1 X167.853 Y141.968
G1 X167.798 Y140.806
G1 X167.907 Y139.631
G1 X167.964 Y138.509
G1 X168.190 Y137.400
G1 X168.397 Y136.305
G1 X168.709 Y135.222
G1 X169.067 Y134.185
G1 X169.485 Y133.183
G1 X169.935 Y132.134
G1 X170.433 Y131.158
G1 X170.956 Y130.137
G1 X171.552 Y129.144
G1 X172.090 Y128.180
G1 X172.664 Y127.224
G1 X173.294 Y126.248
G1 X173.894 Y125.290
G1 X174.526 Y124.325
G1 X175.135 Y123.370
G1 X175.744 Y122.398
G1 X176.326 Y121.419
G1 X176.906 Y120.451
G1 X177.463 Y119.438
G1 X177.970 Y118.469
; Path 56
G0 Z0
G0 X186.005 Y119.471
G0 Z2.2
G1 F3000
G1 X185.950 Y121.465
G1 X185.926 Y123.417
G1 X185.956 Y125.408
G1 X185.914 Y127.396
G1 X185.861 Y129.323
G1 X185.832 Y131.356
G1 X185.808 Y133.301
G1 X185.789 Y135.284
G1 X185.755 Y137.276
G1 X185.735 Y139.244
G1 X185.740 Y141.175
G1 X185.684 Y143.192
G1 X185.658 Y145.134
G1 X185.627 Y147.142
G1 X185.598 Y149.088
G1 X185.599 Y151.072
G1 X185.561 Y153.082
G1 X185.546 Y155.007
G1 X185.539 Y157.020
G1 X185.485 Y159.012
G1 X185.479 Y160.939
G1 X185.432 Y162.952
G1 X185.433 Y164.932
G1 X185.402 Y166.865
G1 X185.345 Y168.878
G1 X185.366 Y170.836
G1 X185.337 Y172.801
G1 X185.277 Y174.789
G1 X185.284 Y176.742
G1 X185.239 Y178.731
G1 X185.244 Y180.742
G1 X185.177 Y182.693
G1 X185.192 Y184.680
G1 X185.133 Y186.626
G1 X185.106 Y188.653
G1 X185.071 Y190.581
G1 X185.058 Y192.565
G1 X185.032 Y194.570
G1 X185.018 Y196.525
G1 X184.987 Y198.504
; Path 57
G0 Z0
G0 X197.925 Y200.476
G0 Z2.2
G1 F3000
G1 X196.912 Y200.321
G1 X196.072 Y200.012
G1 X195.087 Y199.898
G1 X194.215 Y199.620
G1 X193.161 Y199.342
G1 X192.240 Y199.240
G1 X191.399 Y198.976
G1 X190.463 Y198.704
G1 X189.511 Y198.567
G1 X188.570 Y198.394
G1 X187.630 Y198.110
G1 X186.603 Y197.934
G1 X185.746 Y197.728
G1 X184.785 Y197.589
G1 X183.799 Y197.368
G1 X182.841 Y197.125
G1 X181.862 Y196.925
G1 X180.914 Y196.704
G1 X180.039 Y196.451
; Path 58
G0 Z0
G0 X179.908 Y194.536
G0 Z2.2
G1 F3000
G1 X178.908 Y194.308
G1 X178.056 Y194.120
G1 X177.181 Y193.927
G1 X176.179 Y193.737
G1 X175.273 Y193.518
G1 X174.381 Y193.380
G1 X173.332 Y193.237
G1 X172.495 Y193.032
G1 X171.541 Y192.805
G1 X170.684 Y192.660
G1 X169.670 Y192.457
G1 X168.784 Y192.315
G1 X167.770 Y192.132
G1 X166.913 Y191.827
G1 X165.961 Y191.736
G1 X165.055 Y191.506
; Path 59
G0 Z0
G0 X164.976 Y190.483
G0 Z2.2
G1 F3000
G1 X164.099 Y190.392
G1 X163.111 Y190.259
G1 X162.245 Y190.184
G1 X161.224 Y189.995
G1 X160.322 Y189.937
G1 X159.401 Y189.721
G1 X158.457 Y189.647
G1 X157.426 Y189.432
G1 X156.587 Y189.409
G1 X155.543 Y189.233
G1 X154.671 Y189.200
G1 X153.754 Y188.976
G1 X152.827 Y188.940
G1 X151.830 Y188.718
G1 X150.952 Y188.664
G1 X149.995 Y188.525
; Path 60
G0 Z0
G0 X140.005 Y188.512
G0 Z2.2
G1 F3000
G1 X140.015 Y186.795
G1 X139.974 Y185.072
G1 X139.973 Y183.379
G1 X139.982 Y181.659
G1 X140.002 Y179.968
G1 X139.995 Y178.202
G1 X139.983 Y176.509
; Path 61
G0 Z0
G0 X146.987 Y176.485
G0 Z2.2
G1 F3000
G1 X146.933 Y176.146
G1 X146.906 Y175.765
G1 X146.901 Y175.386
G1 X146.860 Y175.017
G1 X146.861 Y174.621
G1 X146.834 Y174.253
G1 X146.812 Y173.861
G1 X146.812 Y173.484
G1 X146.786 Y173.131
G1 X146.781 Y172.724
G1 X146.729 Y172.330
G1 X146.725 Y171.984
G1 X146.677 Y171.617
G1 X146.629 Y171.277
G1 X146.574 Y170.933
G1 X146.479 Y170.614
G1 X146.341 Y170.312
G1 X146.259 Y170.008
G1 X146.132 Y169.759
G1 X145.955 Y169.471
G1 X145.736 Y169.255
G1 X145.556 Y169.011
G1 X145.308 Y168.790
G1 X145.074 Y168.620
G1 X144.787 Y168.457
G1 X144.521 Y168.286
G1 X144.227 Y168.129
G1 X143.914 Y167.997
G1 X143.602 Y167.892
G1 X143.267 Y167.740
G1 X142.927 Y167.626
G1 X142.596 Y167.503
G1 X142.277 Y167.361
G1 X141.914 Y167.274
G1 X141.599 Y167.146
G1 X141.238 Y167.042
G1 X140.894 Y166.940
G1 X140.581 Y166.793
G1 X140.250 Y166.651
G1 X139.959 Y166.516
; Path 62
G0 Z0
G0 X139.984 Y166.513
G0 Z2.2
G1 F3000
G1 X139.699 Y166.658
G1 X139.466 Y166.792
G1 X139.179 Y166.904
G1 X138.921 Y167.044
G1 X138.669 Y167.183
G1 X138.360 Y167.279
G1 X138.053 Y167.368
G1 X137.794 Y167.510
G1 X137.511 Y167.627
G1 X137.237 Y167.749
G1 X136.979 Y167.877
G1 X136.700 Y168.009
G1 X136.453 Y168.143
G1 X136.194 Y168.301
G1 X135.972 Y168.460
G1 X135.732 Y168.637
G1 X135.499 Y168.820
G1 X135.325 Y169.029
G1 X135.150 Y169.250
G1 X134.986 Y169.490
G1 X134.830 Y169.762
G1 X134.723 Y170.028
G1 X134.615 Y170.359
G1 X134.527 Y170.634
G1 X134.478 Y170.987
G1 X134.386 Y171.297
G1 X134.324 Y171.625
G1 X134.289 Y172.004
G1 X134.268 Y172.358
G1 X134.224 Y172.743
G1 X134.198 Y173.096
G1 X134.178 Y173.502
G1 X134.170 Y173.869
G1 X134.141 Y174.269
G1 X134.118 Y174.638
G1 X134.099 Y175.033
G1 X134.047 Y175.395
G1 X134.042 Y175.780
G1 X134.017 Y176.121
G1 X133.957 Y176.499
; Path 63
G0 Z0
G0 X134.971 Y173.470
G0 Z2.2
G1 F3000
G1 X134.920 Y173.096
G1 X134.894 Y172.754
G1 X134.897 Y172.386
G1 X134.852 Y172.011
G1 X134.863 Y171.623
G1 X134.829 Y171.251
G1 X134.792 Y170.866
G1 X134.811 Y170.487
G1 X134.771 Y170.105
G1 X134.783 Y169.731
G1 X134.734 Y169.389
G1 X134.731 Y168.995
G1 X134.659 Y168.624
G1 X134.639 Y168.291
G1 X134.590 Y167.940
G1 X134.492 Y167.631
G1 X134.363 Y167.310
G1 X134.275 Y167.027
G1 X134.115 Y166.763
G1 X133.973 Y166.491
G1 X133.776 Y166.235
G1 X133.577 Y166.031
G1 X133.323 Y165.839
G1 X133.097 Y165.639
G1 X132.818 Y165.442
G1 X132.547 Y165.302
G1 X132.238 Y165.165
G1 X131.942 Y165.010
G1 X131.627 Y164.865
G1 X131.297 Y164.750
G1 X130.956 Y164.629
G1 X130.627 Y164.509
G1 X130.300 Y164.366
G1 X129.948 Y164.277
G1 X129.613 Y164.158
G1 X129.273 Y164.041
G1 X128.949 Y163.885
G1 X128.618 Y163.788
G1 X128.336 Y163.638
G1 X127.999 Y163.508
; Path 64
G0 Z0
G0 X128.000 Y163.507
G0 Z2.2
G1 F3000
G1 X127.757 Y163.643
G1 X127.479 Y163.787
G1 X127.196 Y163.891
G1 X126.930 Y164.039
G1 X126.672 Y164.160
G1 X126.364 Y164.274
G1 X126.090 Y164.382
G1 X125.795 Y164.506
G1 X125.513 Y164.606
G1 X125.233 Y164.746
G1 X124.950 Y164.883
G1 X124.692 Y165.006
G1 X124.411 Y165.128
G1 X124.183 Y165.298
G1 X123.965 Y165.459
G1 X123.719 Y165.634
G1 X123.520 Y165.812
G1 X123.310 Y166.026
G1 X123.137 Y166.262
G1 X122.971 Y166.487
G1 X122.812 Y166.740
G1 X122.708 Y167.023
G1 X122.594 Y167.328
G1 X122.513 Y167.628
G1 X122.466 Y167.955
G1 X122.375 Y168.289
G1 X122.310 Y168.630
G1 X122.282 Y168.994
G1 X122.241 Y169.364
G1 X122.220 Y169.732
G1 X122.210 Y170.139
G1 X122.179 Y170.489
G1 X122.145 Y170.868
G1 X122.146 Y171.254
G1 X122.146 Y171.609
G1 X122.109 Y172.015
G1 X122.055 Y172.370
G1 X122.056 Y172.761
G1 X122.034 Y173.123
G1 X121.974 Y173.478
; Path 65
G0 Z0
G0 X119.980 Y178.469
G0 Z2.2
G1 F3000
G1 X121.526 Y177.218
G1 X123.075 Y176.017
G1 X124.600 Y174.778
G1 X126.174 Y173.586
G1 X127.706 Y172.345
G1 X129.268 Y171.119
G1 X130.828 Y169.868
G1 X132.362 Y168.666
G1 X133.893 Y167.431
G1 X135.435 Y166.202
G1 X136.985 Y164.971
G1 X138.579 Y163.785
G1 X140.125 Y162.515
G1 X141.655 Y161.314
G1 X143.191 Y160.056
G1 X144.721 Y158.850
G1 X146.268 Y157.621
G1 X147.809 Y156.402
G1 X149.367 Y155.167
G1 X150.953 Y153.949
G1 X152.459 Y152.720
G1 X154.052 Y151.504
G1 X155.597 Y150.274
G1 X157.109 Y149.061
G1 X158.646 Y147.796
G1 X160.223 Y146.616
G1 X161.758 Y145.359
G1 X163.285 Y144.151
G1 X164.833 Y142.906
G1 X166.390 Y141.703
G1 X167.967 Y140.493
G1 X169.500 Y139.252
G1 X171.072 Y137.998
G1 X172.601 Y136.810
G1 X174.137 Y135.588
G1 X175.676 Y134.330
G1 X177.216 Y133.097
G1 X178.786 Y131.867
G1 X180.316 Y130.655
G1 X181.874 Y129.428
G1 X183.422 Y128.197
G1 X184.953 Y126.975
G1 X186.506 Y125.768
G1 X188.094 Y124.529
G1 X189.627 Y123.325
G1 X191.152 Y122.107
G1 X192.738 Y120.866
G1 X194.253 Y119.608
G1 X195.830 Y118.385
G1 X197.379 Y117.175
G1 X198.919 Y115.935
G1 X200.439 Y114.753
G1 X202.002 Y113.500
; Path 66
G0 Z0
G0 X201.986 Y113.501
G0 Z2.2
G1 F3000
G1 X203.922 Y113.066
G1 X205.875 Y112.642
G1 X207.811 Y112.242
G1 X209.742 Y111.801
G1 X211.676 Y111.365
G1 X213.635 Y110.919
G1 X215.565 Y110.511
G1 X217.508 Y110.065
G1 X219.468 Y109.614
G1 X221.386 Y109.239
G1 X223.373 Y108.759
G1 X225.270 Y108.331
G1 X227.208 Y107.917
G1 X229.191 Y107.499
G1 X231.129 Y107.079
G1 X233.090 Y106.637
G1 X234.999 Y106.193
G1 X236.954 Y105.776
G1 X238.868 Y105.334
G1 X240.862 Y104.915
G1 X242.761 Y104.497
G1 X244.705 Y104.046
G1 X246.669 Y103.639
G1 X248.592 Y103.187
G1 X250.565 Y102.756
G1 X252.479 Y102.354
G1 X254.432 Y101.922
G1 X256.383 Y101.512
G1 X258.290 Y101.071
G1 X260.264 Y100.630
G1 X262.188 Y100.199
G1 X264.140 Y99.776
G1 X266.097 Y99.369
G1 X268.034 Y98.895
G1 X269.970 Y98.483
; Path 67
G0 Z0
G0 X284.957 Y88.494
G0 Z2.2
G1 F3000
G1 X283.048 Y88.491
G1 X281.144 Y88.486
G1 X279.281 Y88.463
G1 X277.362 Y88.485
G1 X275.456 Y88.451
G1 X273.572 Y88.492
G1 X271.638 Y88.467
G1 X269.745 Y88.476
G1 X267.856 Y88.447
G1 X265.953 Y88.465
; Path 68
G0 Z0
G0 X269.968 Y83.497
G0 Z2.2
G1 F3000
G1 X268.163 Y84.273
G1 X266.360 Y85.058
G1 X264.586 Y85.853
G1 X262.784 Y86.675
G1 X261.013 Y87.456
G1 X259.257 Y88.243
G1 X257.434 Y89.029
G1 X255.684 Y89.792
G1 X253.872 Y90.599
G1 X252.071 Y91.383
G1 X250.294 Y92.176
G1 X248.506 Y92.983
G1 X246.681 Y93.746
G1 X244.911 Y94.540
G1 X243.157 Y95.359
G1 X241.315 Y96.130
G1 X239.568 Y96.929
G1 X237.749 Y97.688
G1 X235.948 Y98.516
G1 X234.180 Y99.298
G1 X232.390 Y100.072
G1 X230.577 Y100.865
G1 X228.791 Y101.677
G1 X226.998 Y102.441
G1 X225.231 Y103.230
G1 X223.453 Y104.009
G1 X221.639 Y104.836
G1 X219.877 Y105.604
G1 X218.064 Y106.394
G1 X216.313 Y107.158
G1 X214.498 Y107.997
G1 X212.705 Y108.779
G1 X210.943 Y109.537
G1 X209.141 Y110.329
G1 X207.368 Y111.135
G1 X205.544 Y111.900
G1 X203.793 Y112.682
G1 X201.977 Y113.497
; Path 69
G0 Z0
G0 X201.960 Y113.486
G0 Z2.2
G1 F3000
G1 X203.798 Y114.191
G1 X205.611 Y114.865
G1 X207.471 Y115.491
G1 X209.296 Y116.187
G1 X211.153 Y116.863
G1 X213.008 Y117.516
G1 X214.849 Y118.234
G1 X216.665 Y118.871
G1 X218.493 Y119.581
G1 X220.313 Y120.246
G1 X222.208 Y120.946
G1 X224.033 Y121.612
G1 X225.852 Y122.278
G1 X227.687 Y122.968
G1 X229.526 Y123.602
G1 X231.391 Y124.298
G1 X233.201 Y124.973
G1 X235.047 Y125.676
G1 X236.895 Y126.326
G1 X238.724 Y127.020
G1 X240.553 Y127.690
G1 X242.412 Y128.368
G1 X244.265 Y129.036
G1 X246.058 Y129.685
G1 X247.898 Y130.390
G1 X249.775 Y131.079
G1 X251.593 Y131.703
G1 X253.400 Y132.412
G1 X255.268 Y133.093
G1 X257.101 Y133.723
G1 X258.919 Y134.403
G1 X260.759 Y135.123
G1 X262.625 Y135.795
G1 X264.437 Y136.484
G1 X266.266 Y137.104
G1 X268.149 Y137.827
G1 X269.970 Y138.481
; Path 70
G0 Z0
G0 X274.988 Y146.479
G0 Z2.2
G1 F3000
G1 X273.000 Y146.749
G1 X271.038 Y147.033
G1 X269.080 Y147.265
G1 X267.083 Y147.565
G1 X265.137 Y147.787
G1 X263.157 Y148.094
G1 X261.198 Y148.336
G1 X259.242 Y148.619
G1 X257.242 Y148.876
G1 X255.254 Y149.143
G1 X253.283 Y149.412
G1 X251.322 Y149.630
G1 X249.361 Y149.905
G1 X247.421 Y150.175
G1 X245.425 Y150.465
G1 X243.439 Y150.698
G1 X241.482 Y150.995
G1 X239.532 Y151.220
G1 X237.528 Y151.531
G1 X235.585 Y151.759
G1 X233.591 Y152.054
G1 X231.653 Y152.314
G1 X229.665 Y152.588
G1 X227.684 Y152.851
G1 X225.706 Y153.084
G1 X223.756 Y153.379
G1 X221.794 Y153.636
G1 X219.820 Y153.866
G1 X217.838 Y154.149
G1 X215.887 Y154.427
G1 X213.878 Y154.686
G1 X211.961 Y154.955
G1 X209.948 Y155.210
G1 X207.990 Y155.478
; Path 71
G0 Z0
G0 X205.951 Y156.482
G0 Z2.2
G1 F3000
G1 X203.970 Y156.232
G1 X202.013 Y155.945
G1 X200.067 Y155.703
G1 X198.070 Y155.417
G1 X196.127 Y155.131
G1 X194.168 Y154.890
G1 X192.220 Y154.591
G1 X190.227 Y154.328
G1 X188.297 Y154.066
G1 X186.330 Y153.782
G1 X184.315 Y153.527
G1 X182.371 Y153.252
G1 X180.384 Y153.025
G1 X178.429 Y152.761
G1 X176.466 Y152.497
G1 X174.517 Y152.234
G1 X172.557 Y151.933
G1 X170.599 Y151.659
G1 X168.644 Y151.388
G1 X166.655 Y151.144
G1 X164.709 Y150.887
G1 X162.697 Y150.584
G1 X160.785 Y150.347
G1 X158.771 Y150.099
G1 X156.841 Y149.823
G1 X154.877 Y149.566
G1 X152.899 Y149.242
G1 X150.930 Y148.975
G1 X148.965 Y148.728
G1 X147.004 Y148.470
; Path 72
G0 Z0
G0 X149.959 Y138.516
G0 Z2.2
G1 F3000
G1 X151.597 Y138.862
G1 X153.273 Y139.146
G1 X154.956 Y139.490
; Path 73
G0 Z0
G0 X161.953 Y140.494
G0 Z2.2
G1 F3000
G1 X163.445 Y140.725
G1 X164.982 Y140.989
G1 X166.513 Y141.234
G1 X167.999 Y141.462
; Path 74
G0 Z0
G0 X174.947 Y142.508
G0 Z2.2
G1 F3000
G1 X176.697 Y142.749
G1 X178.461 Y143.024
G1 X180.247 Y143.243
G1 X181.982 Y143.502
; Path 75
G0 Z0
G0 X187.997 Y144.518
G0 Z2.2
G1 F3000
G1 X189.753 Y144.761
G1 X191.499 Y145.019
G1 X193.230 Y145.277
G1 X194.996 Y145.505
; Path 76
G0 Z0
G0 X189.978 Y148.462
G0 Z2.2
G1 F3000
G1 X188.165 Y147.770
G1 X186.314 Y147.007
G1 X184.462 Y146.346
G1 X182.612 Y145.610
G1 X180.779 Y144.888
G1 X178.947 Y144.157
G1 X177.131 Y143.478
G1 X175.284 Y142.777
G1 X173.423 Y142.024
G1 X171.625 Y141.306
G1 X169.794 Y140.632
G1 X167.959 Y139.920
G1 X166.099 Y139.185
G1 X164.267 Y138.450
G1 X162.450 Y137.752
G1 X160.625 Y137.054
G1 X158.781 Y136.345
G1 X156.940 Y135.626
G1 X155.116 Y134.910
G1 X153.245 Y134.210
G1 X151.394 Y133.512
G1 X149.610 Y132.777
G1 X147.762 Y132.045
G1 X145.896 Y131.335
G1 X144.096 Y130.636
G1 X142.237 Y129.909
G1 X140.409 Y129.173
G1 X138.558 Y128.480
G1 X136.721 Y127.802
G1 X134.900 Y127.076
G1 X133.071 Y126.350
G1 X131.218 Y125.622
G1 X129.380 Y124.922
G1 X127.522 Y124.209
G1 X125.738 Y123.490
G1 X123.876 Y122.771
G1 X122.029 Y122.047
G1 X120.179 Y121.339
G1 X118.353 Y120.647
G1 X116.533 Y119.915
G1 X114.687 Y119.245
G1 X112.848 Y118.482
G1 X111.000 Y117.780
G1 X109.186 Y117.084
G1 X107.318 Y116.343
G1 X105.504 Y115.675
G1 X103.644 Y114.940
G1 X101.848 Y114.237
G1 X100.001 Y113.511
; Path 77
G0 Z0
G0 X99.970 Y113.472
G0 Z2.2
G1 F3000
G1 X101.836 Y112.724
G1 X103.666 Y111.967
G1 X105.549 Y111.260
G1 X107.356 Y110.506
G1 X109.248 Y109.768
G1 X111.105 Y109.014
G1 X112.963 Y108.311
G1 X114.772 Y107.541
G1 X116.634 Y106.832
G1 X118.511 Y106.060
G1 X120.325 Y105.341
G1 X122.196 Y104.591
G1 X124.030 Y103.865
G1 X125.910 Y103.124
G1 X127.741 Y102.343
G1 X129.599 Y101.609
G1 X131.456 Y100.896
G1 X133.328 Y100.135
G1 X135.170 Y99.385
G1 X137.029 Y98.685
G1 X138.868 Y97.895
G1 X140.725 Y97.168
G1 X142.591 Y96.438
G1 X144.394 Y95.678
G1 X146.302 Y94.963
G1 X148.141 Y94.224
G1 X149.961 Y93.491
G1 X151.819 Y92.761
G1 X153.682 Y91.997
G1 X155.555 Y91.278
G1 X157.414 Y90.490
G1 X159.210 Y89.790
G1 X161.109 Y89.014
G1 X162.930 Y88.304
G1 X164.777 Y87.551
G1 X166.644 Y86.802
G1 X168.525 Y86.061
G1 X170.362 Y85.361
G1 X172.182 Y84.596
G1 X174.026 Y83.849
G1 X175.889 Y83.132
G1 X177.756 Y82.378
G1 X179.593 Y81.637
G1 X181.486 Y80.881
G1 X183.304 Y80.157
G1 X185.146 Y79.416
G1 X186.989 Y78.697
G1 X188.858 Y77.934
G1 X190.719 Y77.186
G1 X192.602 Y76.431
G1 X194.435 Y75.719
G1 X196.257 Y74.938
G1 X198.104 Y74.243
G1 X199.984 Y73.485
; Path 78
G0 Z0
G0 X172.003 Y83.508
G0 Z2.2
G1 F3000
G1 X170.168 Y83.517
G1 X168.346 Y83.498
G1 X166.492 Y83.510
G1 X164.684 Y83.481
G1 X162.849 Y83.514
G1 X160.978 Y83.495
G1 X159.151 Y83.503
G1 X157.305 Y83.462
G1 X155.463 Y83.474
G1 X153.628 Y83.494
G1 X151.799 Y83.495
G1 X149.985 Y83.479
; Path 79
G0 Z0
G0 X155.963 Y116.463
G0 Z2.2
G1 F3000
G1 X155.933 Y118.449
G1 X155.913 Y120.398
G1 X155.870 Y122.380
G1 X155.880 Y124.364
G1 X155.819 Y126.336
G1 X155.834 Y128.310
G1 X155.805 Y130.274
G1 X155.757 Y132.236
G1 X155.765 Y134.203
G1 X155.743 Y136.190
G1 X155.683 Y138.206
G1 X155.686 Y140.169
G1 X155.662 Y142.138
G1 X155.590 Y144.107
G1 X155.607 Y146.050
G1 X155.541 Y148.033
G1 X155.524 Y150.022
G1 X155.534 Y151.989
G1 X155.505 Y153.986
G1 X155.465 Y155.974
G1 X155.427 Y157.946
G1 X155.442 Y159.911
G1 X155.366 Y161.889
G1 X155.387 Y163.823
G1 X155.350 Y165.816
G1 X155.292 Y167.797
G1 X155.308 Y169.792
G1 X155.256 Y171.741
G1 X155.272 Y173.737
G1 X155.198 Y175.711
G1 X155.177 Y177.682
G1 X155.173 Y179.646
G1 X155.142 Y181.589
G1 X155.120 Y183.588
G1 X155.123 Y185.551
G1 X155.054 Y187.532
G1 X155.045 Y189.536
G1 X155.051 Y191.473
G1 X154.997 Y193.465
; Path 80
G0 Z0
G0 X149.995 Y190.545
G0 Z2.2
G1 F3000
G1 X150.628 Y189.780
G1 X151.230 Y188.972
G1 X151.863 Y188.299
G1 X152.413 Y187.475
G1 X153.057 Y186.743
G1 X153.661 Y185.895
G1 X154.314 Y185.166
G1 X154.882 Y184.412
G1 X155.528 Y183.557
G1 X156.157 Y182.757
G1 X156.856 Y182.010
G1 X157.468 Y181.268
G1 X158.056 Y180.517
; Path 81
G0 Z0
G0 X151.966 Y183.560
G0 Z2.2
G1 F3000
G1 X152.953 Y183.598
G1 X153.804 Y183.797
G1 X154.736 Y183.852
G1 X155.770 Y184.079
G1 X156.643 Y184.160
G1 X157.646 Y184.304
G1 X158.618 Y184.340
G1 X159.574 Y184.454
G1 X160.436 Y184.556
G1 X161.361 Y184.650
G1 X162.356 Y184.824
G1 X163.318 Y184.889
G1 X164.227 Y184.966
G1 X165.155 Y185.108
G1 X166.179 Y185.303
G1 X167.110 Y185.408
G1 X168.026 Y185.478
; Path 82
G0 Z0
G0 X167.897 Y186.442
G0 Z2.2
G1 F3000
G1 X168.895 Y186.565
G1 X169.741 Y186.781
G1 X170.748 Y187.055
G1 X171.675 Y187.223
G1 X172.611 Y187.495
G1 X173.578 Y187.606
G1 X174.468 Y187.831
G1 X175.464 Y188.045
G1 X176.334 Y188.228
G1 X177.288 Y188.369
G1 X178.271 Y188.629
G1 X179.097 Y188.792
G1 X180.107 Y188.910
G1 X180.984 Y189.224
G1 X182.020 Y189.402
G1 X182.926 Y189.557
; Path 83
G0 Z0
G0 X181.981 Y191.567
G0 Z2.2
G1 F3000
G1 X182.879 Y191.789
G1 X183.933 Y192.019
G1 X184.745 Y192.117
G1 X185.796 Y192.337
G1 X186.682 Y192.553
G1 X187.643 Y192.741
G1 X188.607 Y193.034
G1 X189.476 Y193.258
G1 X190.393 Y193.362
G1 X191.365 Y193.675
G1 X192.364 Y193.789
G1 X193.362 Y194.078
G1 X194.280 Y194.158
G1 X195.219 Y194.438
G1 X196.172 Y194.639
G1 X197.001 Y194.856
G1 X197.958 Y195.091
G1 X198.922 Y195.311
G1 X199.906 Y195.458
; Path 84
G0 Z0
G0 X201.983 Y188.497
G0 Z2.2
G1 F3000
G1 X201.963 Y186.553
G1 X201.978 Y184.556
G1 X202.007 Y182.570
G1 X201.959 Y180.588
G1 X201.961 Y178.671
G1 X201.978 Y176.677
G1 X201.958 Y174.693
G1 X201.985 Y172.753
G1 X201.977 Y170.760
G1 X201.954 Y168.802
G1 X201.974 Y166.803
G1 X202.013 Y164.882
G1 X201.976 Y162.886
G1 X201.980 Y160.897
G1 X201.983 Y158.950
G1 X201.972 Y156.946
G1 X202.007 Y154.978
G1 X201.959 Y153.041
G1 X202.000 Y151.072
G1 X202.000 Y149.093
G1 X201.971 Y147.117
G1 X201.960 Y145.137
G1 X201.980 Y143.160
G1 X202.011 Y141.219
G1 X201.993 Y139.234
G1 X201.999 Y137.271
G1 X201.972 Y135.328
G1 X201.988 Y133.322
G1 X201.965 Y131.346
G1 X201.983 Y129.414
G1 X201.966 Y127.424
G1 X201.989 Y125.477
G1 X201.961 Y123.489
G1 X201.979 Y121.527
G1 X202.003 Y119.548
G1 X201.975 Y117.588
G1 X201.995 Y115.623
G1 X202.007 Y113.622
G1 X201.983 Y111.654
G1 X201.977 Y109.673
G1 X201.961 Y107.728
G1 X201.972 Y105.764
G1 X201.986 Y103.782
G1 X201.976 Y101.804
G1 X201.963 Y99.820
G1 X201.996 Y97.885
G1 X201.966 Y95.912
G1 X201.989 Y93.916
G1 X202.010 Y91.950
G1 X201.999 Y90.000
G1 X201.957 Y88.006
G1 X201.984 Y86.034
G1 X201.981 Y84.097
G1 X202.003 Y82.129
G1 X201.990 Y80.157
G1 X201.958 Y78.179
G1 X201.991 Y76.209
G1 X201.982 Y74.214
G1 X201.958 Y72.246
G1 X201.982 Y70.297
G1 X201.984 Y68.297
G1 X201.963 Y66.368
G1 X201.970 Y64.410
G1 X201.983 Y62.435
G1 X201.969 Y60.448
G1 X201.987 Y58.472
; Path 85
G0 Z0
G0 X194.951 Y53.466
G0 Z2.2
G1 F3000
G1 X194.972 Y55.439
G1 X194.948 Y57.421
G1 X194.968 Y59.397
G1 X194.967 Y61.365
G1 X194.956 Y63.341
G1 X194.937 Y65.267
G1 X194.976 Y67.284
G1 X194.947 Y69.204
G1 X194.945 Y71.189
G1 X194.976 Y73.169
G1 X194.945 Y75.151
G1 X194.948 Y77.080
G1 X194.956 Y79.091
G1 X194.981 Y81.067
G1 X194.992 Y83.011
G1 X194.990 Y84.996
G1 X194.960 Y86.971
G1 X194.996 Y88.910
G1 X194.961 Y90.864
G1 X194.994 Y92.890
G1 X194.950 Y94.841
G1 X194.965 Y96.797
G1 X195.002 Y98.789
G1 X194.999 Y100.729
G1 X194.964 Y102.741
G1 X194.968 Y104.692
G1 X194.954 Y106.673
G1 X195.010 Y108.640
G1 X195.005 Y110.601
G1 X195.006 Y112.555
G1 X194.963 Y114.529
G1 X195.014 Y116.507
G1 X194.991 Y118.471
; Path 86
G0 Z0
G0 X191.994 Y137.487
G0 Z2.2
G1 F3000
G1 X191.861 Y139.439
G1 X191.777 Y141.352
G1 X191.683 Y143.317
G1 X191.513 Y145.297
G1 X191.427 Y147.225
G1 X191.340 Y149.131
G1 X191.207 Y151.099
G1 X191.073 Y153.025
G1 X190.988 Y154.985
G1 X190.853 Y156.938
G1 X190.763 Y158.878
G1 X190.615 Y160.810
G1 X190.548 Y162.756
G1 X190.384 Y164.720
G1 X190.285 Y166.655
G1 X190.162 Y168.600
G1 X190.046 Y170.551
G1 X189.962 Y172.506
; Path 87
G0 Z0
G0 X189.002 Y187.293
G0 Z2.2
G1 F3000
G1 X187.069 Y187.610
; Path 88
G0 Z0
G0 X183.661 Y184.846
G0 Z2.2
G1 F3000
G1 X182.207 Y186.034
; Path 89
G0 Z0
G0 X178.848 Y183.221
G0 Z2.2
G1 F3000
G1 X177.047 Y183.851
; Path 90
G0 Z0
G0 X173.935 Y181.309
G0 Z2.2
G1 F3000
G1 X171.973 Y181.745
; Path 91
G0 Z0
G0 X171.964 Y180.504
G0 Z2.2
G1 F3000
G1 X171.061 Y180.462
G1 X170.064 Y180.330
G1 X169.082 Y180.140
G1 X168.263 Y180.123
G1 X167.180 Y179.923
G1 X166.359 Y179.957
G1 X165.335 Y179.786
G1 X164.463 Y179.739
G1 X163.535 Y179.628
G1 X162.522 Y179.553
G1 X161.515 Y179.387
G1 X160.711 Y179.208
G1 X159.686 Y179.151
G1 X158.805 Y179.120
G1 X157.761 Y178.900
G1 X156.886 Y178.855
G1 X155.971 Y178.738
G1 X154.910 Y178.695
G1 X154.021 Y178.560
; Path 92
G0 Z0
G0 X152.522 Y174.224
G0 Z2.2
G1 F3000
G1 X153.511 Y172.526
; Path 93
G0 Z0
G0 X157.277 Y176.233
G0 Z2.2
G1 F3000
G1 X158.612 Y174.719
; Path 94
G0 Z0
G0 X162.011 Y177.619
G0 Z2.2
G1 F3000
G1 X164.048 Y177.261
; Path 95
G0 Z0
G0 X166.836 Y179.528
G0 Z2.2
G1 F3000
G1 X168.930 Y179.575
; Path 96
G0 Z0
G0 X165.920 Y182.493
G0 Z2.2
G1 F3000
G1 X165.253 Y183.218
G1 X164.669 Y183.959
G1 X164.052 Y184.753
G1 X163.536 Y185.627
G1 X162.913 Y186.325
G1 X162.322 Y187.092
G1 X161.601 Y187.845
G1 X160.992 Y188.683
G1 X160.418 Y189.455
G1 X159.902 Y190.178
G1 X159.161 Y190.889
G1 X158.642 Y191.682
G1 X158.020 Y192.473
; Path 97
G0 Z0
G0 X165.930 Y194.491
G0 Z2.2
G1 F3000
G1 X166.542 Y193.661
G1 X167.081 Y193.011
G1 X167.817 Y192.252
G1 X168.333 Y191.473
G1 X168.995 Y190.575
G1 X169.549 Y189.930
G1 X170.218 Y189.012
G1 X170.856 Y188.237
G1 X171.457 Y187.612
G1 X172.060 Y186.778
G1 X172.686 Y185.960
G1 X173.299 Y185.243
G1 X173.922 Y184.449
; Path 98
G0 Z0
G0 X181.979 Y187.519
G0 Z2.2
G1 F3000
G1 X181.340 Y188.321
G1 X180.735 Y189.084
G1 X180.174 Y189.838
G1 X179.550 Y190.589
G1 X178.850 Y191.373
G1 X178.205 Y192.185
G1 X177.581 Y192.826
G1 X177.096 Y193.604
G1 X176.466 Y194.422
G1 X175.735 Y195.111
G1 X175.118 Y195.985
G1 X174.502 Y196.778
G1 X173.926 Y197.469
; Path 99
G0 Z0
G0 X169.993 Y196.488
G0 Z2.2
G1 F3000
G1 X170.024 Y194.565
G1 X170.045 Y192.599
G1 X170.051 Y190.625
G1 X170.119 Y188.703
G1 X170.102 Y186.721
G1 X170.132 Y184.802
G1 X170.172 Y182.843
G1 X170.187 Y180.900
G1 X170.193 Y178.924
G1 X170.254 Y176.964
G1 X170.252 Y175.046
G1 X170.283 Y173.082
G1 X170.300 Y171.105
G1 X170.313 Y169.186
G1 X170.368 Y167.242
G1 X170.381 Y165.286
G1 X170.387 Y163.357
G1 X170.437 Y161.399
G1 X170.450 Y159.409
G1 X170.465 Y157.504
G1 X170.476 Y155.531
G1 X170.518 Y153.600
G1 X170.578 Y151.620
G1 X170.574 Y149.646
G1 X170.578 Y147.752
G1 X170.630 Y145.787
G1 X170.633 Y143.843
G1 X170.645 Y141.877
G1 X170.676 Y139.913
G1 X170.719 Y137.991
G1 X170.741 Y136.051
G1 X170.787 Y134.091
G1 X170.816 Y132.096
G1 X170.825 Y130.189
G1 X170.814 Y128.215
G1 X170.836 Y126.269
G1 X170.892 Y124.306
G1 X170.886 Y122.369
G1 X170.919 Y120.392
G1 X170.962 Y118.467
; Path 100
G0 Z0
G0 X161.990 Y133.498
G0 Z2.2
G1 F3000
G1 X162.160 Y133.367
G1 X162.305 Y133.190
G1 X162.481 Y133.047
G1 X162.647 Y132.875
G1 X162.836 Y132.742
G1 X163.005 Y132.556
G1 X163.169 Y132.378
G1 X163.367 Y132.236
G1 X163.534 Y132.098
G1 X163.721 Y131.918
G1 X163.891 Y131.783
G1 X164.055 Y131.605
G1 X164.185 Y131.432
G1 X164.358 Y131.301
G1 X164.508 Y131.169
G1 X164.617 Y131.008
G1 X164.696 Y130.860
G1 X164.821 Y130.729
G1 X164.867 Y130.607
G1 X164.958 Y130.467
G1 X164.977 Y130.366
G1 X165.020 Y130.226
G1 X165.021 Y130.099
G1 X165.014 Y130.001
G1 X164.979 Y129.910
G1 X164.954 Y129.792
G1 X164.873 Y129.721
G1 X164.850 Y129.593
G1 X164.778 Y129.479
G1 X164.714 Y129.403
G1 X164.629 Y129.318
G1 X164.559 Y129.218
G1 X164.456 Y129.125
G1 X164.395 Y129.035
G1 X164.301 Y128.913
G1 X164.236 Y128.851
G1 X164.191 Y128.760
G1 X164.092 Y128.663
G1 X164.026 Y128.584
G1 X163.977 Y128.467
; Path 101
G0 Z0
G0 X163.949 Y128.490
G0 Z2.2
G1 F3000
G1 X163.913 Y128.560
G1 X163.852 Y128.685
G1 X163.817 Y128.787
G1 X163.755 Y128.874
G1 X163.714 Y128.958
G1 X163.658 Y129.058
G1 X163.633 Y129.153
G1 X163.561 Y129.242
G1 X163.508 Y129.357
G1 X163.464 Y129.427
G1 X163.403 Y129.503
G1 X163.367 Y129.618
G1 X163.310 Y129.692
G1 X163.270 Y129.816
G1 X163.213 Y129.925
G1 X163.172 Y130.026
G1 X163.102 Y130.149
G1 X163.075 Y130.250
G1 X163.042 Y130.349
G1 X162.976 Y130.491
G1 X162.945 Y130.615
G1 X162.877 Y130.751
G1 X162.834 Y130.894
G1 X162.778 Y131.028
G1 X162.719 Y131.194
G1 X162.678 Y131.319
G1 X162.642 Y131.497
G1 X162.578 Y131.621
G1 X162.509 Y131.767
G1 X162.478 Y131.932
G1 X162.409 Y132.065
G1 X162.378 Y132.247
G1 X162.325 Y132.418
G1 X162.278 Y132.564
G1 X162.233 Y132.730
G1 X162.177 Y132.881
G1 X162.132 Y133.038
G1 X162.077 Y133.193
G1 X162.037 Y133.355
G1 X161.977 Y133.499
; Path 102
G0 Z0
G0 X161.953 Y133.496
G0 Z2.2
G1 F3000
G1 X161.814 Y135.434
G1 X161.743 Y137.394
G1 X161.599 Y139.332
G1 X161.517 Y141.243
G1 X161.426 Y143.238
G1 X161.276 Y145.144
G1 X161.199 Y147.095
G1 X161.067 Y149.023
G1 X160.977 Y150.985
G1 X160.838 Y152.948
G1 X160.744 Y154.896
G1 X160.634 Y156.822
G1 X160.501 Y158.785
G1 X160.410 Y160.708
G1 X160.315 Y162.674
G1 X160.159 Y164.578
G1 X160.088 Y166.577
G1 X159.968 Y168.492
; Path 103
G0 Z0
G0 X169.976 Y163.500
G0 Z2.2
G1 F3000
G1 X169.970 Y165.188
G1 X169.941 Y166.842
G1 X169.955 Y168.485
; Path 104
G0 Z0
G0 X169.975 Y168.515
G0 Z2.2
G1 F3000
G1 X170.029 Y166.564
G1 X170.085 Y164.556
G1 X170.120 Y162.558
G1 X170.185 Y160.612
G1 X170.235 Y158.641
G1 X170.224 Y156.646
G1 X170.306 Y154.681
G1 X170.372 Y152.680
G1 X170.367 Y150.731
G1 X170.461 Y148.730
G1 X170.502 Y146.753
G1 X170.533 Y144.758
G1 X170.578 Y142.777
G1 X170.624 Y140.811
G1 X170.691 Y138.824
G1 X170.715 Y136.893
G1 X170.763 Y134.893
G1 X170.779 Y132.895
G1 X170.874 Y130.951
G1 X170.912 Y128.986
G1 X170.947 Y126.997
G1 X171.002 Y125.029
G1 X171.020 Y123.050
G1 X171.084 Y121.072
G1 X171.155 Y119.042
G1 X171.187 Y117.091
G1 X171.199 Y115.135
G1 X171.250 Y113.121
G1 X171.328 Y111.170
G1 X171.386 Y109.207
G1 X171.388 Y107.217
G1 X171.435 Y105.250
G1 X171.513 Y103.240
G1 X171.561 Y101.239
G1 X171.586 Y99.265
G1 X171.668 Y97.288
G1 X171.682 Y95.346
G1 X171.709 Y93.375
G1 X171.790 Y91.368
G1 X171.799 Y89.371
G1 X171.902 Y87.410
G1 X171.945 Y85.435
G1 X171.967 Y83.466
; Path 105
G0 Z0
G0 X171.957 Y83.484
G0 Z2.2
G1 F3000
G1 X170.952 Y82.085
G1 X169.996 Y80.653
G1 X168.974 Y79.269
G1 X167.986 Y77.877
G1 X166.989 Y76.461
; Path 106
G0 Z0
G0 X167.000 Y76.507
G0 Z2.2
G1 F3000
G1 X165.268 Y76.488
G1 X163.581 Y76.530
G1 X161.816 Y76.523
G1 X160.109 Y76.484
G1 X158.376 Y76.476
G1 X156.654 Y76.486
G1 X154.949 Y76.486
; Path 107
G0 Z0
G0 X154.964 Y76.508
G0 Z2.2
G1 F3000
G1 X153.940 Y77.912
G1 X152.984 Y79.273
G1 X151.995 Y80.695
G1 X150.976 Y82.083
G1 X149.984 Y83.468
; Path 108
G0 Z0
G0 X149.958 Y83.467
G0 Z2.2
G1 F3000
G1 X149.861 Y85.420
G1 X149.710 Y87.427
G1 X149.596 Y89.423
G1 X149.476 Y91.363
G1 X149.378 Y93.342
G1 X149.239 Y95.331
G1 X149.122 Y97.294
G1 X149.039 Y99.303
G1 X148.915 Y101.270
G1 X148.816 Y103.232
G1 X148.701 Y105.219
G1 X148.570 Y107.223
G1 X148.478 Y109.149
G1 X148.318 Y111.159
G1 X148.229 Y113.144
G1 X148.099 Y115.080
G1 X148.000 Y117.058
G1 X147.893 Y119.046
G1 X147.755 Y121.022
G1 X147.624 Y123.016
G1 X147.555 Y124.992
G1 X147.444 Y126.947
G1 X147.311 Y128.938
G1 X147.169 Y130.950
G1 X147.047 Y132.907
G1 X146.966 Y134.876
G1 X146.856 Y136.869
G1 X146.744 Y138.825
G1 X146.637 Y140.803
G1 X146.491 Y142.764
G1 X146.370 Y144.755
G1 X146.281 Y146.726
G1 X146.152 Y148.692
G1 X146.027 Y150.667
G1 X145.916 Y152.654
G1 X145.813 Y154.621
G1 X145.710 Y156.636
G1 X145.590 Y158.584
G1 X145.463 Y160.583
G1 X145.354 Y162.540
G1 X145.241 Y164.532
G1 X145.092 Y166.518
G1 X144.998 Y168.487
; Path 109
G0 Z0
G0 X146.962 Y163.483
G0 Z2.2
G1 F3000
G1 X148.907 Y163.746
G1 X150.881 Y164.029
G1 X152.882 Y164.290
G1 X154.838 Y164.566
G1 X156.814 Y164.792
G1 X158.762 Y165.050
G1 X160.699 Y165.363
G1 X162.695 Y165.598
G1 X164.682 Y165.853
G1 X166.620 Y166.127
G1 X168.606 Y166.382
G1 X170.540 Y166.678
G1 X172.532 Y166.967
G1 X174.502 Y167.191
G1 X176.447 Y167.486
G1 X178.457 Y167.743
G1 X180.413 Y168.021
G1 X182.358 Y168.280
G1 X184.351 Y168.542
G1 X186.292 Y168.794
G1 X188.253 Y169.080
G1 X190.250 Y169.308
G1 X192.196 Y169.587
G1 X194.142 Y169.874
G1 X196.155 Y170.127
G1 X198.089 Y170.374
G1 X200.034 Y170.668
G1 X202.050 Y170.938
G1 X203.979 Y171.174
G1 X205.962 Y171.462
; Path 110
G0 Z0
G0 X205.973 Y168.476
G0 Z2.2
G1 F3000
G1 X205.957 Y166.838
G1 X205.966 Y165.133
G1 X205.977 Y163.500
; Path 111
G0 Z0
G0 X191.993 Y163.473
G0 Z2.2
G1 F3000
G1 X191.976 Y165.154
G1 X191.963 Y166.816
G1 X191.970 Y168.512
; Path 112
G0 Z0
G0 X187.984 Y168.518
G0 Z2.2
G1 F3000
G1 X187.973 Y166.824
G1 X187.966 Y165.186
G1 X187.979 Y163.485
; Path 113
G0 Z0
G0 X189.990 Y163.491
G0 Z2.2
G1 F3000
G1 X189.703 Y162.117
G1 X189.418 Y160.760
G1 X189.071 Y159.374
G1 X188.741 Y157.980
G1 X188.352 Y156.546
G1 X188.003 Y155.172
G1 X187.629 Y153.735
G1 X187.250 Y152.358
G1 X186.872 Y150.965
G1 X186.528 Y149.557
G1 X186.200 Y148.156
G1 X185.881 Y146.791
G1 X185.597 Y145.416
G1 X185.354 Y144.081
G1 X185.179 Y142.771
G1 X184.993 Y141.448
G1 X184.898 Y140.191
G1 X184.842 Y138.913
G1 X184.893 Y137.734
G1 X184.948 Y136.497
G1 X185.160 Y135.355
G1 X185.340 Y134.214
G1 X185.677 Y133.125
G1 X185.988 Y132.050
G1 X186.406 Y130.991
G1 X186.846 Y129.984
G1 X187.340 Y129.002
G1 X187.871 Y127.995
G1 X188.432 Y127.043
G1 X189.015 Y126.061
G1 X189.638 Y125.124
G1 X190.235 Y124.163
G1 X190.838 Y123.249
G1 X191.485 Y122.279
G1 X192.079 Y121.313
G1 X192.720 Y120.387
G1 X193.312 Y119.422
G1 X193.895 Y118.468
G1 X194.440 Y117.485
G1 X194.965 Y116.500
; Path 114
G0 Z0
G0 X190.990 Y103.481
G0 Z2.2
G1 F3000
G1 X188.872 Y103.487
; Path 115
G0 Z0
G0 X194.987 Y107.555
G0 Z2.2
G1 F3000
G1 X195.073 Y109.609
; Path 116
G0 Z0
G0 X197.124 Y110.442
G0 Z2.2
G1 F3000
G1 X199.008 Y110.413
; Path 117
G0 Z0
G0 X201.954 Y109.389
G0 Z2.2
G1 F3000
G1 X202.048 Y107.500
; Path 118
G0 Z0
G0 X204.049 Y106.563
G0 Z2.2
G1 F3000
G1 X206.029 Y106.428
; Path 119
G0 Z0
G0 X200.365 Y107.347
G0 Z2.2
G1 F3000
G1 X199.718 Y105.560
; Path 120
G0 Z0
G0 X199.247 Y99.789
G0 Z2.2
G1 F3000
G1 X200.527 Y101.289
; Path 121
G0 Z0
G0 X210.507 Y97.443
G0 Z2.2
G1 F3000
G1 X209.595 Y99.299
; Path 122
G0 Z0
G0 X215.075 Y105.493
G0 Z2.2
G1 F3000
G1 X215.089 Y103.497
; Path 123
G0 Z0
G0 X218.866 Y100.424
G0 Z2.2
G1 F3000
G1 X220.874 Y100.436
; Path 124
G0 Z0
G0 X226.972 Y93.477
G0 Z2.2
G1 F3000
G1 X225.005 Y93.507
G1 X223.010 Y93.514
G1 X220.988 Y93.496
G1 X218.963 Y93.524
G1 X217.004 Y93.491
G1 X215.005 Y93.488
G1 X213.006 Y93.513
; Path 125
G0 Z0
G0 X212.992 Y93.496
G0 Z2.2
G1 F3000
G1 X211.043 Y93.767
G1 X209.108 Y94.034
G1 X207.186 Y94.352
G1 X205.196 Y94.613
G1 X203.272 Y94.912
G1 X201.315 Y95.153
G1 X199.380 Y95.431
G1 X197.441 Y95.688
G1 X195.466 Y95.999
G1 X193.558 Y96.244
G1 X191.573 Y96.521
G1 X189.659 Y96.829
G1 X187.712 Y97.107
G1 X185.766 Y97.355
G1 X183.838 Y97.633
G1 X181.857 Y97.942
G1 X179.911 Y98.188
G1 X177.982 Y98.492
; Path 126
G0 Z0
G0 X178.005 Y98.495
G0 Z2.2
G1 F3000
G1 X177.248 Y98.821
G1 X176.502 Y99.191
G1 X175.776 Y99.561
G1 X174.999 Y99.880
G1 X174.219 Y100.193
G1 X173.496 Y100.565
G1 X172.760 Y100.928
G1 X171.992 Y101.249
G1 X171.241 Y101.587
G1 X170.489 Y101.936
G1 X169.745 Y102.254
G1 X168.986 Y102.627
G1 X168.211 Y102.994
G1 X167.483 Y103.325
G1 X166.743 Y103.702
G1 X165.981 Y104.035
G1 X165.248 Y104.393
G1 X164.479 Y104.758
G1 X163.752 Y105.104
G1 X162.978 Y105.497
G1 X162.245 Y105.862
G1 X161.478 Y106.255
G1 X160.718 Y106.618
G1 X159.978 Y107.030
G1 X159.210 Y107.401
G1 X158.479 Y107.818
G1 X157.723 Y108.232
G1 X156.980 Y108.616
G1 X156.246 Y109.029
G1 X155.482 Y109.423
G1 X154.720 Y109.854
G1 X153.984 Y110.234
G1 X153.256 Y110.630
G1 X152.486 Y111.047
G1 X151.716 Y111.442
G1 X150.987 Y111.859
G1 X150.253 Y112.280
G1 X149.489 Y112.668
G1 X148.740 Y113.083
G1 X147.991 Y113.469
; Path 127
G0 Z0
G0 X147.998 Y113.481
G0 Z2.2
G1 F3000
G1 X149.920 Y113.711
G1 X151.851 Y113.932
G1 X153.819 Y114.135
G1 X155.748 Y114.407
G1 X157.659 Y114.603
G1 X159.621 Y114.826
G1 X161.556 Y115.066
G1 X163.486 Y115.299
G1 X165.399 Y115.498
G1 X167.368 Y115.737
G1 X169.261 Y115.964
G1 X171.197 Y116.190
G1 X173.138 Y116.416
G1 X175.116 Y116.646
G1 X177.023 Y116.869
G1 X178.985 Y117.109
G1 X180.906 Y117.333
G1 X182.810 Y117.557
G1 X184.783 Y117.770
G1 X186.722 Y118.007
G1 X188.610 Y118.234
G1 X190.583 Y118.493
G1 X192.530 Y118.720
G1 X194.437 Y118.938
G1 X196.360 Y119.176
G1 X198.300 Y119.377
G1 X200.233 Y119.617
G1 X202.207 Y119.856
G1 X204.132 Y120.076
G1 X206.073 Y120.298
G1 X207.990 Y120.512
; Path 128
G0 Z0
G0 X207.959 Y120.511
G0 Z2.2
G1 F3000
G1 X207.883 Y122.480
G1 X207.840 Y124.458
G1 X207.754 Y126.463
G1 X207.685 Y128.410
G1 X207.624 Y130.411
G1 X207.535 Y132.388
G1 X207.435 Y134.334
G1 X207.417 Y136.336
G1 X207.301 Y138.303
G1 X207.224 Y140.246
G1 X207.177 Y142.236
G1 X207.107 Y144.193
G1 X207.031 Y146.185
G1 X206.990 Y148.173
G1 X206.867 Y150.131
G1 X206.801 Y152.125
G1 X206.757 Y154.108
G1 X206.681 Y156.077
G1 X206.636 Y158.029
G1 X206.520 Y159.990
G1 X206.491 Y162.021
G1 X206.415 Y163.941
G1 X206.335 Y165.937
G1 X206.249 Y167.927
G1 X206.189 Y169.879
G1 X206.103 Y171.895
G1 X206.039 Y173.855
G1 X205.948 Y175.826
G1 X205.875 Y177.805
G1 X205.846 Y179.745
G1 X205.758 Y181.765
G1 X205.715 Y183.737
G1 X205.609 Y185.720
G1 X205.527 Y187.700
G1 X205.493 Y189.657
G1 X205.394 Y191.634
G1 X205.336 Y193.577
G1 X205.275 Y195.560
G1 X205.194 Y197.523
G1 X205.102 Y199.539
G1 X205.018 Y201.486
G1 X204.975 Y203.472
; Path 129
G0 Z0
G0 X204.965 Y203.497
G0 Z2.2
G1 F3000
G1 X206.918 Y203.107
G1 X208.789 Y202.717
G1 X210.749 Y202.343
G1 X212.635 Y201.969
G1 X214.607 Y201.565
G1 X216.511 Y201.213
G1 X218.429 Y200.826
G1 X220.338 Y200.420
G1 X222.299 Y200.036
G1 X224.178 Y199.648
G1 X226.090 Y199.271
G1 X228.011 Y198.911
G1 X229.944 Y198.518
G1 X231.896 Y198.097
G1 X233.803 Y197.757
G1 X235.706 Y197.350
G1 X237.645 Y196.976
G1 X239.581 Y196.563
G1 X241.492 Y196.198
G1 X243.402 Y195.780
G1 X245.336 Y195.432
G1 X247.284 Y195.010
G1 X249.175 Y194.629
G1 X251.099 Y194.281
G1 X253.015 Y193.878
G1 X254.937 Y193.466
G1 X256.905 Y193.128
G1 X258.777 Y192.723
G1 X260.744 Y192.316
G1 X262.659 Y191.928
G1 X264.599 Y191.590
G1 X266.507 Y191.196
G1 X268.389 Y190.784
G1 X270.338 Y190.420
G1 X272.250 Y190.013
G1 X274.177 Y189.648
G1 X276.129 Y189.254
G1 X278.054 Y188.901
G1 X279.952 Y188.495
; Path 130
G0 Z0
G0 X279.970 Y188.507
G0 Z2.2
G1 F3000
G1 X279.907 Y186.572
G1 X279.844 Y184.596
G1 X279.795 Y182.666
G1 X279.770 Y180.729
G1 X279.715 Y178.739
G1 X279.698 Y176.824
G1 X279.636 Y174.855
G1 X279.587 Y172.909
G1 X279.549 Y170.969
G1 X279.480 Y169.019
G1 X279.457 Y167.075
G1 X279.404 Y165.096
G1 X279.348 Y163.167
G1 X279.255 Y161.175
G1 X279.243 Y159.220
G1 X279.179 Y157.308
G1 X279.144 Y155.364
G1 X279.091 Y153.382
G1 X279.026 Y151.466
G1 X278.985 Y149.495
G1 X278.958 Y147.521
G1 X278.879 Y145.568
G1 X278.849 Y143.612
G1 X278.791 Y141.711
G1 X278.713 Y139.714
G1 X278.683 Y137.772
G1 X278.622 Y135.840
G1 X278.578 Y133.880
G1 X278.573 Y131.913
G1 X278.488 Y129.959
G1 X278.419 Y128.025
G1 X278.370 Y126.057
G1 X278.364 Y124.133
G1 X278.315 Y122.176
G1 X278.235 Y120.240
G1 X278.221 Y118.284
G1 X278.153 Y116.342
G1 X278.130 Y114.388
G1 X278.034 Y112.425
G1 X278.005 Y110.470
; Path 131
G0 Z0
G0 X277.959 Y110.490
G0 Z2.2
G1 F3000
G1 X276.041 Y110.136
G1 X274.176 Y109.795
G1 X272.252 Y109.507
G1 X270.343 Y109.143
G1 X268.464 Y108.833
G1 X266.573 Y108.510
G1 X264.635 Y108.150
G1 X262.719 Y107.854
G1 X260.808 Y107.501
G1 X258.910 Y107.154
G1 X257.033 Y106.810
G1 X255.143 Y106.477
G1 X253.231 Y106.172
G1 X251.296 Y105.854
G1 X249.395 Y105.464
G1 X247.545 Y105.169
G1 X245.624 Y104.811
G1 X243.739 Y104.499
G1 X241.818 Y104.142
G1 X239.900 Y103.840
G1 X238.006 Y103.494
; Path 132
G0 Z0
G0 X237.968 Y103.503
G0 Z2.2
G1 F3000
G1 X236.014 Y103.728
G1 X234.032 Y103.958
G1 X232.082 Y104.138
G1 X230.138 Y104.376
G1 X228.217 Y104.615
G1 X226.202 Y104.820
G1 X224.249 Y105.036
G1 X222.348 Y105.234
G1 X220.338 Y105.480
G1 X218.414 Y105.656
G1 X216.447 Y105.920
G1 X214.479 Y106.089
G1 X212.522 Y106.327
G1 X210.595 Y106.548
G1 X208.641 Y106.790
G1 X206.685 Y106.960
G1 X204.729 Y107.188
G1 X202.777 Y107.395
G1 X200.808 Y107.617
G1 X198.832 Y107.819
G1 X196.883 Y108.054
G1 X194.921 Y108.308
G1 X192.969 Y108.470
G1 X190.995 Y108.739
G1 X189.080 Y108.930
G1 X187.084 Y109.154
G1 X185.172 Y109.386
G1 X183.212 Y109.589
G1 X181.266 Y109.816
G1 X179.291 Y109.994
G1 X177.304 Y110.217
G1 X175.370 Y110.440
G1 X173.435 Y110.687
G1 X171.429 Y110.906
G1 X169.493 Y111.095
G1 X167.546 Y111.316
G1 X165.590 Y111.566
G1 X163.647 Y111.781
G1 X161.681 Y112.002
G1 X159.716 Y112.177
G1 X157.757 Y112.433
G1 X155.838 Y112.613
G1 X153.857 Y112.833
G1 X151.912 Y113.047
G1 X149.922 Y113.280
G1 X147.984 Y113.495
; Path 133
G0 Z0
G0 X147.950 Y113.478
G0 Z2.2
G1 F3000
G1 X147.897 Y115.436
G1 X147.783 Y117.366
G1 X147.757 Y119.345
G1 X147.642 Y121.302
G1 X147.620 Y123.236
G1 X147.494 Y125.219
G1 X147.451 Y127.156
G1 X147.398 Y129.097
G1 X147.315 Y131.042
G1 X147.212 Y132.975
G1 X147.164 Y134.959
G1 X147.097 Y136.919
G1 X147.007 Y138.848
G1 X146.956 Y140.820
G1 X146.856 Y142.750
G1 X146.778 Y144.704
G1 X146.715 Y146.683
G1 X146.628 Y148.640
G1 X146.615 Y150.536
G1 X146.489 Y152.513
G1 X146.460 Y154.497
G1 X146.361 Y156.417
G1 X146.299 Y158.393
G1 X146.243 Y160.302
G1 X146.167 Y162.268
G1 X146.101 Y164.251
G1 X145.987 Y166.188
G1 X145.956 Y168.140
G1 X145.891 Y170.109
G1 X145.808 Y172.028
G1 X145.750 Y173.987
G1 X145.652 Y175.917
G1 X145.597 Y177.880
G1 X145.514 Y179.817
G1 X145.412 Y181.791
G1 X145.344 Y183.773
G1 X145.274 Y185.717
G1 X145.208 Y187.664
G1 X145.171 Y189.625
G1 X145.065 Y191.568
G1 X145.006 Y193.508
; Path 134
G0 Z0
G0 X144.955 Y193.508
G0 Z2.2
G1 F3000
G1 X146.865 Y193.860
G1 X148.852 Y194.182
G1 X150.782 Y194.452
G1 X152.714 Y194.819
G1 X154.646 Y195.147
G1 X156.553 Y195.430
G1 X158.514 Y195.794
G1 X160.412 Y196.079
G1 X162.399 Y196.416
G1 X164.290 Y196.756
G1 X166.265 Y197.028
G1 X168.152 Y197.360
G1 X170.125 Y197.700
G1 X172.049 Y198.041
G1 X174.003 Y198.354
G1 X175.905 Y198.665
G1 X177.846 Y199.004
G1 X179.801 Y199.313
G1 X181.737 Y199.641
G1 X183.686 Y199.938
G1 X185.593 Y200.262
G1 X187.561 Y200.582
G1 X189.463 Y200.927
G1 X191.392 Y201.231
G1 X193.326 Y201.585
G1 X195.251 Y201.916
G1 X197.197 Y202.216
G1 X199.156 Y202.513
G1 X201.060 Y202.885
G1 X202.988 Y203.196
G1 X204.951 Y203.511
; Path 135
G0 Z0
G0 X199.986 Y201.497
G0 Z2.2
G1 F3000
G1 X200.027 Y199.544
G1 X200.051 Y197.561
G1 X200.037 Y195.559
G1 X200.104 Y193.608
G1 X200.122 Y191.641
G1 X200.104 Y189.660
G1 X200.136 Y187.654
G1 X200.174 Y185.714
G1 X200.206 Y183.687
G1 X200.243 Y181.737
G1 X200.258 Y179.771
G1 X200.269 Y177.791
G1 X200.297 Y175.824
G1 X200.334 Y173.817
G1 X200.360 Y171.859
G1 X200.392 Y169.885
G1 X200.412 Y167.918
G1 X200.428 Y165.956
G1 X200.475 Y163.979
G1 X200.489 Y162.003
G1 X200.517 Y160.015
G1 X200.505 Y158.017
G1 X200.571 Y156.069
G1 X200.552 Y154.064
G1 X200.594 Y152.106
G1 X200.613 Y150.154
G1 X200.669 Y148.174
G1 X200.692 Y146.181
G1 X200.727 Y144.188
G1 X200.712 Y142.245
G1 X200.764 Y140.217
G1 X200.791 Y138.260
G1 X200.824 Y136.322
G1 X200.831 Y134.334
G1 X200.860 Y132.352
G1 X200.859 Y130.351
G1 X200.905 Y128.375
G1 X200.945 Y126.432
G1 X200.935 Y124.434
G1 X200.962 Y122.476
G1 X200.995 Y120.488
; Path 136
G0 Z0
G0 X202.477 Y113.489
G0 Z2.2
G1 F3000
G1 X201.977 Y113.989
G1 X201.477 Y113.489
G1 X201.977 Y112.989
G1 X202.477 Y113.489
; Path 137
G0 Z0
G0 X205.017 Y111.816
G0 Z2.2
G1 F3000
G1 X206.858 Y110.991
; Path 138
G0 Z0
G0 X211.988 Y115.477
G0 Z2.2
G1 F3000
G1 X211.482 Y116.442
G1 X211.025 Y117.445
G1 X210.508 Y118.395
G1 X209.965 Y119.356
G1 X209.429 Y120.281
G1 X208.849 Y121.235
G1 X208.258 Y122.152
G1 X207.719 Y123.107
G1 X207.196 Y124.046
G1 X206.616 Y124.994
G1 X206.090 Y125.937
G1 X205.584 Y126.922
G1 X205.125 Y127.946
G1 X204.663 Y128.913
G1 X204.284 Y129.928
G1 X203.896 Y130.991
G1 X203.638 Y132.087
G1 X203.324 Y133.181
G1 X203.141 Y134.335
G1 X202.990 Y135.506
G1 X202.939 Y136.757
G1 X202.921 Y137.982
G1 X203.024 Y139.296
G1 X203.089 Y140.594
G1 X203.255 Y141.951
G1 X203.452 Y143.317
G1 X203.689 Y144.711
G1 X203.969 Y146.128
G1 X204.275 Y147.586
G1 X204.598 Y149.002
G1 X204.956 Y150.430
G1 X205.297 Y151.916
G1 X205.681 Y153.401
G1 X206.023 Y154.846
G1 X206.406 Y156.311
G1 X206.736 Y157.768
G1 X207.056 Y159.211
G1 X207.392 Y160.658
G1 X207.684 Y162.094
G1 X207.951 Y163.492
; Path 139
G0 Z0
G0 X209.954 Y163.482
G0 Z2.2
G1 F3000
G1 X209.990 Y165.114
G1 X209.996 Y166.826
G1 X209.994 Y168.466
; Path 140
G0 Z0
G0 X207.977 Y170.500
G0 Z2.2
G1 F3000
G1 X209.928 Y170.227
G1 X211.948 Y169.953
G1 X213.914 Y169.723
G1 X215.878 Y169.416
G1 X217.826 Y169.166
G1 X219.809 Y168.903
G1 X221.795 Y168.635
G1 X223.738 Y168.374
G1 X225.729 Y168.119
G1 X227.658 Y167.873
G1 X229.664 Y167.577
G1 X231.632 Y167.296
G1 X233.626 Y167.042
G1 X235.547 Y166.761
G1 X237.562 Y166.502
G1 X239.483 Y166.241
G1 X241.475 Y165.978
G1 X243.433 Y165.741
G1 X245.427 Y165.470
G1 X247.421 Y165.189
G1 X249.353 Y164.912
G1 X251.340 Y164.689
G1 X253.333 Y164.378
G1 X255.291 Y164.141
G1 X257.231 Y163.877
G1 X259.187 Y163.628
G1 X261.207 Y163.328
G1 X263.165 Y163.102
G1 X265.116 Y162.817
G1 X267.069 Y162.547
G1 X269.083 Y162.271
G1 X271.054 Y162.003
G1 X272.982 Y161.729
G1 X274.982 Y161.481
; Path 141
G0 Z0
G0 X269.947 Y153.465
G0 Z2.2
G1 F3000
G1 X268.256 Y152.450
G1 X266.543 Y151.468
G1 X264.824 Y150.475
G1 X263.152 Y149.479
G1 X261.425 Y148.455
G1 X259.739 Y147.500
G1 X258.032 Y146.447
G1 X256.330 Y145.499
G1 X254.621 Y144.474
G1 X252.973 Y143.501
G1 X251.219 Y142.470
G1 X249.565 Y141.492
G1 X247.847 Y140.496
G1 X246.163 Y139.481
G1 X244.462 Y138.456
G1 X242.729 Y137.486
G1 X241.065 Y136.488
G1 X239.373 Y135.516
G1 X237.641 Y134.480
G1 X235.970 Y133.468
G1 X234.255 Y132.481
G1 X232.526 Y131.477
G1 X230.857 Y130.475
G1 X229.165 Y129.466
G1 X227.458 Y128.489
G1 X225.744 Y127.467
G1 X224.022 Y126.472
G1 X222.358 Y125.498
G1 X220.658 Y124.502
G1 X218.946 Y123.516
G1 X217.271 Y122.514
G1 X215.537 Y121.498
G1 X213.852 Y120.518
G1 X212.140 Y119.528
G1 X210.455 Y118.532
G1 X208.744 Y117.503
G1 X207.023 Y116.525
G1 X205.343 Y115.484
G1 X203.638 Y114.510
G1 X201.948 Y113.514
; Path 142
G0 Z0
G0 X201.952 Y113.507
G0 Z2.2
G1 F3000
G1 X200.089 Y114.167
G1 X198.244 Y114.897
G1 X196.350 Y115.563
G1 X194.471 Y116.243
G1 X192.623 Y116.941
G1 X190.757 Y117.604
G1 X188.915 Y118.281
G1 X187.071 Y118.976
G1 X185.165 Y119.654
G1 X183.309 Y120.323
G1 X181.464 Y121.013
G1 X179.624 Y121.707
G1 X177.745 Y122.346
G1 X175.884 Y123.071
G1 X174.011 Y123.741
G1 X172.131 Y124.429
G1 X170.256 Y125.097
G1 X168.428 Y125.796
G1 X166.580 Y126.426
G1 X164.712 Y127.142
G1 X162.845 Y127.800
G1 X160.946 Y128.466
G1 X159.081 Y129.162
G1 X157.247 Y129.857
G1 X155.358 Y130.523
G1 X153.546 Y131.242
G1 X151.639 Y131.870
G1 X149.805 Y132.569
G1 X147.944 Y133.278
G1 X146.055 Y133.932
G1 X144.191 Y134.619
G1 X142.327 Y135.321
G1 X140.461 Y135.958
G1 X138.640 Y136.695
G1 X136.734 Y137.357
G1 X134.886 Y138.022
G1 X133.033 Y138.711
G1 X131.139 Y139.385
G1 X129.296 Y140.068
G1 X127.431 Y140.755
G1 X125.596 Y141.430
G1 X123.705 Y142.106
G1 X121.826 Y142.772
G1 X119.990 Y143.478
; Path 143
G0 Z0
G0 X119.977 Y133.489
G0 Z2.2
G1 F3000
G1 X319.977 Y133.489
; Path 144
G0 Z0
G0 X304.987 Y168.493
G0 Z2.2
G1 F3000
G1 X304.659 Y168.656
G1 X304.363 Y168.775
G1 X304.027 Y168.914
G1 X303.703 Y169.029
G1 X303.335 Y169.130
G1 X303.024 Y169.267
G1 X302.687 Y169.363
G1 X302.339 Y169.500
G1 X301.980 Y169.638
G1 X301.665 Y169.742
G1 X301.338 Y169.881
G1 X301.015 Y170.004
G1 X300.698 Y170.166
G1 X300.406 Y170.298
G1 X300.146 Y170.492
G1 X299.853 Y170.635
G1 X299.599 Y170.844
G1 X299.370 Y171.028
G1 X299.187 Y171.244
G1 X298.973 Y171.490
G1 X298.795 Y171.775
G1 X298.672 Y172.026
G1 X298.567 Y172.341
G1 X298.457 Y172.631
G1 X298.369 Y172.935
G1 X298.312 Y173.291
G1 X298.287 Y173.636
G1 X298.223 Y173.996
G1 X298.178 Y174.359
G1 X298.174 Y174.732
G1 X298.144 Y175.119
G1 X298.151 Y175.488
G1 X298.170 Y175.844
G1 X298.137 Y176.252
G1 X298.114 Y176.607
G1 X298.119 Y177.012
G1 X298.105 Y177.402
G1 X298.080 Y177.756
G1 X298.055 Y178.123
G1 X298.006 Y178.472
; Path 145
G0 Z0
G0 X304.958 Y178.517
G0 Z2.2
G1 F3000
G1 X304.947 Y180.509
G1 X304.990 Y182.514
G1 X304.955 Y184.492
G1 X304.998 Y186.495
G1 X304.999 Y188.511
; Path 146
G0 Z0
G0 X312.978 Y178.494
G0 Z2.2
G1 F3000
G1 X312.930 Y178.141
G1 X312.906 Y177.775
G1 X312.862 Y177.418
G1 X312.878 Y177.029
G1 X312.859 Y176.627
G1 X312.873 Y176.267
G1 X312.882 Y175.887
G1 X312.874 Y175.500
G1 X312.891 Y175.102
G1 X312.864 Y174.742
G1 X312.869 Y174.383
G1 X312.823 Y174.003
G1 X312.795 Y173.673
G1 X312.734 Y173.297
G1 X312.655 Y172.984
G1 X312.578 Y172.635
G1 X312.433 Y172.339
G1 X312.337 Y172.029
G1 X312.173 Y171.736
G1 X311.993 Y171.491
G1 X311.736 Y171.232
G1 X311.535 Y171.030
G1 X311.263 Y170.846
G1 X310.973 Y170.637
G1 X310.639 Y170.439
G1 X310.327 Y170.301
G1 X309.976 Y170.159
G1 X309.614 Y170.008
G1 X309.231 Y169.889
G1 X308.852 Y169.748
G1 X308.476 Y169.623
G1 X308.060 Y169.507
G1 X307.672 Y169.383
G1 X307.257 Y169.275
G1 X306.849 Y169.178
G1 X306.459 Y169.039
G1 X306.053 Y168.885
G1 X305.685 Y168.786
G1 X305.325 Y168.655
G1 X304.954 Y168.506
; Path 147
G0 Z0
G0 X289.967 Y168.493
G0 Z2.2
G1 F3000
G1 X289.817 Y166.523
G1 X289.740 Y164.587
G1 X289.593 Y162.617
G1 X289.498 Y160.694
G1 X289.369 Y158.758
G1 X289.218 Y156.801
G1 X289.125 Y154.858
G1 X288.991 Y152.900
G1 X288.845 Y150.929
G1 X288.734 Y148.960
G1 X288.600 Y147.004
G1 X288.518 Y145.042
G1 X288.409 Y143.102
G1 X288.275 Y141.163
G1 X288.162 Y139.226
G1 X288.043 Y137.264
G1 X287.917 Y135.290
G1 X287.749 Y133.335
G1 X287.660 Y131.407
G1 X287.547 Y129.469
G1 X287.400 Y127.478
G1 X287.268 Y125.529
G1 X287.159 Y123.624
G1 X287.029 Y121.664
G1 X286.894 Y119.695
G1 X286.815 Y117.745
G1 X286.677 Y115.811
G1 X286.563 Y113.837
G1 X286.401 Y111.896
G1 X286.325 Y109.920
G1 X286.188 Y107.990
G1 X286.051 Y106.017
G1 X285.924 Y104.081
G1 X285.794 Y102.157
G1 X285.685 Y100.201
G1 X285.600 Y98.227
G1 X285.422 Y96.275
G1 X285.351 Y94.322
G1 X285.180 Y92.352
G1 X285.092 Y90.444
G1 X284.963 Y88.471
; Path 148
G0 Z0
G0 X284.948 Y88.463
G0 Z2.2
G1 F3000
G1 X284.161 Y87.070
G1 X283.330 Y85.644
G1 X282.554 Y84.281
G1 X281.743 Y82.870
G1 X280.949 Y81.466
; Path 149
G0 Z0
G0 X280.969 Y81.473
G0 Z2.2
G1 F3000
G1 X279.147 Y81.452
G1 X277.329 Y81.454
G1 X275.489 Y81.486
G1 X273.658 Y81.490
G1 X271.802 Y81.487
G1 X269.988 Y81.494
; Path 150
G0 Z0
G0 X269.991 Y81.467
G0 Z2.2
G1 F3000
G1 X269.180 Y82.867
G1 X268.407 Y84.278
G1 X267.614 Y85.711
G1 X266.773 Y87.122
G1 X265.988 Y88.512
; Path 151
G0 Z0
G0 X265.980 Y88.474
G0 Z2.2
G1 F3000
G1 X266.034 Y90.451
G1 X266.099 Y92.351
G1 X266.132 Y94.348
G1 X266.163 Y96.256
G1 X266.219 Y98.218
G1 X266.276 Y100.208
G1 X266.323 Y102.105
G1 X266.365 Y104.081
G1 X266.408 Y106.049
G1 X266.433 Y108.009
G1 X266.517 Y109.947
G1 X266.540 Y111.879
G1 X266.594 Y113.840
G1 X266.663 Y115.819
G1 X266.691 Y117.734
G1 X266.771 Y119.681
G1 X266.797 Y121.617
G1 X266.873 Y123.616
G1 X266.883 Y125.523
G1 X266.917 Y127.522
G1 X267.005 Y129.444
G1 X267.049 Y131.425
G1 X267.097 Y133.355
G1 X267.165 Y135.293
G1 X267.166 Y137.279
G1 X267.208 Y139.187
G1 X267.250 Y141.183
G1 X267.337 Y143.108
G1 X267.406 Y145.088
G1 X267.429 Y147.010
G1 X267.474 Y148.965
G1 X267.523 Y150.916
G1 X267.583 Y152.896
G1 X267.606 Y154.843
G1 X267.653 Y156.748
G1 X267.734 Y158.694
G1 X267.753 Y160.656
G1 X267.799 Y162.610
G1 X267.832 Y164.585
G1 X267.919 Y166.520
G1 X267.954 Y168.477
; Path 152
G0 Z0
G0 X269.965 Y173.482
G0 Z2.2
G1 F3000
G1 X268.514 Y172.179
G1 X267.036 Y170.897
G1 X265.517 Y169.571
G1 X264.056 Y168.270
G1 X262.576 Y166.979
G1 X261.107 Y165.664
G1 X259.628 Y164.339
G1 X258.129 Y163.067
G1 X256.659 Y161.734
G1 X255.181 Y160.416
G1 X253.727 Y159.117
G1 X252.255 Y157.859
G1 X250.774 Y156.548
G1 X249.301 Y155.229
G1 X247.827 Y153.939
G1 X246.334 Y152.617
G1 X244.824 Y151.343
G1 X243.393 Y150.026
G1 X241.879 Y148.719
G1 X240.388 Y147.382
G1 X238.952 Y146.121
G1 X237.461 Y144.795
G1 X235.952 Y143.485
G1 X234.469 Y142.212
G1 X233.013 Y140.904
G1 X231.519 Y139.558
G1 X230.084 Y138.254
G1 X228.608 Y136.981
G1 X227.087 Y135.690
G1 X225.621 Y134.372
G1 X224.164 Y133.086
G1 X222.676 Y131.779
G1 X221.171 Y130.448
G1 X219.721 Y129.129
G1 X218.217 Y127.844
G1 X216.762 Y126.516
G1 X215.288 Y125.268
G1 X213.836 Y123.916
G1 X212.304 Y122.643
G1 X210.875 Y121.326
G1 X209.375 Y120.056
G1 X207.893 Y118.702
G1 X206.399 Y117.427
G1 X204.960 Y116.130
G1 X203.462 Y114.836
G1 X201.986 Y113.507
; Path 153
G0 Z0
G0 X202.000 Y113.506
G0 Z2.2
G1 F3000
G1 X200.285 Y114.444
G1 X198.524 Y115.407
G1 X196.771 Y116.367
G1 X195.036 Y117.306
G1 X193.301 Y118.286
G1 X191.513 Y119.222
G1 X189.784 Y120.206
G1 X188.055 Y121.140
G1 X186.299 Y122.108
G1 X184.575 Y123.065
G1 X182.820 Y124.044
G1 X181.043 Y124.999
G1 X179.346 Y125.962
G1 X177.564 Y126.924
G1 X175.812 Y127.852
G1 X174.116 Y128.848
G1 X172.354 Y129.778
G1 X170.593 Y130.755
G1 X168.850 Y131.710
G1 X167.094 Y132.643
G1 X165.384 Y133.595
G1 X163.612 Y134.557
G1 X161.872 Y135.542
G1 X160.106 Y136.467
G1 X158.384 Y137.425
G1 X156.668 Y138.416
G1 X154.917 Y139.382
G1 X153.158 Y140.321
G1 X151.437 Y141.240
G1 X149.688 Y142.236
G1 X147.923 Y143.156
G1 X146.165 Y144.115
G1 X144.451 Y145.073
G1 X142.689 Y146.052
G1 X140.953 Y147.039
G1 X139.174 Y147.969
G1 X137.454 Y148.909
G1 X135.687 Y149.874
G1 X133.970 Y150.832
G1 X132.208 Y151.811
G1 X130.494 Y152.737
G1 X128.730 Y153.717
G1 X126.993 Y154.694
G1 X125.233 Y155.599
G1 X123.495 Y156.566
G1 X121.761 Y157.539
G1 X120.005 Y158.501
; Path 154
G0 Z0
G0 X127.968 Y173.460
G0 Z2.2
G1 F3000
G1 X127.953 Y175.354
G1 X127.959 Y177.237
G1 X127.948 Y179.117
G1 X127.964 Y180.960
G1 X127.961 Y182.825
G1 X127.997 Y184.734
G1 X127.960 Y186.607
G1 X127.973 Y188.467
; Path 155
G0 Z0
G0 X119.994 Y188.518
G0 Z2.2
G1 F3000
G1 X122.005 Y188.542
G1 X123.988 Y188.510
G1 X126.020 Y188.536
G1 X128.017 Y188.489
G1 X129.999 Y188.515
G1 X131.969 Y188.492
G1 X133.972 Y188.543
G1 X136.010 Y188.526
G1 X138.009 Y188.496
G1 X140.010 Y188.525
G1 X141.960 Y188.532
G1 X143.983 Y188.531
G1 X145.965 Y188.527
G1 X147.967 Y188.533
G1 X149.970 Y188.505
G1 X151.997 Y188.492
G1 X153.988 Y188.494
G1 X155.961 Y188.501
G1 X158.013 Y188.540
G1 X160.003 Y188.499
G1 X161.988 Y188.494
G1 X164.007 Y188.532
G1 X165.965 Y188.504
G1 X167.988 Y188.501
G1 X170.008 Y188.517
G1 X171.998 Y188.543
G1 X173.966 Y188.540
G1 X175.965 Y188.543
G1 X177.974 Y188.521
G1 X180.005 Y188.510
G1 X181.977 Y188.496
G1 X183.968 Y188.504
G1 X185.995 Y188.522
G1 X187.982 Y188.500
G1 X189.988 Y188.528
G1 X191.968 Y188.542
G1 X193.993 Y188.531
G1 X196.007 Y188.520
G1 X197.953 Y188.487
G1 X199.992 Y188.498
G1 X201.949 Y188.507
G1 X203.989 Y188.527
G1 X205.955 Y188.539
G1 X207.979 Y188.534
G1 X209.988 Y188.528
G1 X211.997 Y188.518
G1 X213.963 Y188.517
G1 X215.946 Y188.505
G1 X217.998 Y188.510
G1 X219.964 Y188.531
G1 X221.995 Y188.532
G1 X223.960 Y188.513
G1 X225.973 Y188.542
G1 X227.957 Y188.536
G1 X229.983 Y188.509
G1 X231.971 Y188.516
G1 X233.962 Y188.510
G1 X235.950 Y188.536
G1 X237.944 Y188.540
G1 X239.950 Y188.542
G1 X241.993 Y188.513
G1 X243.992 Y188.545
G1 X245.975 Y188.488
G1 X247.951 Y188.515
G1 X249.976 Y188.538
G1 X251.966 Y188.533
G1 X253.951 Y188.529
G1 X255.956 Y188.510
G1 X257.969 Y188.513
G1 X259.975 Y188.504
G1 X261.949 Y188.514
G1 X263.976 Y188.523
G1 X265.940 Y188.487
G1 X267.982 Y188.537
G1 X269.951 Y188.544
G1 X271.964 Y188.537
G1 X273.953 Y188.517
G1 X275.947 Y188.487
G1 X277.953 Y188.500
G1 X279.975 Y188.538
G1 X281.988 Y188.530
G1 X283.967 Y188.515
G1 X285.950 Y188.512
G1 X287.966 Y188.536
G1 X289.969 Y188.493
G1 X291.950 Y188.501
G1 X293.974 Y188.524
G1 X295.954 Y188.521
G1 X297.962 Y188.531
G1 X299.986 Y188.507
G1 X301.927 Y188.506
G1 X303.936 Y188.494
G1 X305.928 Y188.494
G1 X307.961 Y188.484
G1 X309.960 Y188.508
G1 X311.952 Y188.507
G1 X313.966 Y188.521
G1 X315.975 Y188.540
G1 X317.962 Y188.499
G1 X319.952 Y188.512
; Path 156
G0 Z0
G0 X319.994 Y193.469
G0 Z2.2
G1 F3000
G1 X317.965 Y193.444
G1 X316.003 Y193.456
G1 X314.021 Y193.473
G1 X312.007 Y193.489
G1 X310.002 Y193.460
G1 X307.998 Y193.466
G1 X306.022 Y193.492
G1 X303.976 Y193.444
G1 X301.977 Y193.444
G1 X299.966 Y193.442
G1 X297.981 Y193.479
G1 X295.993 Y193.476
G1 X293.991 Y193.459
G1 X292.023 Y193.493
G1 X289.989 Y193.442
G1 X287.985 Y193.446
G1 X286.016 Y193.484
G1 X283.987 Y193.448
G1 X282.004 Y193.477
G1 X279.990 Y193.496
G1 X278.013 Y193.476
G1 X276.025 Y193.483
G1 X274.018 Y193.480
G1 X272.002 Y193.443
G1 X269.973 Y193.457
G1 X267.968 Y193.453
G1 X265.986 Y193.485
G1 X264.017 Y193.485
G1 X261.991 Y193.458
G1 X260.019 Y193.477
G1 X257.992 Y193.489
G1 X256.014 Y193.470
G1 X253.988 Y193.441
G1 X252.025 Y193.470
G1 X249.989 Y193.464
G1 X248.002 Y193.491
G1 X245.993 Y193.453
G1 X244.015 Y193.460
G1 X241.969 Y193.459
G1 X240.013 Y193.454
G1 X238.023 Y193.441
G1 X236.026 Y193.476
G1 X234.020 Y193.481
G1 X231.986 Y193.498
G1 X230.012 Y193.458
G1 X228.023 Y193.478
G1 X225.970 Y193.466
G1 X223.994 Y193.488
G1 X221.998 Y193.475
G1 X219.980 Y193.490
G1 X218.015 Y193.454
G1 X215.973 Y193.455
G1 X214.029 Y193.452
G1 X211.974 Y193.466
G1 X210.004 Y193.480
G1 X207.977 Y193.474
G1 X206.008 Y193.467
G1 X203.972 Y193.459
G1 X202.028 Y193.454
G1 X199.996 Y193.445
G1 X198.025 Y193.493
G1 X195.985 Y193.443
G1 X193.991 Y193.450
G1 X191.990 Y193.444
G1 X189.993 Y193.482
G1 X187.971 Y193.469
G1 X186.005 Y193.482
G1 X183.998 Y193.489
G1 X181.995 Y193.444
G1 X180.008 Y193.474
G1 X178.027 Y193.449
G1 X176.003 Y193.454
G1 X174.001 Y193.466
G1 X171.991 Y193.453
G1 X170.028 Y193.487
G1 X167.991 Y193.472
G1 X165.998 Y193.493
G1 X163.979 Y193.490
G1 X162.028 Y193.488
G1 X159.986 Y193.450
G1 X157.977 Y193.495
G1 X156.027 Y193.471
G1 X153.988 Y193.502
G1 X152.027 Y193.494
G1 X150.027 Y193.477
G1 X147.991 Y193.493
G1 X145.995 Y193.469
G1 X144.008 Y193.456
G1 X142.017 Y193.469
G1 X139.988 Y193.457
G1 X138.008 Y193.490
G1 X136.032 Y193.452
G1 X134.017 Y193.455
G1 X131.982 Y193.476
G1 X129.983 Y193.457
G1 X128.016 Y193.499
G1 X125.988 Y193.492
G1 X124.001 Y193.454
G1 X122.018 Y193.466
G1 X120.003 Y193.474
; Path 157
G0 Z0
G0 X124.912 Y203.421
G0 Z2.2
G1 F3000
G1 X125.792 Y203.567
G1 X126.625 Y203.778
G1 X127.426 Y203.867
G1 X128.197 Y203.980
G1 X129.054 Y204.168
G1 X129.940 Y204.395
G1 X130.699 Y204.543
G1 X131.595 Y204.759
G1 X132.455 Y204.954
G1 X133.255 Y205.198
G1 X134.102 Y205.238
G1 X134.969 Y205.497
G1 X135.793 Y205.587
G1 X136.673 Y205.826
G1 X137.483 Y205.976
G1 X138.359 Y206.099
G1 X139.158 Y206.222
G1 X139.996 Y206.343
G1 X140.873 Y206.387
G1 X141.657 Y206.469
G1 X142.507 Y206.549
G1 X143.362 Y206.473
G1 X144.204 Y206.517
G1 X145.017 Y206.546
G1 X145.887 Y206.525
G1 X146.769 Y206.307
G1 X147.524 Y206.303
G1 X148.328 Y206.155
G1 X149.188 Y205.979
G1 X150.030 Y205.850
G1 X150.789 Y205.592
G1 X151.677 Y205.436
G1 X152.535 Y205.238
G1 X153.348 Y204.991
G1 X154.182 Y204.678
G1 X155.038 Y204.513
G1 X155.803 Y204.293
G1 X156.686 Y203.967
G1 X157.541 Y203.723
G1 X158.446 Y203.483
G1 X159.188 Y203.264
G1 X160.043 Y202.918
G1 X160.843 Y202.685
G1 X161.788 Y202.436
G1 X162.546 Y202.144
G1 X163.358 Y201.989
G1 X164.246 Y201.662
G1 X165.050 Y201.451
; Path 158
G0 Z0
G0 X160.020 Y213.532
G0 Z2.2
G1 F3000
G1 X160.791 Y213.698
G1 X161.642 Y213.746
G1 X162.313 Y213.833
G1 X163.136 Y213.959
G1 X163.930 Y214.079
G1 X164.750 Y214.189
G1 X165.459 Y214.421
G1 X166.250 Y214.472
G1 X166.954 Y214.589
G1 X167.874 Y214.738
G1 X168.551 Y214.867
G1 X169.363 Y215.020
G1 X170.193 Y215.147
G1 X170.873 Y215.318
G1 X171.771 Y215.353
G1 X172.477 Y215.551
G1 X173.325 Y215.633
G1 X174.074 Y215.824
G1 X174.734 Y215.907
G1 X175.592 Y216.013
G1 X176.420 Y216.153
G1 X177.095 Y216.143
G1 X177.994 Y216.209
G1 X178.709 Y216.352
G1 X179.495 Y216.417
G1 X180.331 Y216.427
G1 X181.112 Y216.481
G1 X181.827 Y216.518
G1 X182.531 Y216.579
G1 X183.317 Y216.543
G1 X184.155 Y216.465
G1 X184.950 Y216.457
G1 X185.657 Y216.324
G1 X186.460 Y216.308
G1 X187.216 Y216.293
G1 X188.075 Y216.135
G1 X188.810 Y215.930
G1 X189.574 Y215.888
G1 X190.454 Y215.680
G1 X191.204 Y215.587
G1 X191.949 Y215.341
G1 X192.798 Y215.166
G1 X193.583 Y215.108
G1 X194.335 Y214.865
G1 X195.134 Y214.589
G1 X195.894 Y214.434
G1 X196.759 Y214.272
G1 X197.468 Y214.021
G1 X198.207 Y213.804
G1 X199.101 Y213.532
G1 X199.842 Y213.333
G1 X200.602 Y213.107
G1 X201.452 Y212.804
G1 X202.116 Y212.582
G1 X202.945 Y212.449
G1 X203.737 Y212.176
G1 X204.541 Y211.879
G1 X205.333 Y211.729
G1 X206.099 Y211.496
G1 X206.870 Y211.280
G1 X207.644 Y211.149
G1 X208.465 Y210.800
G1 X209.186 Y210.605
G1 X210.003 Y210.471
; Path 159
G0 Z0
G0 X205.050 Y223.419
G0 Z2.2
G1 F3000
G1 X205.956 Y223.605
G1 X206.788 Y223.596
G1 X207.519 Y223.807
G1 X208.410 Y223.856
G1 X209.286 Y224.053
G1 X210.095 Y224.038
G1 X210.870 Y224.269
G1 X211.760 Y224.380
G1 X212.621 Y224.534
G1 X213.501 Y224.643
G1 X214.285 Y224.845
G1 X215.105 Y224.938
G1 X215.986 Y224.995
G1 X216.731 Y225.143
G1 X217.555 Y225.405
G1 X218.453 Y225.479
G1 X219.288 Y225.652
G1 X220.143 Y225.659
G1 X221.007 Y225.760
G1 X221.809 Y225.951
G1 X222.578 Y226.008
G1 X223.537 Y226.118
G1 X224.291 Y226.207
G1 X225.180 Y226.301
G1 X225.989 Y226.336
G1 X226.942 Y226.331
G1 X227.695 Y226.417
G1 X228.571 Y226.478
G1 X229.470 Y226.435
G1 X230.290 Y226.415
G1 X231.079 Y226.448
G1 X231.990 Y226.429
G1 X232.830 Y226.277
G1 X233.787 Y226.206
G1 X234.554 Y226.271
G1 X235.440 Y226.121
G1 X236.322 Y225.933
G1 X237.107 Y225.915
G1 X238.000 Y225.800
G1 X238.917 Y225.586
G1 X239.729 Y225.462
G1 X240.707 Y225.300
G1 X241.588 Y225.092
G1 X242.415 Y224.879
G1 X243.344 Y224.749
G1 X244.158 Y224.495
G1 X244.991 Y224.224
G1 X245.928 Y224.050
G1 X246.806 Y223.891
G1 X247.693 Y223.568
G1 X248.493 Y223.351
G1 X249.449 Y223.151
G1 X250.357 Y222.960
G1 X251.267 Y222.675
G1 X252.058 Y222.482
G1 X252.972 Y222.235
G1 X253.883 Y221.974
G1 X254.808 Y221.756
G1 X255.637 Y221.554
G1 X256.491 Y221.354
G1 X257.389 Y221.148
G1 X258.269 Y220.967
G1 X259.115 Y220.777
G1 X260.000 Y220.560
; Path 160
G0 Z0
G0 X249.901 Y231.558
G0 Z2.2
G1 F3000
G1 X248.988 Y231.703
G1 X247.955 Y231.863
G1 X247.034 Y232.134
G1 X246.166 Y232.220
G1 X245.205 Y232.459
G1 X244.266 Y232.666
G1 X243.308 Y232.769
G1 X242.432 Y232.958
G1 X241.459 Y233.174
G1 X240.563 Y233.286
G1 X239.707 Y233.596
G1 X238.698 Y233.726
G1 X237.812 Y233.899
G1 X236.887 Y234.141
G1 X235.871 Y234.341
G1 X234.965 Y234.478
G1 X234.106 Y234.712
G1 X233.126 Y234.863
G1 X232.189 Y235.068
G1 X231.230 Y235.171
G1 X230.263 Y235.340
G1 X229.351 Y235.482
G1 X228.425 Y235.607
G1 X227.493 Y235.757
G1 X226.592 Y235.793
G1 X225.558 Y235.913
G1 X224.759 Y236.121
G1 X223.754 Y236.191
G1 X222.831 Y236.192
G1 X221.829 Y236.328
G1 X221.012 Y236.347
G1 X220.011 Y236.429
G1 X219.081 Y236.394
G1 X218.155 Y236.479
G1 X217.231 Y236.400
G1 X216.263 Y236.439
G1 X215.318 Y236.418
G1 X214.310 Y236.273
G1 X213.437 Y236.294
G1 X212.512 Y236.252
G1 X211.573 Y236.186
G1 X210.607 Y236.081
G1 X209.765 Y235.976
G1 X208.759 Y235.913
G1 X207.802 Y235.753
G1 X206.882 Y235.618
G1 X205.954 Y235.600
G1 X205.003 Y235.469
G1 X204.117 Y235.278
G1 X203.171 Y235.144
G1 X202.120 Y235.043
G1 X201.246 Y234.963
G1 X200.257 Y234.845
G1 X199.354 Y234.668
G1 X198.474 Y234.508
G1 X197.489 Y234.443
G1 X196.546 Y234.358
G1 X195.619 Y234.227
G1 X194.684 Y234.030
G1 X193.733 Y233.953
G1 X192.797 Y233.912
G1 X191.923 Y233.738
G1 X190.993 Y233.718
G1 X189.977 Y233.538
; Path 161
G0 Z0
G0 X170.041 Y216.503
G0 Z2.2
G1 F3000
G1 X169.299 Y216.606
G1 X168.541 Y216.784
G1 X167.613 Y217.041
G1 X166.899 Y217.182
G1 X166.180 Y217.445
G1 X165.343 Y217.540
G1 X164.471 Y217.807
G1 X163.755 Y217.940
G1 X163.019 Y218.201
G1 X162.258 Y218.288
G1 X161.411 Y218.567
G1 X160.611 Y218.729
G1 X159.789 Y218.948
G1 X158.960 Y219.170
G1 X158.298 Y219.282
G1 X157.466 Y219.503
G1 X156.652 Y219.662
G1 X155.953 Y219.888
G1 X155.098 Y219.961
G1 X154.324 Y220.213
G1 X153.470 Y220.292
G1 X152.811 Y220.497
G1 X151.892 Y220.727
G1 X151.184 Y220.814
G1 X150.399 Y220.895
G1 X149.640 Y221.063
G1 X148.800 Y221.166
G1 X148.048 Y221.257
G1 X147.288 Y221.387
G1 X146.461 Y221.343
G1 X145.681 Y221.441
G1 X144.916 Y221.495
G1 X144.116 Y221.494
G1 X143.332 Y221.457
G1 X142.546 Y221.447
G1 X141.790 Y221.497
G1 X140.958 Y221.523
G1 X140.216 Y221.474
G1 X139.429 Y221.404
G1 X138.670 Y221.295
G1 X137.816 Y221.233
G1 X137.118 Y221.054
G1 X136.318 Y220.969
G1 X135.553 Y220.935
G1 X134.832 Y220.877
G1 X133.979 Y220.744
G1 X133.155 Y220.518
G1 X132.438 Y220.465
G1 X131.733 Y220.345
G1 X130.839 Y220.164
G1 X130.108 Y220.120
G1 X129.326 Y219.932
G1 X128.589 Y219.758
G1 X127.739 Y219.732
G1 X126.987 Y219.487
G1 X126.213 Y219.383
G1 X125.409 Y219.181
G1 X124.709 Y219.136
G1 X123.924 Y219.029
G1 X123.100 Y218.866
G1 X122.350 Y218.773
G1 X121.481 Y218.690
G1 X120.759 Y218.465
G1 X119.985 Y218.427
; Path 162
G0 Z0
G0 X119.996 Y243.490
G0 Z2.2
G1 F3000
G1 X121.992 Y243.507
G1 X124.001 Y243.502
G1 X126.017 Y243.479
G1 X128.004 Y243.514
G1 X130.018 Y243.492
G1 X132.015 Y243.498
G1 X133.981 Y243.464
G1 X136.010 Y243.469
G1 X137.968 Y243.515
G1 X140.017 Y243.485
G1 X141.996 Y243.462
G1 X144.023 Y243.488
G1 X146.020 Y243.469
G1 X147.991 Y243.509
G1 X149.977 Y243.487
G1 X151.978 Y243.517
G1 X154.022 Y243.477
G1 X156.010 Y243.474
G1 X157.968 Y243.483
G1 X159.986 Y243.471
G1 X162.002 Y243.499
G1 X164.006 Y243.479
G1 X166.018 Y243.491
G1 X167.993 Y243.476
G1 X169.964 Y243.501
G1 X171.981 Y243.516
G1 X173.970 Y243.508
G1 X176.005 Y243.522
G1 X177.972 Y243.490
G1 X179.969 Y243.513
G1 X182.018 Y243.481
G1 X184.013 Y243.519
G1 X186.018 Y243.501
G1 X188.018 Y243.495
G1 X189.970 Y243.508
G1 X191.960 Y243.485
G1 X193.986 Y243.485
G1 X195.975 Y243.469
G1 X197.985 Y243.498
G1 X199.962 Y243.523
G1 X201.992 Y243.488
G1 X203.994 Y243.482
G1 X205.964 Y243.476
G1 X208.009 Y243.489
G1 X209.972 Y243.489
G1 X211.976 Y243.488
G1 X213.966 Y243.527
G1 X216.000 Y243.510
G1 X217.971 Y243.499
G1 X219.964 Y243.500
G1 X221.995 Y243.501
G1 X224.000 Y243.513
G1 X225.993 Y243.491
G1 X227.968 Y243.483
G1 X230.001 Y243.509
G1 X231.964 Y243.483
G1 X233.982 Y243.479
G1 X236.011 Y243.485
G1 X237.998 Y243.523
G1 X239.965 Y243.483
G1 X241.963 Y243.477
G1 X243.988 Y243.503
G1 X245.995 Y243.476
G1 X247.991 Y243.471
G1 X249.990 Y243.509
G1 X251.979 Y243.476
G1 X253.992 Y243.525
G1 X255.994 Y243.514
G1 X257.955 Y243.510
G1 X259.990 Y243.493
G1 X261.980 Y243.475
G1 X263.956 Y243.514
G1 X265.997 Y243.524
G1 X267.964 Y243.496
G1 X269.952 Y243.513
G1 X272.001 Y243.474
G1 X273.961 Y243.483
G1 X275.973 Y243.522
G1 X277.971 Y243.484
G1 X279.958 Y243.513
G1 X282.004 Y243.487
G1 X283.982 Y243.529
G1 X285.972 Y243.529
G1 X287.984 Y243.481
G1 X289.950 Y243.528
G1 X291.995 Y243.530
G1 X293.960 Y243.527
G1 X295.950 Y243.494
G1 X297.964 Y243.478
G1 X299.957 Y243.484
G1 X301.948 Y243.512
G1 X303.968 Y243.534
G1 X305.972 Y243.512
G1 X307.961 Y243.517
G1 X309.957 Y243.495
G1 X311.979 Y243.532
G1 X313.960 Y243.495
G1 X315.949 Y243.501
G1 X317.978 Y243.517
G1 X319.973 Y243.506
; Path 163
G0 Z0
G0 X320.042 Y226.540
G0 Z2.2
G1 F3000
G1 X319.231 Y226.714
G1 X318.405 Y227.063
G1 X317.545 Y227.223
G1 X316.752 Y227.471
G1 X315.955 Y227.740
G1 X315.049 Y227.986
G1 X314.231 Y228.320
G1 X313.446 Y228.581
G1 X312.553 Y228.780
G1 X311.673 Y229.001
G1 X310.824 Y229.297
G1 X310.058 Y229.558
G1 X309.278 Y229.788
G1 X308.449 Y230.106
G1 X307.561 Y230.273
G1 X306.700 Y230.452
G1 X305.882 Y230.706
G1 X305.062 Y230.877
G1 X304.214 Y231.069
G1 X303.334 Y231.197
G1 X302.560 Y231.323
G1 X301.776 Y231.415
G1 X300.932 Y231.523
G1 X300.054 Y231.564
G1 X299.232 Y231.531
G1 X298.405 Y231.548
G1 X297.544 Y231.566
G1 X296.696 Y231.549
G1 X295.793 Y231.414
G1 X295.030 Y231.364
G1 X294.182 Y231.266
G1 X293.292 Y231.156
G1 X292.514 Y231.002
G1 X291.616 Y230.844
G1 X290.910 Y230.654
G1 X289.995 Y230.531
G1 X289.148 Y230.406
G1 X288.325 Y230.118
G1 X287.475 Y229.995
G1 X286.689 Y229.852
G1 X285.819 Y229.570
G1 X284.955 Y229.444
G1 X284.095 Y229.262
G1 X283.354 Y229.103
G1 X282.436 Y228.925
G1 X281.623 Y228.725
G1 X280.687 Y228.670
G1 X279.918 Y228.485
; Path 164
G0 Z0
G0 X299.957 Y206.569
G0 Z2.2
G1 F3000
G1 X299.216 Y206.833
G1 X298.461 Y206.904
G1 X297.600 Y207.197
G1 X296.838 Y207.386
G1 X296.118 Y207.552
G1 X295.320 Y207.796
G1 X294.520 Y208.140
G1 X293.720 Y208.301
G1 X292.912 Y208.566
G1 X292.208 Y208.707
G1 X291.411 Y209.001
G1 X290.603 Y209.256
G1 X289.868 Y209.440
G1 X288.974 Y209.686
G1 X288.218 Y210.021
G1 X287.485 Y210.191
G1 X286.720 Y210.351
G1 X285.924 Y210.697
G1 X285.221 Y210.869
G1 X284.367 Y211.047
G1 X283.620 Y211.164
G1 X282.772 Y211.423
G1 X281.972 Y211.593
G1 X281.246 Y211.765
G1 X280.488 Y211.892
G1 X279.666 Y212.063
G1 X278.865 Y212.206
G1 X278.124 Y212.286
G1 X277.337 Y212.387
G1 X276.503 Y212.451
G1 X275.804 Y212.440
G1 X274.998 Y212.550
G1 X274.155 Y212.605
G1 X273.376 Y212.533
G1 X272.632 Y212.517
G1 X271.868 Y212.517
G1 X271.064 Y212.421
G1 X270.322 Y212.372
G1 X269.534 Y212.325
G1 X268.735 Y212.229
G1 X267.976 Y212.074
G1 X267.113 Y211.987
G1 X266.313 Y211.802
G1 X265.600 Y211.742
G1 X264.805 Y211.521
G1 X263.999 Y211.358
G1 X263.293 Y211.261
G1 X262.463 Y211.118
G1 X261.745 Y210.984
G1 X260.846 Y210.839
G1 X260.120 Y210.670
G1 X259.325 Y210.414
G1 X258.528 Y210.208
G1 X257.803 Y210.109
G1 X256.935 Y209.910
G1 X256.186 Y209.691
G1 X255.465 Y209.574
G1 X254.631 Y209.389
G1 X253.784 Y209.188
G1 X253.049 Y209.007
G1 X252.236 Y208.914
G1 X251.511 Y208.651
G1 X250.634 Y208.587
G1 X249.912 Y208.422
G0 Z0
M5
G4 P0.3
G0 X0 Y0
; End