; Generated by Sketch DSL for Machine
; Work area: 420mm x 297mm (A3)
G21
G90
M5
G4 P0.5
G0 F11000
; 721 paths
; Path 1
G0 X126.979 Y79.868
G0 Z2.2
G1 F3000
G1 X128.897 Y80.015
; Path 2
G0 Z0
G0 X131.097 Y82.934
G0 Z2.2
G1 F3000
G1 X132.948 Y83.040
; Path 3
G0 Z0
G0 X145.962 Y83.002
G0 Z2.2
G1 F3000
G1 X147.715 Y83.102
G1 X149.522 Y83.235
G1 X151.302 Y83.332
G1 X153.069 Y83.403
G1 X154.832 Y83.553
G1 X156.600 Y83.660
G1 X158.391 Y83.776
G1 X160.196 Y83.844
G1 X161.956 Y83.961
; Path 4
G0 Z0
G0 X161.972 Y85.023
G0 Z2.2
G1 F3000
G1 X161.819 Y85.961
G1 X161.669 Y86.868
G1 X161.335 Y87.832
G1 X161.214 Y88.788
G1 X160.996 Y89.719
G1 X160.907 Y90.590
G1 X160.630 Y91.620
G1 X160.393 Y92.569
G1 X160.345 Y93.407
G1 X160.157 Y94.389
G1 X159.858 Y95.258
G1 X159.648 Y96.211
G1 X159.538 Y97.227
G1 X159.250 Y98.101
G1 X159.193 Y99.065
G1 X158.952 Y99.997
; Path 5
G0 Z0
G0 X159.051 Y100.053
G0 Z2.2
G1 F3000
G1 X158.563 Y99.104
G1 X158.284 Y98.177
G1 X157.832 Y97.385
G1 X157.345 Y96.353
G1 X157.049 Y95.456
G1 X156.612 Y94.679
G1 X156.126 Y93.714
G1 X155.737 Y92.743
G1 X155.441 Y91.874
G1 X154.965 Y90.974
; Path 6
G0 Z0
G0 X154.984 Y90.990
G0 Z2.2
G1 F3000
G1 X153.233 Y90.453
G1 X151.458 Y89.954
G1 X149.730 Y89.486
G1 X147.964 Y88.951
; Path 7
G0 Z0
G0 X147.980 Y85.995
G0 Z2.2
G1 F3000
G1 X149.742 Y86.491
G1 X151.461 Y87.006
G1 X153.252 Y87.508
G1 X155.000 Y87.996
; Path 8
G0 Z0
G0 X154.962 Y88.998
G0 Z2.2
G1 F3000
G1 X153.797 Y87.676
G1 X152.609 Y86.325
G1 X151.452 Y85.000
G1 X150.332 Y83.640
G1 X149.144 Y82.299
G1 X147.980 Y80.976
; Path 9
G0 Z0
G0 X147.978 Y79.984
G0 Z2.2
G1 F3000
G1 X149.737 Y80.502
G1 X151.464 Y80.958
G1 X153.209 Y81.458
G1 X154.991 Y81.981
; Path 10
G0 Z0
G0 X154.996 Y82.957
G0 Z2.2
G1 F3000
G1 X153.720 Y81.438
G1 X152.454 Y79.996
G1 X151.193 Y78.481
G1 X149.956 Y76.994
; Path 11
G0 Z0
G0 X147.973 Y76.988
G0 Z2.2
G1 F3000
G1 X149.743 Y77.500
G1 X151.444 Y77.967
G1 X153.231 Y78.508
G1 X154.963 Y78.976
; Path 12
G0 Z0
G0 X151.993 Y76.954
G0 Z2.2
G1 F3000
G1 X151.450 Y75.472
G1 X150.954 Y73.996
; Path 13
G0 Z0
G0 X150.978 Y73.960
G0 Z2.2
G1 F3000
G1 X149.493 Y73.980
G1 X147.950 Y74.006
; Path 14
G0 Z0
G0 X148.005 Y73.998
G0 Z2.2
G1 F3000
G1 X147.960 Y75.465
G1 X147.961 Y76.956
; Path 15
G0 Z0
G0 X147.950 Y76.990
G0 Z2.2
G1 F3000
G1 X149.103 Y78.335
G1 X150.323 Y79.644
G1 X151.447 Y80.978
G1 X152.657 Y82.320
G1 X153.794 Y83.607
G1 X154.988 Y84.955
; Path 16
G0 Z0
G0 X157.972 Y83.958
G0 Z2.2
G1 F3000
G1 X157.999 Y85.853
G1 X157.957 Y87.671
G1 X157.996 Y89.558
G1 X157.983 Y91.430
G1 X157.986 Y93.284
G1 X157.962 Y95.185
G1 X157.942 Y97.067
G1 X157.962 Y98.891
G1 X157.972 Y100.761
G1 X157.950 Y102.646
G1 X157.951 Y104.501
G1 X157.960 Y106.398
G1 X157.974 Y108.271
G1 X157.995 Y110.118
G1 X157.968 Y112.004
; Path 17
G0 Z0
G0 X156.982 Y108.985
G0 Z2.2
G1 F3000
G1 X156.949 Y107.476
G1 X156.950 Y105.951
; Path 18
G0 Z0
G0 X155.983 Y106.002
G0 Z2.2
G1 F3000
G1 X156.287 Y107.695
G1 X156.615 Y109.356
G1 X156.947 Y111.007
G1 X157.274 Y112.690
G1 X157.610 Y114.324
G1 X157.953 Y116.006
; Path 19
G0 Z0
G0 X157.908 Y116.980
G0 Z2.2
G1 F3000
G1 X158.934 Y116.890
G1 X159.879 Y116.939
G1 X160.883 Y116.877
G1 X161.875 Y116.910
G1 X162.935 Y116.909
G1 X163.903 Y116.908
; Path 20
G0 Z0
G0 X163.923 Y118.916
G0 Z2.2
G1 F3000
G1 X162.965 Y118.930
G1 X161.916 Y118.857
G1 X160.941 Y118.920
G1 X159.949 Y118.971
G1 X158.929 Y118.937
G1 X158.025 Y118.968
; Path 21
G0 Z0
G0 X157.972 Y116.984
G0 Z2.2
G1 F3000
G1 X158.622 Y117.712
G1 X159.381 Y118.348
G1 X159.920 Y118.987
G1 X160.584 Y119.626
G1 X161.350 Y120.306
G1 X161.983 Y120.946
G1 X162.621 Y121.717
G1 X163.406 Y122.278
G1 X163.997 Y123.009
; Path 22
G0 Z0
G0 X164.045 Y122.965
G0 Z2.2
G1 F3000
G1 X163.206 Y122.984
G1 X162.260 Y122.939
G1 X161.439 Y123.002
G1 X160.539 Y122.944
G1 X159.733 Y122.866
G1 X158.812 Y122.892
G1 X157.953 Y122.916
; Path 23
G0 Z0
G0 X158.934 Y125.033
G0 Z2.2
G1 F3000
G1 X158.867 Y124.190
G1 X158.995 Y123.294
G1 X158.856 Y122.408
G1 X158.977 Y121.390
G1 X158.934 Y120.569
G1 X158.918 Y119.708
G1 X158.929 Y118.658
G1 X158.954 Y117.860
G1 X158.865 Y117.003
G1 X158.935 Y116.028
; Path 24
G0 Z0
G0 X159.929 Y115.913
G0 Z2.2
G1 F3000
G1 X160.527 Y116.570
G1 X161.227 Y117.202
G1 X161.883 Y117.982
G1 X162.655 Y118.667
G1 X163.227 Y119.276
G1 X163.904 Y120.005
; Path 25
G0 Z0
G0 X163.965 Y120.943
G0 Z2.2
G1 F3000
G1 X163.033 Y120.906
G1 X162.301 Y121.003
G1 X161.401 Y120.927
G1 X160.580 Y121.001
G1 X159.636 Y120.976
G1 X158.774 Y120.951
G1 X157.919 Y120.921
; Path 26
G0 Z0
G0 X158.028 Y120.057
G0 Z2.2
G1 F3000
G1 X158.771 Y120.708
G1 X159.597 Y121.202
G1 X160.246 Y121.837
G1 X161.091 Y122.542
G1 X161.861 Y123.075
G1 X162.475 Y123.659
G1 X163.240 Y124.302
G1 X164.038 Y124.925
; Path 27
G0 Z0
G0 X165.987 Y122.983
G0 Z2.2
G1 F3000
G1 X166.960 Y122.938
G1 X167.834 Y122.952
G1 X168.675 Y123.045
G1 X169.638 Y122.977
G1 X170.533 Y122.952
G1 X171.310 Y122.990
G1 X172.298 Y122.895
G1 X173.162 Y122.903
G1 X174.032 Y122.961
; Path 28
G0 Z0
G0 X172.952 Y122.979
G0 Z2.2
G1 F3000
G1 X173.065 Y122.173
G1 X173.208 Y121.252
G1 X173.414 Y120.401
G1 X173.426 Y119.509
G1 X173.615 Y118.746
G1 X173.846 Y117.859
G1 X173.902 Y116.972
; Path 29
G0 Z0
G0 X173.933 Y116.998
G0 Z2.2
G1 F3000
G1 X172.971 Y116.971
G1 X171.885 Y117.045
G1 X170.968 Y116.942
G1 X169.949 Y116.883
G1 X168.925 Y116.896
G1 X167.981 Y116.861
G1 X167.078 Y116.933
G1 X166.040 Y116.907
; Path 30
G0 Z0
G0 X166.699 Y116.906
G0 Z2.2
G1 F3000
G1 X167.007 Y114.948
; Path 31
G0 Z0
G0 X167.876 Y114.951
G0 Z2.2
G1 F3000
G1 X168.093 Y113.001
; Path 32
G0 Z0
G0 X168.638 Y112.955
G0 Z2.2
G1 F3000
G1 X169.513 Y111.141
; Path 33
G0 Z0
G0 X167.999 Y111.965
G0 Z2.2
G1 F3000
G1 X169.008 Y110.466
G1 X170.004 Y109.007
; Path 34
G0 Z0
G0 X170.481 Y110.075
G0 Z2.2
G1 F3000
G1 X169.481 Y111.778
; Path 35
G0 Z0
G0 X169.387 Y112.029
G0 Z2.2
G1 F3000
G1 X168.623 Y113.907
; Path 36
G0 Z0
G0 X168.490 Y115.935
G0 Z2.2
G1 F3000
G1 X167.416 Y114.185
; Path 37
G0 Z0
G0 X167.017 Y114.049
G0 Z2.2
G1 F3000
G1 X166.949 Y115.012
G1 X167.018 Y115.986
G1 X167.027 Y117.057
G1 X167.020 Y117.975
G1 X167.026 Y119.029
G1 X167.062 Y119.990
G1 X166.937 Y120.917
G1 X167.039 Y121.919
G1 X167.064 Y123.033
G1 X167.054 Y123.956
G1 X167.007 Y124.948
; Path 38
G0 Z0
G0 X166.911 Y127.029
G0 Z2.2
G1 F3000
G1 X165.945 Y126.918
G1 X165.069 Y126.963
G1 X164.031 Y126.928
; Path 39
G0 Z0
G0 X164.951 Y132.973
G0 Z2.2
G1 F3000
G1 X165.051 Y132.601
G1 X165.147 Y132.259
G1 X165.271 Y131.914
G1 X165.337 Y131.517
G1 X165.402 Y131.152
G1 X165.522 Y130.760
G1 X165.593 Y130.399
G1 X165.707 Y129.999
G1 X165.784 Y129.593
G1 X165.893 Y129.245
G1 X165.964 Y128.858
G1 X166.084 Y128.512
G1 X166.189 Y128.189
G1 X166.284 Y127.809
G1 X166.391 Y127.492
G1 X166.495 Y127.150
G1 X166.611 Y126.872
G1 X166.720 Y126.545
G1 X166.845 Y126.291
G1 X166.962 Y126.007
G1 X167.099 Y125.783
G1 X167.224 Y125.543
G1 X167.342 Y125.325
G1 X167.503 Y125.146
G1 X167.657 Y125.001
G1 X167.796 Y124.804
G1 X167.972 Y124.659
G1 X168.101 Y124.504
G1 X168.286 Y124.371
G1 X168.413 Y124.236
G1 X168.551 Y124.126
G1 X168.731 Y123.988
G1 X168.892 Y123.848
G1 X169.051 Y123.747
G1 X169.217 Y123.646
G1 X169.370 Y123.502
G1 X169.520 Y123.347
G1 X169.684 Y123.242
G1 X169.846 Y123.115
G1 X169.992 Y122.954
; Path 40
G0 Z0
G0 X169.940 Y122.020
G0 Z2.2
G1 F3000
G1 X170.192 Y120.092
; Path 41
G0 Z0
G0 X171.473 Y116.967
G0 Z2.2
G1 F3000
G1 X170.973 Y117.467
G1 X170.473 Y116.967
G1 X170.973 Y116.467
G1 X171.473 Y116.967
; Path 42
G0 Z0
G0 X172.938 Y113.956
G0 Z2.2
G1 F3000
G1 X172.930 Y114.911
G1 X172.883 Y115.732
G1 X173.026 Y116.670
G1 X172.929 Y117.573
G1 X173.002 Y118.585
G1 X173.034 Y119.571
G1 X172.939 Y120.381
G1 X172.966 Y121.329
G1 X172.995 Y122.265
G1 X173.032 Y123.212
G1 X173.066 Y124.066
G1 X173.033 Y125.035
; Path 43
G0 Z0
G0 X173.013 Y124.903
G0 Z2.2
G1 F3000
G1 X173.691 Y124.358
G1 X174.518 Y123.871
G1 X175.245 Y123.507
G1 X175.930 Y122.988
; Path 44
G0 Z0
G0 X174.034 Y121.126
G0 Z2.2
G1 F3000
G1 X175.999 Y120.668
; Path 45
G0 Z0
G0 X175.005 Y119.988
G0 Z2.2
G1 F3000
G1 X175.009 Y122.008
G1 X175.006 Y123.990
G1 X174.963 Y125.984
G1 X174.970 Y127.974
G1 X174.961 Y129.986
; Path 46
G0 Z0
G0 X174.989 Y129.971
G0 Z2.2
G1 F3000
G1 X174.646 Y131.949
G1 X174.283 Y133.916
G1 X173.932 Y135.878
G1 X173.567 Y137.844
G1 X173.211 Y139.805
G1 X172.835 Y141.789
G1 X172.495 Y143.728
G1 X172.130 Y145.687
G1 X171.756 Y147.688
G1 X171.427 Y149.626
G1 X171.066 Y151.564
G1 X170.701 Y153.545
G1 X170.322 Y155.494
G1 X170.012 Y157.492
G1 X169.606 Y159.461
G1 X169.274 Y161.445
G1 X168.906 Y163.412
G1 X168.540 Y165.327
G1 X168.225 Y167.289
G1 X167.849 Y169.273
G1 X167.462 Y171.241
G1 X167.123 Y173.236
G1 X166.793 Y175.157
G1 X166.423 Y177.157
G1 X166.051 Y179.116
G1 X165.696 Y181.052
G1 X165.375 Y183.040
G1 X164.993 Y185.004
; Path 47
G0 Z0
G0 X164.993 Y184.975
G0 Z2.2
G1 F3000
G1 X167.004 Y184.968
G1 X168.997 Y184.973
G1 X170.976 Y184.995
G1 X172.974 Y185.003
G1 X174.971 Y184.995
G1 X176.995 Y184.996
G1 X178.963 Y184.976
G1 X180.979 Y184.953
G1 X182.995 Y184.957
G1 X184.993 Y184.975
G1 X187.015 Y184.999
G1 X189.004 Y184.961
G1 X190.976 Y184.952
G1 X192.962 Y184.951
G1 X194.997 Y185.003
G1 X196.965 Y184.972
G1 X198.989 Y184.956
G1 X201.002 Y184.957
G1 X202.962 Y184.946
G1 X204.954 Y184.957
G1 X207.007 Y184.998
G1 X208.960 Y184.990
G1 X210.977 Y184.978
G1 X213.000 Y184.948
G1 X214.958 Y184.997
G1 X216.998 Y184.960
G1 X218.985 Y184.950
G1 X221.006 Y184.982
G1 X222.984 Y184.951
G1 X224.974 Y184.969
G1 X226.995 Y184.981
G1 X228.972 Y184.946
G1 X230.998 Y184.970
G1 X232.975 Y184.974
G1 X234.984 Y184.981
G1 X236.962 Y184.959
G1 X238.957 Y184.998
G1 X240.971 Y184.949
G1 X242.981 Y184.942
G1 X244.944 Y184.949
G1 X246.970 Y184.956
G1 X248.950 Y184.962
G1 X250.965 Y184.942
G1 X252.995 Y184.958
G1 X254.954 Y184.997
G1 X256.948 Y184.951
G1 X258.991 Y185.001
G1 X260.961 Y184.949
G1 X262.942 Y184.995
G1 X264.964 Y184.952
G1 X266.964 Y184.975
G1 X268.948 Y184.986
G1 X270.966 Y184.964
G1 X272.947 Y184.954
G1 X274.966 Y184.970
; Path 48
G0 Z0
G0 X273.991 Y185.951
G0 Z2.2
G1 F3000
G1 X273.182 Y184.450
G1 X272.301 Y182.940
G1 X271.508 Y181.490
G1 X270.645 Y179.962
G1 X269.858 Y178.478
G1 X269.006 Y176.985
; Path 49
G0 Z0
G0 X261.970 Y176.990
G0 Z2.2
G1 F3000
G1 X262.040 Y175.104
G1 X262.061 Y173.156
G1 X262.106 Y171.269
G1 X262.179 Y169.322
G1 X262.201 Y167.469
G1 X262.255 Y165.540
G1 X262.266 Y163.611
G1 X262.370 Y161.684
G1 X262.418 Y159.807
G1 X262.430 Y157.896
G1 X262.487 Y155.969
G1 X262.551 Y154.057
G1 X262.588 Y152.162
G1 X262.645 Y150.272
G1 X262.643 Y148.320
G1 X262.743 Y146.417
G1 X262.768 Y144.497
G1 X262.788 Y142.621
G1 X262.839 Y140.706
G1 X262.928 Y138.768
G1 X262.970 Y136.865
G1 X262.994 Y134.978
; Path 50
G0 Z0
G0 X262.006 Y134.988
G0 Z2.2
G1 F3000
G1 X261.612 Y135.996
G1 X261.251 Y136.963
G1 X260.830 Y137.952
G1 X260.413 Y138.903
G1 X259.963 Y139.889
G1 X259.526 Y140.823
G1 X259.098 Y141.758
G1 X258.628 Y142.738
G1 X258.189 Y143.679
G1 X257.753 Y144.663
G1 X257.342 Y145.655
G1 X256.939 Y146.614
G1 X256.567 Y147.627
G1 X256.220 Y148.604
G1 X255.924 Y149.614
G1 X255.633 Y150.650
G1 X255.436 Y151.721
G1 X255.213 Y152.767
G1 X255.087 Y153.859
G1 X254.997 Y154.969
G1 X254.975 Y156.146
G1 X255.008 Y157.267
G1 X255.108 Y158.485
G1 X255.223 Y159.651
G1 X255.424 Y160.904
G1 X255.605 Y162.105
G1 X255.843 Y163.349
G1 X256.120 Y164.615
G1 X256.430 Y165.895
G1 X256.729 Y167.166
G1 X257.087 Y168.427
G1 X257.399 Y169.741
G1 X257.729 Y171.026
G1 X258.093 Y172.327
G1 X258.462 Y173.634
G1 X258.774 Y174.907
G1 X259.091 Y176.184
G1 X259.408 Y177.467
G1 X259.668 Y178.717
G1 X259.958 Y179.992
; Path 51
G0 Z0
G0 X258.004 Y179.951
G0 Z2.2
G1 F3000
G1 X258.021 Y181.620
G1 X257.990 Y183.297
G1 X257.966 Y184.952
; Path 52
G0 Z0
G0 X261.961 Y184.980
G0 Z2.2
G1 F3000
G1 X261.939 Y183.341
G1 X261.933 Y181.651
G1 X261.962 Y179.990
; Path 53
G0 Z0
G0 X261.997 Y179.996
G0 Z2.2
G1 F3000
G1 X261.630 Y179.913
G1 X261.298 Y179.808
G1 X260.968 Y179.712
G1 X260.599 Y179.641
G1 X260.256 Y179.534
G1 X259.900 Y179.486
G1 X259.557 Y179.423
G1 X259.201 Y179.334
G1 X258.880 Y179.226
G1 X258.502 Y179.176
G1 X258.171 Y179.115
G1 X257.803 Y179.003
G1 X257.450 Y178.913
G1 X257.104 Y178.806
G1 X256.770 Y178.663
G1 X256.403 Y178.575
G1 X256.067 Y178.412
G1 X255.703 Y178.303
G1 X255.378 Y178.128
G1 X255.001 Y177.980
G1 X254.646 Y177.768
G1 X254.298 Y177.600
G1 X253.959 Y177.375
G1 X253.595 Y177.169
G1 X253.237 Y176.922
G1 X252.891 Y176.695
G1 X252.530 Y176.471
G1 X252.186 Y176.189
G1 X251.854 Y175.920
G1 X251.481 Y175.658
G1 X251.128 Y175.400
G1 X250.776 Y175.113
G1 X250.408 Y174.851
G1 X250.071 Y174.562
G1 X249.709 Y174.302
G1 X249.365 Y174.013
G1 X249.003 Y173.722
G1 X248.660 Y173.477
G1 X248.302 Y173.191
G1 X247.956 Y172.961
; Path 54
G0 Z0
G0 X247.966 Y172.971
G0 Z2.2
G1 F3000
G1 X247.699 Y172.667
G1 X247.451 Y172.373
G1 X247.167 Y172.048
G1 X246.907 Y171.783
G1 X246.633 Y171.481
G1 X246.348 Y171.196
G1 X246.078 Y170.880
G1 X245.785 Y170.610
G1 X245.491 Y170.327
G1 X245.230 Y170.022
G1 X244.967 Y169.729
G1 X244.694 Y169.429
G1 X244.471 Y169.156
G1 X244.190 Y168.829
G1 X243.982 Y168.548
G1 X243.730 Y168.218
G1 X243.517 Y167.890
G1 X243.325 Y167.595
G1 X243.147 Y167.287
G1 X242.987 Y166.955
G1 X242.847 Y166.609
G1 X242.724 Y166.298
G1 X242.647 Y165.943
G1 X242.528 Y165.625
G1 X242.453 Y165.263
G1 X242.388 Y164.938
G1 X242.340 Y164.593
G1 X242.291 Y164.241
G1 X242.288 Y163.906
G1 X242.226 Y163.537
G1 X242.215 Y163.212
G1 X242.181 Y162.828
G1 X242.191 Y162.490
G1 X242.143 Y162.117
G1 X242.146 Y161.760
G1 X242.101 Y161.407
G1 X242.054 Y161.082
G1 X242.044 Y160.701
G1 X242.002 Y160.345
G1 X241.959 Y160.001
; Path 55
G0 Z0
G0 X244.913 Y161.906
G0 Z2.2
G1 F3000
G1 X244.300 Y162.648
G1 X243.880 Y163.353
G1 X243.241 Y164.085
G1 X242.743 Y164.812
G1 X242.194 Y165.594
G1 X241.701 Y166.363
G1 X241.140 Y167.018
G1 X240.617 Y167.826
G1 X240.101 Y168.520
G1 X239.444 Y169.255
G1 X238.976 Y170.004
; Path 56
G0 Z0
G0 X237.909 Y164.974
G0 Z2.2
G1 F3000
G1 X238.468 Y164.245
G1 X239.124 Y163.485
G1 X239.658 Y162.587
G1 X240.117 Y161.936
G1 X240.740 Y161.088
G1 X241.395 Y160.371
G1 X241.962 Y159.574
G1 X242.475 Y158.744
G1 X243.055 Y157.999
; Path 57
G0 Z0
G0 X239.457 Y153.174
G0 Z2.2
G1 F3000
G1 X240.513 Y154.824
; Path 58
G0 Z0
G0 X237.905 Y154.929
G0 Z2.2
G1 F3000
G1 X238.365 Y154.089
G1 X238.984 Y153.390
G1 X239.366 Y152.465
G1 X239.881 Y151.718
G1 X240.431 Y150.851
G1 X240.852 Y150.185
G1 X241.374 Y149.313
G1 X241.888 Y148.581
G1 X242.458 Y147.706
G1 X242.941 Y146.916
; Path 59
G0 Z0
G0 X239.994 Y142.959
G0 Z2.2
G1 F3000
G1 X239.498 Y143.785
G1 X239.071 Y144.589
G1 X238.573 Y145.300
G1 X238.224 Y146.046
G1 X237.685 Y146.843
G1 X237.233 Y147.690
G1 X236.830 Y148.370
G1 X236.355 Y149.308
G1 X235.901 Y150.015
; Path 60
G0 Z0
G0 X236.001 Y147.955
G0 Z2.2
G1 F3000
G1 X237.494 Y148.817
G1 X238.992 Y149.633
G1 X240.511 Y150.483
G1 X241.982 Y151.288
G1 X243.526 Y152.115
G1 X244.997 Y152.955
; Path 61
G0 Z0
G0 X245.836 Y153.508
G0 Z2.2
G1 F3000
G1 X244.087 Y152.444
; Path 62
G0 Z0
G0 X242.054 Y152.988
G0 Z2.2
G1 F3000
G1 X241.498 Y153.728
G1 X240.933 Y154.459
G1 X240.453 Y155.377
G1 X239.857 Y156.054
G1 X239.297 Y156.912
G1 X238.742 Y157.649
G1 X238.073 Y158.348
G1 X237.527 Y159.097
G1 X237.013 Y159.918
; Path 63
G0 Z0
G0 X234.934 Y157.959
G0 Z2.2
G1 F3000
G1 X234.969 Y155.949
; Path 64
G0 Z0
G0 X234.991 Y154.986
G0 Z2.2
G1 F3000
G1 X234.988 Y154.681
G1 X235.003 Y154.383
G1 X235.001 Y154.067
G1 X235.036 Y153.780
G1 X235.036 Y153.501
G1 X235.080 Y153.177
G1 X235.100 Y152.884
G1 X235.127 Y152.574
G1 X235.148 Y152.262
G1 X235.169 Y151.970
G1 X235.202 Y151.650
G1 X235.196 Y151.367
G1 X235.198 Y151.039
G1 X235.199 Y150.764
G1 X235.199 Y150.450
G1 X235.169 Y150.162
G1 X235.111 Y149.879
G1 X235.098 Y149.561
G1 X235.058 Y149.256
G1 X234.976 Y148.960
G1 X234.887 Y148.649
G1 X234.798 Y148.360
G1 X234.690 Y148.076
G1 X234.570 Y147.761
G1 X234.432 Y147.478
G1 X234.300 Y147.163
G1 X234.122 Y146.847
G1 X233.997 Y146.565
G1 X233.806 Y146.270
G1 X233.671 Y145.968
G1 X233.493 Y145.673
G1 X233.330 Y145.371
G1 X233.150 Y145.053
G1 X232.983 Y144.774
G1 X232.804 Y144.486
G1 X232.639 Y144.176
G1 X232.492 Y143.866
G1 X232.307 Y143.579
G1 X232.129 Y143.285
G1 X231.996 Y142.982
; Path 65
G0 Z0
G0 X231.969 Y142.999
G0 Z2.2
G1 F3000
G1 X231.690 Y142.800
G1 X231.371 Y142.580
G1 X231.090 Y142.371
G1 X230.773 Y142.139
G1 X230.450 Y141.890
G1 X230.175 Y141.686
G1 X229.867 Y141.445
G1 X229.577 Y141.230
G1 X229.304 Y140.981
G1 X228.978 Y140.781
G1 X228.703 Y140.563
G1 X228.380 Y140.346
G1 X228.081 Y140.155
G1 X227.782 Y139.937
G1 X227.507 Y139.765
G1 X227.183 Y139.561
G1 X226.882 Y139.405
G1 X226.584 Y139.228
G1 X226.284 Y139.108
G1 X225.984 Y138.948
G1 X225.696 Y138.836
G1 X225.383 Y138.726
G1 X225.092 Y138.655
G1 X224.782 Y138.557
G1 X224.496 Y138.472
G1 X224.181 Y138.431
G1 X223.903 Y138.401
G1 X223.579 Y138.339
G1 X223.274 Y138.303
G1 X222.977 Y138.271
G1 X222.680 Y138.226
G1 X222.374 Y138.219
G1 X222.090 Y138.210
G1 X221.772 Y138.173
G1 X221.452 Y138.144
G1 X221.169 Y138.124
G1 X220.888 Y138.080
G1 X220.567 Y138.062
G1 X220.273 Y137.999
G1 X219.965 Y137.979
; Path 66
G0 Z0
G0 X219.969 Y137.991
G0 Z2.2
G1 F3000
G1 X219.695 Y138.049
G1 X219.367 Y138.075
G1 X219.096 Y138.133
G1 X218.765 Y138.138
G1 X218.471 Y138.140
G1 X218.162 Y138.188
G1 X217.880 Y138.186
G1 X217.560 Y138.236
G1 X217.267 Y138.260
G1 X216.957 Y138.289
G1 X216.656 Y138.317
G1 X216.355 Y138.358
G1 X216.053 Y138.384
G1 X215.753 Y138.451
G1 X215.476 Y138.486
G1 X215.151 Y138.577
G1 X214.855 Y138.686
G1 X214.550 Y138.746
G1 X214.248 Y138.866
G1 X213.950 Y138.966
G1 X213.671 Y139.109
G1 X213.351 Y139.245
G1 X213.054 Y139.439
G1 X212.752 Y139.574
G1 X212.428 Y139.765
G1 X212.154 Y139.947
G1 X211.856 Y140.142
G1 X211.557 Y140.352
G1 X211.229 Y140.593
G1 X210.960 Y140.782
G1 X210.657 Y141.013
G1 X210.363 Y141.227
G1 X210.055 Y141.471
G1 X209.766 Y141.678
G1 X209.462 Y141.895
G1 X209.169 Y142.127
G1 X208.880 Y142.337
G1 X208.572 Y142.563
G1 X208.256 Y142.781
G1 X207.975 Y142.977
; Path 67
G0 Z0
G0 X207.991 Y142.970
G0 Z2.2
G1 F3000
G1 X207.857 Y143.244
G1 X207.673 Y143.569
G1 X207.474 Y143.854
G1 X207.334 Y144.168
G1 X207.151 Y144.458
G1 X206.983 Y144.766
G1 X206.813 Y145.079
G1 X206.628 Y145.365
G1 X206.459 Y145.659
G1 X206.280 Y145.963
G1 X206.121 Y146.265
G1 X205.947 Y146.562
G1 X205.807 Y146.858
G1 X205.638 Y147.161
G1 X205.485 Y147.450
G1 X205.363 Y147.760
G1 X205.266 Y148.084
G1 X205.131 Y148.360
G1 X205.031 Y148.675
G1 X204.952 Y148.960
G1 X204.875 Y149.281
G1 X204.830 Y149.561
G1 X204.803 Y149.851
G1 X204.760 Y150.163
G1 X204.744 Y150.476
G1 X204.733 Y150.765
G1 X204.731 Y151.063
G1 X204.740 Y151.367
G1 X204.758 Y151.697
G1 X204.771 Y151.970
G1 X204.788 Y152.297
G1 X204.817 Y152.573
G1 X204.858 Y152.879
G1 X204.870 Y153.176
G1 X204.924 Y153.472
G1 X204.919 Y153.779
G1 X204.965 Y154.068
G1 X204.957 Y154.382
G1 X204.965 Y154.701
G1 X204.973 Y154.984
; Path 68
G0 Z0
G0 X204.966 Y154.990
G0 Z2.2
G1 F3000
G1 X205.227 Y155.281
G1 X205.442 Y155.614
G1 X205.689 Y155.935
G1 X205.882 Y156.274
G1 X206.102 Y156.631
G1 X206.302 Y156.953
G1 X206.507 Y157.293
G1 X206.717 Y157.638
G1 X206.913 Y157.984
G1 X207.143 Y158.313
G1 X207.380 Y158.661
G1 X207.593 Y158.962
G1 X207.867 Y159.274
G1 X208.084 Y159.571
G1 X208.333 Y159.827
G1 X208.630 Y160.125
G1 X208.951 Y160.352
G1 X209.247 Y160.609
G1 X209.583 Y160.794
G1 X209.949 Y161.007
G1 X210.360 Y161.185
G1 X210.748 Y161.310
G1 X211.203 Y161.420
G1 X211.631 Y161.527
G1 X212.113 Y161.597
G1 X212.586 Y161.673
G1 X213.083 Y161.714
G1 X213.596 Y161.765
G1 X214.133 Y161.809
G1 X214.646 Y161.816
G1 X215.165 Y161.837
G1 X215.721 Y161.842
G1 X216.280 Y161.848
G1 X216.806 Y161.858
G1 X217.328 Y161.840
G1 X217.887 Y161.879
G1 X218.431 Y161.877
G1 X218.947 Y161.920
G1 X219.469 Y161.934
G1 X219.972 Y161.997
; Path 69
G0 Z0
G0 X219.979 Y161.992
G0 Z2.2
G1 F3000
G1 X220.478 Y161.977
G1 X221.003 Y161.913
G1 X221.555 Y161.894
G1 X222.062 Y161.870
G1 X222.589 Y161.842
G1 X223.141 Y161.847
G1 X223.708 Y161.844
G1 X224.225 Y161.829
G1 X224.744 Y161.793
G1 X225.299 Y161.801
G1 X225.812 Y161.799
G1 X226.348 Y161.747
G1 X226.865 Y161.680
G1 X227.357 Y161.654
G1 X227.841 Y161.601
G1 X228.310 Y161.505
G1 X228.777 Y161.414
G1 X229.193 Y161.287
G1 X229.605 Y161.108
G1 X229.991 Y160.983
G1 X230.316 Y160.764
G1 X230.694 Y160.583
G1 X231.029 Y160.353
G1 X231.311 Y160.099
G1 X231.557 Y159.830
G1 X231.858 Y159.544
G1 X232.083 Y159.234
G1 X232.350 Y158.934
G1 X232.546 Y158.633
G1 X232.801 Y158.284
G1 X233.011 Y157.973
G1 X233.228 Y157.609
G1 X233.459 Y157.242
G1 X233.644 Y156.924
G1 X233.880 Y156.610
G1 X234.065 Y156.244
G1 X234.297 Y155.926
G1 X234.507 Y155.584
G1 X234.760 Y155.298
G1 X234.984 Y154.959
; Path 70
G0 Z0
G0 X226.005 Y159.941
G0 Z2.2
G1 F3000
G1 X227.032 Y160.014
G1 X228.024 Y159.893
G1 X228.880 Y159.965
G1 X229.925 Y159.943
; Path 71
G0 Z0
G0 X229.246 Y160.594
G0 Z2.2
G1 F3000
G1 X230.721 Y159.315
; Path 72
G0 Z0
G0 X233.983 Y160.003
G0 Z2.2
G1 F3000
G1 X233.985 Y160.355
G1 X233.964 Y160.699
G1 X233.941 Y161.073
G1 X233.916 Y161.396
G1 X233.898 Y161.742
G1 X233.852 Y162.092
G1 X233.812 Y162.410
G1 X233.785 Y162.788
G1 X233.754 Y163.154
G1 X233.725 Y163.484
G1 X233.683 Y163.810
G1 X233.685 Y164.181
G1 X233.683 Y164.523
G1 X233.678 Y164.878
G1 X233.725 Y165.229
G1 X233.715 Y165.575
G1 X233.757 Y165.899
G1 X233.808 Y166.274
G1 X233.867 Y166.622
G1 X233.969 Y166.973
G1 X234.077 Y167.298
G1 X234.207 Y167.674
G1 X234.356 Y168.040
G1 X234.513 Y168.376
G1 X234.690 Y168.703
G1 X234.876 Y169.078
G1 X235.098 Y169.420
G1 X235.282 Y169.782
G1 X235.528 Y170.155
G1 X235.721 Y170.485
G1 X235.930 Y170.826
G1 X236.180 Y171.189
G1 X236.434 Y171.565
G1 X236.647 Y171.894
G1 X236.867 Y172.270
G1 X237.110 Y172.598
G1 X237.354 Y172.938
G1 X237.557 Y173.302
G1 X237.796 Y173.678
G1 X237.976 Y174.005
; Path 73
G0 Z0
G0 X237.983 Y173.963
G0 Z2.2
G1 F3000
G1 X238.196 Y174.247
G1 X238.373 Y174.575
G1 X238.542 Y174.911
G1 X238.748 Y175.201
G1 X238.960 Y175.515
G1 X239.116 Y175.835
G1 X239.301 Y176.134
G1 X239.481 Y176.471
G1 X239.651 Y176.782
G1 X239.851 Y177.103
G1 X240.053 Y177.410
G1 X240.230 Y177.725
G1 X240.451 Y178.011
G1 X240.626 Y178.330
G1 X240.808 Y178.609
G1 X241.044 Y178.914
G1 X241.282 Y179.211
G1 X241.491 Y179.469
G1 X241.708 Y179.741
G1 X241.972 Y179.989
G1 X242.231 Y180.246
G1 X242.492 Y180.471
G1 X242.750 Y180.712
G1 X243.047 Y180.919
G1 X243.335 Y181.126
G1 X243.629 Y181.338
G1 X243.957 Y181.565
G1 X244.235 Y181.735
G1 X244.560 Y181.946
G1 X244.856 Y182.116
G1 X245.146 Y182.315
G1 X245.488 Y182.487
G1 X245.796 Y182.663
G1 X246.123 Y182.853
G1 X246.430 Y183.045
G1 X246.757 Y183.222
G1 X247.075 Y183.383
G1 X247.382 Y183.598
G1 X247.715 Y183.799
G1 X247.994 Y183.989
; Path 74
G0 Z0
G0 X247.998 Y183.954
G0 Z2.2
G1 F3000
G1 X248.324 Y184.086
G1 X248.697 Y184.268
G1 X249.049 Y184.448
G1 X249.396 Y184.595
G1 X249.743 Y184.776
G1 X250.094 Y184.931
G1 X250.426 Y185.073
G1 X250.793 Y185.269
G1 X251.158 Y185.410
G1 X251.491 Y185.603
G1 X251.814 Y185.773
G1 X252.190 Y185.927
G1 X252.519 Y186.109
G1 X252.888 Y186.234
G1 X253.249 Y186.394
G1 X253.587 Y186.519
G1 X253.936 Y186.637
G1 X254.286 Y186.775
G1 X254.641 Y186.858
G1 X254.985 Y186.996
G1 X255.332 Y187.089
G1 X255.683 Y187.179
G1 X256.013 Y187.239
G1 X256.382 Y187.327
G1 X256.741 Y187.368
G1 X257.081 Y187.447
G1 X257.434 Y187.515
G1 X257.780 Y187.544
G1 X258.138 Y187.561
G1 X258.479 Y187.624
G1 X258.829 Y187.649
G1 X259.178 Y187.695
G1 X259.510 Y187.714
G1 X259.877 Y187.761
G1 X260.200 Y187.819
G1 X260.575 Y187.829
G1 X260.900 Y187.877
G1 X261.274 Y187.906
G1 X261.626 Y187.937
G1 X261.973 Y187.997
; Path 75
G0 Z0
G0 X261.948 Y187.990
G0 Z2.2
G1 F3000
G1 X262.328 Y187.923
G1 X262.651 Y187.898
G1 X263.015 Y187.876
G1 X263.354 Y187.821
G1 X263.691 Y187.811
G1 X264.057 Y187.751
G1 X264.399 Y187.726
G1 X264.760 Y187.683
G1 X265.133 Y187.639
G1 X265.463 Y187.611
G1 X265.841 Y187.562
G1 X266.166 Y187.530
G1 X266.488 Y187.469
G1 X266.869 Y187.432
G1 X267.224 Y187.383
G1 X267.571 Y187.313
G1 X267.909 Y187.256
G1 X268.273 Y187.166
G1 X268.604 Y187.078
G1 X268.974 Y186.985
G1 X269.325 Y186.886
G1 X269.674 Y186.766
G1 X269.999 Y186.632
G1 X270.373 Y186.514
G1 X270.714 Y186.354
G1 X271.072 Y186.234
G1 X271.409 Y186.062
G1 X271.771 Y185.932
G1 X272.129 Y185.795
G1 X272.469 Y185.615
G1 X272.841 Y185.446
G1 X273.168 Y185.287
G1 X273.518 Y185.116
G1 X273.866 Y184.955
G1 X274.204 Y184.796
G1 X274.564 Y184.626
G1 X274.886 Y184.441
G1 X275.262 Y184.304
G1 X275.617 Y184.128
G1 X275.960 Y183.996
; Path 76
G0 Z0
G0 X275.985 Y183.993
G0 Z2.2
G1 F3000
G1 X276.295 Y183.802
G1 X276.592 Y183.599
G1 X276.913 Y183.391
G1 X277.213 Y183.219
G1 X277.513 Y183.057
G1 X277.843 Y182.847
G1 X278.174 Y182.645
G1 X278.474 Y182.477
G1 X278.798 Y182.317
G1 X279.101 Y182.103
G1 X279.413 Y181.882
G1 X279.719 Y181.719
G1 X280.007 Y181.544
G1 X280.320 Y181.319
G1 X280.632 Y181.126
G1 X280.899 Y180.897
G1 X281.183 Y180.655
G1 X281.451 Y180.448
G1 X281.714 Y180.215
G1 X281.968 Y179.965
G1 X282.232 Y179.692
G1 X282.447 Y179.445
G1 X282.665 Y179.175
G1 X282.892 Y178.890
G1 X283.077 Y178.611
G1 X283.309 Y178.308
G1 X283.480 Y177.992
G1 X283.704 Y177.705
G1 X283.891 Y177.409
G1 X284.083 Y177.085
G1 X284.255 Y176.748
G1 X284.452 Y176.456
G1 X284.610 Y176.122
G1 X284.817 Y175.822
G1 X284.996 Y175.488
G1 X285.184 Y175.191
G1 X285.394 Y174.876
G1 X285.559 Y174.567
G1 X285.762 Y174.271
G1 X285.948 Y173.957
; Path 77
G0 Z0
G0 X285.950 Y173.958
G0 Z2.2
G1 F3000
G1 X286.162 Y173.598
G1 X286.371 Y173.260
G1 X286.569 Y172.902
G1 X286.821 Y172.562
G1 X287.030 Y172.211
G1 X287.287 Y171.864
G1 X287.523 Y171.543
G1 X287.756 Y171.166
G1 X287.958 Y170.811
G1 X288.218 Y170.469
G1 X288.434 Y170.095
G1 X288.659 Y169.771
G1 X288.836 Y169.407
G1 X289.069 Y169.073
G1 X289.250 Y168.712
G1 X289.433 Y168.375
G1 X289.577 Y168.023
G1 X289.742 Y167.677
G1 X289.890 Y167.317
G1 X289.982 Y166.979
G1 X290.058 Y166.619
G1 X290.146 Y166.281
G1 X290.168 Y165.927
G1 X290.241 Y165.583
G1 X290.242 Y165.223
G1 X290.279 Y164.885
G1 X290.251 Y164.515
G1 X290.274 Y164.187
G1 X290.239 Y163.863
G1 X290.236 Y163.489
G1 X290.220 Y163.156
G1 X290.178 Y162.791
G1 X290.148 Y162.414
G1 X290.111 Y162.093
G1 X290.092 Y161.727
G1 X290.049 Y161.394
G1 X290.030 Y161.023
G1 X290.003 Y160.696
G1 X290.015 Y160.363
G1 X289.986 Y159.998
; Path 78
G0 Z0
G0 X293.936 Y159.913
G0 Z2.2
G1 F3000
G1 X294.688 Y159.875
G1 X295.573 Y159.976
G1 X296.298 Y159.905
G1 X297.086 Y159.922
G1 X297.963 Y160.004
; Path 79
G0 Z0
G0 X300.044 Y154.920
G0 Z2.2
G1 F3000
G1 X300.032 Y155.932
G1 X300.102 Y156.864
G1 X300.260 Y157.782
G1 X300.174 Y158.750
G1 X300.245 Y159.723
G1 X300.320 Y160.568
G1 X300.373 Y161.647
G1 X300.454 Y162.477
G1 X300.410 Y163.483
G1 X300.532 Y164.384
G1 X300.539 Y165.377
G1 X300.660 Y166.292
G1 X300.576 Y167.226
G1 X300.686 Y168.223
G1 X300.730 Y169.151
G1 X300.798 Y170.177
G1 X300.775 Y171.163
G1 X300.899 Y172.013
G1 X300.872 Y173.013
G1 X301.027 Y173.894
G1 X301.012 Y174.903
; Path 80
G0 Z0
G0 X302.941 Y179.952
G0 Z2.2
G1 F3000
G1 X303.052 Y180.966
G1 X302.994 Y181.932
G1 X303.133 Y182.857
G1 X303.142 Y183.727
G1 X303.137 Y184.813
G1 X303.225 Y185.772
G1 X303.291 Y186.730
G1 X303.336 Y187.587
G1 X303.449 Y188.500
G1 X303.492 Y189.459
G1 X303.570 Y190.532
G1 X303.549 Y191.398
G1 X303.539 Y192.348
G1 X303.711 Y193.348
G1 X303.780 Y194.233
G1 X303.745 Y195.280
G1 X303.738 Y196.277
G1 X303.827 Y197.184
G1 X303.938 Y198.110
G1 X303.941 Y199.159
G1 X304.016 Y200.054
; Path 81
G0 Z0
G0 X304.999 Y204.999
G0 Z2.2
G1 F3000
G1 X304.998 Y202.984
G1 X304.955 Y200.980
G1 X304.990 Y199.002
G1 X304.947 Y196.998
G1 X304.958 Y195.006
; Path 82
G0 Z0
G0 X298.006 Y194.961
G0 Z2.2
G1 F3000
G1 X298.055 Y194.611
G1 X298.080 Y194.245
G1 X298.105 Y193.890
G1 X298.119 Y193.500
G1 X298.114 Y193.096
G1 X298.137 Y192.740
G1 X298.170 Y192.333
G1 X298.151 Y191.976
G1 X298.144 Y191.607
G1 X298.174 Y191.220
G1 X298.178 Y190.847
G1 X298.223 Y190.484
G1 X298.287 Y190.125
G1 X298.312 Y189.780
G1 X298.369 Y189.424
G1 X298.457 Y189.119
G1 X298.567 Y188.830
G1 X298.672 Y188.515
G1 X298.795 Y188.263
G1 X298.973 Y187.978
G1 X299.187 Y187.733
G1 X299.370 Y187.517
G1 X299.599 Y187.333
G1 X299.853 Y187.124
G1 X300.146 Y186.981
G1 X300.406 Y186.786
G1 X300.698 Y186.655
G1 X301.015 Y186.493
G1 X301.338 Y186.369
G1 X301.665 Y186.231
G1 X301.980 Y186.126
G1 X302.339 Y185.989
G1 X302.687 Y185.851
G1 X303.024 Y185.755
G1 X303.335 Y185.618
G1 X303.703 Y185.517
G1 X304.027 Y185.403
G1 X304.363 Y185.264
G1 X304.659 Y185.145
G1 X304.987 Y184.982
; Path 83
G0 Z0
G0 X304.954 Y184.994
G0 Z2.2
G1 F3000
G1 X305.325 Y185.143
G1 X305.685 Y185.275
G1 X306.053 Y185.374
G1 X306.459 Y185.527
G1 X306.849 Y185.667
G1 X307.257 Y185.764
G1 X307.672 Y185.872
G1 X308.060 Y185.996
G1 X308.476 Y186.111
G1 X308.852 Y186.236
G1 X309.231 Y186.377
G1 X309.614 Y186.497
G1 X309.976 Y186.647
G1 X310.327 Y186.789
G1 X310.639 Y186.928
G1 X310.973 Y187.126
G1 X311.263 Y187.335
G1 X311.535 Y187.519
G1 X311.736 Y187.720
G1 X311.993 Y187.980
G1 X312.173 Y188.224
G1 X312.337 Y188.518
G1 X312.433 Y188.828
G1 X312.578 Y189.123
G1 X312.655 Y189.472
G1 X312.734 Y189.785
G1 X312.795 Y190.162
G1 X312.823 Y190.492
G1 X312.869 Y190.872
G1 X312.864 Y191.230
G1 X312.891 Y191.591
G1 X312.874 Y191.989
G1 X312.882 Y192.376
G1 X312.873 Y192.755
G1 X312.859 Y193.116
G1 X312.878 Y193.518
G1 X312.862 Y193.906
G1 X312.906 Y194.264
G1 X312.930 Y194.630
G1 X312.978 Y194.982
; Path 84
G0 Z0
G0 X319.977 Y204.978
G0 Z2.2
G1 F3000
G1 X119.977 Y204.978
; Path 85
G0 Z0
G0 X119.994 Y205.007
G0 Z2.2
G1 F3000
G1 X122.005 Y205.030
G1 X123.988 Y204.998
G1 X126.020 Y205.025
G1 X128.017 Y204.978
G1 X129.999 Y205.004
G1 X131.969 Y204.981
G1 X133.972 Y205.031
G1 X136.010 Y205.015
G1 X138.009 Y204.985
G1 X140.010 Y205.014
G1 X141.960 Y205.020
G1 X143.983 Y205.020
G1 X145.965 Y205.015
G1 X147.967 Y205.021
G1 X149.970 Y204.994
G1 X151.997 Y204.981
G1 X153.988 Y204.983
G1 X155.961 Y204.989
G1 X158.013 Y205.028
G1 X160.003 Y204.987
G1 X161.988 Y204.982
G1 X164.007 Y205.020
G1 X165.965 Y204.992
G1 X167.988 Y204.990
G1 X170.008 Y205.005
G1 X171.998 Y205.032
G1 X173.966 Y205.028
G1 X175.965 Y205.031
G1 X177.974 Y205.009
G1 X180.005 Y204.998
G1 X181.977 Y204.984
G1 X183.968 Y204.993
G1 X185.995 Y205.011
G1 X187.982 Y204.989
G1 X189.988 Y205.016
G1 X191.968 Y205.031
G1 X193.993 Y205.019
G1 X196.007 Y205.009
G1 X197.953 Y204.976
G1 X199.992 Y204.986
G1 X201.949 Y204.995
G1 X203.989 Y205.016
G1 X205.955 Y205.027
G1 X207.979 Y205.022
G1 X209.988 Y205.017
G1 X211.997 Y205.006
G1 X213.963 Y205.005
G1 X215.946 Y204.994
G1 X217.998 Y204.998
G1 X219.964 Y205.020
G1 X221.995 Y205.020
G1 X223.960 Y205.001
G1 X225.973 Y205.031
G1 X227.957 Y205.024
G1 X229.983 Y204.998
G1 X231.971 Y205.004
G1 X233.962 Y204.999
G1 X235.950 Y205.024
G1 X237.944 Y205.029
G1 X239.950 Y205.030
G1 X241.993 Y205.001
G1 X243.992 Y205.033
G1 X245.975 Y204.976
G1 X247.951 Y205.003
G1 X249.976 Y205.026
G1 X251.966 Y205.021
G1 X253.951 Y205.018
G1 X255.956 Y204.998
G1 X257.969 Y205.001
G1 X259.975 Y204.993
G1 X261.949 Y205.003
G1 X263.976 Y205.011
G1 X265.940 Y204.976
G1 X267.982 Y205.025
G1 X269.951 Y205.032
G1 X271.964 Y205.025
G1 X273.953 Y205.005
G1 X275.947 Y204.975
G1 X277.953 Y204.989
G1 X279.975 Y205.026
G1 X281.988 Y205.019
G1 X283.967 Y205.004
G1 X285.950 Y205.001
G1 X287.966 Y205.025
G1 X289.969 Y204.981
G1 X291.950 Y204.990
G1 X293.974 Y205.013
G1 X295.954 Y205.009
G1 X297.962 Y205.020
G1 X299.986 Y204.996
G1 X301.927 Y204.995
G1 X303.936 Y204.983
G1 X305.928 Y204.983
G1 X307.961 Y204.973
G1 X309.960 Y204.996
G1 X311.952 Y204.995
G1 X313.966 Y205.010
G1 X315.975 Y205.029
G1 X317.962 Y204.988
G1 X319.952 Y205.001
; Path 86
G0 Z0
G0 X319.977 Y206.978
G0 Z2.2
G1 F3000
G1 X119.977 Y206.978
; Path 87
G0 Z0
G0 X119.977 Y209.978
G0 Z2.2
G1 F3000
G1 X319.977 Y209.978
; Path 88
G0 Z0
G0 X319.994 Y209.957
G0 Z2.2
G1 F3000
G1 X317.965 Y209.933
G1 X316.003 Y209.944
G1 X314.021 Y209.961
G1 X312.007 Y209.978
G1 X310.002 Y209.948
G1 X307.998 Y209.954
G1 X306.022 Y209.980
G1 X303.976 Y209.933
G1 X301.977 Y209.933
G1 X299.966 Y209.930
G1 X297.981 Y209.968
G1 X295.993 Y209.964
G1 X293.991 Y209.948
G1 X292.023 Y209.981
G1 X289.989 Y209.930
G1 X287.985 Y209.935
G1 X286.016 Y209.973
G1 X283.987 Y209.936
G1 X282.004 Y209.965
G1 X279.990 Y209.985
G1 X278.013 Y209.965
G1 X276.025 Y209.972
G1 X274.018 Y209.969
G1 X272.002 Y209.931
G1 X269.973 Y209.946
G1 X267.968 Y209.941
G1 X265.986 Y209.973
G1 X264.017 Y209.973
G1 X261.991 Y209.947
G1 X260.019 Y209.966
G1 X257.992 Y209.978
G1 X256.014 Y209.959
G1 X253.988 Y209.929
G1 X252.025 Y209.958
G1 X249.989 Y209.953
G1 X248.002 Y209.979
G1 X245.993 Y209.942
G1 X244.015 Y209.948
G1 X241.969 Y209.948
G1 X240.013 Y209.942
G1 X238.023 Y209.930
G1 X236.026 Y209.965
G1 X234.020 Y209.970
G1 X231.986 Y209.986
G1 X230.012 Y209.946
G1 X228.023 Y209.967
G1 X225.970 Y209.954
G1 X223.994 Y209.977
G1 X221.998 Y209.964
G1 X219.980 Y209.978
G1 X218.015 Y209.942
G1 X215.973 Y209.943
G1 X214.029 Y209.940
G1 X211.974 Y209.954
G1 X210.004 Y209.969
G1 X207.977 Y209.963
G1 X206.008 Y209.955
G1 X203.972 Y209.948
G1 X202.028 Y209.943
G1 X199.996 Y209.934
G1 X198.025 Y209.981
G1 X195.985 Y209.932
G1 X193.991 Y209.938
G1 X191.990 Y209.933
G1 X189.993 Y209.970
G1 X187.971 Y209.958
G1 X186.005 Y209.971
G1 X183.998 Y209.978
G1 X181.995 Y209.933
G1 X180.008 Y209.962
G1 X178.027 Y209.938
G1 X176.003 Y209.943
G1 X174.001 Y209.955
G1 X171.991 Y209.942
G1 X170.028 Y209.975
G1 X167.991 Y209.961
G1 X165.998 Y209.982
G1 X163.979 Y209.978
G1 X162.028 Y209.976
G1 X159.986 Y209.939
G1 X157.977 Y209.983
G1 X156.027 Y209.959
G1 X153.988 Y209.991
G1 X152.027 Y209.983
G1 X150.027 Y209.966
G1 X147.991 Y209.981
G1 X145.995 Y209.957
G1 X144.008 Y209.944
G1 X142.017 Y209.957
G1 X139.988 Y209.945
G1 X138.008 Y209.979
G1 X136.032 Y209.940
G1 X134.017 Y209.944
G1 X131.982 Y209.964
G1 X129.983 Y209.945
G1 X128.016 Y209.987
G1 X125.988 Y209.981
G1 X124.001 Y209.942
G1 X122.018 Y209.954
G1 X120.003 Y209.962
; Path 89
G0 Z0
G0 X127.973 Y204.955
G0 Z2.2
G1 F3000
G1 X127.960 Y203.095
G1 X127.997 Y201.222
G1 X127.961 Y199.314
G1 X127.964 Y197.449
G1 X127.948 Y195.605
G1 X127.959 Y193.725
G1 X127.953 Y191.843
G1 X127.968 Y189.948
; Path 90
G0 Z0
G0 X120.005 Y174.990
G0 Z2.2
G1 F3000
G1 X121.761 Y174.027
G1 X123.495 Y173.054
G1 X125.233 Y172.088
G1 X126.993 Y171.183
G1 X128.730 Y170.205
G1 X130.494 Y169.226
G1 X132.208 Y168.299
G1 X133.970 Y167.321
G1 X135.687 Y166.362
G1 X137.454 Y165.397
G1 X139.174 Y164.458
G1 X140.953 Y163.528
G1 X142.689 Y162.541
G1 X144.451 Y161.562
G1 X146.165 Y160.604
G1 X147.923 Y159.644
G1 X149.688 Y158.724
G1 X151.437 Y157.728
G1 X153.158 Y156.809
G1 X154.917 Y155.871
G1 X156.668 Y154.904
G1 X158.384 Y153.914
G1 X160.106 Y152.955
G1 X161.872 Y152.031
G1 X163.612 Y151.045
G1 X165.384 Y150.083
G1 X167.094 Y149.131
G1 X168.850 Y148.199
G1 X170.593 Y147.243
G1 X172.354 Y146.267
G1 X174.116 Y145.337
G1 X175.812 Y144.340
G1 X177.564 Y143.412
G1 X179.346 Y142.450
G1 X181.043 Y141.488
G1 X182.820 Y140.532
G1 X184.575 Y139.553
G1 X186.299 Y138.597
G1 X188.055 Y137.629
G1 X189.784 Y136.695
G1 X191.513 Y135.710
G1 X193.301 Y134.775
G1 X195.036 Y133.794
G1 X196.771 Y132.855
G1 X198.524 Y131.896
G1 X200.285 Y130.932
G1 X202.000 Y129.994
; Path 91
G0 Z0
G0 X202.477 Y129.978
G0 Z2.2
G1 F3000
G1 X201.977 Y129.478
G1 X201.477 Y129.978
G1 X201.977 Y130.478
G1 X202.477 Y129.978
; Path 92
G0 Z0
G0 X202.002 Y129.988
G0 Z2.2
G1 F3000
G1 X200.439 Y131.242
G1 X198.919 Y132.424
G1 X197.379 Y133.664
G1 X195.830 Y134.874
G1 X194.253 Y136.097
G1 X192.738 Y137.355
G1 X191.152 Y138.596
G1 X189.627 Y139.813
G1 X188.094 Y141.017
G1 X186.506 Y142.256
G1 X184.953 Y143.463
G1 X183.422 Y144.685
G1 X181.874 Y145.917
G1 X180.316 Y147.143
G1 X178.786 Y148.355
G1 X177.216 Y149.586
G1 X175.676 Y150.818
G1 X174.137 Y152.077
G1 X172.601 Y153.298
G1 X171.072 Y154.487
G1 X169.500 Y155.740
G1 X167.967 Y156.981
G1 X166.390 Y158.191
G1 X164.833 Y159.395
G1 X163.285 Y160.640
G1 X161.758 Y161.847
G1 X160.223 Y163.105
G1 X158.646 Y164.285
G1 X157.109 Y165.549
G1 X155.597 Y166.763
G1 X154.052 Y167.993
G1 X152.459 Y169.208
G1 X150.953 Y170.438
G1 X149.367 Y171.656
G1 X147.809 Y172.891
G1 X146.268 Y174.110
G1 X144.721 Y175.338
G1 X143.191 Y176.545
G1 X141.655 Y177.803
G1 X140.125 Y179.004
G1 X138.579 Y180.274
G1 X136.985 Y181.459
G1 X135.435 Y182.691
G1 X133.893 Y183.919
G1 X132.362 Y185.155
G1 X130.828 Y186.357
G1 X129.268 Y187.608
G1 X127.706 Y188.834
G1 X126.174 Y190.074
G1 X124.600 Y191.266
G1 X123.075 Y192.506
G1 X121.526 Y193.707
G1 X119.980 Y194.958
; Path 93
G0 Z0
G0 X121.974 Y189.966
G0 Z2.2
G1 F3000
G1 X122.034 Y189.611
G1 X122.056 Y189.249
G1 X122.055 Y188.858
G1 X122.109 Y188.504
G1 X122.146 Y188.098
G1 X122.146 Y187.743
G1 X122.145 Y187.356
G1 X122.179 Y186.977
G1 X122.210 Y186.627
G1 X122.220 Y186.220
G1 X122.241 Y185.853
G1 X122.282 Y185.483
G1 X122.310 Y185.119
G1 X122.375 Y184.778
G1 X122.466 Y184.444
G1 X122.513 Y184.117
G1 X122.594 Y183.817
G1 X122.708 Y183.512
G1 X122.812 Y183.228
G1 X122.971 Y182.975
G1 X123.137 Y182.751
G1 X123.310 Y182.515
G1 X123.520 Y182.301
G1 X123.719 Y182.122
G1 X123.965 Y181.947
G1 X124.183 Y181.786
G1 X124.411 Y181.617
G1 X124.692 Y181.494
G1 X124.950 Y181.371
G1 X125.233 Y181.235
G1 X125.513 Y181.095
G1 X125.795 Y180.995
G1 X126.090 Y180.870
G1 X126.364 Y180.763
G1 X126.672 Y180.648
G1 X126.930 Y180.527
G1 X127.196 Y180.379
G1 X127.479 Y180.275
G1 X127.757 Y180.132
G1 X128.000 Y179.995
; Path 94
G0 Z0
G0 X127.999 Y179.997
G0 Z2.2
G1 F3000
G1 X128.336 Y180.126
G1 X128.618 Y180.277
G1 X128.949 Y180.374
G1 X129.273 Y180.529
G1 X129.613 Y180.646
G1 X129.948 Y180.766
G1 X130.300 Y180.854
G1 X130.627 Y180.998
G1 X130.956 Y181.118
G1 X131.297 Y181.238
G1 X131.627 Y181.354
G1 X131.942 Y181.499
G1 X132.238 Y181.654
G1 X132.547 Y181.791
G1 X132.818 Y181.930
G1 X133.097 Y182.127
G1 X133.323 Y182.328
G1 X133.577 Y182.519
G1 X133.776 Y182.724
G1 X133.973 Y182.980
G1 X134.115 Y183.251
G1 X134.275 Y183.516
G1 X134.363 Y183.798
G1 X134.492 Y184.120
G1 X134.590 Y184.428
G1 X134.639 Y184.780
G1 X134.659 Y185.113
G1 X134.731 Y185.484
G1 X134.734 Y185.878
G1 X134.783 Y186.220
G1 X134.771 Y186.594
G1 X134.811 Y186.975
G1 X134.792 Y187.354
G1 X134.829 Y187.739
G1 X134.863 Y188.112
G1 X134.852 Y188.499
G1 X134.897 Y188.874
G1 X134.894 Y189.243
G1 X134.920 Y189.585
G1 X134.971 Y189.959
; Path 95
G0 Z0
G0 X133.957 Y192.988
G0 Z2.2
G1 F3000
G1 X134.017 Y192.610
G1 X134.042 Y192.269
G1 X134.047 Y191.883
G1 X134.099 Y191.521
G1 X134.118 Y191.126
G1 X134.141 Y190.758
G1 X134.170 Y190.358
G1 X134.178 Y189.991
G1 X134.198 Y189.585
G1 X134.224 Y189.231
G1 X134.268 Y188.847
G1 X134.289 Y188.492
G1 X134.324 Y188.113
G1 X134.386 Y187.785
G1 X134.478 Y187.475
G1 X134.527 Y187.123
G1 X134.615 Y186.848
G1 X134.723 Y186.516
G1 X134.830 Y186.250
G1 X134.986 Y185.979
G1 X135.150 Y185.739
G1 X135.325 Y185.518
G1 X135.499 Y185.309
G1 X135.732 Y185.125
G1 X135.972 Y184.949
G1 X136.194 Y184.789
G1 X136.453 Y184.631
G1 X136.700 Y184.497
G1 X136.979 Y184.366
G1 X137.237 Y184.238
G1 X137.511 Y184.116
G1 X137.794 Y183.999
G1 X138.053 Y183.857
G1 X138.360 Y183.767
G1 X138.669 Y183.672
G1 X138.921 Y183.532
G1 X139.179 Y183.392
G1 X139.466 Y183.281
G1 X139.699 Y183.147
G1 X139.984 Y183.001
; Path 96
G0 Z0
G0 X139.959 Y183.004
G0 Z2.2
G1 F3000
G1 X140.250 Y183.139
G1 X140.581 Y183.282
G1 X140.894 Y183.428
G1 X141.238 Y183.530
G1 X141.599 Y183.635
G1 X141.914 Y183.763
G1 X142.277 Y183.850
G1 X142.596 Y183.991
G1 X142.927 Y184.114
G1 X143.267 Y184.228
G1 X143.602 Y184.380
G1 X143.914 Y184.485
G1 X144.227 Y184.618
G1 X144.521 Y184.774
G1 X144.787 Y184.946
G1 X145.074 Y185.108
G1 X145.308 Y185.278
G1 X145.556 Y185.499
G1 X145.736 Y185.743
G1 X145.955 Y185.959
G1 X146.132 Y186.248
G1 X146.259 Y186.496
G1 X146.341 Y186.801
G1 X146.479 Y187.102
G1 X146.574 Y187.422
G1 X146.629 Y187.765
G1 X146.677 Y188.106
G1 X146.725 Y188.473
G1 X146.729 Y188.818
G1 X146.781 Y189.212
G1 X146.786 Y189.620
G1 X146.812 Y189.973
G1 X146.812 Y190.349
G1 X146.834 Y190.741
G1 X146.861 Y191.110
G1 X146.860 Y191.505
G1 X146.901 Y191.875
G1 X146.906 Y192.253
G1 X146.933 Y192.634
G1 X146.987 Y192.973
; Path 97
G0 Z0
G0 X139.983 Y192.997
G0 Z2.2
G1 F3000
G1 X139.995 Y194.691
G1 X140.002 Y196.456
G1 X139.982 Y198.147
G1 X139.973 Y199.868
G1 X139.974 Y201.560
G1 X140.015 Y203.284
G1 X140.005 Y205.000
; Path 98
G0 Z0
G0 X144.982 Y205.000
G0 Z2.2
G1 F3000
G1 X144.994 Y203.648
G1 X144.961 Y202.326
G1 X144.964 Y200.977
; Path 99
G0 Z0
G0 X137.960 Y209.952
G0 Z2.2
G1 F3000
G1 X137.816 Y208.000
G1 X137.665 Y206.029
G1 X137.546 Y204.071
G1 X137.409 Y202.093
G1 X137.287 Y200.128
G1 X137.140 Y198.167
G1 X137.028 Y196.224
G1 X136.879 Y194.265
G1 X136.756 Y192.291
G1 X136.603 Y190.339
G1 X136.473 Y188.342
G1 X136.345 Y186.389
G1 X136.193 Y184.399
G1 X136.035 Y182.465
G1 X135.908 Y180.475
G1 X135.746 Y178.556
G1 X135.631 Y176.558
G1 X135.474 Y174.579
G1 X135.377 Y172.617
G1 X135.196 Y170.685
G1 X135.097 Y168.743
G1 X134.966 Y166.730
G1 X134.834 Y164.765
G1 X134.705 Y162.848
G1 X134.570 Y160.888
G1 X134.376 Y158.880
G1 X134.245 Y156.920
G1 X134.137 Y154.948
G1 X133.995 Y153.007
; Path 100
G0 Z0
G0 X131.953 Y154.984
G0 Z2.2
G1 F3000
G1 X132.329 Y153.703
G1 X132.725 Y152.461
G1 X133.076 Y151.160
G1 X133.448 Y149.903
G1 X133.773 Y148.624
G1 X134.143 Y147.325
G1 X134.479 Y146.022
G1 X134.831 Y144.742
G1 X135.203 Y143.445
G1 X135.533 Y142.169
G1 X135.876 Y140.865
G1 X136.269 Y139.621
G1 X136.670 Y138.386
G1 X137.062 Y137.113
G1 X137.472 Y135.900
G1 X137.931 Y134.660
G1 X138.409 Y133.454
G1 X138.898 Y132.276
G1 X139.470 Y131.112
G1 X139.983 Y129.977
G1 X140.609 Y128.875
G1 X141.201 Y127.773
G1 X141.891 Y126.717
G1 X142.537 Y125.653
G1 X143.254 Y124.636
G1 X143.971 Y123.603
G1 X144.701 Y122.610
G1 X145.481 Y121.608
G1 X146.293 Y120.602
G1 X147.048 Y119.652
G1 X147.849 Y118.709
G1 X148.649 Y117.722
G1 X149.434 Y116.757
G1 X150.264 Y115.801
G1 X151.086 Y114.822
G1 X151.872 Y113.876
G1 X152.635 Y112.891
G1 X153.452 Y111.930
G1 X154.232 Y110.921
G1 X154.984 Y109.950
; Path 101
G0 Z0
G0 X153.989 Y108.977
G0 Z2.2
G1 F3000
G1 X153.998 Y107.441
G1 X154.003 Y105.952
; Path 102
G0 Z0
G0 X153.965 Y105.968
G0 Z2.2
G1 F3000
G1 X154.012 Y105.899
G1 X154.062 Y105.863
G1 X154.115 Y105.789
G1 X154.153 Y105.744
G1 X154.194 Y105.705
G1 X154.240 Y105.617
G1 X154.305 Y105.551
G1 X154.325 Y105.489
G1 X154.359 Y105.413
G1 X154.413 Y105.364
G1 X154.449 Y105.282
G1 X154.506 Y105.249
G1 X154.549 Y105.187
G1 X154.606 Y105.149
G1 X154.645 Y105.107
G1 X154.717 Y105.070
G1 X154.807 Y105.074
G1 X154.841 Y105.019
G1 X154.907 Y105.002
G1 X154.981 Y105.000
G1 X155.088 Y105.019
G1 X155.140 Y105.017
G1 X155.199 Y105.028
G1 X155.314 Y105.067
G1 X155.382 Y105.089
G1 X155.502 Y105.145
G1 X155.629 Y105.220
G1 X155.701 Y105.243
G1 X155.795 Y105.282
G1 X155.907 Y105.356
G1 X156.036 Y105.392
G1 X156.118 Y105.480
G1 X156.208 Y105.520
G1 X156.331 Y105.607
G1 X156.422 Y105.661
G1 X156.543 Y105.732
G1 X156.628 Y105.809
G1 X156.752 Y105.849
G1 X156.824 Y105.908
G1 X156.953 Y105.953
; Path 103
G0 Z0
G0 X159.977 Y106.005
G0 Z2.2
G1 F3000
G1 X160.335 Y107.670
G1 X160.640 Y109.309
G1 X160.962 Y110.988
G1 X161.326 Y112.655
G1 X161.666 Y114.326
G1 X162.005 Y115.978
; Path 104
G0 Z0
G0 X162.943 Y115.935
G0 Z2.2
G1 F3000
G1 X162.976 Y116.771
G1 X162.913 Y117.703
G1 X162.985 Y118.619
G1 X163.019 Y119.486
G1 X163.063 Y120.385
G1 X163.019 Y121.415
G1 X163.069 Y122.267
G1 X163.000 Y123.220
G1 X163.049 Y124.091
G1 X163.050 Y124.970
; Path 105
G0 Z0
G0 X160.970 Y124.971
G0 Z2.2
G1 F3000
G1 X160.958 Y123.932
G1 X161.041 Y122.993
G1 X161.036 Y122.015
G1 X160.929 Y120.985
G1 X160.944 Y120.029
G1 X160.899 Y118.945
G1 X160.919 Y117.931
G1 X161.008 Y117.043
G1 X160.975 Y116.003
; Path 106
G0 Z0
G0 X161.969 Y114.960
G0 Z2.2
G1 F3000
G1 X160.244 Y114.380
G1 X158.522 Y113.842
G1 X156.800 Y113.266
G1 X155.113 Y112.693
G1 X153.429 Y112.090
G1 X151.685 Y111.562
G1 X149.972 Y110.969
; Path 107
G0 Z0
G0 X149.986 Y109.961
G0 Z2.2
G1 F3000
G1 X149.958 Y108.017
G1 X149.963 Y106.100
G1 X149.998 Y104.153
G1 X150.007 Y102.282
G1 X149.991 Y100.352
G1 X150.000 Y98.423
G1 X150.002 Y96.483
G1 X149.958 Y94.572
G1 X149.951 Y92.639
G1 X149.988 Y90.665
G1 X149.974 Y88.791
G1 X149.967 Y86.826
G1 X149.974 Y84.903
G1 X149.969 Y82.987
; Path 108
G0 Z0
G0 X147.997 Y82.954
G0 Z2.2
G1 F3000
G1 X149.734 Y83.443
G1 X151.511 Y83.985
G1 X153.201 Y84.516
G1 X154.973 Y85.002
; Path 109
G0 Z0
G0 X153.981 Y84.958
G0 Z2.2
G1 F3000
G1 X154.305 Y85.185
G1 X154.607 Y85.433
G1 X154.923 Y85.643
G1 X155.274 Y85.867
G1 X155.594 Y86.067
G1 X155.964 Y86.276
G1 X156.339 Y86.508
G1 X156.661 Y86.680
G1 X157.032 Y86.860
G1 X157.346 Y87.095
G1 X157.654 Y87.289
G1 X158.001 Y87.540
G1 X158.293 Y87.788
G1 X158.609 Y88.034
G1 X158.857 Y88.329
G1 X159.151 Y88.593
G1 X159.399 Y88.896
G1 X159.609 Y89.236
G1 X159.795 Y89.634
G1 X159.967 Y89.980
G1 X160.108 Y90.402
G1 X160.211 Y90.839
G1 X160.289 Y91.305
G1 X160.354 Y91.799
G1 X160.397 Y92.322
G1 X160.414 Y92.843
G1 X160.432 Y93.388
G1 X160.409 Y93.953
G1 X160.387 Y94.522
G1 X160.355 Y95.111
G1 X160.292 Y95.722
G1 X160.273 Y96.299
G1 X160.207 Y96.902
G1 X160.178 Y97.498
G1 X160.148 Y98.083
G1 X160.089 Y98.692
G1 X160.054 Y99.276
G1 X160.024 Y99.862
G1 X159.988 Y100.451
G1 X160.000 Y100.990
; Path 110
G0 Z0
G0 X159.987 Y100.981
G0 Z2.2
G1 F3000
G1 X158.176 Y100.803
G1 X156.310 Y100.620
G1 X154.490 Y100.466
G1 X152.637 Y100.294
G1 X150.851 Y100.139
G1 X148.996 Y99.981
; Path 111
G1 X148.979 Y99.388
G1 X148.974 Y98.846
G1 X148.971 Y98.281
G1 X148.918 Y97.662
G1 X148.909 Y97.062
G1 X148.843 Y96.449
G1 X148.781 Y95.820
G1 X148.762 Y95.230
G1 X148.750 Y94.651
G1 X148.691 Y94.024
G1 X148.666 Y93.460
G1 X148.645 Y92.854
G1 X148.658 Y92.269
G1 X148.639 Y91.740
G1 X148.689 Y91.230
G1 X148.687 Y90.704
G1 X148.716 Y90.217
G1 X148.804 Y89.766
G1 X148.911 Y89.362
G1 X149.005 Y88.948
G1 X149.158 Y88.602
G1 X149.301 Y88.264
G1 X149.485 Y87.999
G1 X149.680 Y87.700
G1 X149.876 Y87.441
G1 X150.129 Y87.234
G1 X150.399 Y87.020
G1 X150.632 Y86.845
G1 X150.900 Y86.706
G1 X151.174 Y86.513
G1 X151.467 Y86.392
G1 X151.742 Y86.216
G1 X152.057 Y86.059
G1 X152.319 Y85.934
G1 X152.612 Y85.816
G1 X152.892 Y85.644
G1 X153.178 Y85.486
G1 X153.444 Y85.326
G1 X153.696 Y85.146
G1 X153.962 Y84.959
; Path 112
G0 Z0
G0 X153.955 Y86.962
G0 Z2.2
G1 F3000
G1 X153.833 Y87.007
G1 X153.653 Y87.053
G1 X153.515 Y87.097
G1 X153.343 Y87.130
G1 X153.204 Y87.153
G1 X153.029 Y87.198
G1 X152.891 Y87.231
G1 X152.715 Y87.265
G1 X152.553 Y87.286
G1 X152.402 Y87.335
G1 X152.228 Y87.387
G1 X152.094 Y87.416
G1 X151.948 Y87.460
G1 X151.794 Y87.513
G1 X151.640 Y87.570
G1 X151.506 Y87.632
G1 X151.363 Y87.707
G1 X151.231 Y87.780
G1 X151.086 Y87.899
G1 X150.973 Y87.963
G1 X150.865 Y88.072
G1 X150.735 Y88.185
G1 X150.607 Y88.328
G1 X150.513 Y88.441
G1 X150.431 Y88.613
G1 X150.306 Y88.726
G1 X150.236 Y88.904
G1 X150.109 Y89.033
G1 X150.009 Y89.171
G1 X149.920 Y89.356
G1 X149.858 Y89.534
G1 X149.737 Y89.690
G1 X149.638 Y89.882
G1 X149.555 Y90.028
G1 X149.434 Y90.179
G1 X149.373 Y90.364
G1 X149.250 Y90.547
G1 X149.186 Y90.692
G1 X149.097 Y90.864
G1 X148.993 Y91.005
; Path 113
G0 Z0
G0 X149.973 Y90.912
G0 Z2.2
G1 F3000
G1 X150.346 Y91.795
G1 X150.513 Y92.764
G1 X150.922 Y93.644
G1 X151.155 Y94.465
G1 X151.541 Y95.350
G1 X151.827 Y96.321
G1 X152.193 Y97.215
G1 X152.444 Y98.119
G1 X152.797 Y99.012
G1 X153.040 Y99.911
; Path 114
G0 Z0
G0 X153.970 Y100.967
G0 Z2.2
G1 F3000
G1 X153.999 Y98.983
G1 X153.986 Y96.951
G1 X153.954 Y94.979
G1 X153.984 Y93.014
G1 X153.982 Y90.993
G1 X154.007 Y88.965
G1 X153.991 Y87.000
; Path 115
G0 Z0
G0 X153.970 Y86.978
G0 Z2.2
G1 F3000
G1 X154.122 Y87.044
G1 X154.269 Y87.065
G1 X154.409 Y87.098
G1 X154.567 Y87.132
G1 X154.718 Y87.178
G1 X154.866 Y87.186
G1 X155.003 Y87.227
G1 X155.164 Y87.237
G1 X155.314 Y87.287
G1 X155.463 Y87.294
G1 X155.601 Y87.309
G1 X155.762 Y87.366
G1 X155.914 Y87.408
G1 X156.061 Y87.462
G1 X156.237 Y87.527
G1 X156.360 Y87.591
G1 X156.487 Y87.658
G1 X156.659 Y87.762
G1 X156.782 Y87.897
G1 X156.959 Y87.985
G1 X157.083 Y88.121
G1 X157.259 Y88.264
G1 X157.422 Y88.452
G1 X157.559 Y88.594
G1 X157.699 Y88.807
G1 X157.860 Y88.967
G1 X158.040 Y89.193
G1 X158.160 Y89.373
G1 X158.292 Y89.588
G1 X158.461 Y89.802
G1 X158.598 Y90.003
G1 X158.762 Y90.247
G1 X158.937 Y90.456
G1 X159.064 Y90.698
G1 X159.233 Y90.914
G1 X159.365 Y91.145
G1 X159.527 Y91.352
G1 X159.666 Y91.581
G1 X159.837 Y91.817
G1 X159.967 Y91.996
; Path 116
G0 Z0
G0 X159.971 Y90.918
G0 Z2.2
G1 F3000
G1 X159.590 Y90.093
G1 X159.148 Y89.297
G1 X158.722 Y88.522
G1 X158.413 Y87.655
G1 X157.959 Y86.906
; Path 117
G0 Z0
G0 X157.969 Y86.911
G0 Z2.2
G1 F3000
G1 X157.559 Y87.655
G1 X157.225 Y88.508
G1 X156.811 Y89.281
G1 X156.373 Y90.176
G1 X155.911 Y90.937
; Path 118
G0 Z0
G0 X154.989 Y92.965
G0 Z2.2
G1 F3000
G1 X155.480 Y91.275
G1 X155.971 Y89.627
G1 X156.441 Y88.011
G1 X156.949 Y86.297
G1 X157.461 Y84.655
G1 X157.947 Y82.998
; Path 119
G0 Z0
G0 X157.994 Y83.002
G0 Z2.2
G1 F3000
G1 X158.520 Y84.666
G1 X158.988 Y86.294
G1 X159.515 Y87.984
G1 X159.986 Y89.645
G1 X160.465 Y91.312
G1 X160.989 Y92.963
; Path 120
G0 Z0
G0 X161.822 Y93.545
G0 Z2.2
G1 F3000
G1 X160.142 Y92.451
; Path 121
G0 Z0
G0 X157.977 Y92.978
G0 Z2.2
G1 F3000
G1 X157.977 Y82.978
; Path 122
G0 Z0
G0 X158.481 Y81.001
G0 Z2.2
G1 F3000
G1 X157.981 Y80.501
G1 X157.481 Y81.001
G1 X157.981 Y81.501
G1 X158.481 Y81.001
; Path 123
G0 Z0
G0 X155.959 Y77.949
G0 Z2.2
G1 F3000
G1 X155.999 Y76.445
G1 X155.994 Y74.987
; Path 124
G0 Z0
G0 X155.982 Y74.992
G0 Z2.2
G1 F3000
G1 X157.459 Y74.961
G1 X158.976 Y74.976
; Path 125
G0 Z0
G0 X158.960 Y74.988
G0 Z2.2
G1 F3000
G1 X159.470 Y76.492
G1 X159.952 Y77.980
; Path 126
G0 Z0
G0 X162.953 Y78.963
G0 Z2.2
G1 F3000
G1 X164.307 Y79.279
G1 X165.615 Y79.632
G1 X166.957 Y79.951
; Path 127
G0 Z0
G0 X166.963 Y79.982
G0 Z2.2
G1 F3000
G1 X168.829 Y79.724
G1 X170.750 Y79.461
G1 X172.625 Y79.221
G1 X174.455 Y78.954
G1 X176.361 Y78.713
G1 X178.252 Y78.430
G1 X180.102 Y78.177
G1 X182.002 Y77.948
; Path 128
G0 Z0
G0 X181.970 Y78.006
G0 Z2.2
G1 F3000
G1 X181.915 Y79.966
G1 X181.861 Y81.883
G1 X181.801 Y83.839
G1 X181.713 Y85.751
G1 X181.685 Y87.703
G1 X181.625 Y89.669
G1 X181.544 Y91.607
G1 X181.513 Y93.519
G1 X181.473 Y95.473
G1 X181.402 Y97.385
G1 X181.318 Y99.352
G1 X181.285 Y101.267
G1 X181.228 Y103.259
G1 X181.171 Y105.176
G1 X181.091 Y107.100
G1 X181.019 Y109.031
G1 X180.976 Y110.999
; Path 129
G0 Z0
G0 X182.597 Y112.260
G0 Z2.2
G1 F3000
G1 X181.409 Y113.731
; Path 130
G0 Z0
G0 X182.830 Y114.952
G0 Z2.2
G1 F3000
G1 X183.217 Y112.868
; Path 131
G0 Z0
G0 X184.211 Y112.838
G0 Z2.2
G1 F3000
G1 X183.950 Y110.926
; Path 132
G0 Z0
G0 X184.062 Y112.050
G0 Z2.2
G1 F3000
G1 X183.754 Y114.006
; Path 133
G0 Z0
G0 X183.996 Y114.972
G0 Z2.2
G1 F3000
G1 X184.501 Y113.992
G1 X184.957 Y112.997
; Path 134
G0 Z0
G0 X185.133 Y111.971
G0 Z2.2
G1 F3000
G1 X184.932 Y109.924
; Path 135
G0 Z0
G0 X185.403 Y109.828
G0 Z2.2
G1 F3000
G1 X186.503 Y108.058
; Path 136
G0 Z0
G0 X187.448 Y108.978
G0 Z2.2
G1 F3000
G1 X186.948 Y108.478
G1 X186.448 Y108.978
G1 X186.948 Y109.478
G1 X187.448 Y108.978
; Path 137
G0 Z0
G0 X187.980 Y108.969
G0 Z2.2
G1 F3000
G1 X188.825 Y110.701
G1 X189.688 Y112.419
G1 X190.553 Y114.121
G1 X191.386 Y115.815
G1 X192.240 Y117.566
G1 X193.107 Y119.278
G1 X193.963 Y120.971
; Path 138
G0 Z0
G0 X195.073 Y126.097
G0 Z2.2
G1 F3000
G1 X194.987 Y124.044
; Path 139
G0 Z0
G0 X197.124 Y126.930
G0 Z2.2
G1 F3000
G1 X199.008 Y126.902
; Path 140
G0 Z0
G0 X200.365 Y123.836
G0 Z2.2
G1 F3000
G1 X199.718 Y122.048
; Path 141
G0 Z0
G0 X200.013 Y122.980
G0 Z2.2
G1 F3000
G1 X199.237 Y123.034
G1 X198.558 Y123.044
G1 X197.742 Y123.069
G1 X197.014 Y123.051
; Path 142
G0 Z0
G0 X194.962 Y121.992
G0 Z2.2
G1 F3000
G1 X193.153 Y121.510
G1 X191.306 Y121.106
G1 X189.515 Y120.643
G1 X187.708 Y120.156
G1 X185.899 Y119.702
G1 X184.096 Y119.270
G1 X182.229 Y118.775
G1 X180.461 Y118.299
G1 X178.610 Y117.843
G1 X176.792 Y117.396
G1 X174.991 Y116.953
; Path 143
G0 Z0
G0 X174.002 Y116.935
G0 Z2.2
G1 F3000
G1 X174.217 Y116.016
G1 X174.350 Y115.277
G1 X174.430 Y114.418
G1 X174.545 Y113.563
G1 X174.779 Y112.707
G1 X174.982 Y111.921
G1 X175.055 Y111.013
; Path 144
G0 Z0
G0 X174.965 Y113.959
G0 Z2.2
G1 F3000
G1 X176.799 Y114.443
G1 X178.581 Y114.870
G1 X180.456 Y115.307
G1 X182.278 Y115.795
G1 X184.093 Y116.251
G1 X185.891 Y116.661
G1 X187.718 Y117.137
G1 X189.548 Y117.623
G1 X191.378 Y118.042
G1 X193.181 Y118.530
G1 X195.000 Y118.958
; Path 145
G0 Z0
G0 X199.641 Y118.838
G0 Z2.2
G1 F3000
G1 X200.292 Y117.008
; Path 146
G0 Z0
G0 X200.527 Y117.777
G0 Z2.2
G1 F3000
G1 X199.247 Y116.278
; Path 147
G0 Z0
G0 X194.966 Y115.999
G0 Z2.2
G1 F3000
G1 X193.127 Y115.559
G1 X191.348 Y115.117
G1 X189.511 Y114.625
G1 X187.689 Y114.205
G1 X185.893 Y113.739
G1 X184.082 Y113.246
G1 X182.269 Y112.802
G1 X180.422 Y112.357
G1 X178.590 Y111.888
G1 X176.798 Y111.449
G1 X174.971 Y110.995
; Path 148
G0 Z0
G0 X174.953 Y111.010
G0 Z2.2
G1 F3000
G1 X175.162 Y110.189
G1 X175.205 Y109.198
G1 X175.359 Y108.344
G1 X175.645 Y107.598
G1 X175.763 Y106.715
G1 X175.950 Y105.863
G1 X176.033 Y104.943
; Path 149
G0 Z0
G0 X175.977 Y104.961
G0 Z2.2
G1 F3000
G1 X176.810 Y106.655
G1 X177.691 Y108.396
G1 X178.510 Y110.104
G1 X179.364 Y111.792
G1 X180.238 Y113.556
G1 X181.107 Y115.245
G1 X181.955 Y116.966
; Path 150
G0 Z0
G0 X182.956 Y116.987
G0 Z2.2
G1 F3000
G1 X183.031 Y116.527
G1 X183.048 Y116.067
G1 X183.081 Y115.585
G1 X183.125 Y115.119
G1 X183.173 Y114.646
G1 X183.195 Y114.155
G1 X183.254 Y113.669
G1 X183.262 Y113.187
G1 X183.274 Y112.691
G1 X183.333 Y112.227
G1 X183.400 Y111.763
G1 X183.415 Y111.288
G1 X183.450 Y110.845
G1 X183.513 Y110.380
G1 X183.580 Y109.960
G1 X183.633 Y109.517
G1 X183.694 Y109.119
G1 X183.781 Y108.711
G1 X183.846 Y108.332
G1 X183.964 Y107.973
G1 X184.046 Y107.639
G1 X184.186 Y107.312
G1 X184.314 Y107.014
G1 X184.442 Y106.720
G1 X184.592 Y106.449
G1 X184.726 Y106.185
G1 X184.907 Y105.915
G1 X185.033 Y105.694
G1 X185.194 Y105.446
G1 X185.356 Y105.235
G1 X185.538 Y104.986
G1 X185.689 Y104.796
G1 X185.884 Y104.607
G1 X186.026 Y104.366
G1 X186.193 Y104.139
G1 X186.361 Y103.931
G1 X186.499 Y103.717
G1 X186.688 Y103.480
G1 X186.837 Y103.244
G1 X187.001 Y103.001
; Path 151
G0 Z0
G0 X187.988 Y100.953
G0 Z2.2
G1 F3000
G1 X187.846 Y101.133
G1 X187.679 Y101.327
G1 X187.514 Y101.518
G1 X187.363 Y101.659
G1 X187.189 Y101.826
G1 X187.042 Y101.966
G1 X186.906 Y102.129
G1 X186.720 Y102.268
G1 X186.589 Y102.427
G1 X186.400 Y102.582
G1 X186.262 Y102.742
G1 X186.085 Y102.925
G1 X185.905 Y103.104
G1 X185.780 Y103.317
G1 X185.637 Y103.573
G1 X185.486 Y103.775
G1 X185.320 Y104.026
G1 X185.208 Y104.317
G1 X185.072 Y104.620
G1 X184.948 Y104.961
G1 X184.834 Y105.319
G1 X184.709 Y105.719
G1 X184.581 Y106.124
G1 X184.489 Y106.580
G1 X184.406 Y107.053
G1 X184.283 Y107.525
G1 X184.179 Y108.006
G1 X184.090 Y108.536
G1 X184.026 Y109.060
G1 X183.906 Y109.594
G1 X183.837 Y110.145
G1 X183.727 Y110.683
G1 X183.616 Y111.248
G1 X183.550 Y111.784
G1 X183.435 Y112.351
G1 X183.372 Y112.879
G1 X183.300 Y113.422
G1 X183.190 Y113.950
G1 X183.089 Y114.466
G1 X183.000 Y114.979
; Path 152
G0 Z0
G0 X183.006 Y114.984
G0 Z2.2
G1 F3000
G1 X182.928 Y116.843
G1 X182.884 Y118.726
G1 X182.804 Y120.658
G1 X182.776 Y122.511
G1 X182.687 Y124.380
G1 X182.665 Y126.268
G1 X182.593 Y128.158
G1 X182.515 Y130.021
G1 X182.453 Y131.928
G1 X182.383 Y133.826
G1 X182.334 Y135.673
G1 X182.310 Y137.571
G1 X182.222 Y139.464
G1 X182.149 Y141.330
G1 X182.126 Y143.251
G1 X182.056 Y145.091
G1 X181.983 Y146.990
; Path 153
G0 Z0
G0 X178.957 Y147.001
G0 Z2.2
G1 F3000
G1 X179.005 Y147.110
G1 X179.079 Y147.193
G1 X179.169 Y147.294
G1 X179.229 Y147.378
G1 X179.342 Y147.465
G1 X179.396 Y147.559
G1 X179.489 Y147.636
G1 X179.567 Y147.739
G1 X179.660 Y147.804
G1 X179.729 Y147.922
G1 X179.821 Y148.000
G1 X179.871 Y148.109
G1 X179.954 Y148.228
G1 X179.981 Y148.305
G1 X180.043 Y148.408
G1 X180.047 Y148.512
G1 X180.034 Y148.639
G1 X180.056 Y148.734
G1 X180.024 Y148.856
G1 X179.996 Y148.975
G1 X179.937 Y149.131
G1 X179.859 Y149.235
G1 X179.747 Y149.347
G1 X179.654 Y149.513
G1 X179.542 Y149.659
G1 X179.392 Y149.806
G1 X179.263 Y149.966
G1 X179.086 Y150.110
G1 X178.934 Y150.262
G1 X178.747 Y150.423
G1 X178.570 Y150.565
G1 X178.389 Y150.741
G1 X178.181 Y150.918
G1 X178.022 Y151.062
G1 X177.847 Y151.242
G1 X177.659 Y151.381
G1 X177.487 Y151.512
G1 X177.312 Y151.696
G1 X177.170 Y151.866
G1 X176.994 Y152.004
; Path 154
G0 Z0
G0 X176.986 Y151.977
G0 Z2.2
G1 F3000
G1 X177.058 Y151.826
G1 X177.084 Y151.670
G1 X177.105 Y151.539
G1 X177.182 Y151.355
G1 X177.259 Y151.183
G1 X177.280 Y151.036
G1 X177.344 Y150.878
G1 X177.377 Y150.717
G1 X177.422 Y150.566
G1 X177.475 Y150.399
G1 X177.521 Y150.214
G1 X177.573 Y150.087
G1 X177.622 Y149.910
G1 X177.671 Y149.782
G1 X177.716 Y149.610
G1 X177.770 Y149.489
G1 X177.801 Y149.356
G1 X177.869 Y149.211
G1 X177.910 Y149.076
G1 X177.968 Y148.949
G1 X177.991 Y148.845
G1 X178.068 Y148.708
G1 X178.120 Y148.603
G1 X178.169 Y148.483
G1 X178.243 Y148.361
G1 X178.270 Y148.274
G1 X178.317 Y148.179
G1 X178.371 Y148.075
G1 X178.427 Y147.990
G1 X178.472 Y147.885
G1 X178.513 Y147.769
G1 X178.574 Y147.699
G1 X178.653 Y147.613
G1 X178.676 Y147.516
G1 X178.756 Y147.409
G1 X178.777 Y147.332
G1 X178.824 Y147.265
G1 X178.879 Y147.144
G1 X178.922 Y147.018
G1 X178.980 Y146.948
; Path 155
G0 Z0
G0 X179.974 Y146.976
G0 Z2.2
G1 F3000
G1 X180.061 Y145.069
G1 X180.083 Y143.188
G1 X180.165 Y141.312
G1 X180.211 Y139.469
G1 X180.286 Y137.583
G1 X180.349 Y135.654
G1 X180.391 Y133.814
G1 X180.445 Y131.909
G1 X180.499 Y130.040
G1 X180.578 Y128.118
G1 X180.637 Y126.238
G1 X180.678 Y124.394
G1 X180.742 Y122.496
G1 X180.812 Y120.614
G1 X180.861 Y118.739
G1 X180.925 Y116.842
G1 X180.972 Y114.965
; Path 156
G0 Z0
G0 X180.977 Y114.978
G0 Z2.2
G1 F3000
G1 X182.977 Y106.978
; Path 157
G1 X184.977 Y114.978
; Path 158
G0 Z0
G0 X184.977 Y114.984
G0 Z2.2
G1 F3000
G1 X184.934 Y116.986
G1 X184.849 Y119.007
G1 X184.785 Y121.003
G1 X184.748 Y122.989
G1 X184.648 Y124.956
G1 X184.615 Y126.951
G1 X184.520 Y128.951
G1 X184.503 Y130.976
G1 X184.422 Y132.972
G1 X184.354 Y134.946
G1 X184.296 Y136.983
G1 X184.236 Y138.954
G1 X184.164 Y140.965
G1 X184.138 Y142.960
G1 X184.037 Y144.964
G1 X183.986 Y146.960
; Path 159
G0 Z0
G0 X189.911 Y149.990
G0 Z2.2
G1 F3000
G1 X189.805 Y149.572
G1 X189.749 Y149.311
G1 X189.682 Y148.970
G1 X189.537 Y148.600
G1 X189.616 Y148.328
G1 X189.464 Y147.911
G1 X189.349 Y147.623
G1 X189.352 Y147.238
G1 X189.250 Y146.837
G1 X189.152 Y146.554
G1 X189.168 Y146.062
G1 X189.034 Y145.770
G1 X188.997 Y145.363
G1 X188.884 Y145.142
G1 X188.809 Y144.735
G1 X188.776 Y144.441
G1 X188.641 Y144.061
G1 X188.569 Y143.753
G1 X188.407 Y143.374
G1 X188.425 Y143.127
G1 X188.307 Y142.849
G1 X188.258 Y142.647
G1 X188.193 Y142.392
G1 X188.017 Y142.045
G1 X187.973 Y141.839
G1 X187.753 Y141.558
G1 X187.694 Y141.357
G1 X187.532 Y141.214
G1 X187.406 Y140.922
G1 X187.343 Y140.769
G1 X187.178 Y140.654
G1 X187.016 Y140.397
G1 X186.970 Y140.258
G1 X186.883 Y140.057
G1 X186.791 Y139.903
G1 X186.582 Y139.802
G1 X186.471 Y139.647
G1 X186.312 Y139.442
G1 X186.185 Y139.377
G1 X186.037 Y139.247
G1 X185.877 Y139.058
G1 X185.785 Y138.959
G1 X185.595 Y138.891
G1 X185.497 Y138.702
G1 X185.390 Y138.526
G1 X185.216 Y138.329
G1 X185.161 Y138.174
G1 X185.006 Y138.054
; Path 160
G0 Z0
G0 X183.955 Y138.039
G0 Z2.2
G1 F3000
G1 X182.936 Y138.019
G1 X181.961 Y137.907
G1 X181.022 Y137.957
; Path 161
G0 Z0
G0 X180.929 Y132.933
G0 Z2.2
G1 F3000
G1 X181.654 Y132.902
G1 X182.483 Y133.052
G1 X183.326 Y132.979
G1 X184.024 Y133.053
; Path 162
G0 Z0
G0 X183.972 Y131.989
G0 Z2.2
G1 F3000
G1 X183.891 Y130.024
G1 X183.834 Y128.079
G1 X183.775 Y126.098
G1 X183.667 Y124.164
G1 X183.610 Y122.205
G1 X183.552 Y120.204
G1 X183.440 Y118.275
G1 X183.365 Y116.290
G1 X183.303 Y114.309
G1 X183.237 Y112.359
G1 X183.142 Y110.378
G1 X183.080 Y108.420
G1 X183.031 Y106.504
G1 X182.946 Y104.491
G1 X182.870 Y102.550
G1 X182.782 Y100.574
G1 X182.698 Y98.624
G1 X182.653 Y96.651
G1 X182.553 Y94.703
G1 X182.508 Y92.768
G1 X182.397 Y90.788
G1 X182.345 Y88.785
G1 X182.251 Y86.832
G1 X182.188 Y84.860
G1 X182.098 Y82.941
G1 X182.043 Y80.955
G1 X181.965 Y79.000
; Path 163
G0 Z0
G0 X179.977 Y78.978
G0 Z2.2
G1 F3000
G1 X179.977 Y70.978
; Path 164
G0 Z0
G0 X177.977 Y73.978
G0 Z2.2
G1 F3000
G1 X181.977 Y73.978
; Path 165
G0 Z0
G0 X180.456 Y71.983
G0 Z2.2
G1 F3000
G1 X179.956 Y71.483
G1 X179.456 Y71.983
G1 X179.956 Y72.483
G1 X180.456 Y71.983
; Path 166
G0 Z0
G0 X194.951 Y69.955
G0 Z2.2
G1 F3000
G1 X194.972 Y71.927
G1 X194.948 Y73.909
G1 X194.968 Y75.886
G1 X194.967 Y77.853
G1 X194.956 Y79.830
G1 X194.937 Y81.755
G1 X194.976 Y83.773
G1 X194.947 Y85.692
G1 X194.945 Y87.678
G1 X194.976 Y89.657
G1 X194.945 Y91.640
G1 X194.948 Y93.568
G1 X194.956 Y95.580
G1 X194.981 Y97.555
G1 X194.992 Y99.500
G1 X194.990 Y101.484
G1 X194.960 Y103.460
G1 X194.996 Y105.399
G1 X194.961 Y107.353
G1 X194.994 Y109.378
G1 X194.950 Y111.330
G1 X194.965 Y113.285
G1 X195.002 Y115.278
G1 X194.999 Y117.217
G1 X194.964 Y119.230
G1 X194.968 Y121.180
G1 X194.954 Y123.161
G1 X195.010 Y125.129
G1 X195.005 Y127.089
G1 X195.006 Y129.043
G1 X194.963 Y131.018
G1 X195.014 Y132.996
G1 X194.991 Y134.959
; Path 167
G0 Z0
G0 X196.941 Y135.945
G0 Z2.2
G1 F3000
G1 X197.731 Y136.024
G1 X198.495 Y135.981
G1 X199.221 Y136.033
G1 X199.992 Y136.053
; Path 168
G0 Z0
G0 X200.004 Y137.018
G0 Z2.2
G1 F3000
G1 X200.109 Y137.336
G1 X200.109 Y137.525
G1 X200.243 Y137.882
G1 X200.258 Y138.121
G1 X200.441 Y138.400
G1 X200.471 Y138.746
G1 X200.567 Y139.091
G1 X200.688 Y139.345
G1 X200.695 Y139.609
G1 X200.742 Y139.904
G1 X200.854 Y140.263
G1 X200.921 Y140.473
G1 X200.995 Y140.689
G1 X201.038 Y141.007
G1 X201.156 Y141.337
G1 X201.261 Y141.671
G1 X201.310 Y141.918
G1 X201.405 Y142.202
G1 X201.441 Y142.455
G1 X201.513 Y142.819
G1 X201.674 Y143.069
G1 X201.760 Y143.397
G1 X201.860 Y143.616
G1 X201.970 Y143.939
G1 X202.102 Y144.251
G1 X202.199 Y144.571
G1 X202.298 Y144.811
G1 X202.336 Y145.054
G1 X202.549 Y145.317
G1 X202.652 Y145.685
G1 X202.706 Y145.918
G1 X202.925 Y146.217
G1 X203.027 Y146.561
G1 X203.233 Y146.831
G1 X203.306 Y147.219
G1 X203.416 Y147.438
G1 X203.501 Y147.731
G1 X203.731 Y147.982
G1 X203.813 Y148.317
G1 X203.909 Y148.631
G1 X204.008 Y148.892
G1 X204.212 Y149.195
G1 X204.327 Y149.525
G1 X204.509 Y149.840
G1 X204.608 Y150.073
G1 X204.809 Y150.430
G1 X204.850 Y150.679
G1 X204.993 Y150.950
; Path 169
G0 Z0
G0 X191.994 Y153.976
G0 Z2.2
G1 F3000
G1 X191.861 Y155.928
G1 X191.777 Y157.840
G1 X191.683 Y159.805
G1 X191.513 Y161.786
G1 X191.427 Y163.713
G1 X191.340 Y165.620
G1 X191.207 Y167.588
G1 X191.073 Y169.514
G1 X190.988 Y171.473
G1 X190.853 Y173.427
G1 X190.763 Y175.366
G1 X190.615 Y177.299
G1 X190.548 Y179.244
G1 X190.384 Y181.208
G1 X190.285 Y183.143
G1 X190.162 Y185.088
G1 X190.046 Y187.039
G1 X189.962 Y188.994
; Path 170
G0 Z0
G0 X189.002 Y203.782
G0 Z2.2
G1 F3000
G1 X187.069 Y204.099
; Path 171
G0 Z0
G0 X183.661 Y201.335
G0 Z2.2
G1 F3000
G1 X182.207 Y202.523
; Path 172
G0 Z0
G0 X181.979 Y204.007
G0 Z2.2
G1 F3000
G1 X181.340 Y204.810
G1 X180.735 Y205.573
G1 X180.174 Y206.326
G1 X179.550 Y207.078
G1 X178.850 Y207.862
G1 X178.205 Y208.673
G1 X177.581 Y209.315
G1 X177.096 Y210.092
G1 X176.466 Y210.911
G1 X175.735 Y211.599
G1 X175.118 Y212.474
G1 X174.502 Y213.266
G1 X173.926 Y213.958
; Path 173
G0 Z0
G0 X169.993 Y212.976
G0 Z2.2
G1 F3000
G1 X170.024 Y211.053
G1 X170.045 Y209.088
G1 X170.051 Y207.113
G1 X170.119 Y205.191
G1 X170.102 Y203.209
G1 X170.132 Y201.291
G1 X170.172 Y199.331
G1 X170.187 Y197.388
G1 X170.193 Y195.412
G1 X170.254 Y193.453
G1 X170.252 Y191.534
G1 X170.283 Y189.570
G1 X170.300 Y187.593
G1 X170.313 Y185.675
G1 X170.368 Y183.731
G1 X170.381 Y181.775
G1 X170.387 Y179.845
G1 X170.437 Y177.888
G1 X170.450 Y175.898
G1 X170.465 Y173.993
G1 X170.476 Y172.020
G1 X170.518 Y170.089
G1 X170.578 Y168.109
G1 X170.574 Y166.135
G1 X170.578 Y164.240
G1 X170.630 Y162.275
G1 X170.633 Y160.332
G1 X170.645 Y158.365
G1 X170.676 Y156.401
G1 X170.719 Y154.479
G1 X170.741 Y152.539
G1 X170.787 Y150.580
G1 X170.816 Y148.585
G1 X170.825 Y146.678
G1 X170.814 Y144.704
G1 X170.836 Y142.758
G1 X170.892 Y140.794
G1 X170.886 Y138.857
G1 X170.919 Y136.881
G1 X170.962 Y134.955
; Path 174
G0 Z0
G0 X171.977 Y129.978
G0 Z2.2
G1 F3000
G1 X175.977 Y129.978
; Path 175
G0 Z0
G0 X175.969 Y129.979
G0 Z2.2
G1 F3000
G1 X175.314 Y128.638
G1 X174.657 Y127.308
G1 X173.995 Y125.977
; Path 176
G0 Z0
G0 X173.951 Y125.982
G0 Z2.2
G1 F3000
G1 X173.308 Y127.315
G1 X172.593 Y128.618
G1 X171.947 Y129.951
; Path 177
G0 Z0
G0 X172.498 Y124.973
G0 Z2.2
G1 F3000
G1 X171.998 Y124.473
G1 X171.498 Y124.973
G1 X171.998 Y125.473
G1 X172.498 Y124.973
; Path 178
G0 Z0
G0 X169.979 Y124.927
G0 Z2.2
G1 F3000
G1 X169.983 Y123.957
G1 X169.975 Y122.898
G1 X169.956 Y121.991
G1 X170.020 Y120.982
G1 X169.952 Y119.994
G1 X170.040 Y118.991
G1 X170.065 Y118.057
G1 X169.984 Y117.048
G1 X169.998 Y115.956
G1 X170.037 Y115.052
G1 X170.011 Y114.031
; Path 179
G0 Z0
G0 X170.967 Y112.974
G0 Z2.2
G1 F3000
G1 X170.996 Y111.026
G1 X170.965 Y109.099
G1 X170.974 Y107.183
G1 X170.978 Y105.243
G1 X170.995 Y103.332
G1 X170.988 Y101.383
G1 X170.957 Y99.444
G1 X170.978 Y97.503
G1 X170.945 Y95.576
G1 X170.979 Y93.664
G1 X170.949 Y91.686
G1 X170.956 Y89.797
G1 X170.953 Y87.830
G1 X170.994 Y85.920
G1 X170.975 Y83.973
; Path 180
G0 Z0
G0 X171.984 Y86.902
G0 Z2.2
G1 F3000
G1 X172.379 Y87.663
G1 X172.835 Y88.608
G1 X173.190 Y89.331
G1 X173.565 Y90.151
G1 X173.998 Y91.041
; Path 181
G0 Z0
G0 X173.961 Y90.994
G0 Z2.2
G1 F3000
G1 X175.590 Y91.768
G1 X177.198 Y92.511
G1 X178.828 Y93.265
G1 X180.442 Y93.978
G1 X182.082 Y94.721
G1 X183.710 Y95.508
G1 X185.375 Y96.237
G1 X186.980 Y96.987
; Path 182
G0 Z0
G0 X185.005 Y96.971
G0 Z2.2
G1 F3000
G1 X186.525 Y95.991
G1 X187.994 Y94.971
; Path 183
G0 Z0
G0 X187.998 Y94.976
G0 Z2.2
G1 F3000
G1 X189.451 Y95.977
G1 X190.957 Y97.007
; Path 184
G0 Z0
G0 X190.974 Y96.973
G0 Z2.2
G1 F3000
G1 X191.001 Y98.471
G1 X190.946 Y99.984
G1 X190.994 Y101.521
G1 X190.977 Y103.002
; Path 185
G0 Z0
G0 X190.470 Y104.955
G0 Z2.2
G1 F3000
G1 X189.970 Y105.455
G1 X189.470 Y104.955
G1 X189.970 Y104.455
G1 X190.470 Y104.955
; Path 186
G0 Z0
G0 X189.998 Y106.983
G0 Z2.2
G1 F3000
G1 X189.481 Y108.503
G1 X188.999 Y109.974
G1 X188.493 Y111.485
G1 X187.963 Y113.007
; Path 187
G0 Z0
G0 X189.462 Y116.960
G0 Z2.2
G1 F3000
G1 X188.962 Y117.460
G1 X188.462 Y116.960
G1 X188.962 Y116.460
G1 X189.462 Y116.960
; Path 188
G0 Z0
G0 X190.990 Y119.970
G0 Z2.2
G1 F3000
G1 X188.872 Y119.976
; Path 189
G0 Z0
G0 X188.482 Y124.958
G0 Z2.2
G1 F3000
G1 X187.982 Y124.458
G1 X187.482 Y124.958
G1 X187.982 Y125.458
G1 X188.482 Y124.958
; Path 190
G0 Z0
G0 X185.989 Y121.008
G0 Z2.2
G1 F3000
G1 X185.842 Y121.155
G1 X185.682 Y121.287
G1 X185.500 Y121.442
G1 X185.361 Y121.539
G1 X185.207 Y121.663
G1 X185.032 Y121.775
G1 X184.859 Y121.896
G1 X184.701 Y122.006
G1 X184.552 Y122.099
G1 X184.374 Y122.246
G1 X184.205 Y122.401
G1 X184.057 Y122.506
G1 X183.902 Y122.680
G1 X183.755 Y122.797
G1 X183.604 Y122.937
G1 X183.476 Y123.133
G1 X183.331 Y123.338
G1 X183.224 Y123.524
G1 X183.109 Y123.773
G1 X183.006 Y123.984
G1 X182.895 Y124.223
G1 X182.825 Y124.519
G1 X182.780 Y124.830
G1 X182.678 Y125.122
G1 X182.640 Y125.467
G1 X182.558 Y125.782
G1 X182.489 Y126.123
G1 X182.461 Y126.485
G1 X182.446 Y126.828
G1 X182.379 Y127.220
G1 X182.371 Y127.585
G1 X182.307 Y127.975
G1 X182.278 Y128.328
G1 X182.239 Y128.738
G1 X182.218 Y129.115
G1 X182.169 Y129.497
G1 X182.147 Y129.883
G1 X182.091 Y130.240
G1 X182.039 Y130.610
G1 X181.999 Y130.955
; Path 191
G0 Z0
G0 X181.047 Y124.993
G0 Z2.2
G1 F3000
G1 X182.069 Y124.988
G1 X182.961 Y125.051
G1 X184.037 Y124.980
; Path 192
G0 Z0
G0 X183.991 Y122.988
G0 Z2.2
G1 F3000
G1 X184.463 Y121.959
G1 X184.983 Y120.973
; Path 193
G0 Z0
G0 X185.123 Y117.972
G0 Z2.2
G1 F3000
G1 X184.956 Y119.932
; Path 194
G0 Z0
G0 X180.886 Y119.905
G0 Z2.2
G1 F3000
G1 X178.961 Y119.891
; Path 195
G0 Z0
G0 X178.889 Y114.643
G0 Z2.2
G1 F3000
G1 X176.980 Y115.285
; Path 196
G0 Z0
G0 X176.931 Y117.982
G0 Z2.2
G1 F3000
G1 X176.303 Y118.437
G1 X175.586 Y118.932
G1 X174.919 Y119.555
G1 X174.218 Y120.057
G1 X173.684 Y120.534
G1 X172.953 Y121.036
; Path 197
G0 Z0
G0 X173.936 Y120.944
G0 Z2.2
G1 F3000
G1 X173.123 Y120.962
G1 X172.087 Y120.919
G1 X171.233 Y120.908
G1 X170.365 Y121.055
G1 X169.441 Y121.067
G1 X168.500 Y121.040
G1 X167.680 Y120.977
G1 X166.854 Y120.974
G1 X165.898 Y121.045
; Path 198
G0 Z0
G0 X167.977 Y122.978
G0 Z2.2
G1 F3000
G1 X164.977 Y86.978
; Path 199
G1 X274.977 Y88.978
; Path 200
G1 X271.977 Y124.978
; Path 201
G0 Z0
G0 X277.951 Y126.981
G0 Z2.2
G1 F3000
G1 X275.987 Y127.231
G1 X274.075 Y127.516
G1 X272.097 Y127.832
G1 X270.186 Y128.079
G1 X268.223 Y128.394
G1 X266.288 Y128.636
G1 X264.318 Y128.929
G1 X262.374 Y129.186
G1 X260.440 Y129.484
G1 X258.534 Y129.765
G1 X256.590 Y130.010
G1 X254.592 Y130.276
G1 X252.651 Y130.568
G1 X250.732 Y130.841
G1 X248.779 Y131.106
G1 X246.862 Y131.431
G1 X244.886 Y131.704
G1 X242.965 Y131.975
G1 X240.985 Y132.229
G1 X239.074 Y132.527
G1 X237.105 Y132.770
G1 X235.204 Y133.094
G1 X233.216 Y133.336
G1 X231.284 Y133.630
G1 X229.371 Y133.895
G1 X227.386 Y134.165
G1 X225.426 Y134.448
G1 X223.500 Y134.730
G1 X221.556 Y135.006
G1 X219.604 Y135.265
G1 X217.660 Y135.569
G1 X215.734 Y135.851
G1 X213.783 Y136.143
G1 X211.849 Y136.414
G1 X209.899 Y136.657
G1 X207.955 Y136.949
; Path 202
G0 Z0
G0 X208.006 Y136.958
G0 Z2.2
G1 F3000
G1 X208.390 Y135.051
G1 X208.714 Y133.087
G1 X209.057 Y131.172
G1 X209.419 Y129.222
G1 X209.755 Y127.330
G1 X210.106 Y125.406
G1 X210.482 Y123.460
G1 X210.835 Y121.497
G1 X211.166 Y119.596
G1 X211.545 Y117.665
G1 X211.887 Y115.726
G1 X212.276 Y113.783
G1 X212.622 Y111.867
G1 X212.961 Y109.953
; Path 203
G0 Z0
G0 X212.961 Y109.988
G0 Z2.2
G1 F3000
G1 X214.736 Y110.712
G1 X216.542 Y111.431
G1 X218.330 Y112.141
G1 X220.079 Y112.827
G1 X221.910 Y113.539
G1 X223.651 Y114.264
G1 X225.469 Y114.992
G1 X227.225 Y115.703
G1 X229.036 Y116.420
G1 X230.815 Y117.118
G1 X232.608 Y117.838
G1 X234.405 Y118.547
G1 X236.159 Y119.293
G1 X237.951 Y119.987
; Path 204
G0 Z0
G0 X237.968 Y119.992
G0 Z2.2
G1 F3000
G1 X236.014 Y120.217
G1 X234.032 Y120.447
G1 X232.082 Y120.626
G1 X230.138 Y120.864
G1 X228.217 Y121.104
G1 X226.202 Y121.309
G1 X224.249 Y121.524
G1 X222.348 Y121.722
G1 X220.338 Y121.968
G1 X218.414 Y122.145
G1 X216.447 Y122.409
G1 X214.479 Y122.578
G1 X212.522 Y122.815
G1 X210.595 Y123.037
G1 X208.641 Y123.279
G1 X206.685 Y123.449
G1 X204.729 Y123.676
G1 X202.777 Y123.883
G1 X200.808 Y124.105
G1 X198.832 Y124.308
G1 X196.883 Y124.542
G1 X194.921 Y124.796
G1 X192.969 Y124.958
G1 X190.995 Y125.227
G1 X189.080 Y125.418
G1 X187.084 Y125.642
G1 X185.172 Y125.874
G1 X183.212 Y126.077
G1 X181.266 Y126.304
G1 X179.291 Y126.482
G1 X177.304 Y126.706
G1 X175.370 Y126.928
G1 X173.435 Y127.175
G1 X171.429 Y127.394
G1 X169.493 Y127.583
G1 X167.546 Y127.805
G1 X165.590 Y128.055
G1 X163.647 Y128.270
G1 X161.681 Y128.490
G1 X159.716 Y128.665
G1 X157.757 Y128.921
G1 X155.838 Y129.101
G1 X153.857 Y129.322
G1 X151.912 Y129.535
G1 X149.922 Y129.769
G1 X147.984 Y129.984
; Path 205
G0 Z0
G0 X147.950 Y129.967
G0 Z2.2
G1 F3000
G1 X147.897 Y131.924
G1 X147.783 Y133.855
G1 X147.757 Y135.833
G1 X147.642 Y137.791
G1 X147.620 Y139.725
G1 X147.494 Y141.708
G1 X147.451 Y143.644
G1 X147.398 Y145.585
G1 X147.315 Y147.530
G1 X147.212 Y149.463
G1 X147.164 Y151.447
G1 X147.097 Y153.408
G1 X147.007 Y155.337
G1 X146.956 Y157.308
G1 X146.856 Y159.238
G1 X146.778 Y161.192
G1 X146.715 Y163.171
G1 X146.628 Y165.128
G1 X146.615 Y167.024
G1 X146.489 Y169.002
G1 X146.460 Y170.985
G1 X146.361 Y172.906
G1 X146.299 Y174.882
G1 X146.243 Y176.791
G1 X146.167 Y178.756
G1 X146.101 Y180.739
G1 X145.987 Y182.676
G1 X145.956 Y184.629
G1 X145.891 Y186.598
G1 X145.808 Y188.516
G1 X145.750 Y190.475
G1 X145.652 Y192.406
G1 X145.597 Y194.369
G1 X145.514 Y196.306
G1 X145.412 Y198.280
G1 X145.344 Y200.262
G1 X145.274 Y202.206
G1 X145.208 Y204.153
G1 X145.171 Y206.114
G1 X145.065 Y208.057
G1 X145.006 Y209.996
; Path 206
G0 Z0
G0 X144.955 Y209.997
G0 Z2.2
G1 F3000
G1 X146.865 Y210.349
G1 X148.852 Y210.671
G1 X150.782 Y210.940
G1 X152.714 Y211.307
G1 X154.646 Y211.635
G1 X156.553 Y211.919
G1 X158.514 Y212.282
G1 X160.412 Y212.567
G1 X162.399 Y212.905
G1 X164.290 Y213.245
G1 X166.265 Y213.517
G1 X168.152 Y213.848
G1 X170.125 Y214.189
G1 X172.049 Y214.529
G1 X174.003 Y214.843
G1 X175.905 Y215.153
G1 X177.846 Y215.492
G1 X179.801 Y215.802
G1 X181.737 Y216.130
G1 X183.686 Y216.426
G1 X185.593 Y216.751
G1 X187.561 Y217.071
G1 X189.463 Y217.416
G1 X191.392 Y217.719
G1 X193.326 Y218.074
G1 X195.251 Y218.404
G1 X197.197 Y218.705
G1 X199.156 Y219.002
G1 X201.060 Y219.374
G1 X202.988 Y219.685
G1 X204.951 Y220.000
; Path 207
G0 Z0
G0 X210.003 Y226.959
G0 Z2.2
G1 F3000
G1 X209.186 Y227.093
G1 X208.465 Y227.289
G1 X207.644 Y227.638
G1 X206.870 Y227.769
G1 X206.099 Y227.984
G1 X205.333 Y228.217
G1 X204.541 Y228.367
G1 X203.737 Y228.665
G1 X202.945 Y228.938
G1 X202.116 Y229.070
G1 X201.452 Y229.292
G1 X200.602 Y229.596
G1 X199.842 Y229.822
G1 X199.101 Y230.021
G1 X198.207 Y230.292
G1 X197.468 Y230.509
G1 X196.759 Y230.760
G1 X195.894 Y230.923
G1 X195.134 Y231.077
G1 X194.335 Y231.353
G1 X193.583 Y231.597
G1 X192.798 Y231.654
G1 X191.949 Y231.830
G1 X191.204 Y232.075
G1 X190.454 Y232.168
G1 X189.574 Y232.376
G1 X188.810 Y232.418
G1 X188.075 Y232.623
G1 X187.216 Y232.782
G1 X186.460 Y232.796
G1 X185.657 Y232.812
G1 X184.950 Y232.945
G1 X184.155 Y232.953
G1 X183.317 Y233.031
G1 X182.531 Y233.067
G1 X181.827 Y233.006
G1 X181.112 Y232.970
G1 X180.331 Y232.916
G1 X179.495 Y232.905
G1 X178.709 Y232.841
G1 X177.994 Y232.698
G1 X177.095 Y232.631
G1 X176.420 Y232.641
G1 X175.592 Y232.501
G1 X174.734 Y232.395
G1 X174.074 Y232.313
G1 X173.325 Y232.121
G1 X172.477 Y232.040
G1 X171.771 Y231.842
G1 X170.873 Y231.806
G1 X170.193 Y231.635
G1 X169.363 Y231.509
G1 X168.551 Y231.356
G1 X167.874 Y231.227
G1 X166.954 Y231.078
G1 X166.250 Y230.961
G1 X165.459 Y230.910
G1 X164.750 Y230.677
G1 X163.930 Y230.567
G1 X163.136 Y230.447
G1 X162.313 Y230.321
G1 X161.642 Y230.235
G1 X160.791 Y230.186
G1 X160.020 Y230.021
; Path 208
G0 Z0
G0 X162.952 Y230.017
G0 Z2.2
G1 F3000
G1 X160.949 Y229.818
; Path 209
G0 Z0
G0 X161.013 Y228.970
G0 Z2.2
G1 F3000
G1 X162.981 Y229.120
; Path 210
G0 Z0
G0 X168.894 Y226.970
G0 Z2.2
G1 F3000
G1 X170.874 Y226.964
; Path 211
G0 Z0
G0 X174.947 Y219.983
G0 Z2.2
G1 F3000
G1 X172.994 Y220.010
G1 X171.057 Y220.122
G1 X169.142 Y220.148
G1 X167.151 Y220.219
G1 X165.250 Y220.245
G1 X163.270 Y220.347
G1 X161.348 Y220.365
G1 X159.401 Y220.453
G1 X157.443 Y220.457
G1 X155.511 Y220.556
G1 X153.569 Y220.580
G1 X151.628 Y220.634
G1 X149.671 Y220.687
G1 X147.710 Y220.770
G1 X145.813 Y220.815
G1 X143.825 Y220.884
G1 X141.934 Y220.952
G1 X139.963 Y220.986
; Path 212
G0 Z0
G0 X129.987 Y232.989
G0 Z2.2
G1 F3000
G1 X131.984 Y232.967
G1 X133.938 Y233.013
G1 X135.949 Y233.002
G1 X137.875 Y232.966
G1 X139.880 Y233.013
G1 X141.861 Y233.010
G1 X143.844 Y232.963
G1 X145.792 Y232.973
G1 X147.817 Y233.002
G1 X149.765 Y233.013
G1 X151.721 Y232.984
G1 X153.718 Y233.008
G1 X155.698 Y232.969
G1 X157.652 Y232.978
G1 X159.652 Y232.999
G1 X161.616 Y232.965
G1 X163.624 Y232.976
G1 X165.607 Y232.967
G1 X167.556 Y232.994
G1 X169.568 Y232.984
G1 X171.542 Y232.968
G1 X173.534 Y232.986
G1 X175.469 Y233.005
G1 X177.494 Y232.987
G1 X179.454 Y232.977
G1 X181.439 Y232.994
G1 X183.374 Y232.963
G1 X185.404 Y232.985
G1 X187.341 Y232.972
G1 X189.342 Y232.989
G1 X191.340 Y232.990
G1 X193.262 Y233.014
G1 X195.286 Y233.004
G1 X197.234 Y232.996
G1 X199.237 Y232.992
G1 X201.210 Y233.000
G1 X203.180 Y232.979
G1 X205.139 Y233.009
G1 X207.116 Y233.009
G1 X209.135 Y233.019
G1 X211.121 Y233.007
G1 X213.091 Y232.982
G1 X215.027 Y232.980
G1 X217.041 Y232.979
G1 X219.007 Y232.967
G1 X220.997 Y233.003
G1 X222.936 Y232.996
G1 X224.951 Y232.979
G1 X226.950 Y233.014
G1 X228.892 Y232.988
G1 X230.898 Y233.019
G1 X232.836 Y233.010
G1 X234.861 Y233.010
G1 X236.809 Y233.023
G1 X238.817 Y233.000
G1 X240.797 Y232.985
G1 X242.767 Y232.988
G1 X244.702 Y232.999
G1 X246.704 Y233.007
G1 X248.689 Y232.999
G1 X250.646 Y232.996
G1 X252.640 Y232.981
G1 X254.602 Y232.985
G1 X256.586 Y232.988
G1 X258.588 Y232.995
G1 X260.525 Y232.968
G1 X262.502 Y232.985
G1 X264.495 Y232.978
G1 X266.457 Y232.985
G1 X268.444 Y233.024
G1 X270.445 Y232.975
G1 X272.397 Y232.972
G1 X274.368 Y232.985
G1 X276.360 Y233.019
G1 X278.369 Y232.994
G1 X280.321 Y233.020
G1 X282.293 Y233.008
G1 X284.261 Y232.986
G1 X286.252 Y233.020
G1 X288.232 Y232.989
G1 X290.221 Y232.997
G1 X292.196 Y232.990
G1 X294.158 Y232.984
G1 X296.171 Y232.986
G1 X298.113 Y233.006
G1 X300.105 Y232.974
G1 X302.080 Y232.979
G1 X304.049 Y232.996
G1 X306.029 Y233.007
G1 X308.000 Y233.024
G1 X310.006 Y232.997
; Path 213
G0 Z0
G0 X319.958 Y232.975
G0 Z2.2
G1 F3000
G1 X317.958 Y232.990
G1 X315.987 Y232.961
G1 X313.989 Y232.990
G1 X311.945 Y232.990
G1 X309.961 Y232.999
G1 X307.955 Y232.981
G1 X305.958 Y232.984
G1 X303.967 Y232.974
G1 X301.947 Y232.961
G1 X299.935 Y232.967
G1 X297.983 Y232.975
G1 X295.977 Y232.997
G1 X293.938 Y232.980
G1 X291.956 Y232.954
G1 X289.962 Y232.980
G1 X287.949 Y232.995
G1 X285.976 Y232.950
G1 X283.994 Y232.973
G1 X281.993 Y232.976
G1 X279.952 Y232.962
G1 X277.963 Y232.995
G1 X275.936 Y232.970
G1 X273.979 Y232.953
G1 X271.952 Y232.959
G1 X269.991 Y233.010
G1 X267.987 Y232.975
G1 X265.955 Y232.968
G1 X263.988 Y232.987
G1 X261.955 Y232.980
G1 X259.948 Y232.970
G1 X257.965 Y233.000
G1 X255.944 Y232.963
G1 X253.984 Y233.014
G1 X251.954 Y232.985
G1 X249.946 Y232.985
G1 X248.000 Y232.994
G1 X245.962 Y233.013
G1 X243.955 Y232.980
G1 X241.993 Y233.007
G1 X239.958 Y232.987
G1 X237.954 Y233.007
G1 X235.945 Y232.964
G1 X234.002 Y233.014
G1 X231.950 Y232.982
G1 X229.976 Y232.958
G1 X227.992 Y233.005
G1 X226.001 Y232.987
G1 X223.955 Y233.006
G1 X221.958 Y233.006
G1 X219.995 Y232.999
G1 X217.954 Y232.965
G1 X215.988 Y232.999
G1 X213.983 Y233.012
G1 X211.967 Y233.008
G1 X210.005 Y233.004
G1 X207.994 Y233.016
G1 X205.977 Y232.979
G1 X203.970 Y232.992
G1 X201.961 Y233.005
G1 X199.992 Y232.964
G1 X197.994 Y233.015
G1 X195.956 Y233.010
G1 X194.005 Y233.018
G1 X191.970 Y233.012
G1 X190.002 Y233.001
G1 X187.957 Y232.993
G1 X185.955 Y232.985
G1 X183.976 Y233.011
G1 X181.953 Y232.990
G1 X179.972 Y232.965
G1 X178.000 Y233.009
G1 X175.969 Y232.986
G1 X174.012 Y233.014
G1 X171.996 Y232.983
G1 X169.993 Y233.015
G1 X167.971 Y232.998
G1 X166.008 Y233.006
G1 X163.993 Y232.992
G1 X161.979 Y232.976
G1 X159.986 Y232.980
G1 X157.974 Y233.003
G1 X155.966 Y232.989
G1 X153.984 Y233.017
G1 X151.987 Y232.992
G1 X149.976 Y233.007
G1 X148.016 Y233.024
G1 X145.993 Y232.980
G1 X143.983 Y232.975
G1 X141.963 Y233.008
G1 X140.014 Y232.975
G1 X138.006 Y233.029
G1 X135.960 Y233.026
G1 X134.012 Y232.976
G1 X131.960 Y232.981
G1 X129.998 Y232.998
G1 X127.965 Y233.011
G1 X125.989 Y232.987
G1 X124.014 Y233.031
G1 X121.991 Y233.030
G1 X119.991 Y233.002
; Path 214
G0 Z0
G0 X119.985 Y234.916
G0 Z2.2
G1 F3000
G1 X120.759 Y234.954
G1 X121.481 Y235.179
G1 X122.350 Y235.262
G1 X123.100 Y235.354
G1 X123.924 Y235.518
G1 X124.709 Y235.624
G1 X125.409 Y235.669
G1 X126.213 Y235.872
G1 X126.987 Y235.976
G1 X127.739 Y236.221
G1 X128.589 Y236.247
G1 X129.326 Y236.420
G1 X130.108 Y236.609
G1 X130.839 Y236.652
G1 X131.733 Y236.834
G1 X132.438 Y236.953
G1 X133.155 Y237.007
G1 X133.979 Y237.232
G1 X134.832 Y237.366
G1 X135.553 Y237.423
G1 X136.318 Y237.457
G1 X137.118 Y237.542
G1 X137.816 Y237.721
G1 X138.670 Y237.783
G1 X139.429 Y237.892
G1 X140.216 Y237.963
G1 X140.958 Y238.011
G1 X141.790 Y237.986
G1 X142.546 Y237.935
G1 X143.332 Y237.945
G1 X144.116 Y237.983
G1 X144.916 Y237.983
G1 X145.681 Y237.930
G1 X146.461 Y237.832
G1 X147.288 Y237.876
G1 X148.048 Y237.745
G1 X148.800 Y237.655
G1 X149.640 Y237.551
G1 X150.399 Y237.384
G1 X151.184 Y237.302
G1 X151.892 Y237.215
G1 X152.811 Y236.986
G1 X153.470 Y236.781
G1 X154.324 Y236.702
G1 X155.098 Y236.449
G1 X155.953 Y236.376
G1 X156.652 Y236.151
G1 X157.466 Y235.991
G1 X158.298 Y235.770
G1 X158.960 Y235.658
G1 X159.789 Y235.436
G1 X160.611 Y235.218
G1 X161.411 Y235.055
G1 X162.258 Y234.777
G1 X163.019 Y234.690
G1 X163.755 Y234.429
G1 X164.471 Y234.296
G1 X165.343 Y234.029
G1 X166.180 Y233.934
G1 X166.899 Y233.671
G1 X167.613 Y233.530
G1 X168.541 Y233.273
G1 X169.299 Y233.094
G1 X170.041 Y232.992
; Path 215
G0 Z0
G0 X177.026 Y229.939
G0 Z2.2
G1 F3000
G1 X178.949 Y230.018
; Path 216
G0 Z0
G0 X184.027 Y228.100
G0 Z2.2
G1 F3000
G1 X185.968 Y228.094
; Path 217
G0 Z0
G0 X199.988 Y234.956
G0 Z2.2
G1 F3000
G1 X198.498 Y234.862
G1 X196.987 Y234.733
G1 X195.480 Y234.595
G1 X193.987 Y234.467
G1 X192.494 Y234.293
G1 X190.986 Y234.178
G1 X189.490 Y234.039
G1 X187.985 Y233.883
G1 X186.485 Y233.748
G1 X184.985 Y233.599
G1 X183.494 Y233.442
G1 X181.984 Y233.346
G1 X180.458 Y233.249
G1 X178.983 Y233.140
G1 X177.509 Y233.046
G1 X175.982 Y232.999
G1 X174.507 Y232.999
G1 X172.981 Y232.942
G1 X171.502 Y232.959
G1 X169.979 Y232.987
G1 X168.481 Y233.048
G1 X166.977 Y233.144
G1 X165.451 Y233.291
G1 X163.974 Y233.403
G1 X162.494 Y233.556
G1 X160.972 Y233.746
G1 X159.458 Y233.931
G1 X157.969 Y234.153
G1 X156.494 Y234.373
G1 X154.966 Y234.609
G1 X153.466 Y234.846
G1 X151.963 Y235.094
G1 X150.457 Y235.342
G1 X148.959 Y235.591
G1 X147.473 Y235.837
G1 X145.956 Y236.083
G1 X144.439 Y236.318
G1 X142.953 Y236.550
G1 X141.443 Y236.791
G1 X139.950 Y236.976
; Path 218
G0 Z0
G0 X140.916 Y245.988
G0 Z2.2
G1 F3000
G1 X142.972 Y245.902
; Path 219
G0 Z0
G0 X150.976 Y243.903
G0 Z2.2
G1 F3000
G1 X153.063 Y244.014
; Path 220
G0 Z0
G0 X154.985 Y239.998
G0 Z2.2
G1 F3000
G1 X154.994 Y238.097
G1 X154.986 Y236.225
G1 X155.016 Y234.356
G1 X154.965 Y232.480
G1 X155.002 Y230.609
G1 X154.967 Y228.733
G1 X154.989 Y226.874
G1 X154.978 Y224.997
G1 X155.021 Y223.113
G1 X154.993 Y221.261
G1 X155.004 Y219.349
G1 X154.984 Y217.496
G1 X154.972 Y215.601
G1 X154.970 Y213.702
G1 X154.981 Y211.852
G1 X154.999 Y209.973
; Path 221
G0 Z0
G0 X154.997 Y209.953
G0 Z2.2
G1 F3000
G1 X155.051 Y207.961
G1 X155.045 Y206.024
G1 X155.054 Y204.020
G1 X155.123 Y202.039
G1 X155.120 Y200.077
G1 X155.142 Y198.078
G1 X155.173 Y196.135
G1 X155.177 Y194.170
G1 X155.198 Y192.199
G1 X155.272 Y190.225
G1 X155.256 Y188.230
G1 X155.308 Y186.281
G1 X155.292 Y184.286
G1 X155.350 Y182.304
G1 X155.387 Y180.312
G1 X155.366 Y178.378
G1 X155.442 Y176.399
G1 X155.427 Y174.435
G1 X155.465 Y172.463
G1 X155.505 Y170.474
G1 X155.534 Y168.478
G1 X155.524 Y166.511
G1 X155.541 Y164.521
G1 X155.607 Y162.538
G1 X155.590 Y160.595
G1 X155.662 Y158.626
G1 X155.686 Y156.658
G1 X155.683 Y154.694
G1 X155.743 Y152.679
G1 X155.765 Y150.691
G1 X155.757 Y148.724
G1 X155.805 Y146.763
G1 X155.834 Y144.798
G1 X155.819 Y142.824
G1 X155.880 Y140.853
G1 X155.870 Y138.868
G1 X155.913 Y136.886
G1 X155.933 Y134.938
G1 X155.963 Y132.952
; Path 222
G0 Z0
G0 X159.958 Y129.004
G0 Z2.2
G1 F3000
G1 X160.449 Y130.716
G1 X160.992 Y132.480
G1 X161.518 Y134.244
G1 X162.002 Y135.965
; Path 223
G0 Z0
G0 X163.924 Y134.960
G0 Z2.2
G1 F3000
G1 X164.762 Y134.915
G1 X165.400 Y134.990
G1 X166.196 Y134.984
G1 X167.010 Y135.043
; Path 224
G0 Z0
G0 X167.989 Y136.992
G0 Z2.2
G1 F3000
G1 X167.010 Y138.479
G1 X165.949 Y139.991
G1 X164.980 Y141.457
G1 X163.961 Y142.957
; Path 225
G0 Z0
G0 X163.911 Y140.026
G0 Z2.2
G1 F3000
G1 X164.634 Y139.989
G1 X165.471 Y139.930
G1 X166.160 Y139.909
G1 X166.976 Y139.925
; Path 226
G0 Z0
G0 X165.022 Y136.941
G0 Z2.2
G1 F3000
G1 X165.110 Y137.268
G1 X165.222 Y137.619
G1 X165.270 Y137.957
G1 X165.312 Y138.322
G1 X165.498 Y138.671
G1 X165.509 Y138.993
G1 X165.650 Y139.323
G1 X165.700 Y139.743
G1 X165.746 Y140.035
G1 X165.843 Y140.459
G1 X165.843 Y140.649
G1 X165.984 Y141.074
G1 X166.008 Y141.424
G1 X166.074 Y141.817
G1 X166.228 Y142.098
G1 X166.324 Y142.458
G1 X166.372 Y142.803
G1 X166.484 Y143.096
G1 X166.525 Y143.485
G1 X166.667 Y143.711
G1 X166.757 Y144.055
G1 X166.817 Y144.307
G1 X166.883 Y144.587
G1 X167.050 Y144.965
G1 X167.105 Y145.205
G1 X167.215 Y145.484
G1 X167.369 Y145.818
G1 X167.450 Y146.085
G1 X167.674 Y146.412
G1 X167.709 Y146.622
G1 X167.847 Y146.831
G1 X168.017 Y147.081
G1 X168.065 Y147.388
G1 X168.222 Y147.570
G1 X168.237 Y147.804
G1 X168.433 Y148.127
G1 X168.530 Y148.410
G1 X168.622 Y148.585
G1 X168.807 Y148.851
G1 X168.982 Y149.127
G1 X169.126 Y149.300
G1 X169.183 Y149.572
G1 X169.296 Y149.776
G1 X169.419 Y150.116
G1 X169.555 Y150.300
G1 X169.755 Y150.483
G1 X169.732 Y150.757
G1 X169.920 Y151.047
; Path 227
G0 Z0
G0 X167.004 Y149.988
G0 Z2.2
G1 F3000
G1 X167.045 Y148.034
G1 X167.108 Y146.116
G1 X167.197 Y144.181
G1 X167.233 Y142.215
G1 X167.298 Y140.258
G1 X167.359 Y138.335
G1 X167.409 Y136.376
G1 X167.440 Y134.447
G1 X167.553 Y132.476
G1 X167.576 Y130.573
G1 X167.638 Y128.587
G1 X167.689 Y126.696
G1 X167.755 Y124.728
G1 X167.807 Y122.770
G1 X167.893 Y120.829
G1 X167.931 Y118.879
G1 X167.990 Y116.952
; Path 228
G0 Z0
G0 X167.977 Y116.978
G0 Z2.2
G1 F3000
G1 X165.977 Y108.978
; Path 229
G1 X163.977 Y116.978
; Path 230
G0 Z0
G0 X163.986 Y116.965
G0 Z2.2
G1 F3000
G1 X163.950 Y118.890
G1 X163.895 Y120.848
G1 X163.826 Y122.807
G1 X163.779 Y124.729
G1 X163.715 Y126.685
G1 X163.660 Y128.635
G1 X163.579 Y130.527
G1 X163.495 Y132.484
G1 X163.460 Y134.423
G1 X163.392 Y136.403
G1 X163.341 Y138.308
G1 X163.276 Y140.270
G1 X163.235 Y142.231
G1 X163.195 Y144.128
G1 X163.098 Y146.114
G1 X163.047 Y148.005
G1 X162.995 Y149.967
; Path 231
G0 Z0
G0 X161.990 Y149.986
G0 Z2.2
G1 F3000
G1 X162.160 Y149.856
G1 X162.305 Y149.679
G1 X162.481 Y149.536
G1 X162.647 Y149.364
G1 X162.836 Y149.231
G1 X163.005 Y149.045
G1 X163.169 Y148.867
G1 X163.367 Y148.725
G1 X163.534 Y148.586
G1 X163.721 Y148.407
G1 X163.891 Y148.271
G1 X164.055 Y148.094
G1 X164.185 Y147.921
G1 X164.358 Y147.789
G1 X164.508 Y147.658
G1 X164.617 Y147.496
G1 X164.696 Y147.348
G1 X164.821 Y147.217
G1 X164.867 Y147.095
G1 X164.958 Y146.956
G1 X164.977 Y146.854
G1 X165.020 Y146.714
G1 X165.021 Y146.588
G1 X165.014 Y146.490
G1 X164.979 Y146.398
G1 X164.954 Y146.280
G1 X164.873 Y146.209
G1 X164.850 Y146.082
G1 X164.778 Y145.967
G1 X164.714 Y145.891
G1 X164.629 Y145.806
G1 X164.559 Y145.706
G1 X164.456 Y145.614
G1 X164.395 Y145.523
G1 X164.301 Y145.402
G1 X164.236 Y145.339
G1 X164.191 Y145.249
G1 X164.092 Y145.151
G1 X164.026 Y145.073
G1 X163.977 Y144.956
; Path 232
G0 Z0
G0 X163.949 Y144.978
G0 Z2.2
G1 F3000
G1 X163.913 Y145.048
G1 X163.852 Y145.174
G1 X163.817 Y145.275
G1 X163.755 Y145.362
G1 X163.714 Y145.446
G1 X163.658 Y145.547
G1 X163.633 Y145.642
G1 X163.561 Y145.730
G1 X163.508 Y145.845
G1 X163.464 Y145.916
G1 X163.403 Y145.992
G1 X163.367 Y146.106
G1 X163.310 Y146.181
G1 X163.270 Y146.305
G1 X163.213 Y146.413
G1 X163.172 Y146.514
G1 X163.102 Y146.637
G1 X163.075 Y146.738
G1 X163.042 Y146.838
G1 X162.976 Y146.979
G1 X162.945 Y147.104
G1 X162.877 Y147.239
G1 X162.834 Y147.382
G1 X162.778 Y147.516
G1 X162.719 Y147.682
G1 X162.678 Y147.808
G1 X162.642 Y147.986
G1 X162.578 Y148.110
G1 X162.509 Y148.256
G1 X162.478 Y148.420
G1 X162.409 Y148.553
G1 X162.378 Y148.736
G1 X162.325 Y148.907
G1 X162.278 Y149.053
G1 X162.233 Y149.219
G1 X162.177 Y149.369
G1 X162.132 Y149.527
G1 X162.077 Y149.682
G1 X162.037 Y149.844
G1 X161.977 Y149.987
; Path 233
G0 Z0
G0 X161.953 Y149.984
G0 Z2.2
G1 F3000
G1 X161.814 Y151.923
G1 X161.743 Y153.882
G1 X161.599 Y155.820
G1 X161.517 Y157.732
G1 X161.426 Y159.726
G1 X161.276 Y161.632
G1 X161.199 Y163.583
G1 X161.067 Y165.511
G1 X160.977 Y167.474
G1 X160.838 Y169.437
G1 X160.744 Y171.384
G1 X160.634 Y173.311
G1 X160.501 Y175.274
G1 X160.410 Y177.197
G1 X160.315 Y179.163
G1 X160.159 Y181.067
G1 X160.088 Y183.065
G1 X159.968 Y184.980
; Path 234
G0 Z0
G0 X153.511 Y189.014
G0 Z2.2
G1 F3000
G1 X152.522 Y190.713
; Path 235
G0 Z0
G0 X154.021 Y195.049
G0 Z2.2
G1 F3000
G1 X154.910 Y195.183
G1 X155.971 Y195.227
G1 X156.886 Y195.344
G1 X157.761 Y195.389
G1 X158.805 Y195.608
G1 X159.686 Y195.640
G1 X160.711 Y195.697
G1 X161.515 Y195.875
G1 X162.522 Y196.041
G1 X163.535 Y196.117
G1 X164.463 Y196.228
G1 X165.335 Y196.274
G1 X166.359 Y196.446
G1 X167.180 Y196.412
G1 X168.263 Y196.611
G1 X169.082 Y196.628
G1 X170.064 Y196.818
G1 X171.061 Y196.950
G1 X171.964 Y196.993
; Path 236
G0 Z0
G0 X168.930 Y196.063
G0 Z2.2
G1 F3000
G1 X166.836 Y196.017
; Path 237
G0 Z0
G0 X164.048 Y193.749
G0 Z2.2
G1 F3000
G1 X162.011 Y194.108
; Path 238
G0 Z0
G0 X158.612 Y191.208
G0 Z2.2
G1 F3000
G1 X157.277 Y192.722
; Path 239
G0 Z0
G0 X158.056 Y197.006
G0 Z2.2
G1 F3000
G1 X157.468 Y197.756
G1 X156.856 Y198.499
G1 X156.157 Y199.245
G1 X155.528 Y200.045
G1 X154.882 Y200.900
G1 X154.314 Y201.654
G1 X153.661 Y202.384
G1 X153.057 Y203.232
G1 X152.413 Y203.964
G1 X151.863 Y204.788
G1 X151.230 Y205.460
G1 X150.628 Y206.269
G1 X149.995 Y207.033
; Path 240
G0 Z0
G0 X149.049 Y206.343
G0 Z2.2
G1 F3000
G1 X150.907 Y205.652
; Path 241
G0 Z0
G0 X149.995 Y205.013
G0 Z2.2
G1 F3000
G1 X150.952 Y205.153
G1 X151.830 Y205.207
G1 X152.827 Y205.429
G1 X153.754 Y205.464
G1 X154.671 Y205.688
G1 X155.543 Y205.722
G1 X156.587 Y205.898
G1 X157.426 Y205.920
G1 X158.457 Y206.136
G1 X159.401 Y206.210
G1 X160.322 Y206.425
G1 X161.224 Y206.484
G1 X162.245 Y206.673
G1 X163.111 Y206.747
G1 X164.099 Y206.881
G1 X164.976 Y206.971
; Path 242
G0 Z0
G0 X169.352 Y206.792
G0 Z2.2
G1 F3000
G1 X170.533 Y205.152
; Path 243
G0 Z0
G0 X179.973 Y204.962
G0 Z2.2
G1 F3000
G1 X179.977 Y203.605
G1 X180.018 Y202.266
G1 X180.000 Y200.960
; Path 244
G0 Z0
G0 X178.848 Y199.709
G0 Z2.2
G1 F3000
G1 X177.047 Y200.339
; Path 245
G0 Z0
G0 X171.973 Y198.233
G0 Z2.2
G1 F3000
G1 X173.935 Y197.798
; Path 246
G0 Z0
G0 X173.922 Y200.938
G0 Z2.2
G1 F3000
G1 X173.299 Y201.731
G1 X172.686 Y202.449
G1 X172.060 Y203.266
G1 X171.457 Y204.101
G1 X170.856 Y204.726
G1 X170.218 Y205.501
G1 X169.549 Y206.418
G1 X168.995 Y207.063
G1 X168.333 Y207.961
G1 X167.817 Y208.741
G1 X167.081 Y209.500
G1 X166.542 Y210.150
G1 X165.930 Y210.979
; Path 247
G0 Z0
G0 X164.986 Y210.966
G0 Z2.2
G1 F3000
G1 X165.977 Y212.278
G1 X167.011 Y213.664
G1 X167.991 Y214.986
; Path 248
G0 Z0
G0 X165.477 Y214.978
G0 Z2.2
G1 F3000
G1 X164.977 Y214.478
G1 X164.477 Y214.978
G1 X164.977 Y215.478
G1 X165.477 Y214.978
; Path 249
G0 Z0
G0 X164.973 Y213.996
G0 Z2.2
G1 F3000
G1 X163.089 Y213.957
G1 X161.227 Y213.859
G1 X159.333 Y213.809
G1 X157.461 Y213.726
G1 X155.608 Y213.704
G1 X153.710 Y213.640
G1 X151.822 Y213.533
G1 X149.972 Y213.474
G1 X148.086 Y213.448
G1 X146.230 Y213.356
G1 X144.348 Y213.312
G1 X142.463 Y213.200
G1 X140.580 Y213.169
G1 X138.724 Y213.080
G1 X136.862 Y213.064
G1 X134.981 Y212.972
; Path 250
G0 Z0
G0 X140.006 Y210.974
G0 Z2.2
G1 F3000
G1 X141.004 Y212.310
G1 X141.987 Y213.682
G1 X143.002 Y215.002
; Path 251
G0 Z0
G0 X149.994 Y214.996
G0 Z2.2
G1 F3000
G1 X151.965 Y215.016
G1 X154.014 Y215.096
G1 X155.975 Y215.169
G1 X157.997 Y215.168
G1 X159.959 Y215.236
G1 X162.005 Y215.273
G1 X163.960 Y215.318
G1 X165.976 Y215.379
G1 X168.005 Y215.455
G1 X169.981 Y215.465
G1 X171.975 Y215.567
G1 X173.961 Y215.620
G1 X175.967 Y215.639
G1 X177.962 Y215.686
G1 X179.950 Y215.749
G1 X181.957 Y215.802
G1 X183.970 Y215.857
G1 X185.963 Y215.900
G1 X187.948 Y215.941
G1 X189.955 Y215.987
; Path 252
G0 Z0
G0 X184.987 Y214.993
G0 Z2.2
G1 F3000
G1 X185.018 Y213.013
G1 X185.032 Y211.059
G1 X185.058 Y209.054
G1 X185.071 Y207.070
G1 X185.106 Y205.141
G1 X185.133 Y203.115
G1 X185.192 Y201.169
G1 X185.177 Y199.181
G1 X185.244 Y197.231
G1 X185.239 Y195.220
G1 X185.284 Y193.230
G1 X185.277 Y191.277
G1 X185.337 Y189.290
G1 X185.366 Y187.324
G1 X185.345 Y185.367
G1 X185.402 Y183.354
G1 X185.433 Y181.421
G1 X185.432 Y179.441
G1 X185.479 Y177.427
G1 X185.485 Y175.501
G1 X185.539 Y173.508
G1 X185.546 Y171.496
G1 X185.561 Y169.570
G1 X185.599 Y167.560
G1 X185.598 Y165.576
G1 X185.627 Y163.630
G1 X185.658 Y161.622
G1 X185.684 Y159.680
G1 X185.740 Y157.664
G1 X185.735 Y155.733
G1 X185.755 Y153.765
G1 X185.789 Y151.772
G1 X185.808 Y149.790
G1 X185.832 Y147.844
G1 X185.861 Y145.811
G1 X185.914 Y143.884
G1 X185.956 Y141.896
G1 X185.926 Y139.906
G1 X185.950 Y137.954
G1 X186.005 Y135.959
; Path 253
G0 Z0
G0 X188.001 Y132.995
G0 Z2.2
G1 F3000
G1 X189.315 Y133.673
G1 X190.615 Y134.316
G1 X191.960 Y134.998
; Path 254
G0 Z0
G0 X191.984 Y134.985
G0 Z2.2
G1 F3000
G1 X190.164 Y134.988
G1 X188.291 Y134.989
G1 X186.420 Y134.993
G1 X184.577 Y134.977
G1 X182.750 Y134.972
G1 X180.908 Y134.966
G1 X179.065 Y134.986
G1 X177.186 Y134.975
G1 X175.367 Y134.993
G1 X173.534 Y135.030
G1 X171.656 Y134.983
G1 X169.843 Y135.022
G1 X167.979 Y135.006
; Path 255
G0 Z0
G0 X167.950 Y134.997
G0 Z2.2
G1 F3000
G1 X169.309 Y134.301
G1 X170.594 Y133.639
G1 X171.955 Y132.978
; Path 256
G0 Z0
G0 X172.003 Y132.979
G0 Z2.2
G1 F3000
G1 X172.291 Y131.076
G1 X172.547 Y129.116
G1 X172.843 Y127.184
G1 X173.074 Y125.276
G1 X173.393 Y123.340
G1 X173.675 Y121.363
G1 X173.907 Y119.443
G1 X174.189 Y117.497
G1 X174.445 Y115.577
G1 X174.731 Y113.662
G1 X175.007 Y111.750
G1 X175.305 Y109.814
G1 X175.585 Y107.844
G1 X175.818 Y105.964
G1 X176.104 Y103.978
G1 X176.404 Y102.088
G1 X176.664 Y100.143
G1 X176.958 Y98.232
G1 X177.190 Y96.289
G1 X177.494 Y94.329
G1 X177.764 Y92.428
G1 X178.045 Y90.503
G1 X178.321 Y88.544
G1 X178.574 Y86.588
G1 X178.850 Y84.681
G1 X179.157 Y82.732
G1 X179.420 Y80.815
G1 X179.689 Y78.869
G1 X179.954 Y76.959
; Path 257
G0 Z0
G0 X179.957 Y76.955
G0 Z2.2
G1 F3000
G1 X180.224 Y78.897
G1 X180.505 Y80.811
G1 X180.762 Y82.763
G1 X181.083 Y84.654
G1 X181.369 Y86.612
G1 X181.619 Y88.531
G1 X181.902 Y90.490
G1 X182.176 Y92.434
G1 X182.440 Y94.334
G1 X182.715 Y96.276
G1 X183.031 Y98.197
G1 X183.293 Y100.138
G1 X183.564 Y102.042
G1 X183.848 Y103.980
G1 X184.106 Y105.924
G1 X184.388 Y107.868
G1 X184.698 Y109.801
G1 X184.942 Y111.689
G1 X185.206 Y113.636
G1 X185.501 Y115.581
G1 X185.790 Y117.498
G1 X186.081 Y119.443
G1 X186.323 Y121.354
G1 X186.616 Y123.291
G1 X186.873 Y125.209
G1 X187.155 Y127.186
G1 X187.437 Y129.109
G1 X187.734 Y131.019
G1 X187.995 Y132.958
; Path 258
G0 Z0
G0 X187.977 Y129.978
G0 Z2.2
G1 F3000
G1 X183.977 Y129.978
; Path 259
G0 Z0
G0 X184.005 Y129.977
G0 Z2.2
G1 F3000
G1 X184.670 Y128.668
G1 X185.320 Y127.288
G1 X185.975 Y125.972
; Path 260
G0 Z0
G0 X185.969 Y125.951
G0 Z2.2
G1 F3000
G1 X186.636 Y127.318
G1 X187.327 Y128.604
G1 X187.996 Y129.960
; Path 261
G0 Z0
G0 X189.957 Y129.002
G0 Z2.2
G1 F3000
G1 X190.479 Y130.747
G1 X190.944 Y132.467
G1 X191.465 Y134.244
G1 X191.971 Y135.974
; Path 262
G0 Z0
G0 X191.975 Y136.991
G0 Z2.2
G1 F3000
G1 X192.958 Y138.492
G1 X194.001 Y139.977
G1 X194.998 Y141.437
G1 X196.003 Y142.955
; Path 263
G0 Z0
G0 X195.978 Y143.982
G0 Z2.2
G1 F3000
G1 X196.042 Y142.039
G1 X196.092 Y140.115
G1 X196.154 Y138.174
G1 X196.215 Y136.209
G1 X196.270 Y134.278
G1 X196.342 Y132.362
G1 X196.406 Y130.420
G1 X196.485 Y128.515
G1 X196.574 Y126.577
G1 X196.587 Y124.618
G1 X196.688 Y122.709
G1 X196.764 Y120.719
G1 X196.786 Y118.801
G1 X196.854 Y116.858
G1 X196.911 Y114.909
G1 X196.991 Y113.000
; Path 264
G0 Z0
G0 X196.977 Y112.978
G0 Z2.2
G1 F3000
G1 X198.977 Y104.978
; Path 265
G1 X200.977 Y112.978
; Path 266
G0 Z0
G0 X200.971 Y112.982
G0 Z2.2
G1 F3000
G1 X200.911 Y114.919
G1 X200.816 Y116.848
G1 X200.781 Y118.782
G1 X200.723 Y120.760
G1 X200.628 Y122.692
G1 X200.582 Y124.605
G1 X200.549 Y126.537
G1 X200.475 Y128.483
G1 X200.415 Y130.456
G1 X200.356 Y132.389
G1 X200.298 Y134.333
G1 X200.185 Y136.260
G1 X200.154 Y138.153
G1 X200.060 Y140.128
G1 X200.019 Y142.077
G1 X199.956 Y143.996
; Path 267
G0 Z0
G0 X197.967 Y143.967
G0 Z2.2
G1 F3000
G1 X198.015 Y142.035
G1 X198.085 Y140.110
G1 X198.170 Y138.148
G1 X198.211 Y136.221
G1 X198.297 Y134.260
G1 X198.359 Y132.317
G1 X198.403 Y130.420
G1 X198.447 Y128.484
G1 X198.510 Y126.530
G1 X198.596 Y124.607
G1 X198.638 Y122.679
G1 X198.695 Y120.706
G1 X198.740 Y118.777
G1 X198.805 Y116.862
G1 X198.911 Y114.877
G1 X198.952 Y112.968
; Path 268
G0 Z0
G0 X198.996 Y112.951
G0 Z2.2
G1 F3000
G1 X199.015 Y112.417
G1 X199.083 Y111.924
G1 X199.119 Y111.391
G1 X199.155 Y110.854
G1 X199.194 Y110.287
G1 X199.219 Y109.761
G1 X199.251 Y109.225
G1 X199.280 Y108.662
G1 X199.339 Y108.113
G1 X199.346 Y107.574
G1 X199.393 Y107.030
G1 X199.422 Y106.517
G1 X199.458 Y106.036
G1 X199.515 Y105.508
G1 X199.572 Y105.017
G1 X199.630 Y104.565
G1 X199.730 Y104.123
G1 X199.774 Y103.706
G1 X199.876 Y103.309
G1 X199.953 Y102.950
G1 X200.039 Y102.620
G1 X200.171 Y102.308
G1 X200.272 Y102.051
G1 X200.423 Y101.768
G1 X200.563 Y101.550
G1 X200.705 Y101.313
G1 X200.834 Y101.134
G1 X201.009 Y100.923
G1 X201.164 Y100.771
G1 X201.329 Y100.582
G1 X201.521 Y100.456
G1 X201.660 Y100.271
G1 X201.844 Y100.120
G1 X201.995 Y99.972
G1 X202.136 Y99.844
G1 X202.328 Y99.667
G1 X202.511 Y99.519
G1 X202.652 Y99.338
G1 X202.810 Y99.171
G1 X202.963 Y98.967
; Path 269
G0 Z0
G0 X201.967 Y100.977
G0 Z2.2
G1 F3000
G1 X201.863 Y101.241
G1 X201.762 Y101.461
G1 X201.631 Y101.709
G1 X201.550 Y101.917
G1 X201.432 Y102.153
G1 X201.334 Y102.357
G1 X201.207 Y102.550
G1 X201.117 Y102.793
G1 X201.029 Y103.018
G1 X200.902 Y103.237
G1 X200.777 Y103.482
G1 X200.692 Y103.701
G1 X200.587 Y103.948
G1 X200.490 Y104.197
G1 X200.384 Y104.478
G1 X200.299 Y104.736
G1 X200.228 Y105.029
G1 X200.123 Y105.332
G1 X200.027 Y105.661
G1 X199.964 Y105.996
G1 X199.891 Y106.348
G1 X199.825 Y106.735
G1 X199.772 Y107.142
G1 X199.703 Y107.542
G1 X199.660 Y107.978
G1 X199.595 Y108.406
G1 X199.522 Y108.850
G1 X199.499 Y109.313
G1 X199.475 Y109.769
G1 X199.411 Y110.252
G1 X199.371 Y110.759
G1 X199.328 Y111.211
G1 X199.300 Y111.721
G1 X199.247 Y112.178
G1 X199.227 Y112.676
G1 X199.165 Y113.141
G1 X199.092 Y113.593
G1 X199.079 Y114.088
G1 X199.036 Y114.578
G1 X198.985 Y115.008
; Path 270
G0 Z0
G0 X199.940 Y111.752
G0 Z2.2
G1 F3000
G1 X197.914 Y112.243
; Path 271
G0 Z0
G0 X199.962 Y112.108
G0 Z2.2
G1 F3000
G1 X200.197 Y110.043
; Path 272
G0 Z0
G0 X199.860 Y108.918
G0 Z2.2
G1 F3000
G1 X200.138 Y110.879
; Path 273
G0 Z0
G0 X200.919 Y110.085
G0 Z2.2
G1 F3000
G1 X201.263 Y108.104
; Path 274
G0 Z0
G0 X201.189 Y107.014
G0 Z2.2
G1 F3000
G1 X200.826 Y109.008
; Path 275
G0 Z0
G0 X201.925 Y108.038
G0 Z2.2
G1 F3000
G1 X201.926 Y106.074
; Path 276
G0 Z0
G0 X198.977 Y104.978
G0 Z2.2
G1 F3000
G1 X198.977 Y100.978
; Path 277
G0 Z0
G0 X200.006 Y101.992
G0 Z2.2
G1 F3000
G1 X201.015 Y103.490
G1 X201.979 Y105.005
; Path 278
G0 Z0
G0 X202.003 Y104.953
G0 Z2.2
G1 F3000
G1 X201.016 Y106.441
G1 X200.004 Y107.949
; Path 279
G0 Z0
G0 X194.963 Y109.980
G0 Z2.2
G1 F3000
G1 X193.149 Y109.544
G1 X191.303 Y109.057
G1 X189.486 Y108.614
G1 X187.709 Y108.141
G1 X185.905 Y107.741
G1 X184.054 Y107.234
G1 X182.221 Y106.819
G1 X180.399 Y106.351
G1 X178.605 Y105.883
G1 X176.790 Y105.429
G1 X174.977 Y104.996
; Path 280
G0 Z0
G0 X174.960 Y104.993
G0 Z2.2
G1 F3000
G1 X174.991 Y106.492
G1 X175.002 Y108.002
; Path 281
G0 Z0
G0 X174.958 Y107.992
G0 Z2.2
G1 F3000
G1 X176.794 Y108.445
G1 X178.619 Y108.915
G1 X180.423 Y109.340
G1 X182.226 Y109.808
G1 X184.072 Y110.246
G1 X185.886 Y110.677
G1 X187.678 Y111.164
G1 X189.480 Y111.600
G1 X191.344 Y112.048
G1 X193.138 Y112.501
G1 X194.953 Y112.970
; Path 282
G0 Z0
G0 X192.001 Y112.967
G0 Z2.2
G1 F3000
G1 X191.478 Y111.446
G1 X191.002 Y109.980
G1 X190.495 Y108.479
G1 X189.974 Y106.989
; Path 283
G0 Z0
G0 X189.993 Y106.997
G0 Z2.2
G1 F3000
G1 X190.013 Y108.668
G1 X189.978 Y110.309
G1 X189.982 Y111.997
G1 X189.970 Y113.660
G1 X190.019 Y115.325
G1 X190.004 Y116.999
; Path 284
G0 Z0
G0 X189.961 Y117.003
G0 Z2.2
G1 F3000
G1 X189.947 Y114.978
G1 X189.946 Y112.987
G1 X189.975 Y111.014
G1 X189.989 Y109.008
G1 X189.950 Y106.979
G1 X189.985 Y104.984
G1 X189.977 Y103.032
G1 X189.985 Y101.008
G1 X189.943 Y99.002
G1 X189.952 Y97.009
G1 X189.969 Y94.984
G1 X189.964 Y93.004
; Path 285
G0 Z0
G0 X195.006 Y85.958
G0 Z2.2
G1 F3000
G1 X194.953 Y84.008
G1 X194.960 Y82.003
; Path 286
G0 Z0
G0 X201.987 Y74.960
G0 Z2.2
G1 F3000
G1 X201.969 Y76.936
G1 X201.983 Y78.923
G1 X201.970 Y80.899
G1 X201.963 Y82.857
G1 X201.984 Y84.785
G1 X201.982 Y86.785
G1 X201.958 Y88.734
G1 X201.982 Y90.703
G1 X201.991 Y92.697
G1 X201.958 Y94.668
G1 X201.990 Y96.645
G1 X202.003 Y98.617
G1 X201.981 Y100.586
G1 X201.984 Y102.522
G1 X201.957 Y104.494
G1 X201.999 Y106.488
G1 X202.010 Y108.439
G1 X201.989 Y110.404
G1 X201.966 Y112.401
G1 X201.996 Y114.373
G1 X201.963 Y116.309
G1 X201.976 Y118.292
G1 X201.986 Y120.271
G1 X201.972 Y122.252
G1 X201.961 Y124.217
G1 X201.977 Y126.162
G1 X201.983 Y128.143
G1 X202.007 Y130.110
G1 X201.995 Y132.111
G1 X201.975 Y134.076
G1 X202.003 Y136.036
G1 X201.979 Y138.015
G1 X201.961 Y139.977
G1 X201.989 Y141.965
G1 X201.966 Y143.913
G1 X201.983 Y145.902
G1 X201.965 Y147.835
