; Generated by Sketch DSL for Machine
; Work area: 420mm x 297mm (A3)
G21
G90
M5
G4 P0.5
G0 F11000
; 208 paths
; Path 1
G0 X127.017 Y188.058
G0 Z2.2
G1 F3000
G1 X127.633 Y189.688
G1 X128.216 Y191.271
G1 X128.795 Y192.858
G1 X129.396 Y194.461
G1 X129.983 Y196.068
; Path 2
G0 Z0
G0 X130.020 Y196.073
G0 Z2.2
G1 F3000
G1 X130.375 Y194.271
G1 X130.699 Y192.384
G1 X131.018 Y190.564
G1 X131.384 Y188.743
G1 X131.671 Y186.910
G1 X132.037 Y185.093
; Path 3
G0 Z0
G0 X135.002 Y189.066
G0 Z2.2
G1 F3000
G1 X133.991 Y190.459
G1 X133.033 Y191.909
G1 X132.005 Y193.301
G1 X130.994 Y194.674
G1 X130.025 Y196.109
; Path 4
G0 Z0
G0 X144.983 Y188.114
G0 Z2.2
G1 F3000
G1 X145.009 Y187.896
G1 X145.073 Y187.700
G1 X145.113 Y187.488
G1 X145.143 Y187.266
G1 X145.195 Y187.016
G1 X145.201 Y186.819
G1 X145.212 Y186.587
G1 X145.256 Y186.369
G1 X145.315 Y186.165
G1 X145.317 Y185.925
G1 X145.355 Y185.708
G1 X145.393 Y185.497
G1 X145.427 Y185.281
G1 X145.492 Y185.092
G1 X145.585 Y184.879
G1 X145.624 Y184.720
G1 X145.700 Y184.530
G1 X145.797 Y184.391
G1 X145.938 Y184.254
G1 X146.020 Y184.112
G1 X146.171 Y184.013
G1 X146.299 Y183.890
G1 X146.449 Y183.817
G1 X146.628 Y183.720
G1 X146.798 Y183.658
G1 X146.998 Y183.591
G1 X147.171 Y183.542
G1 X147.401 Y183.496
G1 X147.592 Y183.485
G1 X147.827 Y183.424
G1 X148.046 Y183.396
G1 X148.268 Y183.368
G1 X148.485 Y183.356
G1 X148.715 Y183.317
G1 X148.911 Y183.279
G1 X149.159 Y183.264
G1 X149.358 Y183.243
G1 X149.591 Y183.199
G1 X149.806 Y183.147
G1 X150.003 Y183.112
; Path 5
G0 Z0
G0 X150.005 Y183.079
G0 Z2.2
G1 F3000
G1 X150.377 Y182.947
G1 X150.809 Y182.763
G1 X151.215 Y182.583
G1 X151.621 Y182.418
G1 X152.004 Y182.243
G1 X152.437 Y182.058
G1 X152.848 Y181.906
G1 X153.254 Y181.694
G1 X153.682 Y181.519
G1 X154.068 Y181.337
G1 X154.470 Y181.179
G1 X154.878 Y181.001
G1 X155.283 Y180.873
G1 X155.680 Y180.696
G1 X156.099 Y180.539
G1 X156.470 Y180.436
G1 X156.858 Y180.314
G1 X157.247 Y180.231
G1 X157.626 Y180.157
G1 X158.006 Y180.095
G1 X158.385 Y180.063
G1 X158.746 Y180.034
G1 X159.127 Y180.011
G1 X159.470 Y180.041
G1 X159.832 Y180.050
G1 X160.179 Y180.104
G1 X160.558 Y180.185
G1 X160.877 Y180.211
G1 X161.248 Y180.296
G1 X161.567 Y180.350
G1 X161.898 Y180.431
G1 X162.251 Y180.509
G1 X162.585 Y180.613
G1 X162.934 Y180.676
G1 X163.284 Y180.728
G1 X163.618 Y180.839
G1 X163.969 Y180.891
G1 X164.306 Y180.986
G1 X164.673 Y181.033
G1 X165.001 Y181.105
; Path 6
G0 Z0
G0 X164.991 Y181.083
G0 Z2.2
G1 F3000
G1 X165.739 Y180.923
G1 X166.494 Y180.767
G1 X167.268 Y180.615
G1 X167.996 Y180.431
G1 X168.762 Y180.235
G1 X169.499 Y180.082
G1 X170.260 Y179.920
G1 X171.002 Y179.730
G1 X171.765 Y179.557
G1 X172.504 Y179.385
G1 X173.256 Y179.239
G1 X174.007 Y179.054
G1 X174.757 Y178.912
G1 X175.509 Y178.748
G1 X176.285 Y178.628
G1 X177.011 Y178.476
G1 X177.762 Y178.374
G1 X178.514 Y178.246
G1 X179.288 Y178.156
G1 X180.015 Y178.068
G1 X180.793 Y177.983
G1 X181.517 Y177.948
G1 X182.259 Y177.900
G1 X183.019 Y177.879
G1 X183.746 Y177.843
G1 X184.520 Y177.854
G1 X185.289 Y177.869
G1 X186.021 Y177.862
G1 X186.792 Y177.889
G1 X187.522 Y177.894
G1 X188.292 Y177.921
G1 X189.023 Y177.941
G1 X189.788 Y177.977
G1 X190.524 Y177.995
G1 X191.274 Y178.002
G1 X192.025 Y178.045
G1 X192.753 Y178.069
G1 X193.526 Y178.084
G1 X194.296 Y178.080
G1 X195.027 Y178.101
; Path 7
G0 Z0
G0 X195.003 Y178.097
G0 Z2.2
G1 F3000
G1 X195.631 Y178.044
G1 X196.316 Y177.983
G1 X196.957 Y177.899
G1 X197.651 Y177.848
G1 X198.321 Y177.791
G1 X198.997 Y177.701
G1 X199.678 Y177.641
G1 X200.347 Y177.551
G1 X201.019 Y177.468
G1 X201.690 Y177.407
G1 X202.376 Y177.338
G1 X203.019 Y177.278
G1 X203.649 Y177.244
G1 X204.323 Y177.173
G1 X204.975 Y177.123
G1 X205.595 Y177.101
G1 X206.210 Y177.059
G1 X206.824 Y177.070
G1 X207.433 Y177.062
G1 X208.003 Y177.091
G1 X208.563 Y177.119
G1 X209.124 Y177.167
G1 X209.656 Y177.240
G1 X210.195 Y177.295
G1 X210.687 Y177.402
G1 X211.224 Y177.464
G1 X211.703 Y177.550
G1 X212.219 Y177.666
G1 X212.696 Y177.775
G1 X213.191 Y177.892
G1 X213.676 Y177.994
G1 X214.147 Y178.133
G1 X214.625 Y178.271
G1 X215.098 Y178.380
G1 X215.590 Y178.507
G1 X216.052 Y178.624
G1 X216.549 Y178.767
G1 X217.017 Y178.856
G1 X217.521 Y178.974
G1 X218.004 Y179.067
; Path 8
G0 Z0
G0 X216.009 Y177.236
G0 Z2.2
G1 F3000
G1 X214.021 Y176.874
; Path 9
G0 Z0
G0 X213.912 Y176.509
G0 Z2.2
G1 F3000
G1 X212.087 Y175.707
; Path 10
G0 Z0
G0 X210.000 Y176.107
G0 Z2.2
G1 F3000
G1 X208.475 Y175.141
G1 X206.998 Y174.115
; Path 11
G0 Z0
G0 X205.013 Y173.085
G0 Z2.2
G1 F3000
G1 X204.011 Y174.071
G1 X203.023 Y175.059
; Path 12
G0 Z0
G0 X201.037 Y173.076
G0 Z2.2
G1 F3000
G1 X202.525 Y172.553
G1 X204.007 Y172.088
; Path 13
G0 Z0
G0 X205.952 Y171.165
G0 Z2.2
G1 F3000
G1 X205.256 Y171.544
G1 X204.634 Y171.793
G1 X203.984 Y172.153
; Path 14
G0 Z0
G0 X202.032 Y171.105
G0 Z2.2
G1 F3000
G1 X203.525 Y170.575
G1 X205.028 Y170.083
; Path 15
G0 Z0
G0 X204.039 Y170.109
G0 Z2.2
G1 F3000
G1 X205.552 Y169.351
G1 X207.051 Y168.620
G1 X208.515 Y167.872
G1 X210.021 Y167.101
; Path 16
G0 Z0
G0 X209.039 Y169.110
G0 Z2.2
G1 F3000
G1 X207.681 Y170.438
G1 X206.331 Y171.746
G1 X205.010 Y173.066
; Path 17
G0 Z0
G0 X205.296 Y172.811
G0 Z2.2
G1 F3000
G1 X206.718 Y171.408
; Path 18
G0 Z0
G0 X206.533 Y172.232
G0 Z2.2
G1 F3000
G1 X207.548 Y173.976
; Path 19
G0 Z0
G0 X208.133 Y173.547
G0 Z2.2
G1 F3000
G1 X209.834 Y174.560
; Path 20
G0 Z0
G0 X207.083 Y174.724
G0 Z2.2
G1 F3000
G1 X208.937 Y175.429
; Path 21
G0 Z0
G0 X209.981 Y175.076
G0 Z2.2
G1 F3000
G1 X211.323 Y175.721
G1 X212.664 Y176.382
G1 X214.018 Y177.079
; Path 22
G0 Z0
G0 X216.032 Y177.876
G0 Z2.2
G1 F3000
G1 X218.018 Y178.223
; Path 23
G0 Z0
G0 X220.022 Y178.079
G0 Z2.2
G1 F3000
G1 X219.834 Y178.170
G1 X219.703 Y178.286
G1 X219.504 Y178.394
G1 X219.356 Y178.501
G1 X219.172 Y178.599
G1 X218.994 Y178.719
G1 X218.790 Y178.816
G1 X218.627 Y178.939
G1 X218.432 Y179.072
G1 X218.268 Y179.156
G1 X218.082 Y179.269
G1 X217.930 Y179.369
G1 X217.795 Y179.446
G1 X217.623 Y179.573
G1 X217.490 Y179.696
G1 X217.360 Y179.766
G1 X217.248 Y179.832
G1 X217.153 Y179.944
G1 X217.092 Y180.050
G1 X217.015 Y180.105
G1 X217.001 Y180.171
G1 X216.952 Y180.245
G1 X216.961 Y180.283
G1 X216.957 Y180.369
G1 X217.013 Y180.431
G1 X217.018 Y180.478
G1 X217.099 Y180.542
G1 X217.123 Y180.575
G1 X217.163 Y180.617
G1 X217.260 Y180.664
G1 X217.345 Y180.717
G1 X217.417 Y180.748
G1 X217.526 Y180.777
G1 X217.582 Y180.830
G1 X217.638 Y180.888
G1 X217.743 Y180.913
G1 X217.839 Y180.950
G1 X217.888 Y181.000
G1 X217.965 Y181.041
G1 X218.006 Y181.094
; Path 24
G0 Z0
G0 X218.000 Y181.062
G0 Z2.2
G1 F3000
G1 X218.476 Y181.192
G1 X219.005 Y181.284
G1 X219.519 Y181.399
G1 X220.016 Y181.534
G1 X220.494 Y181.639
G1 X221.032 Y181.801
G1 X221.568 Y181.924
G1 X222.048 Y182.072
G1 X222.579 Y182.194
G1 X223.062 Y182.335
G1 X223.576 Y182.446
G1 X224.072 Y182.577
G1 X224.599 Y182.701
G1 X225.073 Y182.787
G1 X225.548 Y182.883
G1 X226.064 Y182.952
G1 X226.527 Y183.016
G1 X227.042 Y183.060
G1 X227.496 Y183.067
G1 X228.003 Y183.099
G1 X228.455 Y183.053
G1 X228.945 Y183.060
G1 X229.400 Y183.018
G1 X229.871 Y182.952
G1 X230.312 Y182.871
G1 X230.784 Y182.787
G1 X231.255 Y182.700
G1 X231.686 Y182.578
G1 X232.153 Y182.439
G1 X232.580 Y182.335
G1 X233.018 Y182.213
G1 X233.469 Y182.073
G1 X233.925 Y181.932
G1 X234.356 Y181.802
G1 X234.800 Y181.680
G1 X235.244 Y181.535
G1 X235.697 Y181.389
G1 X236.136 Y181.284
G1 X236.573 Y181.192
G1 X237.035 Y181.063
; Path 25
G0 Z0
G0 X237.011 Y181.060
G0 Z2.2
G1 F3000
G1 X237.081 Y180.985
G1 X237.129 Y180.966
G1 X237.211 Y180.917
G1 X237.275 Y180.879
G1 X237.334 Y180.865
G1 X237.437 Y180.796
G1 X237.497 Y180.771
G1 X237.603 Y180.714
G1 X237.703 Y180.700
G1 X237.761 Y180.630
G1 X237.839 Y180.599
G1 X237.899 Y180.541
G1 X237.930 Y180.479
G1 X238.005 Y180.444
G1 X238.009 Y180.412
G1 X238.067 Y180.336
G1 X238.077 Y180.275
G1 X238.073 Y180.213
G1 X238.063 Y180.117
G1 X238.011 Y180.073
G1 X237.939 Y180.019
G1 X237.873 Y179.913
G1 X237.749 Y179.850
G1 X237.667 Y179.736
G1 X237.544 Y179.668
G1 X237.405 Y179.545
G1 X237.252 Y179.461
G1 X237.099 Y179.343
G1 X236.941 Y179.266
G1 X236.761 Y179.132
G1 X236.601 Y179.039
G1 X236.403 Y178.916
G1 X236.191 Y178.789
G1 X236.038 Y178.699
G1 X235.857 Y178.592
G1 X235.676 Y178.482
G1 X235.502 Y178.399
G1 X235.330 Y178.269
G1 X235.192 Y178.144
G1 X235.012 Y178.064
; Path 26
G0 Z0
G0 X235.027 Y178.083
G0 Z2.2
G1 F3000
G1 X235.184 Y177.734
G1 X235.331 Y177.387
G1 X235.471 Y177.064
G1 X235.642 Y176.698
G1 X235.783 Y176.385
G1 X235.958 Y176.014
G1 X236.096 Y175.692
G1 X236.274 Y175.330
G1 X236.436 Y175.009
G1 X236.588 Y174.644
G1 X236.716 Y174.300
G1 X236.897 Y173.953
G1 X237.037 Y173.583
G1 X237.198 Y173.254
G1 X237.350 Y172.882
G1 X237.488 Y172.545
G1 X237.630 Y172.184
G1 X237.764 Y171.821
G1 X237.921 Y171.476
G1 X238.022 Y171.080
G1 X238.159 Y170.688
G1 X238.261 Y170.320
G1 X238.361 Y169.911
G1 X238.483 Y169.544
G1 X238.562 Y169.126
G1 X238.690 Y168.753
G1 X238.800 Y168.382
G1 X238.887 Y167.951
G1 X238.961 Y167.545
G1 X239.075 Y167.142
G1 X239.171 Y166.717
G1 X239.258 Y166.327
G1 X239.366 Y165.903
G1 X239.439 Y165.511
G1 X239.508 Y165.076
G1 X239.621 Y164.695
G1 X239.684 Y164.274
G1 X239.807 Y163.883
G1 X239.928 Y163.506
G1 X240.000 Y163.079
; Path 27
G0 Z0
G0 X239.988 Y163.104
G0 Z2.2
G1 F3000
G1 X240.127 Y162.626
G1 X240.311 Y162.099
G1 X240.504 Y161.584
G1 X240.661 Y161.094
G1 X240.850 Y160.570
G1 X241.028 Y160.089
G1 X241.240 Y159.596
G1 X241.399 Y159.084
G1 X241.586 Y158.560
G1 X241.762 Y158.078
G1 X241.929 Y157.573
G1 X242.105 Y157.074
G1 X242.278 Y156.581
G1 X242.415 Y156.069
G1 X242.543 Y155.542
G1 X242.681 Y155.066
G1 X242.806 Y154.563
G1 X242.889 Y154.063
G1 X242.958 Y153.565
G1 X243.029 Y153.062
G1 X243.068 Y152.571
G1 X243.091 Y152.062
G1 X243.074 Y151.550
G1 X243.084 Y151.063
G1 X243.034 Y150.590
G1 X243.020 Y150.066
G1 X242.963 Y149.545
G1 X242.912 Y149.069
G1 X242.849 Y148.541
G1 X242.771 Y148.072
G1 X242.661 Y147.552
G1 X242.610 Y147.076
G1 X242.521 Y146.563
G1 X242.440 Y146.081
G1 X242.335 Y145.573
G1 X242.275 Y145.085
G1 X242.193 Y144.557
G1 X242.126 Y144.088
G1 X242.089 Y143.577
G1 X242.005 Y143.092
; Path 28
G0 Z0
G0 X241.993 Y143.112
G0 Z2.2
G1 F3000
G1 X241.996 Y142.330
G1 X242.015 Y141.590
G1 X242.013 Y140.836
G1 X242.066 Y140.034
G1 X242.095 Y139.228
G1 X242.133 Y138.458
G1 X242.165 Y137.671
G1 X242.204 Y136.876
G1 X242.216 Y136.107
G1 X242.267 Y135.305
G1 X242.287 Y134.526
G1 X242.310 Y133.758
G1 X242.294 Y132.989
G1 X242.320 Y132.251
G1 X242.318 Y131.551
G1 X242.285 Y130.799
G1 X242.251 Y130.100
G1 X242.193 Y129.415
G1 X242.138 Y128.768
G1 X242.031 Y128.116
G1 X241.900 Y127.493
G1 X241.792 Y126.911
G1 X241.625 Y126.360
G1 X241.484 Y125.790
G1 X241.303 Y125.279
G1 X241.118 Y124.738
G1 X240.928 Y124.220
G1 X240.707 Y123.740
G1 X240.474 Y123.286
G1 X240.264 Y122.782
G1 X240.003 Y122.311
G1 X239.801 Y121.849
G1 X239.565 Y121.381
G1 X239.329 Y120.925
G1 X239.114 Y120.436
G1 X238.861 Y119.997
G1 X238.613 Y119.501
G1 X238.410 Y119.049
G1 X238.184 Y118.586
G1 X237.987 Y118.066
; Path 29
G0 Z0
G0 X238.007 Y118.113
G0 Z2.2
G1 F3000
G1 X237.887 Y117.725
G1 X237.819 Y117.393
G1 X237.729 Y117.007
G1 X237.645 Y116.644
G1 X237.566 Y116.235
G1 X237.480 Y115.880
G1 X237.407 Y115.496
G1 X237.317 Y115.111
G1 X237.213 Y114.759
G1 X237.149 Y114.351
G1 X237.057 Y113.973
G1 X236.971 Y113.610
G1 X236.879 Y113.255
G1 X236.777 Y112.902
G1 X236.656 Y112.595
G1 X236.559 Y112.238
G1 X236.443 Y111.941
G1 X236.313 Y111.630
G1 X236.179 Y111.372
G1 X236.031 Y111.091
G1 X235.885 Y110.870
G1 X235.711 Y110.629
G1 X235.540 Y110.446
G1 X235.354 Y110.234
G1 X235.175 Y110.078
G1 X234.969 Y109.896
G1 X234.769 Y109.737
G1 X234.561 Y109.603
G1 X234.325 Y109.461
G1 X234.136 Y109.341
G1 X233.894 Y109.193
G1 X233.701 Y109.100
G1 X233.510 Y109.001
G1 X233.262 Y108.867
G1 X233.045 Y108.741
G1 X232.825 Y108.630
G1 X232.598 Y108.499
G1 X232.396 Y108.376
G1 X232.184 Y108.248
G1 X231.982 Y108.095
; Path 30
G0 Z0
G0 X234.018 Y107.066
G0 Z2.2
G1 F3000
G1 X235.040 Y108.570
G1 X236.013 Y110.063
; Path 31
G0 Z0
G0 X237.010 Y111.086
G0 Z2.2
G1 F3000
G1 X230.010 Y117.086
; Path 32
G0 Z0
G0 X230.011 Y116.063
G0 Z2.2
G1 F3000
G1 X230.118 Y116.294
G1 X230.237 Y116.565
G1 X230.395 Y116.813
G1 X230.504 Y117.067
G1 X230.666 Y117.314
G1 X230.795 Y117.569
G1 X230.957 Y117.838
G1 X231.092 Y118.071
G1 X231.242 Y118.324
G1 X231.378 Y118.574
G1 X231.478 Y118.834
G1 X231.633 Y119.076
G1 X231.717 Y119.356
G1 X231.841 Y119.577
G1 X231.918 Y119.823
G1 X231.983 Y120.079
G1 X232.036 Y120.311
G1 X232.041 Y120.580
G1 X232.039 Y120.834
G1 X231.999 Y121.081
G1 X231.894 Y121.336
G1 X231.843 Y121.581
G1 X231.703 Y121.819
G1 X231.585 Y122.081
G1 X231.427 Y122.320
G1 X231.245 Y122.581
G1 X231.045 Y122.809
G1 X230.838 Y123.080
G1 X230.599 Y123.308
G1 X230.384 Y123.579
G1 X230.144 Y123.848
G1 X229.901 Y124.078
G1 X229.628 Y124.339
G1 X229.405 Y124.577
G1 X229.180 Y124.805
G1 X228.915 Y125.076
G1 X228.678 Y125.355
G1 X228.449 Y125.575
G1 X228.249 Y125.827
G1 X228.025 Y126.074
; Path 33
G0 Z0
G0 X229.515 Y124.083
G0 Z2.2
G1 F3000
G1 X229.015 Y123.583
G1 X228.515 Y124.083
G1 X229.015 Y124.583
G1 X229.515 Y124.083
; Path 34
G0 Z0
G0 X232.005 Y123.084
G0 Z2.2
G1 F3000
G1 X230.978 Y124.416
G1 X229.961 Y125.768
G1 X228.983 Y127.067
; Path 35
G0 Z0
G0 X229.035 Y127.075
G0 Z2.2
G1 F3000
G1 X229.552 Y128.053
G1 X230.019 Y129.086
; Path 36
G0 Z0
G0 X227.986 Y131.096
G0 Z2.2
G1 F3000
G1 X227.307 Y129.727
G1 X226.669 Y128.389
G1 X225.993 Y127.061
; Path 37
G0 Z0
G0 X226.990 Y128.064
G0 Z2.2
G1 F3000
G1 X226.507 Y129.055
G1 X226.007 Y130.101
; Path 38
G0 Z0
G0 X220.676 Y132.080
G0 Z2.2
G1 F3000
G1 X221.287 Y130.136
; Path 39
G0 Z0
G0 X222.038 Y129.101
G0 Z2.2
G1 F3000
G1 X222.506 Y128.097
G1 X223.007 Y127.083
; Path 40
G0 Z0
G0 X221.021 Y126.064
G0 Z2.2
G1 F3000
G1 X220.027 Y127.063
G1 X219.022 Y128.110
; Path 41
G0 Z0
G0 X218.469 Y125.951
G0 Z2.2
G1 F3000
G1 X219.685 Y124.260
; Path 42
G0 Z0
G0 X222.522 Y123.087
G0 Z2.2
G1 F3000
G1 X222.022 Y123.587
G1 X221.522 Y123.087
G1 X222.022 Y122.587
G1 X222.522 Y123.087
; Path 43
G0 Z0
G0 X225.997 Y117.093
G0 Z2.2
G1 F3000
G1 X226.689 Y115.771
G1 X227.338 Y114.400
G1 X227.990 Y113.089
; Path 44
G0 Z0
G0 X228.206 Y113.472
G0 Z2.2
G1 F3000
G1 X229.781 Y114.630
; Path 45
G0 Z0
G0 X228.779 Y114.422
G0 Z2.2
G1 F3000
G1 X227.207 Y115.747
; Path 46
G0 Z0
G0 X228.034 Y121.084
G0 Z2.2
G1 F3000
G1 X227.006 Y122.447
G1 X226.008 Y123.774
G1 X225.035 Y125.088
; Path 47
G0 Z0
G0 X224.039 Y125.096
G0 Z2.2
G1 F3000
G1 X223.815 Y124.820
G1 X223.609 Y124.594
G1 X223.368 Y124.327
G1 X223.137 Y124.091
G1 X222.897 Y123.814
G1 X222.641 Y123.588
G1 X222.411 Y123.349
G1 X222.139 Y123.086
G1 X221.910 Y122.817
G1 X221.649 Y122.583
G1 X221.423 Y122.336
G1 X221.190 Y122.080
G1 X220.994 Y121.813
G1 X220.778 Y121.578
G1 X220.618 Y121.326
G1 X220.432 Y121.076
G1 X220.280 Y120.833
G1 X220.171 Y120.575
G1 X220.072 Y120.302
G1 X220.011 Y120.074
G1 X220.010 Y119.823
G1 X219.966 Y119.575
G1 X219.979 Y119.298
G1 X220.023 Y119.076
G1 X220.072 Y118.831
G1 X220.165 Y118.577
G1 X220.289 Y118.334
G1 X220.372 Y118.079
G1 X220.490 Y117.808
G1 X220.627 Y117.582
G1 X220.789 Y117.352
G1 X220.913 Y117.084
G1 X221.043 Y116.835
G1 X221.210 Y116.587
G1 X221.369 Y116.359
G1 X221.502 Y116.089
G1 X221.654 Y115.844
G1 X221.769 Y115.592
G1 X221.867 Y115.340
G1 X221.994 Y115.094
; Path 48
G0 Z0
G0 X222.037 Y115.101
G0 Z2.2
G1 F3000
G1 X222.709 Y113.728
G1 X223.331 Y112.387
G1 X224.015 Y111.064
; Path 49
G0 Z0
G0 X225.232 Y111.519
G0 Z2.2
G1 F3000
G1 X226.804 Y112.725
; Path 50
G0 Z0
G0 X228.453 Y112.198
G0 Z2.2
G1 F3000
G1 X227.539 Y113.963
; Path 51
G0 Z0
G0 X227.570 Y113.291
G0 Z2.2
G1 F3000
G1 X226.442 Y114.878
; Path 52
G0 Z0
G0 X222.996 Y115.105
G0 Z2.2
G1 F3000
G1 X223.675 Y113.769
G1 X224.330 Y112.449
G1 X225.008 Y111.100
; Path 53
G0 Z0
G0 X225.035 Y111.103
G0 Z2.2
G1 F3000
G1 X226.247 Y112.078
G1 X227.506 Y113.095
G1 X228.772 Y114.097
G1 X229.995 Y115.105
; Path 54
G0 Z0
G0 X230.000 Y115.067
G0 Z2.2
G1 F3000
G1 X230.214 Y115.050
G1 X230.400 Y115.077
G1 X230.611 Y115.112
G1 X230.799 Y115.102
G1 X230.990 Y115.118
G1 X231.198 Y115.135
G1 X231.385 Y115.150
G1 X231.597 Y115.169
G1 X231.822 Y115.162
G1 X231.996 Y115.200
G1 X232.202 Y115.213
G1 X232.396 Y115.220
G1 X232.596 Y115.194
G1 X232.795 Y115.225
G1 X233.012 Y115.232
G1 X233.195 Y115.207
G1 X233.378 Y115.178
G1 X233.595 Y115.162
G1 X233.786 Y115.127
G1 X233.995 Y115.082
G1 X234.198 Y115.002
G1 X234.396 Y114.964
G1 X234.578 Y114.893
G1 X234.798 Y114.812
G1 X234.975 Y114.697
G1 X235.199 Y114.631
G1 X235.408 Y114.551
G1 X235.602 Y114.429
G1 X235.775 Y114.297
G1 X236.004 Y114.210
G1 X236.227 Y114.092
G1 X236.406 Y113.982
G1 X236.578 Y113.863
G1 X236.809 Y113.749
G1 X237.037 Y113.631
G1 X237.211 Y113.519
G1 X237.402 Y113.427
G1 X237.613 Y113.296
G1 X237.792 Y113.216
G1 X238.015 Y113.088
; Path 55
G0 Z0
G0 X238.010 Y113.086
G0 Z2.2
G1 F3000
G1 X237.844 Y113.083
G1 X237.677 Y113.075
G1 X237.510 Y113.063
G1 X237.344 Y113.049
G1 X237.177 Y113.036
G1 X237.010 Y113.024
G1 X236.844 Y113.015
G1 X236.677 Y113.012
G1 X236.510 Y113.016
G1 X236.344 Y113.028
G1 X236.177 Y113.051
G1 X236.010 Y113.086
G1 X235.844 Y113.135
G1 X235.677 Y113.195
G1 X235.510 Y113.266
G1 X235.344 Y113.346
G1 X235.177 Y113.432
G1 X235.010 Y113.524
G1 X234.844 Y113.619
G1 X234.677 Y113.716
G1 X234.510 Y113.813
G1 X234.344 Y113.908
G1 X234.177 Y114.000
G1 X234.010 Y114.086
; Path 56
G0 Z0
G0 X235.028 Y114.099
G0 Z2.2
G1 F3000
G1 X234.044 Y112.600
G1 X233.021 Y111.093
; Path 57
G0 Z0
G0 X234.988 Y109.088
G0 Z2.2
G1 F3000
G1 X235.975 Y110.590
G1 X237.009 Y112.059
; Path 58
G0 Z0
G0 X237.986 Y113.089
G0 Z2.2
G1 F3000
G1 X238.263 Y112.969
G1 X238.501 Y112.891
G1 X238.742 Y112.799
G1 X239.037 Y112.700
G1 X239.324 Y112.600
G1 X239.584 Y112.513
G1 X239.865 Y112.435
G1 X240.135 Y112.327
G1 X240.428 Y112.230
G1 X240.679 Y112.139
G1 X240.923 Y112.039
G1 X241.209 Y111.946
G1 X241.452 Y111.859
G1 X241.714 Y111.746
G1 X241.950 Y111.662
G1 X242.187 Y111.535
G1 X242.389 Y111.398
G1 X242.618 Y111.311
G1 X242.803 Y111.164
G1 X242.997 Y111.071
G1 X243.180 Y110.953
G1 X243.320 Y110.813
G1 X243.468 Y110.673
G1 X243.592 Y110.539
G1 X243.686 Y110.369
G1 X243.822 Y110.252
G1 X243.945 Y110.079
G1 X244.019 Y109.954
G1 X244.134 Y109.801
G1 X244.192 Y109.648
G1 X244.296 Y109.503
G1 X244.349 Y109.338
G1 X244.442 Y109.178
G1 X244.501 Y109.026
G1 X244.607 Y108.853
G1 X244.656 Y108.715
G1 X244.755 Y108.532
G1 X244.823 Y108.408
G1 X244.893 Y108.238
G1 X245.011 Y108.107
; Path 59
G0 Z0
G0 X245.010 Y108.086
G0 Z2.2
G1 F3000
G1 X244.837 Y108.083
G1 X244.654 Y108.075
G1 X244.464 Y108.063
G1 X244.270 Y108.049
G1 X244.076 Y108.036
G1 X243.885 Y108.024
G1 X243.702 Y108.015
G1 X243.529 Y108.012
G1 X243.370 Y108.016
G1 X243.228 Y108.028
G1 X243.107 Y108.051
G1 X243.010 Y108.086
G1 X242.940 Y108.135
G1 X242.895 Y108.195
G1 X242.870 Y108.266
G1 X242.862 Y108.346
G1 X242.869 Y108.432
G1 X242.885 Y108.524
G1 X242.909 Y108.619
G1 X242.936 Y108.716
G1 X242.964 Y108.813
G1 X242.987 Y108.908
G1 X243.004 Y109.000
G1 X243.010 Y109.086
; Path 60
G0 Z0
G0 X243.159 Y108.658
G0 Z2.2
G1 F3000
G1 X244.792 Y107.535
; Path 61
G0 Z0
G0 X244.010 Y107.086
G0 Z2.2
G1 F3000
G1 X244.097 Y107.083
G1 X244.189 Y107.075
G1 X244.284 Y107.063
G1 X244.381 Y107.049
G1 X244.478 Y107.036
G1 X244.573 Y107.024
G1 X244.665 Y107.015
G1 X244.751 Y107.012
G1 X244.831 Y107.016
G1 X244.902 Y107.028
G1 X244.962 Y107.051
G1 X245.010 Y107.086
G1 X245.045 Y107.135
G1 X245.068 Y107.195
G1 X245.081 Y107.266
G1 X245.084 Y107.346
G1 X245.081 Y107.432
G1 X245.073 Y107.524
G1 X245.061 Y107.619
G1 X245.047 Y107.716
G1 X245.034 Y107.813
G1 X245.022 Y107.908
G1 X245.014 Y108.000
G1 X245.010 Y108.086
; Path 62
G0 Z0
G0 X244.999 Y108.086
G0 Z2.2
G1 F3000
G1 X244.967 Y107.856
G1 X244.911 Y107.571
G1 X244.861 Y107.322
G1 X244.845 Y107.035
G1 X244.830 Y106.786
G1 X244.790 Y106.487
G1 X244.784 Y106.220
G1 X244.739 Y105.936
G1 X244.702 Y105.643
G1 X244.681 Y105.390
G1 X244.662 Y105.124
G1 X244.609 Y104.860
G1 X244.533 Y104.590
G1 X244.513 Y104.355
G1 X244.435 Y104.101
G1 X244.384 Y103.883
G1 X244.290 Y103.671
G1 X244.214 Y103.454
G1 X244.109 Y103.291
G1 X243.993 Y103.076
G1 X243.878 Y102.890
G1 X243.716 Y102.756
G1 X243.560 Y102.643
G1 X243.388 Y102.488
G1 X243.194 Y102.352
G1 X243.019 Y102.263
G1 X242.817 Y102.155
G1 X242.617 Y102.071
G1 X242.412 Y102.014
G1 X242.192 Y101.904
G1 X241.978 Y101.800
G1 X241.751 Y101.752
G1 X241.529 Y101.676
G1 X241.305 Y101.606
G1 X241.079 Y101.545
G1 X240.862 Y101.457
G1 X240.617 Y101.399
G1 X240.430 Y101.296
G1 X240.233 Y101.214
G1 X240.019 Y101.113
; Path 63
G0 Z0
G0 X240.031 Y101.060
G0 Z2.2
G1 F3000
G1 X239.823 Y100.847
G1 X239.637 Y100.652
G1 X239.468 Y100.427
G1 X239.256 Y100.229
G1 X239.069 Y99.985
G1 X238.883 Y99.799
G1 X238.725 Y99.601
G1 X238.513 Y99.367
G1 X238.314 Y99.127
G1 X238.138 Y98.938
G1 X237.920 Y98.752
G1 X237.753 Y98.520
G1 X237.568 Y98.311
G1 X237.353 Y98.117
G1 X237.152 Y97.950
G1 X236.931 Y97.737
G1 X236.717 Y97.562
G1 X236.482 Y97.384
G1 X236.270 Y97.213
G1 X235.999 Y97.066
G1 X235.722 Y96.948
G1 X235.479 Y96.785
G1 X235.178 Y96.642
G1 X234.925 Y96.539
G1 X234.605 Y96.455
G1 X234.344 Y96.320
G1 X234.052 Y96.220
G1 X233.742 Y96.124
G1 X233.462 Y96.061
G1 X233.123 Y95.943
G1 X232.814 Y95.855
G1 X232.495 Y95.773
G1 X232.181 Y95.691
G1 X231.863 Y95.606
G1 X231.551 Y95.523
G1 X231.233 Y95.438
G1 X230.936 Y95.379
G1 X230.610 Y95.261
G1 X230.296 Y95.192
G1 X230.002 Y95.071
; Path 64
G0 Z0
G0 X230.030 Y95.097
G0 Z2.2
G1 F3000
G1 X229.921 Y94.928
G1 X229.834 Y94.785
G1 X229.713 Y94.633
G1 X229.644 Y94.458
G1 X229.566 Y94.286
G1 X229.459 Y94.124
G1 X229.370 Y93.940
G1 X229.275 Y93.787
G1 X229.159 Y93.608
G1 X229.089 Y93.454
G1 X228.983 Y93.278
G1 X228.898 Y93.132
G1 X228.822 Y93.008
G1 X228.698 Y92.826
G1 X228.574 Y92.709
G1 X228.488 Y92.542
G1 X228.371 Y92.404
G1 X228.263 Y92.288
G1 X228.127 Y92.162
G1 X228.022 Y92.068
G1 X227.875 Y91.974
G1 X227.761 Y91.887
G1 X227.646 Y91.832
G1 X227.483 Y91.741
G1 X227.310 Y91.680
G1 X227.191 Y91.624
G1 X227.044 Y91.588
G1 X226.888 Y91.530
G1 X226.731 Y91.490
G1 X226.577 Y91.452
G1 X226.445 Y91.396
G1 X226.261 Y91.384
G1 X226.091 Y91.358
G1 X225.943 Y91.321
G1 X225.797 Y91.259
G1 X225.626 Y91.255
G1 X225.450 Y91.213
G1 X225.313 Y91.181
G1 X225.131 Y91.149
G1 X225.007 Y91.093
; Path 65
G0 Z0
G0 X225.022 Y91.092
G0 Z2.2
G1 F3000
G1 X224.774 Y91.198
G1 X224.506 Y91.276
G1 X224.233 Y91.385
G1 X223.968 Y91.438
G1 X223.676 Y91.485
G1 X223.418 Y91.589
G1 X223.135 Y91.641
G1 X222.865 Y91.736
G1 X222.612 Y91.815
G1 X222.318 Y91.890
G1 X222.055 Y92.003
G1 X221.786 Y92.058
G1 X221.513 Y92.159
G1 X221.279 Y92.251
G1 X221.059 Y92.376
G1 X220.804 Y92.477
G1 X220.608 Y92.628
G1 X220.372 Y92.746
G1 X220.190 Y92.896
G1 X219.992 Y93.065
G1 X219.841 Y93.258
G1 X219.668 Y93.443
G1 X219.540 Y93.633
G1 X219.396 Y93.871
G1 X219.302 Y94.081
G1 X219.167 Y94.342
G1 X219.080 Y94.597
G1 X218.970 Y94.847
G1 X218.895 Y95.113
G1 X218.798 Y95.375
G1 X218.704 Y95.643
G1 X218.641 Y95.919
G1 X218.558 Y96.177
G1 X218.490 Y96.469
G1 X218.424 Y96.747
G1 X218.336 Y97.015
G1 X218.247 Y97.287
G1 X218.170 Y97.550
G1 X218.082 Y97.822
G1 X217.983 Y98.063
; Path 66
G0 Z0
G0 X216.009 Y98.074
G0 Z2.2
G1 F3000
G1 X216.993 Y96.595
G1 X218.001 Y95.059
; Path 67
G0 Z0
G0 X215.958 Y91.163
G0 Z2.2
G1 F3000
G1 X216.616 Y90.791
G1 X217.291 Y90.448
G1 X217.997 Y90.165
; Path 68
G0 Z0
G0 X219.013 Y89.063
G0 Z2.2
G1 F3000
G1 X219.490 Y90.602
G1 X219.983 Y92.097
; Path 69
G0 Z0
G0 X220.024 Y93.113
G0 Z2.2
G1 F3000
G1 X219.940 Y92.908
G1 X219.818 Y92.705
G1 X219.698 Y92.500
G1 X219.605 Y92.282
G1 X219.473 Y92.086
G1 X219.388 Y91.852
G1 X219.307 Y91.660
G1 X219.171 Y91.419
G1 X219.040 Y91.195
G1 X218.955 Y90.991
G1 X218.832 Y90.800
G1 X218.744 Y90.572
G1 X218.628 Y90.356
G1 X218.541 Y90.170
G1 X218.461 Y89.995
G1 X218.350 Y89.789
G1 X218.254 Y89.637
G1 X218.173 Y89.435
G1 X218.084 Y89.278
G1 X218.013 Y89.115
G1 X217.970 Y88.983
G1 X217.872 Y88.832
G1 X217.794 Y88.732
G1 X217.749 Y88.583
G1 X217.668 Y88.446
G1 X217.640 Y88.362
G1 X217.579 Y88.289
G1 X217.542 Y88.162
G1 X217.491 Y88.088
G1 X217.452 Y87.978
G1 X217.390 Y87.864
G1 X217.368 Y87.803
G1 X217.303 Y87.719
G1 X217.285 Y87.633
G1 X217.245 Y87.575
G1 X217.201 Y87.461
G1 X217.172 Y87.344
G1 X217.114 Y87.281
G1 X217.067 Y87.197
G1 X217.019 Y87.087
; Path 70
G0 Z0
G0 X217.011 Y87.067
G0 Z2.2
G1 F3000
G1 X217.172 Y87.056
G1 X217.318 Y87.056
G1 X217.467 Y87.057
G1 X217.632 Y87.024
G1 X217.812 Y87.022
G1 X217.950 Y86.981
G1 X218.140 Y86.981
G1 X218.269 Y86.934
G1 X218.423 Y86.901
G1 X218.587 Y86.894
G1 X218.746 Y86.861
G1 X218.899 Y86.868
G1 X219.058 Y86.855
G1 X219.202 Y86.866
G1 X219.320 Y86.909
G1 X219.494 Y86.897
G1 X219.634 Y86.938
G1 X219.772 Y86.970
G1 X219.929 Y87.058
G1 X220.031 Y87.093
G1 X220.179 Y87.208
G1 X220.271 Y87.272
G1 X220.369 Y87.381
G1 X220.493 Y87.503
G1 X220.584 Y87.654
G1 X220.700 Y87.775
G1 X220.775 Y87.939
G1 X220.896 Y88.079
G1 X220.981 Y88.226
G1 X221.084 Y88.408
G1 X221.154 Y88.553
G1 X221.266 Y88.751
G1 X221.360 Y88.947
G1 X221.446 Y89.100
G1 X221.530 Y89.253
G1 X221.627 Y89.446
G1 X221.731 Y89.611
G1 X221.812 Y89.781
G1 X221.896 Y89.957
G1 X222.005 Y90.094
; Path 71
G0 Z0
G0 X226.025 Y98.156
G0 Z2.2
G1 F3000
G1 X225.563 Y97.473
G1 X225.087 Y96.648
G1 X224.634 Y95.911
G1 X224.071 Y95.152
; Path 72
G0 Z0
G0 X226.025 Y93.053
G0 Z2.2
G1 F3000
G1 X226.584 Y93.833
G1 X226.979 Y94.612
G1 X227.533 Y95.400
G1 X228.053 Y96.126
; Path 73
G0 Z0
G0 X227.997 Y94.116
G0 Z2.2
G1 F3000
G1 X228.651 Y94.777
G1 X229.244 Y95.287
G1 X229.723 Y95.883
G1 X230.337 Y96.436
G1 X230.983 Y97.063
; Path 74
G0 Z0
G0 X234.011 Y99.105
G0 Z2.2
G1 F3000
G1 X233.852 Y99.101
G1 X233.703 Y99.101
G1 X233.545 Y99.103
G1 X233.388 Y99.091
G1 X233.217 Y99.083
G1 X233.068 Y99.077
G1 X232.934 Y99.062
G1 X232.748 Y99.062
G1 X232.582 Y99.038
G1 X232.429 Y99.050
G1 X232.273 Y99.018
G1 X232.116 Y99.041
G1 X231.969 Y99.048
G1 X231.812 Y99.041
G1 X231.685 Y99.021
G1 X231.519 Y99.050
G1 X231.398 Y99.035
G1 X231.241 Y99.073
G1 X231.087 Y99.075
G1 X230.982 Y99.112
G1 X230.844 Y99.145
G1 X230.743 Y99.169
G1 X230.627 Y99.192
G1 X230.522 Y99.242
G1 X230.437 Y99.260
G1 X230.317 Y99.328
G1 X230.218 Y99.390
G1 X230.123 Y99.424
G1 X230.033 Y99.487
G1 X229.937 Y99.528
G1 X229.852 Y99.565
G1 X229.757 Y99.636
G1 X229.670 Y99.715
G1 X229.580 Y99.747
G1 X229.516 Y99.799
G1 X229.401 Y99.856
G1 X229.338 Y99.938
G1 X229.218 Y99.962
G1 X229.135 Y99.989
G1 X229.027 Y100.061
; Path 75
G0 Z0
G0 X230.208 Y102.660
G0 Z2.2
G1 F3000
G1 X231.865 Y101.523
; Path 76
G0 Z0
G0 X232.983 Y102.104
G0 Z2.2
G1 F3000
G1 X233.047 Y104.112
; Path 77
G0 Z0
G0 X232.994 Y104.100
G0 Z2.2
G1 F3000
G1 X231.014 Y104.084
; Path 78
G0 Z0
G0 X231.011 Y104.061
G0 Z2.2
G1 F3000
G1 X231.023 Y102.098
; Path 79
G0 Z0
G0 X231.028 Y102.087
G0 Z2.2
G1 F3000
G1 X233.018 Y102.093
; Path 80
G0 Z0
G0 X233.010 Y103.086
G0 Z2.2
G1 F3000
G1 X232.010 Y104.086
; Path 81
G1 X231.010 Y103.086
; Path 82
G1 X232.010 Y102.086
; Path 83
G1 X232.007 Y102.083
G1 X231.999 Y102.075
G1 X231.987 Y102.063
G1 X231.973 Y102.049
G1 X231.960 Y102.036
G1 X231.948 Y102.024
G1 X231.939 Y102.015
G1 X231.936 Y102.012
G1 X231.940 Y102.016
G1 X231.953 Y102.028
G1 X231.975 Y102.051
G1 X232.010 Y102.086
G1 X232.059 Y102.135
G1 X232.119 Y102.195
G1 X232.190 Y102.266
G1 X232.270 Y102.346
G1 X232.356 Y102.432
G1 X232.448 Y102.524
G1 X232.543 Y102.619
G1 X232.640 Y102.716
G1 X232.737 Y102.813
G1 X232.832 Y102.908
G1 X232.924 Y103.000
G1 X233.010 Y103.086
; Path 84
G0 Z0
G0 X233.990 Y103.106
G0 Z2.2
G1 F3000
G1 X234.009 Y103.161
G1 X234.004 Y103.206
G1 X234.005 Y103.268
G1 X234.033 Y103.307
G1 X234.039 Y103.369
G1 X234.070 Y103.408
G1 X234.103 Y103.461
G1 X234.109 Y103.510
G1 X234.098 Y103.568
G1 X234.143 Y103.611
G1 X234.166 Y103.662
G1 X234.168 Y103.712
G1 X234.176 Y103.756
G1 X234.176 Y103.812
G1 X234.144 Y103.843
G1 X234.161 Y103.913
G1 X234.117 Y103.991
G1 X234.117 Y104.014
G1 X234.090 Y104.076
G1 X234.038 Y104.114
G1 X233.967 Y104.179
G1 X233.920 Y104.214
G1 X233.824 Y104.277
G1 X233.766 Y104.314
G1 X233.663 Y104.337
G1 X233.583 Y104.413
G1 X233.494 Y104.456
G1 X233.378 Y104.513
G1 X233.283 Y104.562
G1 X233.156 Y104.612
G1 X233.037 Y104.690
G1 X232.924 Y104.711
G1 X232.787 Y104.771
G1 X232.688 Y104.811
G1 X232.576 Y104.866
G1 X232.453 Y104.910
G1 X232.320 Y104.939
G1 X232.227 Y105.009
G1 X232.117 Y105.041
G1 X232.016 Y105.109
; Path 85
G0 Z0
G0 X231.993 Y105.094
G0 Z2.2
G1 F3000
G1 X231.935 Y105.100
G1 X231.893 Y105.099
G1 X231.841 Y105.100
G1 X231.792 Y105.118
G1 X231.744 Y105.127
G1 X231.691 Y105.145
G1 X231.649 Y105.187
G1 X231.591 Y105.173
G1 X231.525 Y105.209
G1 X231.490 Y105.198
G1 X231.430 Y105.189
G1 X231.390 Y105.213
G1 X231.356 Y105.196
G1 X231.289 Y105.212
G1 X231.233 Y105.223
G1 X231.189 Y105.190
G1 X231.129 Y105.166
G1 X231.090 Y105.140
G1 X231.025 Y105.082
G1 X230.990 Y105.057
G1 X230.952 Y104.984
G1 X230.891 Y104.936
G1 X230.817 Y104.862
G1 X230.793 Y104.782
G1 X230.757 Y104.708
G1 X230.695 Y104.601
G1 X230.622 Y104.480
G1 X230.597 Y104.398
G1 X230.561 Y104.284
G1 X230.500 Y104.179
G1 X230.473 Y104.051
G1 X230.402 Y103.951
G1 X230.328 Y103.815
G1 X230.305 Y103.718
G1 X230.284 Y103.598
G1 X230.208 Y103.488
G1 X230.149 Y103.355
G1 X230.110 Y103.265
G1 X230.063 Y103.190
G1 X230.012 Y103.057
; Path 86
G0 Z0
G0 X230.015 Y103.063
G0 Z2.2
G1 F3000
G1 X229.993 Y103.026
G1 X230.003 Y102.964
G1 X230.009 Y102.923
G1 X229.978 Y102.866
G1 X229.945 Y102.812
G1 X229.943 Y102.767
G1 X229.903 Y102.706
G1 X229.907 Y102.669
G1 X229.883 Y102.641
G1 X229.875 Y102.571
G1 X229.873 Y102.493
G1 X229.854 Y102.472
G1 X229.873 Y102.443
G1 X229.849 Y102.374
G1 X229.884 Y102.328
G1 X229.866 Y102.275
G1 X229.882 Y102.225
G1 X229.913 Y102.177
G1 X229.966 Y102.146
G1 X229.994 Y102.078
G1 X230.055 Y102.039
G1 X230.115 Y101.979
G1 X230.189 Y101.916
G1 X230.271 Y101.880
G1 X230.354 Y101.805
G1 X230.456 Y101.781
G1 X230.542 Y101.752
G1 X230.663 Y101.682
G1 X230.752 Y101.625
G1 X230.887 Y101.583
G1 X231.021 Y101.511
G1 X231.122 Y101.484
G1 X231.264 Y101.406
G1 X231.360 Y101.385
G1 X231.494 Y101.357
G1 X231.596 Y101.286
G1 X231.730 Y101.229
G1 X231.825 Y101.187
G1 X231.926 Y101.111
G1 X232.038 Y101.088
; Path 87
G0 Z0
G0 X232.035 Y101.064
G0 Z2.2
G1 F3000
G1 X232.067 Y101.064
G1 X232.133 Y101.059
G1 X232.153 Y101.059
G1 X232.230 Y101.039
G1 X232.307 Y101.011
G1 X232.327 Y101.012
G1 X232.363 Y101.020
G1 X232.424 Y100.983
G1 X232.456 Y100.994
G1 X232.521 Y100.958
G1 X232.547 Y100.927
G1 X232.618 Y100.942
G1 X232.677 Y100.935
G1 X232.716 Y100.942
G1 X232.790 Y100.927
G1 X232.813 Y100.964
G1 X232.881 Y100.959
G1 X232.912 Y101.013
G1 X232.962 Y101.043
G1 X233.010 Y101.095
G1 X233.072 Y101.167
G1 X233.109 Y101.214
G1 X233.139 Y101.273
G1 X233.209 Y101.367
G1 X233.229 Y101.448
G1 X233.309 Y101.547
G1 X233.332 Y101.630
G1 X233.409 Y101.749
G1 X233.438 Y101.861
G1 X233.509 Y101.966
G1 X233.568 Y102.069
G1 X233.610 Y102.193
G1 X233.635 Y102.331
G1 X233.710 Y102.424
G1 X233.760 Y102.549
G1 X233.811 Y102.653
G1 X233.839 Y102.759
G1 X233.911 Y102.874
G1 X233.963 Y103.003
G1 X234.011 Y103.081
; Path 88
G0 Z0
G0 X235.981 Y105.059
G0 Z2.2
G1 F3000
G1 X237.335 Y105.724
G1 X238.672 Y106.434
G1 X240.008 Y107.096
; Path 89
G0 Z0
G0 X243.017 Y106.086
G0 Z2.2
G1 F3000
G1 X243.037 Y108.053
; Path 90
G0 Z0
G0 X242.981 Y108.099
G0 Z2.2
G1 F3000
G1 X242.989 Y110.074
; Path 91
G0 Z0
G0 X244.018 Y110.113
G0 Z2.2
G1 F3000
G1 X244.044 Y108.756
G1 X244.010 Y107.438
G1 X244.010 Y106.093
; Path 92
G0 Z0
G0 X255.010 Y105.086
G0 Z2.2
G1 F3000
G1 X240.010 Y109.086
; Path 93
G0 Z0
G0 X239.010 Y110.086
G0 Z2.2
G1 F3000
G1 X256.010 Y109.086
; Path 94
G0 Z0
G0 X254.010 Y113.086
G0 Z2.2
G1 F3000
G1 X238.010 Y111.086
; Path 95
G0 Z0
G0 X238.096 Y111.687
G0 Z2.2
G1 F3000
G1 X239.932 Y112.500
; Path 96
G0 Z0
G0 X240.203 Y112.603
G0 Z2.2
G1 F3000
G1 X241.868 Y111.613
; Path 97
G0 Z0
G0 X240.669 Y113.876
G0 Z2.2
G1 F3000
G1 X239.369 Y112.358
; Path 98
G0 Z0
G0 X239.010 Y112.086
G0 Z2.2
G1 F3000
G1 X252.010 Y118.086
; Path 99
G0 Z0
G0 X239.024 Y128.115
G0 Z2.2
G1 F3000
G1 X238.023 Y127.089
G1 X237.019 Y126.086
G1 X236.005 Y125.083
; Path 100
G0 Z0
G0 X237.998 Y135.099
G0 Z2.2
G1 F3000
G1 X239.001 Y136.075
G1 X239.984 Y137.088
G1 X241.019 Y138.104
; Path 101
G0 Z0
G0 X237.298 Y140.129
G0 Z2.2
G1 F3000
G1 X236.723 Y142.044
; Path 102
G0 Z0
G0 X231.021 Y141.166
G0 Z2.2
G1 F3000
G1 X231.824 Y140.706
G1 X232.538 Y140.150
G1 X233.196 Y139.589
G1 X233.963 Y139.160
; Path 103
G0 Z0
G0 X234.027 Y136.102
G0 Z2.2
G1 F3000
G1 X233.729 Y136.051
G1 X233.426 Y135.982
G1 X233.150 Y135.886
G1 X232.825 Y135.834
G1 X232.504 Y135.736
G1 X232.225 Y135.669
G1 X231.942 Y135.605
G1 X231.624 Y135.500
G1 X231.294 Y135.423
G1 X231.023 Y135.340
G1 X230.737 Y135.285
G1 X230.422 Y135.199
G1 X230.148 Y135.132
G1 X229.822 Y135.091
G1 X229.549 Y135.034
G1 X229.221 Y135.027
G1 X228.903 Y135.035
G1 X228.621 Y135.019
G1 X228.340 Y135.047
G1 X228.020 Y135.079
G1 X227.707 Y135.142
G1 X227.420 Y135.217
G1 X227.145 Y135.316
G1 X226.820 Y135.422
G1 X226.492 Y135.545
G1 X226.220 Y135.684
G1 X225.916 Y135.866
G1 X225.620 Y135.990
G1 X225.342 Y136.149
G1 X225.021 Y136.328
G1 X224.727 Y136.504
G1 X224.421 Y136.686
G1 X224.104 Y136.862
G1 X223.821 Y137.052
G1 X223.545 Y137.234
G1 X223.221 Y137.415
G1 X222.919 Y137.610
G1 X222.622 Y137.761
G1 X222.312 Y137.908
G1 X222.022 Y138.079
; Path 104
G0 Z0
G0 X219.278 Y141.771
G0 Z2.2
G1 F3000
G1 X220.698 Y140.380
; Path 105
G0 Z0
G0 X227.074 Y143.141
G0 Z2.2
G1 F3000
G1 X226.299 Y143.612
G1 X225.596 Y144.189
G1 X224.751 Y144.668
G1 X224.024 Y145.126
; Path 106
G0 Z0
G0 X225.031 Y158.079
G0 Z2.2
G1 F3000
G1 X225.774 Y157.602
G1 X226.468 Y157.020
G1 X227.263 Y156.672
G1 X228.034 Y156.096
; Path 107
G0 Z0
G0 X230.031 Y153.147
G0 Z2.2
G1 F3000
G1 X230.791 Y152.573
G1 X231.461 Y152.179
G1 X232.170 Y151.626
G1 X232.948 Y151.105
; Path 108
G0 Z0
G0 X237.983 Y145.079
G0 Z2.2
G1 F3000
G1 X238.969 Y146.077
G1 X240.024 Y147.075
G1 X241.013 Y148.063
; Path 109
G0 Z0
G0 X238.482 Y150.204
G0 Z2.2
G1 F3000
G1 X237.539 Y151.968
; Path 110
G0 Z0
G0 X236.988 Y155.092
G0 Z2.2
G1 F3000
G1 X237.996 Y156.117
G1 X239.034 Y157.077
G1 X240.039 Y158.092
; Path 111
G0 Z0
G0 X235.021 Y151.090
G0 Z2.2
G1 F3000
G1 X234.665 Y151.059
G1 X234.326 Y150.972
G1 X234.011 Y150.911
G1 X233.638 Y150.826
G1 X233.283 Y150.754
G1 X232.954 Y150.664
G1 X232.605 Y150.610
G1 X232.272 Y150.498
G1 X231.956 Y150.430
G1 X231.587 Y150.340
G1 X231.234 Y150.264
G1 X230.897 Y150.202
G1 X230.522 Y150.165
G1 X230.199 Y150.095
G1 X229.836 Y150.035
G1 X229.490 Y150.033
G1 X229.120 Y150.027
G1 X228.766 Y150.026
G1 X228.387 Y150.054
G1 X228.025 Y150.087
G1 X227.616 Y150.134
G1 X227.264 Y150.223
G1 X226.873 Y150.317
G1 X226.486 Y150.427
G1 X226.078 Y150.558
G1 X225.694 Y150.686
G1 X225.322 Y150.809
G1 X224.891 Y150.990
G1 X224.498 Y151.180
G1 X224.079 Y151.325
G1 X223.679 Y151.491
G1 X223.262 Y151.680
G1 X222.860 Y151.833
G1 X222.443 Y152.043
G1 X222.030 Y152.218
G1 X221.626 Y152.402
G1 X221.234 Y152.564
G1 X220.812 Y152.745
G1 X220.409 Y152.903
G1 X220.005 Y153.060
; Path 112
G0 Z0
G0 X219.745 Y150.376
G0 Z2.2
G1 F3000
G1 X218.308 Y151.780
; Path 113
G0 Z0
G0 X217.277 Y152.085
G0 Z2.2
G1 F3000
G1 X216.707 Y154.093
; Path 114
G0 Z0
G0 X214.003 Y155.109
G0 Z2.2
G1 F3000
G1 X214.691 Y153.788
G1 X215.359 Y152.466
G1 X216.008 Y151.106
; Path 115
G0 Z0
G0 X213.020 Y148.082
G0 Z2.2
G1 F3000
G1 X213.662 Y146.421
G1 X214.358 Y144.790
G1 X215.010 Y143.111
; Path 116
G0 Z0
G0 X215.637 Y144.119
G0 Z2.2
G1 F3000
G1 X216.275 Y142.286
; Path 117
G0 Z0
G0 X213.992 Y138.102
G0 Z2.2
G1 F3000
G1 X214.974 Y136.396
G1 X216.011 Y134.720
G1 X217.003 Y133.071
; Path 118
G0 Z0
G0 X216.438 Y134.014
G0 Z2.2
G1 F3000
G1 X217.574 Y132.248
; Path 119
G0 Z0
G0 X215.015 Y128.116
G0 Z2.2
G1 F3000
G1 X216.030 Y126.443
G1 X217.013 Y124.790
G1 X218.004 Y123.094
; Path 120
G0 Z0
G0 X215.982 Y121.071
G0 Z2.2
G1 F3000
G1 X216.996 Y119.747
G1 X218.018 Y118.410
G1 X219.020 Y117.090
; Path 121
G0 Z0
G0 X220.035 Y112.078
G0 Z2.2
G1 F3000
G1 X221.004 Y110.582
G1 X222.013 Y109.073
; Path 122
G0 Z0
G0 X215.004 Y104.103
G0 Z2.2
G1 F3000
G1 X215.660 Y102.735
G1 X216.348 Y101.432
G1 X216.987 Y100.062
; Path 123
G0 Z0
G0 X217.012 Y101.107
G0 Z2.2
G1 F3000
G1 X217.710 Y99.767
G1 X218.339 Y98.405
G1 X219.026 Y97.073
; Path 124
G0 Z0
G0 X218.032 Y98.112
G0 Z2.2
G1 F3000
G1 X217.897 Y98.438
G1 X217.809 Y98.805
G1 X217.714 Y99.120
G1 X217.559 Y99.492
G1 X217.433 Y99.818
G1 X217.292 Y100.174
G1 X217.132 Y100.529
G1 X217.021 Y100.855
G1 X216.860 Y101.216
G1 X216.759 Y101.538
G1 X216.615 Y101.883
G1 X216.516 Y102.226
G1 X216.437 Y102.558
G1 X216.306 Y102.922
G1 X216.203 Y103.264
G1 X216.140 Y103.630
G1 X216.104 Y103.965
G1 X216.031 Y104.353
G1 X215.990 Y104.715
G1 X215.990 Y105.093
G1 X216.003 Y105.457
G1 X216.026 Y105.853
G1 X216.049 Y106.251
G1 X216.131 Y106.630
G1 X216.190 Y107.022
G1 X216.292 Y107.422
G1 X216.414 Y107.832
G1 X216.497 Y108.226
G1 X216.630 Y108.625
G1 X216.735 Y109.037
G1 X216.856 Y109.459
G1 X216.993 Y109.854
G1 X217.130 Y110.248
G1 X217.259 Y110.673
G1 X217.376 Y111.074
G1 X217.520 Y111.491
G1 X217.619 Y111.901
G1 X217.766 Y112.305
G1 X217.861 Y112.715
G1 X217.984 Y113.111
; Path 125
G0 Z0
G0 X217.997 Y113.072
G0 Z2.2
G1 F3000
G1 X217.793 Y113.459
G1 X217.585 Y113.857
G1 X217.364 Y114.213
G1 X217.152 Y114.614
G1 X216.908 Y114.968
G1 X216.707 Y115.356
G1 X216.502 Y115.724
G1 X216.258 Y116.093
G1 X216.048 Y116.489
G1 X215.816 Y116.839
G1 X215.623 Y117.191
G1 X215.389 Y117.604
G1 X215.165 Y118.016
G1 X214.986 Y118.401
G1 X214.797 Y118.839
G1 X214.616 Y119.242
G1 X214.450 Y119.664
G1 X214.289 Y120.138
G1 X214.122 Y120.645
G1 X214.012 Y121.102
G1 X213.916 Y121.612
G1 X213.793 Y122.141
G1 X213.729 Y122.690
G1 X213.624 Y123.248
G1 X213.572 Y123.817
G1 X213.498 Y124.411
G1 X213.477 Y125.005
G1 X213.405 Y125.617
G1 X213.385 Y126.241
G1 X213.337 Y126.855
G1 X213.335 Y127.512
G1 X213.283 Y128.113
G1 X213.231 Y128.723
G1 X213.235 Y129.379
G1 X213.202 Y130.013
G1 X213.184 Y130.640
G1 X213.143 Y131.269
G1 X213.121 Y131.886
G1 X213.058 Y132.524
G1 X213.037 Y133.105
; Path 126
G0 Z0
G0 X213.008 Y133.110
G0 Z2.2
G1 F3000
G1 X212.918 Y133.718
G1 X212.887 Y134.305
G1 X212.800 Y134.891
G1 X212.738 Y135.493
G1 X212.665 Y136.099
G1 X212.572 Y136.677
G1 X212.512 Y137.291
G1 X212.403 Y137.861
G1 X212.301 Y138.435
G1 X212.241 Y139.046
G1 X212.158 Y139.650
G1 X212.100 Y140.236
G1 X212.060 Y140.818
G1 X211.991 Y141.433
G1 X211.984 Y142.046
G1 X211.928 Y142.642
G1 X211.918 Y143.240
G1 X211.921 Y143.864
G1 X211.936 Y144.476
G1 X211.983 Y145.102
G1 X212.030 Y145.712
G1 X212.122 Y146.359
G1 X212.254 Y147.000
G1 X212.330 Y147.632
G1 X212.492 Y148.292
G1 X212.595 Y148.919
G1 X212.732 Y149.557
G1 X212.905 Y150.217
G1 X213.080 Y150.853
G1 X213.248 Y151.522
G1 X213.436 Y152.185
G1 X213.610 Y152.832
G1 X213.798 Y153.510
G1 X213.981 Y154.144
G1 X214.154 Y154.778
G1 X214.348 Y155.455
G1 X214.514 Y156.125
G1 X214.698 Y156.762
G1 X214.880 Y157.395
G1 X215.021 Y158.063
; Path 127
G0 Z0
G0 X215.028 Y158.065
G0 Z2.2
G1 F3000
G1 X215.073 Y158.540
G1 X215.111 Y159.065
G1 X215.134 Y159.568
G1 X215.171 Y160.064
G1 X215.225 Y160.566
G1 X215.220 Y161.063
G1 X215.224 Y161.539
G1 X215.265 Y162.063
G1 X215.263 Y162.549
G1 X215.317 Y163.062
G1 X215.372 Y163.537
G1 X215.384 Y164.061
G1 X215.423 Y164.586
G1 X215.475 Y165.061
G1 X215.564 Y165.554
G1 X215.600 Y166.061
G1 X215.678 Y166.566
G1 X215.768 Y167.062
G1 X215.856 Y167.549
G1 X215.988 Y168.063
G1 X216.124 Y168.583
G1 X216.266 Y169.065
G1 X216.427 Y169.555
G1 X216.596 Y170.067
G1 X216.761 Y170.539
G1 X216.970 Y171.070
G1 X217.177 Y171.593
G1 X217.376 Y172.074
G1 X217.606 Y172.599
G1 X217.808 Y173.077
G1 X218.018 Y173.560
G1 X218.254 Y174.081
G1 X218.455 Y174.559
G1 X218.707 Y175.085
G1 X218.920 Y175.611
G1 X219.157 Y176.089
G1 X219.398 Y176.591
G1 X219.594 Y177.092
G1 X219.829 Y177.607
G1 X220.010 Y178.096
; Path 128
G0 Z0
G0 X219.998 Y178.100
G0 Z2.2
G1 F3000
G1 X219.570 Y178.042
G1 X219.178 Y178.001
G1 X218.767 Y177.967
G1 X218.330 Y177.909
G1 X217.896 Y177.852
G1 X217.466 Y177.820
G1 X217.020 Y177.794
G1 X216.598 Y177.733
G1 X216.163 Y177.705
G1 X215.737 Y177.643
G1 X215.316 Y177.575
G1 X214.897 Y177.549
G1 X214.515 Y177.476
G1 X214.090 Y177.447
G1 X213.702 Y177.417
G1 X213.327 Y177.335
G1 X212.972 Y177.291
G1 X212.621 Y177.209
G1 X212.286 Y177.159
G1 X211.984 Y177.067
G1 X211.724 Y176.978
G1 X211.424 Y176.907
G1 X211.160 Y176.833
G1 X210.933 Y176.731
G1 X210.745 Y176.646
G1 X210.499 Y176.541
G1 X210.312 Y176.460
G1 X210.109 Y176.340
G1 X209.915 Y176.235
G1 X209.752 Y176.132
G1 X209.595 Y176.051
G1 X209.415 Y175.919
G1 X209.236 Y175.817
G1 X209.087 Y175.704
G1 X208.930 Y175.586
G1 X208.754 Y175.491
G1 X208.589 Y175.358
G1 X208.405 Y175.281
G1 X208.208 Y175.179
G1 X208.027 Y175.077
; Path 129
G0 Z0
G0 X208.033 Y175.092
G0 Z2.2
G1 F3000
G1 X207.801 Y175.051
G1 X207.611 Y174.998
G1 X207.382 Y174.946
G1 X207.153 Y174.918
G1 X206.926 Y174.890
G1 X206.675 Y174.845
G1 X206.423 Y174.812
G1 X206.193 Y174.775
G1 X205.975 Y174.759
G1 X205.720 Y174.701
G1 X205.506 Y174.662
G1 X205.273 Y174.617
G1 X205.081 Y174.542
G1 X204.865 Y174.517
G1 X204.701 Y174.430
G1 X204.512 Y174.396
G1 X204.346 Y174.306
G1 X204.229 Y174.249
G1 X204.120 Y174.180
G1 X204.030 Y174.068
G1 X203.971 Y173.961
G1 X203.926 Y173.851
G1 X203.920 Y173.719
G1 X203.907 Y173.601
G1 X203.910 Y173.441
G1 X203.958 Y173.324
G1 X204.007 Y173.152
G1 X204.063 Y173.026
G1 X204.121 Y172.893
G1 X204.208 Y172.712
G1 X204.318 Y172.561
G1 X204.378 Y172.389
G1 X204.441 Y172.247
G1 X204.558 Y172.062
G1 X204.661 Y171.888
G1 X204.733 Y171.736
G1 X204.838 Y171.575
G1 X204.888 Y171.419
G1 X204.949 Y171.283
G1 X205.008 Y171.115
; Path 130
G0 Z0
G0 X205.004 Y171.057
G0 Z2.2
G1 F3000
G1 X205.151 Y170.755
G1 X205.295 Y170.443
G1 X205.446 Y170.110
G1 X205.571 Y169.801
G1 X205.694 Y169.491
G1 X205.840 Y169.144
G1 X205.984 Y168.835
G1 X206.106 Y168.483
G1 X206.238 Y168.166
G1 X206.376 Y167.830
G1 X206.538 Y167.494
G1 X206.657 Y167.196
G1 X206.804 Y166.868
G1 X206.953 Y166.594
G1 X207.100 Y166.305
G1 X207.272 Y166.036
G1 X207.452 Y165.798
G1 X207.618 Y165.532
G1 X207.818 Y165.314
G1 X207.999 Y165.095
G1 X208.210 Y164.912
G1 X208.418 Y164.733
G1 X208.627 Y164.610
G1 X208.872 Y164.438
G1 X209.085 Y164.291
G1 X209.353 Y164.199
G1 X209.619 Y164.085
G1 X209.857 Y164.002
G1 X210.134 Y163.908
G1 X210.376 Y163.837
G1 X210.622 Y163.760
G1 X210.906 Y163.692
G1 X211.181 Y163.633
G1 X211.440 Y163.554
G1 X211.704 Y163.468
G1 X211.972 Y163.413
G1 X212.227 Y163.350
G1 X212.495 Y163.256
G1 X212.722 Y163.134
G1 X213.005 Y163.071
; Path 131
G0 Z0
G0 X216.010 Y161.115
G0 Z2.2
G1 F3000
G1 X215.328 Y162.456
G1 X214.654 Y163.735
G1 X214.016 Y165.066
; Path 132
G0 Z0
G0 X212.009 Y165.085
G0 Z2.2
G1 F3000
G1 X210.329 Y165.763
G1 X208.683 Y166.450
G1 X207.006 Y167.093
; Path 133
G0 Z0
G0 X207.977 Y168.129
G0 Z2.2
G1 F3000
G1 X207.316 Y168.427
G1 X206.694 Y168.792
G1 X206.077 Y169.136
; Path 134
G0 Z0
G0 X206.004 Y169.095
G0 Z2.2
G1 F3000
G1 X206.111 Y168.919
G1 X206.199 Y168.787
G1 X206.306 Y168.658
G1 X206.388 Y168.471
G1 X206.470 Y168.317
G1 X206.573 Y168.151
G1 X206.642 Y168.002
G1 X206.756 Y167.829
G1 X206.824 Y167.659
G1 X206.942 Y167.510
G1 X207.051 Y167.352
G1 X207.133 Y167.197
G1 X207.238 Y167.064
G1 X207.331 Y166.891
G1 X207.465 Y166.767
G1 X207.541 Y166.598
G1 X207.641 Y166.442
G1 X207.765 Y166.319
G1 X207.910 Y166.191
G1 X208.006 Y166.057
G1 X208.159 Y165.929
G1 X208.267 Y165.816
G1 X208.377 Y165.701
G1 X208.544 Y165.593
G1 X208.664 Y165.485
G1 X208.836 Y165.384
G1 X208.964 Y165.312
G1 X209.138 Y165.187
G1 X209.268 Y165.074
G1 X209.449 Y164.999
G1 X209.632 Y164.886
G1 X209.765 Y164.816
G1 X209.903 Y164.705
G1 X210.083 Y164.634
G1 X210.232 Y164.547
G1 X210.400 Y164.452
G1 X210.557 Y164.333
G1 X210.712 Y164.266
G1 X210.851 Y164.173
G1 X211.018 Y164.072
; Path 135
G0 Z0
G0 X210.128 Y166.496
G0 Z2.2
G1 F3000
G1 X211.928 Y165.642
; Path 136
G0 Z0
G0 X212.740 Y167.492
G0 Z2.2
G1 F3000
G1 X211.099 Y168.520
; Path 137
G0 Z0
G0 X212.293 Y170.696
G0 Z2.2
G1 F3000
G1 X213.829 Y169.381
; Path 138
G0 Z0
G0 X215.021 Y169.080
G0 Z2.2
G1 F3000
G1 X216.012 Y167.753
G1 X217.043 Y166.378
G1 X218.027 Y165.068
; Path 139
G0 Z0
G0 X218.171 Y164.004
G0 Z2.2
G1 F3000
G1 X217.880 Y162.093
; Path 140
G0 Z0
G0 X219.511 Y161.922
G0 Z2.2
G1 F3000
G1 X220.455 Y160.179
; Path 141
G0 Z0
G0 X225.021 Y163.058
G0 Z2.2
G1 F3000
G1 X224.879 Y163.305
G1 X224.705 Y163.558
G1 X224.509 Y163.796
G1 X224.368 Y164.058
G1 X224.207 Y164.280
G1 X224.019 Y164.557
G1 X223.847 Y164.786
G1 X223.666 Y165.057
G1 X223.491 Y165.327
G1 X223.320 Y165.556
G1 X223.132 Y165.829
G1 X222.989 Y166.056
G1 X222.817 Y166.281
G1 X222.682 Y166.556
G1 X222.562 Y166.777
G1 X222.408 Y167.057
G1 X222.299 Y167.325
G1 X222.177 Y167.558
G1 X222.113 Y167.803
G1 X221.998 Y168.061
G1 X221.946 Y168.318
G1 X221.876 Y168.564
G1 X221.821 Y168.824
G1 X221.806 Y169.068
G1 X221.795 Y169.290
G1 X221.778 Y169.573
G1 X221.795 Y169.850
G1 X221.783 Y170.078
G1 X221.779 Y170.354
G1 X221.813 Y170.584
G1 X221.857 Y170.821
G1 X221.858 Y171.090
G1 X221.908 Y171.372
G1 X221.909 Y171.596
G1 X221.938 Y171.826
G1 X221.956 Y172.102
G1 X221.983 Y172.381
G1 X221.992 Y172.608
G1 X222.027 Y172.834
G1 X222.007 Y173.113
; Path 142
G0 Z0
G0 X222.016 Y168.088
G0 Z2.2
G1 F3000
G1 X222.236 Y168.050
G1 X222.418 Y167.989
G1 X222.632 Y167.948
G1 X222.820 Y167.897
G1 X223.001 Y167.851
G1 X223.222 Y167.809
G1 X223.449 Y167.779
G1 X223.625 Y167.721
G1 X223.797 Y167.693
G1 X224.027 Y167.632
G1 X224.210 Y167.605
G1 X224.429 Y167.538
G1 X224.601 Y167.497
G1 X224.831 Y167.436
G1 X225.043 Y167.410
G1 X225.233 Y167.324
G1 X225.463 Y167.235
G1 X225.635 Y167.199
G1 X225.811 Y167.102
G1 X226.036 Y167.057
G1 X226.264 Y166.963
G1 X226.437 Y166.897
G1 X226.652 Y166.830
G1 X226.837 Y166.721
G1 X227.053 Y166.625
G1 X227.238 Y166.531
G1 X227.452 Y166.454
G1 X227.638 Y166.331
G1 X227.812 Y166.204
G1 X228.038 Y166.124
G1 X228.220 Y165.998
G1 X228.437 Y165.911
G1 X228.608 Y165.790
G1 X228.837 Y165.697
G1 X229.029 Y165.587
G1 X229.237 Y165.483
G1 X229.423 Y165.402
G1 X229.637 Y165.274
G1 X229.826 Y165.143
G1 X230.037 Y165.071
; Path 143
G0 Z0
G0 X234.996 Y161.083
G0 Z2.2
G1 F3000
G1 X235.015 Y161.451
G1 X235.014 Y161.790
G1 X235.005 Y162.141
G1 X235.053 Y162.511
G1 X235.081 Y162.863
G1 X235.105 Y163.239
G1 X235.131 Y163.629
G1 X235.160 Y163.970
G1 X235.162 Y164.321
G1 X235.208 Y164.696
G1 X235.220 Y165.066
G1 X235.241 Y165.413
G1 X235.265 Y165.793
G1 X235.250 Y166.114
G1 X235.255 Y166.467
G1 X235.225 Y166.794
G1 X235.206 Y167.145
G1 X235.156 Y167.446
G1 X235.072 Y167.775
G1 X235.035 Y168.064
G1 X234.928 Y168.385
G1 X234.856 Y168.646
G1 X234.713 Y168.943
G1 X234.624 Y169.194
G1 X234.491 Y169.434
G1 X234.349 Y169.715
G1 X234.186 Y169.991
G1 X234.040 Y170.214
G1 X233.900 Y170.429
G1 X233.707 Y170.697
G1 X233.524 Y170.905
G1 X233.358 Y171.170
G1 X233.159 Y171.408
G1 X233.003 Y171.640
G1 X232.830 Y171.861
G1 X232.651 Y172.111
G1 X232.498 Y172.339
G1 X232.311 Y172.591
G1 X232.142 Y172.831
G1 X231.993 Y173.084
; Path 144
G0 Z0
G0 X236.520 Y183.079
G0 Z2.2
G1 F3000
G1 X236.020 Y182.579
G1 X235.520 Y183.079
G1 X236.020 Y183.579
G1 X236.520 Y183.079
; Path 145
G0 Z0
G0 X238.027 Y187.063
G0 Z2.2
G1 F3000
G1 X238.396 Y188.684
G1 X238.841 Y190.260
G1 X239.240 Y191.862
G1 X239.599 Y193.484
G1 X240.000 Y195.092
; Path 146
G0 Z0
G0 X239.989 Y195.110
G0 Z2.2
G1 F3000
G1 X240.508 Y193.430
G1 X240.981 Y191.756
G1 X241.467 Y190.134
G1 X242.008 Y188.425
G1 X242.490 Y186.804
G1 X243.004 Y185.116
; Path 147
G0 Z0
G0 X244.991 Y183.105
G0 Z2.2
G1 F3000
G1 X245.105 Y182.691
G1 X245.275 Y182.287
G1 X245.427 Y181.871
G1 X245.531 Y181.441
G1 X245.664 Y180.997
G1 X245.770 Y180.579
G1 X245.876 Y180.173
G1 X246.006 Y179.713
G1 X246.149 Y179.294
G1 X246.249 Y178.855
G1 X246.409 Y178.441
G1 X246.513 Y178.017
G1 X246.686 Y177.584
G1 X246.808 Y177.211
G1 X246.993 Y176.813
G1 X247.148 Y176.449
G1 X247.317 Y176.084
G1 X247.543 Y175.742
G1 X247.792 Y175.412
G1 X248.006 Y175.104
G1 X248.270 Y174.805
G1 X248.545 Y174.541
G1 X248.852 Y174.314
G1 X249.151 Y174.046
G1 X249.474 Y173.820
G1 X249.814 Y173.607
G1 X250.195 Y173.408
G1 X250.520 Y173.211
G1 X250.880 Y173.000
G1 X251.259 Y172.848
G1 X251.654 Y172.676
G1 X252.017 Y172.504
G1 X252.395 Y172.355
G1 X252.783 Y172.169
G1 X253.186 Y172.006
G1 X253.545 Y171.829
G1 X253.913 Y171.639
G1 X254.291 Y171.474
G1 X254.671 Y171.297
G1 X255.010 Y171.091
; Path 148
G0 Z0
G0 X254.989 Y171.064
G0 Z2.2
G1 F3000
G1 X255.643 Y171.164
G1 X256.321 Y171.239
G1 X257.014 Y171.327
G1 X257.695 Y171.372
G1 X258.371 Y171.430
G1 X259.093 Y171.481
G1 X259.793 Y171.545
G1 X260.498 Y171.584
G1 X261.187 Y171.621
G1 X261.890 Y171.699
G1 X262.563 Y171.776
G1 X263.252 Y171.844
G1 X263.882 Y171.926
G1 X264.565 Y172.036
G1 X265.212 Y172.194
G1 X265.811 Y172.295
G1 X266.375 Y172.473
G1 X266.973 Y172.637
G1 X267.508 Y172.840
G1 X268.031 Y173.081
G1 X268.486 Y173.377
G1 X268.973 Y173.639
G1 X269.409 Y173.942
G1 X269.812 Y174.299
G1 X270.214 Y174.661
G1 X270.567 Y175.042
G1 X270.904 Y175.418
G1 X271.254 Y175.851
G1 X271.585 Y176.286
G1 X271.893 Y176.708
G1 X272.223 Y177.135
G1 X272.501 Y177.594
G1 X272.817 Y178.023
G1 X273.097 Y178.493
G1 X273.413 Y178.932
G1 X273.699 Y179.386
G1 X274.011 Y179.800
G1 X274.326 Y180.255
G1 X274.645 Y180.687
G1 X274.995 Y181.081
; Path 149
G0 Z0
G0 X275.024 Y181.112
G0 Z2.2
G1 F3000
G1 X274.907 Y181.452
G1 X274.761 Y181.827
G1 X274.690 Y182.178
G1 X274.560 Y182.571
G1 X274.484 Y182.968
G1 X274.396 Y183.331
G1 X274.303 Y183.696
G1 X274.240 Y184.094
G1 X274.168 Y184.468
G1 X274.067 Y184.850
G1 X273.964 Y185.201
G1 X273.849 Y185.586
G1 X273.696 Y185.933
G1 X273.559 Y186.289
G1 X273.354 Y186.639
G1 X273.170 Y186.949
G1 X272.938 Y187.255
G1 X272.656 Y187.553
G1 X272.348 Y187.842
G1 X271.989 Y188.089
G1 X271.558 Y188.348
G1 X271.152 Y188.549
G1 X270.683 Y188.742
G1 X270.163 Y188.941
G1 X269.581 Y189.131
G1 X269.048 Y189.277
G1 X268.427 Y189.400
G1 X267.835 Y189.569
G1 X267.220 Y189.714
G1 X266.550 Y189.829
G1 X265.863 Y189.966
G1 X265.220 Y190.069
G1 X264.543 Y190.206
G1 X263.872 Y190.301
G1 X263.193 Y190.419
G1 X262.533 Y190.537
G1 X261.909 Y190.677
G1 X261.230 Y190.789
G1 X260.600 Y190.910
G1 X259.990 Y191.070
; Path 150
G0 Z0
G0 X260.011 Y191.080
G0 Z2.2
G1 F3000
G1 X259.509 Y191.099
G1 X258.991 Y191.115
G1 X258.458 Y191.132
G1 X257.937 Y191.205
G1 X257.397 Y191.282
G1 X256.863 Y191.327
G1 X256.328 Y191.402
G1 X255.783 Y191.456
G1 X255.220 Y191.510
G1 X254.714 Y191.570
G1 X254.185 Y191.617
G1 X253.670 Y191.645
G1 X253.157 Y191.622
G1 X252.665 Y191.655
G1 X252.180 Y191.594
G1 X251.714 Y191.577
G1 X251.259 Y191.454
G1 X250.833 Y191.388
G1 X250.460 Y191.247
G1 X250.036 Y191.063
G1 X249.681 Y190.799
G1 X249.333 Y190.587
G1 X249.052 Y190.263
G1 X248.715 Y189.975
G1 X248.412 Y189.601
G1 X248.165 Y189.251
G1 X247.926 Y188.841
G1 X247.670 Y188.440
G1 X247.421 Y188.005
G1 X247.215 Y187.565
G1 X247.005 Y187.116
G1 X246.785 Y186.649
G1 X246.549 Y186.178
G1 X246.364 Y185.718
G1 X246.181 Y185.237
G1 X245.938 Y184.795
G1 X245.690 Y184.333
G1 X245.493 Y183.904
G1 X245.269 Y183.468
G1 X245.013 Y183.068
; Path 151
G0 Z0
G0 X247.873 Y184.116
G0 Z2.2
G1 F3000
G1 X248.151 Y186.105
; Path 152
G0 Z0
G0 X243.514 Y189.088
G0 Z2.2
G1 F3000
G1 X243.014 Y189.588
G1 X242.514 Y189.088
G1 X243.014 Y188.588
G1 X243.514 Y189.088
; Path 153
G0 Z0
G0 X245.026 Y186.098
G0 Z2.2
G1 F3000
G1 X243.335 Y186.726
G1 X241.706 Y187.397
G1 X240.030 Y188.063
; Path 154
G0 Z0
G0 X242.040 Y188.057
G0 Z2.2
G1 F3000
G1 X240.276 Y188.791
G1 X238.534 Y189.549
G1 X236.798 Y190.345
G1 X235.017 Y191.095
; Path 155
G0 Z0
G0 X235.000 Y193.101
G0 Z2.2
G1 F3000
G1 X235.139 Y192.318
G1 X235.267 Y191.589
G1 X235.398 Y190.836
G1 X235.485 Y190.063
G1 X235.609 Y189.309
G1 X235.675 Y188.529
G1 X235.783 Y187.767
G1 X235.858 Y186.993
G1 X235.950 Y186.254
G1 X236.055 Y185.461
G1 X236.179 Y184.707
G1 X236.287 Y183.939
G1 X236.423 Y183.164
G1 X236.576 Y182.433
G1 X236.779 Y181.706
G1 X236.941 Y180.950
G1 X237.162 Y180.199
G1 X237.404 Y179.495
G1 X237.689 Y178.756
G1 X237.987 Y178.074
G1 X238.372 Y177.406
G1 X238.703 Y176.691
G1 X239.116 Y176.007
G1 X239.537 Y175.343
G1 X240.001 Y174.690
G1 X240.470 Y174.024
G1 X240.961 Y173.385
G1 X241.480 Y172.726
G1 X241.984 Y172.058
G1 X242.546 Y171.445
G1 X243.079 Y170.785
G1 X243.647 Y170.174
G1 X244.186 Y169.516
G1 X244.763 Y168.907
G1 X245.343 Y168.295
G1 X245.871 Y167.638
G1 X246.414 Y166.996
G1 X246.951 Y166.361
G1 X247.473 Y165.706
G1 X247.982 Y165.069
; Path 156
G0 Z0
G0 X248.023 Y165.107
G0 Z2.2
G1 F3000
G1 X248.689 Y164.867
G1 X249.413 Y164.676
G1 X250.121 Y164.440
G1 X250.790 Y164.203
G1 X251.471 Y163.971
G1 X252.158 Y163.706
G1 X252.838 Y163.471
G1 X253.524 Y163.203
G1 X254.215 Y162.969
G1 X254.895 Y162.712
G1 X255.606 Y162.470
G1 X256.275 Y162.251
G1 X256.982 Y162.068
G1 X257.672 Y161.838
G1 X258.404 Y161.667
G1 X259.090 Y161.493
G1 X259.834 Y161.369
G1 X260.538 Y161.231
G1 X261.264 Y161.125
G1 X262.019 Y161.073
G1 X262.794 Y161.030
G1 X263.539 Y161.030
G1 X264.290 Y161.083
G1 X265.093 Y161.089
G1 X265.908 Y161.155
G1 X266.676 Y161.234
G1 X267.481 Y161.309
G1 X268.281 Y161.444
G1 X269.120 Y161.570
G1 X269.902 Y161.704
G1 X270.744 Y161.826
G1 X271.533 Y161.993
G1 X272.349 Y162.160
G1 X273.168 Y162.295
G1 X273.968 Y162.437
G1 X274.801 Y162.590
G1 X275.599 Y162.750
G1 X276.426 Y162.861
G1 X277.261 Y162.960
G1 X278.037 Y163.090
; Path 157
G0 Z0
G0 X278.028 Y163.068
G0 Z2.2
G1 F3000
G1 X278.556 Y163.453
G1 X279.062 Y163.827
G1 X279.622 Y164.160
G1 X280.152 Y164.523
G1 X280.739 Y164.851
G1 X281.273 Y165.183
G1 X281.840 Y165.490
G1 X282.403 Y165.834
G1 X282.933 Y166.175
G1 X283.516 Y166.503
G1 X284.044 Y166.882
G1 X284.590 Y167.217
G1 X285.075 Y167.623
G1 X285.600 Y168.003
G1 X286.076 Y168.473
G1 X286.521 Y168.888
G1 X286.908 Y169.390
G1 X287.331 Y169.900
G1 X287.647 Y170.500
G1 X288.005 Y171.064
G1 X288.294 Y171.719
G1 X288.527 Y172.400
G1 X288.743 Y173.169
G1 X288.913 Y173.890
G1 X289.080 Y174.704
G1 X289.187 Y175.505
G1 X289.310 Y176.362
G1 X289.373 Y177.220
G1 X289.416 Y178.126
G1 X289.496 Y179.007
G1 X289.508 Y179.912
G1 X289.578 Y180.839
G1 X289.610 Y181.754
G1 X289.644 Y182.689
G1 X289.669 Y183.583
G1 X289.718 Y184.530
G1 X289.769 Y185.435
G1 X289.825 Y186.335
G1 X289.881 Y187.233
G1 X289.987 Y188.077
; Path 158
G0 Z0
G0 X299.984 Y193.110
G0 Z2.2
G1 F3000
G1 X298.510 Y193.035
G1 X296.991 Y192.944
G1 X295.489 Y192.884
G1 X293.971 Y192.781
G1 X292.515 Y192.720
G1 X290.994 Y192.616
G1 X289.499 Y192.495
G1 X288.016 Y192.402
G1 X286.499 Y192.324
G1 X285.029 Y192.247
G1 X283.478 Y192.108
G1 X282.005 Y192.026
G1 X280.508 Y191.907
G1 X279.018 Y191.810
G1 X277.510 Y191.740
G1 X275.994 Y191.642
G1 X274.492 Y191.584
G1 X273.015 Y191.483
G1 X271.493 Y191.423
G1 X270.013 Y191.358
G1 X268.519 Y191.275
G1 X266.992 Y191.241
G1 X265.542 Y191.186
G1 X264.023 Y191.132
G1 X262.544 Y191.090
G1 X261.045 Y191.100
G1 X259.526 Y191.072
G1 X258.009 Y191.110
G1 X256.506 Y191.073
G1 X255.029 Y191.113
G1 X253.537 Y191.161
G1 X252.054 Y191.187
G1 X250.530 Y191.267
G1 X249.057 Y191.370
G1 X247.526 Y191.428
G1 X246.030 Y191.522
G1 X244.542 Y191.658
G1 X243.005 Y191.771
G1 X241.529 Y191.861
G1 X240.046 Y192.025
G1 X238.533 Y192.142
G1 X237.028 Y192.265
G1 X235.503 Y192.411
G1 X234.013 Y192.555
G1 X232.527 Y192.717
G1 X231.031 Y192.904
G1 X229.508 Y193.027
G1 X228.025 Y193.198
G1 X226.510 Y193.375
G1 X225.020 Y193.534
G1 X223.523 Y193.691
G1 X222.015 Y193.883
G1 X220.494 Y194.023
G1 X219.021 Y194.179
G1 X217.501 Y194.312
G1 X216.008 Y194.462
G1 X214.519 Y194.642
G1 X212.992 Y194.772
G1 X211.502 Y194.947
G1 X210.018 Y195.064
; Path 159
G0 Z0
G0 X210.017 Y195.072
G0 Z2.2
G1 F3000
G1 X208.511 Y195.238
G1 X207.019 Y195.378
G1 X205.514 Y195.493
G1 X204.039 Y195.630
G1 X202.492 Y195.808
G1 X201.011 Y195.950
G1 X199.502 Y196.090
G1 X198.002 Y196.288
G1 X196.507 Y196.427
G1 X194.988 Y196.568
G1 X193.526 Y196.720
G1 X192.003 Y196.908
G1 X190.475 Y197.077
G1 X188.985 Y197.217
G1 X187.499 Y197.380
G1 X186.016 Y197.551
G1 X184.473 Y197.690
G1 X182.996 Y197.827
G1 X181.495 Y197.936
G1 X180.003 Y198.090
G1 X178.493 Y198.234
G1 X176.966 Y198.360
G1 X175.504 Y198.482
G1 X173.990 Y198.586
G1 X172.501 Y198.704
G1 X170.987 Y198.749
G1 X169.489 Y198.868
G1 X167.997 Y198.943
G1 X166.498 Y198.971
G1 X164.988 Y199.066
G1 X163.501 Y199.077
G1 X161.994 Y199.138
G1 X160.489 Y199.169
G1 X158.970 Y199.152
G1 X157.472 Y199.164
G1 X155.990 Y199.187
G1 X154.506 Y199.193
G1 X153.020 Y199.138
G1 X151.492 Y199.136
G1 X149.992 Y199.080
G1 X148.475 Y199.049
G1 X146.995 Y199.029
G1 X145.513 Y198.991
G1 X143.982 Y198.916
G1 X142.498 Y198.883
G1 X141.008 Y198.818
G1 X139.516 Y198.784
G1 X138.002 Y198.712
G1 X136.514 Y198.655
G1 X134.984 Y198.593
G1 X133.506 Y198.531
G1 X131.993 Y198.474
G1 X130.523 Y198.426
G1 X129.009 Y198.355
G1 X127.491 Y198.332
G1 X126.002 Y198.241
G1 X124.513 Y198.199
G1 X123.000 Y198.151
G1 X121.538 Y198.110
G1 X120.016 Y198.078
; Path 160
G0 Z0
G0 X125.026 Y203.113
G0 Z2.2
G1 F3000
G1 X125.766 Y203.003
G1 X126.522 Y202.886
G1 X127.294 Y202.744
G1 X128.019 Y202.617
G1 X128.763 Y202.450
G1 X129.515 Y202.324
G1 X130.251 Y202.162
G1 X131.011 Y202.025
G1 X131.774 Y201.887
G1 X132.507 Y201.738
G1 X133.258 Y201.593
G1 X134.004 Y201.481
G1 X134.761 Y201.388
G1 X135.501 Y201.272
G1 X136.239 Y201.226
G1 X136.998 Y201.129
G1 X137.762 Y201.114
G1 X138.495 Y201.070
G1 X139.274 Y201.095
G1 X139.993 Y201.113
G1 X140.718 Y201.162
G1 X141.492 Y201.269
G1 X142.257 Y201.381
G1 X142.991 Y201.528
G1 X143.714 Y201.690
G1 X144.491 Y201.871
G1 X145.254 Y202.087
G1 X145.991 Y202.280
G1 X146.721 Y202.531
G1 X147.492 Y202.736
G1 X148.245 Y202.998
G1 X148.992 Y203.223
G1 X149.756 Y203.485
G1 X150.493 Y203.722
G1 X151.266 Y203.970
G1 X151.993 Y204.214
G1 X152.733 Y204.450
G1 X153.494 Y204.683
G1 X154.216 Y204.886
G1 X154.994 Y205.110
; Path 161
G0 Z0
G0 X140.034 Y198.062
G0 Z2.2
G1 F3000
G1 X139.927 Y197.792
G1 X139.790 Y197.567
G1 X139.646 Y197.296
G1 X139.484 Y197.073
G1 X139.285 Y196.855
G1 X139.141 Y196.579
G1 X138.954 Y196.344
G1 X138.789 Y196.085
G1 X138.617 Y195.856
G1 X138.455 Y195.590
G1 X138.297 Y195.368
G1 X138.166 Y195.096
G1 X138.081 Y194.851
G1 X137.950 Y194.601
G1 X137.880 Y194.337
G1 X137.833 Y194.106
G1 X137.864 Y193.864
G1 X137.844 Y193.610
G1 X137.908 Y193.339
G1 X138.008 Y193.113
G1 X138.164 Y192.889
G1 X138.344 Y192.615
G1 X138.601 Y192.345
G1 X138.834 Y192.116
G1 X139.149 Y191.887
G1 X139.450 Y191.616
G1 X139.834 Y191.384
G1 X140.167 Y191.116
G1 X140.574 Y190.839
G1 X140.956 Y190.616
G1 X141.347 Y190.346
G1 X141.790 Y190.115
G1 X142.242 Y189.876
G1 X142.642 Y189.614
G1 X143.036 Y189.372
G1 X143.485 Y189.113
G1 X143.868 Y188.858
G1 X144.292 Y188.612
G1 X144.634 Y188.387
G1 X145.035 Y188.112
; Path 162
G0 Z0
G0 X145.032 Y188.113
G0 Z2.2
G1 F3000
G1 X144.870 Y188.281
G1 X144.722 Y188.393
G1 X144.568 Y188.540
G1 X144.405 Y188.645
G1 X144.231 Y188.777
G1 X144.083 Y188.881
G1 X143.921 Y188.973
G1 X143.761 Y189.113
G1 X143.600 Y189.238
G1 X143.440 Y189.352
G1 X143.296 Y189.462
G1 X143.125 Y189.612
G1 X142.990 Y189.772
G1 X142.819 Y189.904
G1 X142.662 Y190.075
G1 X142.524 Y190.240
G1 X142.359 Y190.440
G1 X142.244 Y190.632
G1 X142.135 Y190.889
G1 X141.983 Y191.092
G1 X141.879 Y191.364
G1 X141.742 Y191.628
G1 X141.648 Y191.921
G1 X141.519 Y192.233
G1 X141.402 Y192.560
G1 X141.311 Y192.893
G1 X141.224 Y193.227
G1 X141.115 Y193.597
G1 X141.026 Y193.977
G1 X140.928 Y194.334
G1 X140.811 Y194.696
G1 X140.746 Y195.090
G1 X140.662 Y195.456
G1 X140.566 Y195.855
G1 X140.489 Y196.251
G1 X140.385 Y196.615
G1 X140.298 Y197.003
G1 X140.200 Y197.360
G1 X140.087 Y197.719
G1 X140.007 Y198.076
; Path 163
G0 Z0
G0 X139.992 Y198.058
G0 Z2.2
G1 F3000
G1 X140.754 Y198.345
G1 X141.491 Y198.593
G1 X142.234 Y198.880
G1 X142.991 Y199.178
G1 X143.745 Y199.481
G1 X144.490 Y199.791
G1 X145.254 Y200.103
G1 X145.990 Y200.411
G1 X146.752 Y200.741
G1 X147.489 Y201.017
G1 X148.224 Y201.288
G1 X148.989 Y201.587
G1 X149.752 Y201.830
G1 X150.489 Y202.102
G1 X151.215 Y202.299
G1 X151.989 Y202.538
G1 X152.768 Y202.714
G1 X153.490 Y202.876
G1 X154.253 Y203.009
G1 X154.992 Y203.095
G1 X155.726 Y203.146
G1 X156.494 Y203.179
G1 X157.242 Y203.158
G1 X157.996 Y203.144
G1 X158.758 Y203.094
G1 X159.500 Y203.009
G1 X160.279 Y202.894
G1 X161.003 Y202.798
G1 X161.778 Y202.643
G1 X162.507 Y202.530
G1 X163.255 Y202.385
G1 X164.011 Y202.227
G1 X164.777 Y202.061
G1 X165.515 Y201.910
G1 X166.242 Y201.737
G1 X167.019 Y201.599
G1 X167.771 Y201.477
G1 X168.523 Y201.317
G1 X169.302 Y201.189
G1 X170.027 Y201.085
; Path 164
G0 Z0
G0 X180.035 Y208.081
G0 Z2.2
G1 F3000
G1 X180.621 Y208.193
G1 X181.231 Y208.310
G1 X181.826 Y208.473
G1 X182.419 Y208.582
G1 X182.998 Y208.750
G1 X183.604 Y208.877
G1 X184.208 Y209.022
G1 X184.788 Y209.179
G1 X185.381 Y209.324
G1 X185.973 Y209.468
G1 X186.561 Y209.593
G1 X187.164 Y209.728
G1 X187.744 Y209.854
G1 X188.362 Y209.939
G1 X188.941 Y210.037
G1 X189.571 Y210.084
G1 X190.163 Y210.141
G1 X190.794 Y210.145
G1 X191.438 Y210.122
G1 X192.033 Y210.103
G1 X192.685 Y210.055
G1 X193.290 Y209.947
G1 X193.935 Y209.790
G1 X194.564 Y209.688
G1 X195.192 Y209.517
G1 X195.852 Y209.345
G1 X196.510 Y209.164
G1 X197.150 Y208.936
G1 X197.803 Y208.726
G1 X198.456 Y208.479
G1 X199.098 Y208.250
G1 X199.767 Y207.991
G1 X200.415 Y207.737
G1 X201.080 Y207.492
G1 X201.740 Y207.244
G1 X202.392 Y206.999
G1 X203.057 Y206.754
G1 X203.700 Y206.529
G1 X204.336 Y206.316
G1 X205.002 Y206.102
; Path 165
G0 Z0
G0 X186.986 Y189.082
G0 Z2.2
G1 F3000
G1 X186.655 Y190.727
G1 X186.296 Y192.420
G1 X185.989 Y194.103
G1 X185.670 Y195.778
G1 X185.322 Y197.428
G1 X185.001 Y199.111
; Path 166
G0 Z0
G0 X184.992 Y199.093
G0 Z2.2
G1 F3000
G1 X184.586 Y197.521
G1 X184.175 Y195.898
G1 X183.815 Y194.311
G1 X183.403 Y192.704
G1 X182.982 Y191.090
; Path 167
G0 Z0
G0 X170.040 Y201.080
G0 Z2.2
G1 F3000
G1 X170.790 Y201.117
G1 X171.536 Y201.097
G1 X172.279 Y201.113
G1 X173.032 Y201.136
G1 X173.777 Y201.173
G1 X174.527 Y201.186
G1 X175.284 Y201.202
G1 X176.023 Y201.239
G1 X176.755 Y201.283
G1 X177.519 Y201.287
G1 X178.256 Y201.318
G1 X179.015 Y201.319
G1 X179.782 Y201.346
G1 X180.511 Y201.327
G1 X181.244 Y201.303
G1 X182.008 Y201.301
G1 X182.772 Y201.263
G1 X183.506 Y201.232
G1 X184.263 Y201.175
G1 X185.005 Y201.112
G1 X185.759 Y201.017
G1 X186.505 Y200.933
G1 X187.263 Y200.832
G1 X188.005 Y200.703
G1 X188.749 Y200.557
G1 X189.507 Y200.430
G1 X190.229 Y200.262
G1 X191.009 Y200.123
G1 X191.785 Y199.932
G1 X192.512 Y199.792
G1 X193.271 Y199.622
G1 X194.014 Y199.446
G1 X194.781 Y199.253
G1 X195.517 Y199.093
G1 X196.255 Y198.926
G1 X197.020 Y198.744
G1 X197.746 Y198.556
G1 X198.523 Y198.407
G1 X199.263 Y198.270
G1 X200.025 Y198.091
; Path 168
G0 Z0
G0 X199.995 Y198.101
G0 Z2.2
G1 F3000
G1 X200.991 Y197.736
G1 X202.020 Y197.403
G1 X203.033 Y197.068
G1 X204.080 Y196.712
G1 X205.107 Y196.364
G1 X206.160 Y196.025
G1 X207.173 Y195.686
G1 X208.245 Y195.339
G1 X209.282 Y194.973
G1 X210.320 Y194.651
G1 X211.337 Y194.299
G1 X212.369 Y193.958
G1 X213.389 Y193.609
G1 X214.379 Y193.257
G1 X215.354 Y192.890
G1 X216.333 Y192.545
G1 X217.283 Y192.180
G1 X218.216 Y191.820
G1 X219.104 Y191.452
G1 X220.013 Y191.077
G1 X220.856 Y190.667
G1 X221.715 Y190.316
G1 X222.527 Y189.952
G1 X223.330 Y189.538
G1 X224.092 Y189.168
G1 X224.875 Y188.746
G1 X225.627 Y188.341
G1 X226.365 Y187.943
G1 X227.079 Y187.556
G1 X227.814 Y187.132
G1 X228.519 Y186.745
G1 X229.238 Y186.316
G1 X229.966 Y185.924
G1 X230.652 Y185.498
G1 X231.342 Y185.093
G1 X232.070 Y184.682
G1 X232.769 Y184.303
G1 X233.509 Y183.869
G1 X234.272 Y183.483
G1 X234.984 Y183.063
; Path 169
G0 Z0
G0 X232.539 Y184.072
G0 Z2.2
G1 F3000
G1 X232.039 Y183.572
G1 X231.539 Y184.072
G1 X232.039 Y184.572
G1 X232.539 Y184.072
; Path 170
G0 Z0
G0 X228.522 Y184.071
G0 Z2.2
G1 F3000
G1 X228.022 Y183.571
G1 X227.522 Y184.071
G1 X228.022 Y184.571
G1 X228.522 Y184.071
; Path 171
G0 Z0
G0 X224.498 Y184.093
G0 Z2.2
G1 F3000
G1 X223.998 Y183.593
G1 X223.498 Y184.093
G1 X223.998 Y184.593
G1 X224.498 Y184.093
; Path 172
G0 Z0
G0 X220.532 Y183.080
G0 Z2.2
G1 F3000
G1 X220.032 Y182.580
G1 X219.532 Y183.080
G1 X220.032 Y183.580
G1 X220.532 Y183.080
; Path 173
G0 Z0
G0 X230.033 Y188.061
G0 Z2.2
G1 F3000
G1 X231.642 Y187.492
G1 X233.204 Y186.869
G1 X234.825 Y186.255
G1 X236.399 Y185.668
G1 X238.015 Y185.083
; Path 174
G0 Z0
G0 X237.996 Y185.077
G0 Z2.2
G1 F3000
G1 X239.333 Y183.731
G1 X240.683 Y182.424
G1 X242.030 Y181.071
; Path 175
G0 Z0
G0 X241.427 Y181.880
G0 Z2.2
G1 F3000
G1 X242.589 Y180.249
; Path 176
G0 Z0
G0 X245.375 Y175.841
G0 Z2.2
G1 F3000
G1 X246.750 Y174.357
; Path 177
G0 Z0
G0 X249.983 Y168.074
G0 Z2.2
G1 F3000
G1 X251.634 Y168.732
G1 X253.361 Y169.442
G1 X255.011 Y170.089
; Path 178
G0 Z0
G0 X253.016 Y170.841
G0 Z2.2
G1 F3000
G1 X251.049 Y171.266
; Path 179
G0 Z0
G0 X251.010 Y173.086
G0 Z2.2
G1 F3000
G1 X247.010 Y176.086
; Path 180
G0 Z0
G0 X250.803 Y177.485
G0 Z2.2
G1 F3000
G1 X249.220 Y178.683
; Path 181
G0 Z0
G0 X250.979 Y181.287
G0 Z2.2
G1 F3000
G1 X252.948 Y180.945
; Path 182
G0 Z0
G0 X254.964 Y181.157
G0 Z2.2
G1 F3000
G1 X255.848 Y181.227
G1 X256.793 Y181.386
G1 X257.750 Y181.575
G1 X258.794 Y181.604
G1 X259.734 Y181.683
G1 X260.603 Y181.888
G1 X261.589 Y182.059
G1 X262.525 Y182.084
G1 X263.415 Y182.247
G1 X264.367 Y182.286
G1 X265.275 Y182.512
G1 X266.335 Y182.648
G1 X267.135 Y182.718
G1 X268.207 Y182.803
G1 X269.094 Y182.919
G1 X270.038 Y183.074
; Path 183
G0 Z0
G0 X272.686 Y183.832
G0 Z2.2
G1 F3000
G1 X271.362 Y182.353
; Path 184
G0 Z0
G0 X266.974 Y181.021
G0 Z2.2
G1 F3000
G1 X265.963 Y181.105
G1 X265.121 Y181.229
G1 X264.113 Y181.461
G1 X263.232 Y181.569
G1 X262.267 Y181.722
G1 X261.413 Y181.883
G1 X260.402 Y181.978
G1 X259.540 Y182.038
G1 X258.491 Y182.254
G1 X257.639 Y182.375
G1 X256.655 Y182.405
G1 X255.816 Y182.587
G1 X254.774 Y182.725
G1 X253.844 Y182.893
G1 X253.028 Y182.933
G1 X252.025 Y183.134
; Path 185
G0 Z0
G0 X255.502 Y193.083
G0 Z2.2
G1 F3000
G1 X255.002 Y193.583
G1 X254.502 Y193.083
G1 X255.002 Y192.583
G1 X255.502 Y193.083
; Path 186
G0 Z0
G0 X261.987 Y187.116
G0 Z2.2
G1 F3000
G1 X261.579 Y186.219
G1 X261.125 Y185.410
G1 X260.647 Y184.522
G1 X260.115 Y183.788
G1 X259.707 Y182.810
G1 X259.305 Y182.040
G1 X258.811 Y181.149
G1 X258.325 Y180.257
G1 X257.851 Y179.382
G1 X257.433 Y178.671
G1 X256.956 Y177.766
G1 X256.547 Y176.857
G1 X256.032 Y176.059
; Path 187
G0 Z0
G0 X259.947 Y175.021
G0 Z2.2
G1 F3000
G1 X260.255 Y175.877
G1 X260.656 Y176.737
G1 X261.002 Y177.637
G1 X261.256 Y178.580
G1 X261.685 Y179.458
G1 X261.911 Y180.351
G1 X262.317 Y181.107
G1 X262.559 Y181.970
G1 X263.009 Y182.901
G1 X263.252 Y183.761
G1 X263.718 Y184.610
G1 X264.003 Y185.543
G1 X264.301 Y186.408
G1 X264.679 Y187.307
G1 X264.981 Y188.159
; Path 188
G0 Z0
G0 X268.500 Y191.088
G0 Z2.2
G1 F3000
G1 X268.000 Y190.588
G1 X267.500 Y191.088
G1 X268.000 Y191.588
G1 X268.500 Y191.088
; Path 189
G0 Z0
G0 X268.358 Y188.071
G0 Z2.2
G1 F3000
G1 X267.606 Y186.185
; Path 190
G0 Z0
G0 X268.068 Y185.143
G0 Z2.2
G1 F3000
G1 X267.222 Y184.610
G1 X266.476 Y184.009
G1 X265.816 Y183.558
G1 X264.898 Y182.880
G1 X264.175 Y182.396
G1 X263.439 Y181.850
G1 X262.650 Y181.275
G1 X261.882 Y180.737
G1 X261.002 Y180.178
G1 X260.289 Y179.637
G1 X259.461 Y179.122
G1 X258.724 Y178.642
G1 X257.974 Y178.019
; Path 191
G0 Z0
G0 X260.035 Y181.120
G0 Z2.2
G1 F3000
G1 X260.836 Y181.432
G1 X261.531 Y181.895
G1 X262.374 Y182.300
G1 X263.201 Y182.692
G1 X263.936 Y183.009
; Path 192
G0 Z0
G0 X261.068 Y185.036
G0 Z2.2
G1 F3000
G1 X261.249 Y184.160
G1 X261.292 Y183.393
G1 X261.468 Y182.516
G1 X261.565 Y181.694
G1 X261.747 Y180.751
G1 X261.956 Y179.971
G1 X262.078 Y179.115
; Path 193
G0 Z0
G0 X264.982 Y176.031
G0 Z2.2
G1 F3000
G1 X264.406 Y176.878
G1 X263.934 Y177.632
G1 X263.441 Y178.350
G1 X262.802 Y179.161
G1 X262.255 Y179.887
G1 X261.769 Y180.652
G1 X261.235 Y181.443
G1 X260.677 Y182.221
G1 X260.191 Y182.960
G1 X259.598 Y183.748
G1 X259.088 Y184.542
G1 X258.577 Y185.404
G1 X258.068 Y186.117
; Path 194
G0 Z0
G0 X256.994 Y185.119
G0 Z2.2
G1 F3000
G1 X257.682 Y184.582
G1 X258.493 Y183.968
G1 X259.282 Y183.381
G1 X260.000 Y182.818
G1 X260.682 Y182.140
G1 X261.456 Y181.689
G1 X262.264 Y181.029
G1 X263.030 Y180.458
G1 X263.721 Y179.917
G1 X264.487 Y179.319
G1 X265.192 Y178.647
G1 X265.968 Y178.145
; Path 195
G0 Z0
G0 X270.888 Y178.614
G0 Z2.2
G1 F3000
G1 X269.129 Y177.607
; Path 196
G0 Z0
G0 X269.010 Y174.086
G0 Z2.2
G1 F3000
G1 X273.010 Y178.086
; Path 197
G0 Z0
G0 X277.987 Y181.060
G0 Z2.2
G1 F3000
G1 X278.312 Y182.705
G1 X278.657 Y184.408
G1 X279.007 Y186.100
G1 X279.333 Y187.780
G1 X279.702 Y189.446
G1 X280.023 Y191.095
; Path 198
G0 Z0
G0 X280.027 Y191.097
G0 Z2.2
G1 F3000
G1 X281.028 Y189.515
G1 X282.049 Y187.891
G1 X282.987 Y186.289
G1 X283.992 Y184.676
G1 X285.007 Y183.094
; Path 199
G0 Z0
G0 X288.005 Y185.265
G0 Z2.2
G1 F3000
G1 X286.031 Y184.935
; Path 200
G0 Z0
G0 X276.482 Y188.081
G0 Z2.2
G1 F3000
G1 X275.982 Y187.581
G1 X275.482 Y188.081
G1 X275.982 Y188.581
G1 X276.482 Y188.081
; Path 201
G0 Z0
G0 X280.002 Y191.073
G0 Z2.2
G1 F3000
G1 X280.319 Y189.238
G1 X280.588 Y187.371
G1 X280.860 Y185.516
G1 X281.165 Y183.689
G1 X281.458 Y181.794
G1 X281.729 Y179.950
G1 X282.025 Y178.110
; Path 202
G0 Z0
G0 X284.131 Y181.616
G0 Z2.2
G1 F3000
G1 X285.877 Y180.598
; Path 203
G0 Z0
G0 X285.990 Y178.060
G0 Z2.2
G1 F3000
G1 X284.984 Y176.813
G1 X283.970 Y175.591
G1 X283.015 Y174.371
G1 X281.993 Y173.103
; Path 204
G0 Z0
G0 X283.009 Y175.072
G0 Z2.2
G1 F3000
G1 X281.355 Y176.100
G1 X279.687 Y177.091
G1 X277.986 Y178.071
; Path 205
G0 Z0
G0 X280.882 Y171.653
G0 Z2.2
G1 F3000
G1 X279.163 Y170.550
; Path 206
G0 Z0
G0 X276.021 Y168.076
G0 Z2.2
G1 F3000
G1 X274.498 Y167.568
G1 X272.992 Y167.057
G1 X271.511 Y166.581
G1 X269.992 Y166.058
; Path 207
G0 Z0
G0 X272.074 Y166.733
G0 Z2.2
G1 F3000
G1 X273.992 Y167.364
; Path 208
G0 Z0
G0 X266.025 Y165.182
G0 Z2.2
G1 F3000
G1 X264.020 Y164.950
G0 Z0
M5
G4 P0.3
G0 X0 Y0
; End