; Generated by Sketch DSL for Machine
; Work area: 420mm x 297mm (A3)
G21
G90
M5
G4 P0.5
G0 F11000
; 292 paths
; Path 1
G0 X122.971 Y185.616
G0 Z2.2
G1 F3000
G1 X122.917 Y185.870
G1 X122.867 Y186.106
G1 X122.826 Y186.350
G1 X122.755 Y186.581
G1 X122.722 Y186.833
G1 X122.640 Y187.048
G1 X122.565 Y187.251
G1 X122.524 Y187.513
G1 X122.480 Y187.732
G1 X122.410 Y187.982
G1 X122.342 Y188.213
G1 X122.301 Y188.461
G1 X122.279 Y188.724
G1 X122.200 Y188.956
G1 X122.176 Y189.226
G1 X122.110 Y189.474
G1 X122.095 Y189.765
G1 X122.034 Y190.020
G1 X121.982 Y190.283
G1 X121.976 Y190.601
G1 X121.928 Y190.938
G1 X121.936 Y191.221
G1 X121.909 Y191.555
G1 X121.914 Y191.875
G1 X121.883 Y192.196
G1 X121.906 Y192.557
G1 X121.879 Y192.901
G1 X121.909 Y193.262
G1 X121.885 Y193.596
G1 X121.920 Y193.984
G1 X121.937 Y194.376
G1 X121.936 Y194.715
G1 X121.969 Y195.100
G1 X121.954 Y195.450
G1 X121.983 Y195.823
G1 X121.971 Y196.184
G1 X121.977 Y196.517
G1 X121.985 Y196.909
G1 X121.992 Y197.277
G1 X121.991 Y197.620
; Path 2
G0 Z0
G0 X121.978 Y197.604
G0 Z2.2
G1 F3000
G1 X122.764 Y195.999
G1 X123.566 Y194.431
G1 X124.366 Y192.799
G1 X125.211 Y191.209
G1 X126.001 Y189.634
; Path 3
G0 Z0
G0 X129.997 Y193.602
G0 Z2.2
G1 F3000
G1 X130.352 Y191.800
G1 X130.676 Y189.914
G1 X130.995 Y188.093
G1 X131.361 Y186.272
G1 X131.649 Y184.439
G1 X132.015 Y182.622
; Path 4
G0 Z0
G0 X134.979 Y186.595
G0 Z2.2
G1 F3000
G1 X133.968 Y187.988
G1 X133.010 Y189.439
G1 X131.982 Y190.830
G1 X130.971 Y192.203
G1 X130.002 Y193.638
; Path 5
G0 Z0
G0 X129.960 Y193.597
G0 Z2.2
G1 F3000
G1 X129.373 Y191.990
G1 X128.772 Y190.388
G1 X128.193 Y188.800
G1 X127.610 Y187.217
G1 X126.994 Y185.587
; Path 6
G0 Z0
G0 X118.990 Y188.618
G0 Z2.2
G1 F3000
G1 X119.600 Y190.436
G1 X120.189 Y192.207
G1 X120.778 Y194.021
G1 X121.344 Y195.814
G1 X121.967 Y197.619
; Path 7
G0 Z0
G0 X119.993 Y195.607
G0 Z2.2
G1 F3000
G1 X121.515 Y195.639
G1 X122.977 Y195.680
G1 X124.490 Y195.728
G1 X125.979 Y195.771
G1 X127.468 Y195.862
G1 X128.987 Y195.884
G1 X130.500 Y195.955
G1 X131.970 Y196.003
G1 X133.483 Y196.060
G1 X134.961 Y196.122
G1 X136.491 Y196.184
G1 X137.979 Y196.241
G1 X139.493 Y196.313
G1 X140.985 Y196.347
G1 X142.476 Y196.412
G1 X143.959 Y196.445
G1 X145.490 Y196.520
G1 X146.972 Y196.558
G1 X148.452 Y196.578
G1 X149.969 Y196.609
G1 X151.469 Y196.665
G1 X152.997 Y196.667
G1 X154.483 Y196.723
G1 X155.967 Y196.716
G1 X157.449 Y196.693
G1 X158.947 Y196.681
G1 X160.466 Y196.698
G1 X161.972 Y196.667
G1 X163.478 Y196.606
G1 X164.965 Y196.595
G1 X166.475 Y196.500
G1 X167.974 Y196.472
G1 X169.466 Y196.397
G1 X170.964 Y196.278
G1 X172.478 Y196.233
G1 X173.967 Y196.115
G1 X175.481 Y196.011
G1 X176.944 Y195.890
G1 X178.470 Y195.763
G1 X179.980 Y195.619
G1 X181.472 Y195.465
G1 X182.973 Y195.356
G1 X184.450 Y195.220
G1 X185.993 Y195.080
G1 X187.476 Y194.909
G1 X188.962 Y194.746
G1 X190.452 Y194.606
G1 X191.980 Y194.438
G1 X193.504 Y194.249
G1 X194.965 Y194.097
G1 X196.484 Y193.956
G1 X197.979 Y193.817
G1 X199.479 Y193.619
G1 X200.988 Y193.479
G1 X202.469 Y193.337
G1 X204.016 Y193.159
G1 X205.491 Y193.023
G1 X206.996 Y192.908
G1 X208.488 Y192.767
G1 X209.994 Y192.601
; Path 8
G0 Z0
G0 X209.995 Y192.593
G0 Z2.2
G1 F3000
G1 X211.479 Y192.476
G1 X212.969 Y192.302
G1 X214.496 Y192.171
G1 X215.985 Y191.991
G1 X217.478 Y191.842
G1 X218.998 Y191.708
G1 X220.471 Y191.552
G1 X221.992 Y191.412
G1 X223.500 Y191.221
G1 X224.997 Y191.063
G1 X226.487 Y190.904
G1 X228.002 Y190.727
G1 X229.485 Y190.556
G1 X231.008 Y190.433
G1 X232.504 Y190.246
G1 X233.990 Y190.084
G1 X235.480 Y189.941
G1 X237.005 Y189.794
G1 X238.510 Y189.671
G1 X240.023 Y189.554
G1 X241.507 Y189.390
G1 X242.982 Y189.300
G1 X244.519 Y189.188
G1 X246.007 Y189.051
G1 X247.503 Y188.958
G1 X249.034 Y188.899
G1 X250.507 Y188.796
G1 X252.031 Y188.716
G1 X253.514 Y188.690
G1 X255.006 Y188.642
G1 X256.483 Y188.602
G1 X257.986 Y188.639
G1 X259.504 Y188.601
G1 X261.022 Y188.629
G1 X262.521 Y188.619
G1 X264.000 Y188.661
G1 X265.520 Y188.716
G1 X266.969 Y188.770
G1 X268.496 Y188.804
G1 X269.990 Y188.887
G1 X271.471 Y188.952
G1 X272.992 Y189.013
G1 X274.469 Y189.113
G1 X275.971 Y189.171
G1 X277.487 Y189.269
G1 X278.995 Y189.339
G1 X280.485 Y189.436
G1 X281.982 Y189.555
G1 X283.455 Y189.637
G1 X285.006 Y189.776
G1 X286.476 Y189.853
G1 X287.993 Y189.932
G1 X289.476 Y190.024
G1 X290.971 Y190.145
G1 X292.492 Y190.249
G1 X293.948 Y190.310
G1 X295.466 Y190.413
G1 X296.968 Y190.473
G1 X298.487 Y190.564
G1 X299.961 Y190.640
; Path 9
G0 Z0
G0 X293.973 Y188.640
G0 Z2.2
G1 F3000
G1 X291.883 Y188.622
; Path 10
G0 Z0
G0 X289.964 Y185.606
G0 Z2.2
G1 F3000
G1 X289.858 Y184.762
G1 X289.802 Y183.864
G1 X289.746 Y182.964
G1 X289.695 Y182.059
G1 X289.646 Y181.112
G1 X289.621 Y180.218
G1 X289.587 Y179.283
G1 X289.555 Y178.368
G1 X289.485 Y177.441
G1 X289.473 Y176.536
G1 X289.393 Y175.656
G1 X289.350 Y174.749
G1 X289.287 Y173.892
G1 X289.164 Y173.035
G1 X289.057 Y172.233
G1 X288.890 Y171.419
G1 X288.721 Y170.698
G1 X288.504 Y169.930
G1 X288.272 Y169.248
G1 X287.982 Y168.594
G1 X287.624 Y168.029
G1 X287.308 Y167.429
G1 X286.885 Y166.919
G1 X286.498 Y166.417
G1 X286.053 Y166.002
G1 X285.577 Y165.532
G1 X285.052 Y165.152
G1 X284.567 Y164.746
G1 X284.021 Y164.411
G1 X283.493 Y164.032
G1 X282.910 Y163.705
G1 X282.380 Y163.363
G1 X281.817 Y163.020
G1 X281.250 Y162.712
G1 X280.716 Y162.380
G1 X280.129 Y162.052
G1 X279.599 Y161.689
G1 X279.039 Y161.356
G1 X278.533 Y160.982
G1 X278.005 Y160.597
; Path 11
G0 Z0
G0 X278.014 Y160.619
G0 Z2.2
G1 F3000
G1 X277.238 Y160.489
G1 X276.403 Y160.390
G1 X275.576 Y160.279
G1 X274.778 Y160.119
G1 X273.945 Y159.966
G1 X273.145 Y159.824
G1 X272.326 Y159.689
G1 X271.510 Y159.522
G1 X270.721 Y159.355
G1 X269.879 Y159.233
G1 X269.097 Y159.099
G1 X268.258 Y158.974
G1 X267.458 Y158.838
G1 X266.653 Y158.763
G1 X265.885 Y158.684
G1 X265.070 Y158.619
G1 X264.267 Y158.612
G1 X263.516 Y158.559
G1 X262.771 Y158.559
G1 X261.996 Y158.602
G1 X261.241 Y158.654
G1 X260.515 Y158.761
G1 X259.811 Y158.898
G1 X259.068 Y159.022
G1 X258.381 Y159.196
G1 X257.649 Y159.368
G1 X256.959 Y159.597
G1 X256.252 Y159.780
G1 X255.583 Y159.999
G1 X254.872 Y160.241
G1 X254.192 Y160.499
G1 X253.501 Y160.732
G1 X252.815 Y161.001
G1 X252.135 Y161.235
G1 X251.448 Y161.500
G1 X250.767 Y161.732
G1 X250.099 Y161.969
G1 X249.391 Y162.205
G1 X248.666 Y162.396
G1 X248.000 Y162.636
; Path 12
G0 Z0
G0 X247.959 Y162.598
G0 Z2.2
G1 F3000
G1 X247.450 Y163.235
G1 X246.928 Y163.890
G1 X246.391 Y164.525
G1 X245.848 Y165.167
G1 X245.321 Y165.824
G1 X244.740 Y166.436
G1 X244.163 Y167.045
G1 X243.625 Y167.703
G1 X243.056 Y168.314
G1 X242.523 Y168.974
G1 X241.961 Y169.587
G1 X241.457 Y170.255
G1 X240.938 Y170.914
G1 X240.447 Y171.553
G1 X239.978 Y172.219
G1 X239.514 Y172.873
G1 X239.093 Y173.536
G1 X238.680 Y174.221
G1 X238.349 Y174.935
G1 X237.964 Y175.603
G1 X237.666 Y176.286
G1 X237.381 Y177.024
G1 X237.139 Y177.728
G1 X236.918 Y178.479
G1 X236.756 Y179.235
G1 X236.553 Y179.962
G1 X236.400 Y180.693
G1 X236.264 Y181.468
G1 X236.156 Y182.236
G1 X236.032 Y182.990
G1 X235.927 Y183.783
G1 X235.835 Y184.522
G1 X235.760 Y185.297
G1 X235.652 Y186.058
G1 X235.586 Y186.839
G1 X235.462 Y187.592
G1 X235.375 Y188.365
G1 X235.244 Y189.118
G1 X235.116 Y189.847
G1 X234.977 Y190.630
; Path 13
G0 Z0
G0 X233.121 Y190.522
G0 Z2.2
G1 F3000
G1 X230.981 Y190.654
; Path 14
G0 Z0
G0 X235.006 Y185.643
G0 Z2.2
G1 F3000
G1 X234.524 Y183.856
G1 X233.955 Y182.154
G1 X233.459 Y180.392
G1 X232.963 Y178.612
; Path 15
G0 Z0
G0 X232.516 Y181.601
G0 Z2.2
G1 F3000
G1 X232.016 Y182.101
G1 X231.516 Y181.601
G1 X232.016 Y181.101
G1 X232.516 Y181.601
; Path 16
G0 Z0
G0 X230.010 Y185.590
G0 Z2.2
G1 F3000
G1 X231.619 Y185.021
G1 X233.181 Y184.398
G1 X234.802 Y183.785
G1 X236.376 Y183.197
G1 X237.992 Y182.612
; Path 17
G0 Z0
G0 X237.970 Y182.629
G0 Z2.2
G1 F3000
G1 X238.197 Y182.595
G1 X238.472 Y182.503
G1 X238.744 Y182.400
G1 X238.974 Y182.340
G1 X239.201 Y182.228
G1 X239.477 Y182.158
G1 X239.699 Y182.059
G1 X239.979 Y181.971
G1 X240.242 Y181.887
G1 X240.481 Y181.793
G1 X240.740 Y181.732
G1 X240.983 Y181.641
G1 X241.260 Y181.587
G1 X241.485 Y181.530
G1 X241.728 Y181.489
G1 X241.987 Y181.474
G1 X242.243 Y181.480
G1 X242.487 Y181.489
G1 X242.714 Y181.526
G1 X242.988 Y181.590
G1 X243.266 Y181.685
G1 X243.488 Y181.788
G1 X243.722 Y181.936
G1 X243.987 Y182.071
G1 X244.223 Y182.234
G1 X244.485 Y182.425
G1 X244.743 Y182.637
G1 X244.984 Y182.835
G1 X245.221 Y183.044
G1 X245.482 Y183.285
G1 X245.750 Y183.506
G1 X245.979 Y183.761
G1 X246.219 Y184.013
G1 X246.477 Y184.246
G1 X246.728 Y184.493
G1 X246.975 Y184.727
G1 X247.234 Y184.983
G1 X247.473 Y185.187
G1 X247.696 Y185.414
G1 X247.971 Y185.612
; Path 18
G0 Z0
G0 X247.997 Y188.586
G0 Z2.2
G1 F3000
G1 X248.146 Y186.845
G1 X248.233 Y185.083
G1 X248.387 Y183.333
G1 X248.523 Y181.604
G1 X248.595 Y179.879
G1 X248.734 Y178.116
G1 X248.893 Y176.355
G1 X248.990 Y174.608
; Path 19
G0 Z0
G0 X249.198 Y176.212
G0 Z2.2
G1 F3000
G1 X250.780 Y175.014
; Path 20
G0 Z0
G0 X246.987 Y173.616
G0 Z2.2
G1 F3000
G1 X250.987 Y170.616
; Path 21
G0 Z0
G0 X251.026 Y168.795
G0 Z2.2
G1 F3000
G1 X252.993 Y168.370
; Path 22
G0 Z0
G0 X254.988 Y167.618
G0 Z2.2
G1 F3000
G1 X253.338 Y166.972
G1 X251.611 Y166.261
G1 X249.960 Y165.603
; Path 23
G0 Z0
G0 X246.727 Y171.886
G0 Z2.2
G1 F3000
G1 X245.353 Y173.371
; Path 24
G0 Z0
G0 X231.970 Y170.613
G0 Z2.2
G1 F3000
G1 X232.119 Y170.360
G1 X232.288 Y170.120
G1 X232.475 Y169.869
G1 X232.628 Y169.641
G1 X232.807 Y169.390
G1 X232.980 Y169.169
G1 X233.136 Y168.937
G1 X233.335 Y168.699
G1 X233.501 Y168.435
G1 X233.684 Y168.226
G1 X233.877 Y167.958
G1 X234.017 Y167.743
G1 X234.163 Y167.520
G1 X234.326 Y167.244
G1 X234.468 Y166.963
G1 X234.601 Y166.723
G1 X234.690 Y166.472
G1 X234.833 Y166.175
G1 X234.905 Y165.914
G1 X235.012 Y165.594
G1 X235.049 Y165.304
G1 X235.133 Y164.975
G1 X235.183 Y164.674
G1 X235.202 Y164.323
G1 X235.232 Y163.997
G1 X235.227 Y163.643
G1 X235.242 Y163.322
G1 X235.219 Y162.942
G1 X235.197 Y162.595
G1 X235.185 Y162.225
G1 X235.139 Y161.850
G1 X235.137 Y161.499
G1 X235.108 Y161.158
G1 X235.082 Y160.768
G1 X235.058 Y160.392
G1 X235.030 Y160.040
G1 X234.982 Y159.670
G1 X234.991 Y159.319
G1 X234.992 Y158.980
G1 X234.973 Y158.612
; Path 25
G0 Z0
G0 X240.016 Y155.621
G0 Z2.2
G1 F3000
G1 X239.011 Y154.606
G1 X237.973 Y153.646
G1 X236.965 Y152.621
; Path 26
G0 Z0
G0 X237.516 Y149.497
G0 Z2.2
G1 F3000
G1 X238.459 Y147.734
; Path 27
G0 Z0
G0 X240.990 Y145.592
G0 Z2.2
G1 F3000
G1 X240.001 Y144.604
G1 X238.946 Y143.606
G1 X237.960 Y142.608
; Path 28
G0 Z0
G0 X236.700 Y139.573
G0 Z2.2
G1 F3000
G1 X237.275 Y137.658
; Path 29
G0 Z0
G0 X240.996 Y135.633
G0 Z2.2
G1 F3000
G1 X239.961 Y134.617
G1 X238.978 Y133.604
G1 X237.975 Y132.628
; Path 30
G0 Z0
G0 X235.982 Y122.612
G0 Z2.2
G1 F3000
G1 X236.996 Y123.615
G1 X238.000 Y124.618
G1 X239.001 Y125.644
; Path 31
G0 Z0
G0 X251.987 Y115.616
G0 Z2.2
G1 F3000
G1 X238.987 Y109.616
; Path 32
G0 Z0
G0 X239.346 Y109.887
G0 Z2.2
G1 F3000
G1 X240.646 Y111.405
; Path 33
G0 Z0
G0 X241.845 Y109.143
G0 Z2.2
G1 F3000
G1 X240.180 Y110.132
; Path 34
G0 Z0
G0 X239.909 Y110.030
G0 Z2.2
G1 F3000
G1 X238.073 Y109.216
; Path 35
G0 Z0
G0 X237.987 Y108.616
G0 Z2.2
G1 F3000
G1 X253.987 Y110.616
; Path 36
G0 Z0
G0 X255.987 Y106.616
G0 Z2.2
G1 F3000
G1 X238.987 Y107.616
; Path 37
G0 Z0
G0 X239.987 Y106.616
G0 Z2.2
G1 F3000
G1 X254.987 Y102.616
; Path 38
G0 Z0
G0 X244.769 Y105.064
G0 Z2.2
G1 F3000
G1 X243.136 Y106.187
; Path 39
G0 Z0
G0 X242.987 Y106.616
G0 Z2.2
G1 F3000
G1 X242.981 Y106.529
G1 X242.964 Y106.437
G1 X242.941 Y106.342
G1 X242.913 Y106.245
G1 X242.886 Y106.148
G1 X242.862 Y106.053
G1 X242.846 Y105.961
G1 X242.839 Y105.875
G1 X242.847 Y105.795
G1 X242.872 Y105.724
G1 X242.917 Y105.664
G1 X242.987 Y105.616
G1 X243.084 Y105.581
G1 X243.205 Y105.558
G1 X243.347 Y105.545
G1 X243.506 Y105.541
G1 X243.679 Y105.545
G1 X243.862 Y105.553
G1 X244.053 Y105.565
G1 X244.247 Y105.578
G1 X244.441 Y105.592
G1 X244.631 Y105.604
G1 X244.814 Y105.612
G1 X244.987 Y105.616
; Path 40
G1 X244.991 Y105.529
G1 X244.999 Y105.437
G1 X245.011 Y105.342
G1 X245.024 Y105.245
G1 X245.038 Y105.148
G1 X245.050 Y105.053
G1 X245.058 Y104.961
G1 X245.062 Y104.875
G1 X245.058 Y104.795
G1 X245.045 Y104.724
G1 X245.022 Y104.664
G1 X244.987 Y104.616
G1 X244.939 Y104.581
G1 X244.879 Y104.558
G1 X244.808 Y104.545
G1 X244.728 Y104.541
G1 X244.642 Y104.545
G1 X244.550 Y104.553
G1 X244.455 Y104.565
G1 X244.358 Y104.578
G1 X244.261 Y104.592
G1 X244.166 Y104.604
G1 X244.074 Y104.612
G1 X243.987 Y104.616
; Path 41
G0 Z0
G0 X243.987 Y103.622
G0 Z2.2
G1 F3000
G1 X243.987 Y104.967
G1 X244.021 Y106.285
G1 X243.995 Y107.642
; Path 42
G0 Z0
G0 X242.966 Y107.603
G0 Z2.2
G1 F3000
G1 X242.958 Y105.628
; Path 43
G0 Z0
G0 X243.014 Y105.582
G0 Z2.2
G1 F3000
G1 X242.994 Y103.615
; Path 44
G0 Z0
G0 X239.985 Y104.625
G0 Z2.2
G1 F3000
G1 X238.649 Y103.963
G1 X237.312 Y103.253
G1 X235.958 Y102.588
; Path 45
G0 Z0
G0 X233.989 Y100.610
G0 Z2.2
G1 F3000
G1 X233.940 Y100.532
G1 X233.888 Y100.403
G1 X233.816 Y100.288
G1 X233.788 Y100.182
G1 X233.737 Y100.078
G1 X233.687 Y99.953
G1 X233.612 Y99.860
G1 X233.587 Y99.722
G1 X233.545 Y99.598
G1 X233.486 Y99.495
G1 X233.415 Y99.390
G1 X233.386 Y99.278
G1 X233.309 Y99.159
G1 X233.286 Y99.076
G1 X233.206 Y98.977
G1 X233.186 Y98.896
G1 X233.116 Y98.802
G1 X233.086 Y98.744
G1 X233.049 Y98.696
G1 X232.987 Y98.624
G1 X232.939 Y98.572
G1 X232.889 Y98.542
G1 X232.858 Y98.488
G1 X232.790 Y98.493
G1 X232.767 Y98.456
G1 X232.693 Y98.471
G1 X232.654 Y98.464
G1 X232.595 Y98.471
G1 X232.524 Y98.456
G1 X232.498 Y98.487
G1 X232.433 Y98.524
G1 X232.401 Y98.512
G1 X232.340 Y98.549
G1 X232.304 Y98.541
G1 X232.284 Y98.540
G1 X232.207 Y98.568
G1 X232.130 Y98.588
G1 X232.110 Y98.588
G1 X232.044 Y98.594
G1 X232.012 Y98.594
; Path 46
G0 Z0
G0 X232.015 Y98.617
G0 Z2.2
G1 F3000
G1 X231.903 Y98.641
G1 X231.802 Y98.716
G1 X231.707 Y98.759
G1 X231.573 Y98.815
G1 X231.471 Y98.886
G1 X231.337 Y98.914
G1 X231.241 Y98.935
G1 X231.099 Y99.013
G1 X230.999 Y99.040
G1 X230.864 Y99.112
G1 X230.729 Y99.154
G1 X230.640 Y99.211
G1 X230.519 Y99.282
G1 X230.433 Y99.310
G1 X230.331 Y99.334
G1 X230.248 Y99.409
G1 X230.166 Y99.445
G1 X230.092 Y99.508
G1 X230.032 Y99.568
G1 X229.971 Y99.607
G1 X229.943 Y99.675
G1 X229.890 Y99.706
G1 X229.859 Y99.754
G1 X229.843 Y99.804
G1 X229.861 Y99.857
G1 X229.826 Y99.903
G1 X229.850 Y99.972
G1 X229.831 Y100.001
G1 X229.850 Y100.022
G1 X229.852 Y100.100
G1 X229.860 Y100.170
G1 X229.884 Y100.198
G1 X229.880 Y100.236
G1 X229.921 Y100.297
G1 X229.922 Y100.341
G1 X229.955 Y100.395
G1 X229.987 Y100.452
G1 X229.980 Y100.493
G1 X229.970 Y100.555
G1 X229.992 Y100.592
; Path 47
G0 Z0
G0 X229.990 Y100.586
G0 Z2.2
G1 F3000
G1 X230.040 Y100.719
G1 X230.087 Y100.795
G1 X230.126 Y100.885
G1 X230.185 Y101.017
G1 X230.262 Y101.128
G1 X230.282 Y101.248
G1 X230.305 Y101.344
G1 X230.379 Y101.480
G1 X230.451 Y101.580
G1 X230.477 Y101.708
G1 X230.539 Y101.813
G1 X230.574 Y101.927
G1 X230.599 Y102.010
G1 X230.672 Y102.130
G1 X230.735 Y102.237
G1 X230.770 Y102.311
G1 X230.794 Y102.391
G1 X230.869 Y102.465
G1 X230.929 Y102.514
G1 X230.967 Y102.586
G1 X231.002 Y102.611
G1 X231.067 Y102.669
G1 X231.107 Y102.696
G1 X231.166 Y102.719
G1 X231.210 Y102.753
G1 X231.266 Y102.741
G1 X231.333 Y102.725
G1 X231.367 Y102.742
G1 X231.407 Y102.718
G1 X231.467 Y102.727
G1 X231.502 Y102.739
G1 X231.568 Y102.703
G1 X231.626 Y102.717
G1 X231.668 Y102.674
G1 X231.722 Y102.656
G1 X231.769 Y102.647
G1 X231.818 Y102.629
G1 X231.870 Y102.628
G1 X231.912 Y102.629
G1 X231.970 Y102.623
; Path 48
G0 Z0
G0 X231.993 Y102.638
G0 Z2.2
G1 F3000
G1 X232.094 Y102.570
G1 X232.204 Y102.538
G1 X232.297 Y102.468
G1 X232.430 Y102.439
G1 X232.553 Y102.395
G1 X232.665 Y102.340
G1 X232.764 Y102.300
G1 X232.901 Y102.241
G1 X233.014 Y102.219
G1 X233.133 Y102.141
G1 X233.260 Y102.091
G1 X233.355 Y102.042
G1 X233.471 Y101.985
G1 X233.561 Y101.943
G1 X233.640 Y101.866
G1 X233.743 Y101.843
G1 X233.801 Y101.806
G1 X233.897 Y101.743
G1 X233.944 Y101.709
G1 X234.015 Y101.643
G1 X234.067 Y101.605
G1 X234.094 Y101.543
G1 X234.094 Y101.520
G1 X234.138 Y101.442
G1 X234.121 Y101.372
G1 X234.153 Y101.342
G1 X234.153 Y101.285
G1 X234.145 Y101.241
G1 X234.143 Y101.191
G1 X234.120 Y101.140
G1 X234.075 Y101.097
G1 X234.086 Y101.039
G1 X234.080 Y100.990
G1 X234.047 Y100.938
G1 X234.016 Y100.898
G1 X234.010 Y100.837
G1 X233.982 Y100.797
G1 X233.981 Y100.736
G1 X233.986 Y100.690
G1 X233.967 Y100.635
; Path 49
G0 Z0
G0 X232.987 Y100.616
G0 Z2.2
G1 F3000
G1 X232.901 Y100.529
G1 X232.809 Y100.437
G1 X232.714 Y100.342
G1 X232.617 Y100.245
G1 X232.520 Y100.148
G1 X232.425 Y100.053
G1 X232.333 Y99.961
G1 X232.247 Y99.875
G1 X232.167 Y99.795
G1 X232.096 Y99.724
G1 X232.036 Y99.664
G1 X231.987 Y99.616
G1 X231.952 Y99.581
G1 X231.930 Y99.558
G1 X231.917 Y99.545
G1 X231.913 Y99.541
G1 X231.917 Y99.545
G1 X231.925 Y99.553
G1 X231.937 Y99.565
G1 X231.950 Y99.578
G1 X231.964 Y99.592
G1 X231.976 Y99.604
G1 X231.984 Y99.612
G1 X231.987 Y99.616
; Path 50
G1 X230.987 Y100.616
; Path 51
G1 X231.987 Y101.616
; Path 52
G1 X232.987 Y100.616
; Path 53
G0 Z0
G0 X232.995 Y99.622
G0 Z2.2
G1 F3000
G1 X231.005 Y99.616
; Path 54
G0 Z0
G0 X231.000 Y99.627
G0 Z2.2
G1 F3000
G1 X230.988 Y101.590
; Path 55
G0 Z0
G0 X230.991 Y101.613
G0 Z2.2
G1 F3000
G1 X232.971 Y101.629
; Path 56
G0 Z0
G0 X233.024 Y101.641
G0 Z2.2
G1 F3000
G1 X232.961 Y99.633
; Path 57
G0 Z0
G0 X231.842 Y99.052
G0 Z2.2
G1 F3000
G1 X230.185 Y100.189
; Path 58
G0 Z0
G0 X229.004 Y97.590
G0 Z2.2
G1 F3000
G1 X229.112 Y97.518
G1 X229.195 Y97.491
G1 X229.315 Y97.467
G1 X229.378 Y97.385
G1 X229.493 Y97.328
G1 X229.557 Y97.276
G1 X229.647 Y97.244
G1 X229.734 Y97.165
G1 X229.829 Y97.094
G1 X229.914 Y97.057
G1 X230.010 Y97.016
G1 X230.100 Y96.953
G1 X230.195 Y96.919
G1 X230.294 Y96.857
G1 X230.414 Y96.790
G1 X230.499 Y96.771
G1 X230.605 Y96.721
G1 X230.720 Y96.698
G1 X230.821 Y96.674
G1 X230.959 Y96.641
G1 X231.064 Y96.604
G1 X231.219 Y96.602
G1 X231.375 Y96.564
G1 X231.496 Y96.580
G1 X231.662 Y96.550
G1 X231.789 Y96.570
G1 X231.946 Y96.578
G1 X232.093 Y96.571
G1 X232.250 Y96.547
G1 X232.406 Y96.579
G1 X232.559 Y96.567
G1 X232.725 Y96.592
G1 X232.911 Y96.591
G1 X233.045 Y96.606
G1 X233.195 Y96.613
G1 X233.365 Y96.620
G1 X233.522 Y96.632
G1 X233.680 Y96.630
G1 X233.829 Y96.630
G1 X233.988 Y96.634
; Path 59
G0 Z0
G0 X230.960 Y94.593
G0 Z2.2
G1 F3000
G1 X230.314 Y93.965
G1 X229.701 Y93.412
G1 X229.221 Y92.816
G1 X228.628 Y92.306
G1 X227.974 Y91.645
; Path 60
G0 Z0
G0 X228.030 Y93.655
G0 Z2.2
G1 F3000
G1 X227.510 Y92.930
G1 X226.957 Y92.141
G1 X226.561 Y91.362
G1 X226.003 Y90.582
; Path 61
G0 Z0
G0 X224.048 Y92.681
G0 Z2.2
G1 F3000
G1 X224.611 Y93.441
G1 X225.064 Y94.177
G1 X225.541 Y95.002
G1 X226.002 Y95.685
; Path 62
G0 Z0
G0 X221.982 Y87.624
G0 Z2.2
G1 F3000
G1 X221.873 Y87.486
G1 X221.789 Y87.310
G1 X221.708 Y87.140
G1 X221.604 Y86.976
G1 X221.507 Y86.782
G1 X221.423 Y86.629
G1 X221.337 Y86.476
G1 X221.243 Y86.280
G1 X221.131 Y86.082
G1 X221.061 Y85.937
G1 X220.958 Y85.755
G1 X220.873 Y85.608
G1 X220.752 Y85.468
G1 X220.677 Y85.304
G1 X220.561 Y85.183
G1 X220.470 Y85.032
G1 X220.346 Y84.910
G1 X220.248 Y84.802
G1 X220.156 Y84.737
G1 X220.008 Y84.622
G1 X219.906 Y84.587
G1 X219.749 Y84.499
G1 X219.611 Y84.467
G1 X219.471 Y84.426
G1 X219.297 Y84.438
G1 X219.179 Y84.395
G1 X219.035 Y84.384
G1 X218.876 Y84.397
G1 X218.723 Y84.391
G1 X218.564 Y84.423
G1 X218.400 Y84.431
G1 X218.247 Y84.464
G1 X218.117 Y84.511
G1 X217.927 Y84.510
G1 X217.789 Y84.551
G1 X217.609 Y84.554
G1 X217.444 Y84.586
G1 X217.295 Y84.585
G1 X217.149 Y84.585
G1 X216.988 Y84.596
; Path 63
G0 Z0
G0 X216.996 Y84.616
G0 Z2.2
G1 F3000
G1 X217.044 Y84.726
G1 X217.091 Y84.810
G1 X217.149 Y84.873
G1 X217.178 Y84.990
G1 X217.222 Y85.105
G1 X217.262 Y85.162
G1 X217.280 Y85.248
G1 X217.345 Y85.333
G1 X217.368 Y85.393
G1 X217.429 Y85.507
G1 X217.468 Y85.618
G1 X217.519 Y85.691
G1 X217.557 Y85.818
G1 X217.617 Y85.891
G1 X217.645 Y85.976
G1 X217.726 Y86.112
G1 X217.771 Y86.261
G1 X217.849 Y86.362
G1 X217.947 Y86.513
G1 X217.990 Y86.644
G1 X218.061 Y86.808
G1 X218.150 Y86.964
G1 X218.231 Y87.166
G1 X218.327 Y87.318
G1 X218.438 Y87.524
G1 X218.519 Y87.699
G1 X218.605 Y87.886
G1 X218.721 Y88.102
G1 X218.809 Y88.329
G1 X218.932 Y88.520
G1 X219.017 Y88.725
G1 X219.148 Y88.949
G1 X219.284 Y89.190
G1 X219.366 Y89.381
G1 X219.450 Y89.615
G1 X219.582 Y89.811
G1 X219.675 Y90.029
G1 X219.795 Y90.234
G1 X219.917 Y90.437
G1 X220.001 Y90.643
; Path 64
G0 Z0
G0 X219.960 Y89.626
G0 Z2.2
G1 F3000
G1 X219.467 Y88.131
G1 X218.990 Y86.593
; Path 65
G0 Z0
G0 X217.974 Y87.694
G0 Z2.2
G1 F3000
G1 X217.268 Y87.977
G1 X216.593 Y88.320
G1 X215.935 Y88.692
; Path 66
G0 Z0
G0 X217.978 Y92.588
G0 Z2.2
G1 F3000
G1 X216.971 Y94.124
G1 X215.986 Y95.603
; Path 67
G0 Z0
G0 X219.003 Y94.602
G0 Z2.2
G1 F3000
G1 X218.316 Y95.934
G1 X217.688 Y97.297
G1 X216.989 Y98.636
; Path 68
G0 Z0
G0 X216.964 Y97.591
G0 Z2.2
G1 F3000
G1 X216.325 Y98.961
G1 X215.637 Y100.264
G1 X214.981 Y101.632
; Path 69
G0 Z0
G0 X221.990 Y106.602
G0 Z2.2
G1 F3000
G1 X220.981 Y108.111
G1 X220.012 Y109.607
; Path 70
G0 Z0
G0 X218.998 Y114.619
G0 Z2.2
G1 F3000
G1 X217.996 Y115.939
G1 X216.973 Y117.276
G1 X215.959 Y118.600
; Path 71
G0 Z0
G0 X217.981 Y120.623
G0 Z2.2
G1 F3000
G1 X216.990 Y122.319
G1 X216.008 Y123.972
G1 X214.992 Y125.645
; Path 72
G0 Z0
G0 X217.551 Y129.777
G0 Z2.2
G1 F3000
G1 X216.415 Y131.543
; Path 73
G0 Z0
G0 X216.980 Y130.600
G0 Z2.2
G1 F3000
G1 X215.988 Y132.249
G1 X214.951 Y133.925
G1 X213.969 Y135.631
; Path 74
G0 Z0
G0 X221.999 Y135.608
G0 Z2.2
G1 F3000
G1 X222.289 Y135.437
G1 X222.599 Y135.290
G1 X222.896 Y135.139
G1 X223.198 Y134.944
G1 X223.523 Y134.763
G1 X223.798 Y134.581
G1 X224.082 Y134.391
G1 X224.398 Y134.215
G1 X224.704 Y134.033
G1 X224.998 Y133.857
G1 X225.319 Y133.678
G1 X225.597 Y133.519
G1 X225.893 Y133.395
G1 X226.197 Y133.213
G1 X226.469 Y133.074
G1 X226.797 Y132.951
G1 X227.122 Y132.845
G1 X227.397 Y132.746
G1 X227.685 Y132.671
G1 X227.997 Y132.609
G1 X228.317 Y132.576
G1 X228.598 Y132.548
G1 X228.880 Y132.564
G1 X229.198 Y132.556
G1 X229.526 Y132.563
G1 X229.799 Y132.620
G1 X230.125 Y132.661
G1 X230.399 Y132.728
G1 X230.715 Y132.814
G1 X231.000 Y132.869
G1 X231.271 Y132.953
G1 X231.601 Y133.029
G1 X231.919 Y133.134
G1 X232.202 Y133.198
G1 X232.481 Y133.266
G1 X232.802 Y133.363
G1 X233.127 Y133.415
G1 X233.403 Y133.511
G1 X233.706 Y133.580
G1 X234.004 Y133.632
; Path 75
G0 Z0
G0 X233.940 Y136.689
G0 Z2.2
G1 F3000
G1 X233.173 Y137.118
G1 X232.515 Y137.679
G1 X231.801 Y138.235
G1 X230.998 Y138.695
; Path 76
G0 Z0
G0 X224.001 Y142.655
G0 Z2.2
G1 F3000
G1 X224.728 Y142.197
G1 X225.573 Y141.719
G1 X226.276 Y141.141
G1 X227.051 Y140.670
; Path 77
G0 Z0
G0 X220.675 Y137.909
G0 Z2.2
G1 F3000
G1 X219.256 Y139.300
; Path 78
G0 Z0
G0 X216.252 Y139.815
G0 Z2.2
G1 F3000
G1 X215.614 Y141.648
; Path 79
G0 Z0
G0 X214.988 Y140.640
G0 Z2.2
G1 F3000
G1 X214.335 Y142.319
G1 X213.639 Y143.950
G1 X212.997 Y145.611
; Path 80
G0 Z0
G0 X215.985 Y148.635
G0 Z2.2
G1 F3000
G1 X215.336 Y149.995
G1 X214.668 Y151.317
G1 X213.980 Y152.638
; Path 81
G0 Z0
G0 X216.684 Y151.622
G0 Z2.2
G1 F3000
G1 X217.254 Y149.614
; Path 82
G0 Z0
G0 X218.285 Y149.309
G0 Z2.2
G1 F3000
G1 X219.722 Y147.906
; Path 83
G0 Z0
G0 X219.982 Y150.589
G0 Z2.2
G1 F3000
G1 X220.386 Y150.432
G1 X220.789 Y150.274
G1 X221.211 Y150.093
G1 X221.603 Y149.931
G1 X222.007 Y149.747
G1 X222.420 Y149.572
G1 X222.837 Y149.362
G1 X223.239 Y149.209
G1 X223.656 Y149.020
G1 X224.056 Y148.854
G1 X224.475 Y148.709
G1 X224.868 Y148.519
G1 X225.299 Y148.338
G1 X225.671 Y148.216
G1 X226.055 Y148.087
G1 X226.463 Y147.956
G1 X226.850 Y147.846
G1 X227.241 Y147.752
G1 X227.593 Y147.664
G1 X228.002 Y147.616
G1 X228.364 Y147.583
G1 X228.743 Y147.555
G1 X229.097 Y147.557
G1 X229.467 Y147.562
G1 X229.813 Y147.565
G1 X230.176 Y147.625
G1 X230.499 Y147.694
G1 X230.874 Y147.731
G1 X231.211 Y147.793
G1 X231.564 Y147.869
G1 X231.933 Y147.959
G1 X232.249 Y148.027
G1 X232.582 Y148.139
G1 X232.931 Y148.193
G1 X233.260 Y148.283
G1 X233.615 Y148.355
G1 X233.988 Y148.441
G1 X234.303 Y148.501
G1 X234.642 Y148.588
G1 X234.998 Y148.619
; Path 84
G0 Z0
G0 X232.925 Y148.634
G0 Z2.2
G1 F3000
G1 X232.147 Y149.155
G1 X231.438 Y149.708
G1 X230.768 Y150.102
G1 X230.009 Y150.676
; Path 85
G0 Z0
G0 X228.011 Y153.625
G0 Z2.2
G1 F3000
G1 X227.240 Y154.201
G1 X226.445 Y154.549
G1 X225.752 Y155.131
G1 X225.008 Y155.608
; Path 86
G0 Z0
G0 X230.014 Y162.600
G0 Z2.2
G1 F3000
G1 X229.803 Y162.672
G1 X229.614 Y162.803
G1 X229.400 Y162.931
G1 X229.214 Y163.012
G1 X229.006 Y163.116
G1 X228.814 Y163.226
G1 X228.585 Y163.319
G1 X228.415 Y163.440
G1 X228.197 Y163.528
G1 X228.015 Y163.653
G1 X227.790 Y163.733
G1 X227.615 Y163.860
G1 X227.429 Y163.983
G1 X227.215 Y164.061
G1 X227.030 Y164.154
G1 X226.814 Y164.250
G1 X226.629 Y164.359
G1 X226.414 Y164.426
G1 X226.241 Y164.492
G1 X226.013 Y164.586
G1 X225.788 Y164.631
G1 X225.612 Y164.728
G1 X225.440 Y164.764
G1 X225.210 Y164.853
G1 X225.020 Y164.939
G1 X224.808 Y164.966
G1 X224.578 Y165.026
G1 X224.406 Y165.067
G1 X224.187 Y165.134
G1 X224.004 Y165.161
G1 X223.774 Y165.222
G1 X223.602 Y165.251
G1 X223.426 Y165.309
G1 X223.199 Y165.338
G1 X222.978 Y165.380
G1 X222.797 Y165.426
G1 X222.609 Y165.477
G1 X222.395 Y165.518
G1 X222.214 Y165.579
G1 X221.993 Y165.617
; Path 87
G0 Z0
G0 X221.984 Y170.642
G0 Z2.2
G1 F3000
G1 X222.004 Y170.363
G1 X221.969 Y170.137
G1 X221.960 Y169.910
G1 X221.933 Y169.631
G1 X221.915 Y169.356
G1 X221.886 Y169.125
G1 X221.885 Y168.901
G1 X221.835 Y168.619
G1 X221.834 Y168.351
G1 X221.790 Y168.113
G1 X221.756 Y167.883
G1 X221.760 Y167.607
G1 X221.772 Y167.379
G1 X221.755 Y167.102
G1 X221.772 Y166.820
G1 X221.783 Y166.597
G1 X221.798 Y166.353
G1 X221.853 Y166.093
G1 X221.923 Y165.847
G1 X221.975 Y165.590
G1 X222.090 Y165.333
G1 X222.154 Y165.088
G1 X222.276 Y164.854
G1 X222.386 Y164.586
G1 X222.539 Y164.306
G1 X222.659 Y164.085
G1 X222.794 Y163.810
G1 X222.966 Y163.585
G1 X223.109 Y163.358
G1 X223.297 Y163.085
G1 X223.469 Y162.856
G1 X223.643 Y162.586
G1 X223.824 Y162.315
G1 X223.996 Y162.086
G1 X224.184 Y161.809
G1 X224.345 Y161.587
G1 X224.486 Y161.326
G1 X224.682 Y161.087
G1 X224.856 Y160.834
G1 X224.998 Y160.587
; Path 88
G0 Z0
G0 X220.432 Y157.709
G0 Z2.2
G1 F3000
G1 X219.488 Y159.451
; Path 89
G0 Z0
G0 X217.857 Y159.623
G0 Z2.2
G1 F3000
G1 X218.148 Y161.533
; Path 90
G0 Z0
G0 X218.004 Y162.597
G0 Z2.2
G1 F3000
G1 X217.020 Y163.908
G1 X215.990 Y165.282
G1 X214.998 Y166.609
; Path 91
G0 Z0
G0 X213.806 Y166.910
G0 Z2.2
G1 F3000
G1 X212.270 Y168.225
; Path 92
G0 Z0
G0 X211.076 Y166.050
G0 Z2.2
G1 F3000
G1 X212.717 Y165.021
; Path 93
G0 Z0
G0 X211.905 Y163.171
G0 Z2.2
G1 F3000
G1 X210.105 Y164.025
; Path 94
G0 Z0
G0 X210.995 Y161.601
G0 Z2.2
G1 F3000
G1 X210.828 Y161.702
G1 X210.690 Y161.795
G1 X210.534 Y161.862
G1 X210.377 Y161.981
G1 X210.209 Y162.076
G1 X210.060 Y162.163
G1 X209.880 Y162.234
G1 X209.742 Y162.345
G1 X209.609 Y162.415
G1 X209.426 Y162.528
G1 X209.245 Y162.603
G1 X209.116 Y162.717
G1 X208.941 Y162.841
G1 X208.813 Y162.914
G1 X208.641 Y163.014
G1 X208.521 Y163.122
G1 X208.355 Y163.231
G1 X208.244 Y163.345
G1 X208.136 Y163.458
G1 X207.984 Y163.587
G1 X207.887 Y163.720
G1 X207.742 Y163.848
G1 X207.618 Y163.971
G1 X207.518 Y164.127
G1 X207.442 Y164.296
G1 X207.309 Y164.421
G1 X207.215 Y164.593
G1 X207.110 Y164.726
G1 X207.028 Y164.881
G1 X206.919 Y165.040
G1 X206.801 Y165.189
G1 X206.733 Y165.359
G1 X206.619 Y165.531
G1 X206.550 Y165.680
G1 X206.447 Y165.846
G1 X206.365 Y166.000
G1 X206.283 Y166.187
G1 X206.177 Y166.316
G1 X206.088 Y166.448
G1 X205.981 Y166.624
; Path 95
G0 Z0
G0 X206.055 Y166.665
G0 Z2.2
G1 F3000
G1 X206.671 Y166.321
G1 X207.293 Y165.956
G1 X207.954 Y165.658
; Path 96
G0 Z0
G0 X206.983 Y164.622
G0 Z2.2
G1 F3000
G1 X208.661 Y163.979
G1 X210.306 Y163.292
G1 X211.986 Y162.614
; Path 97
G0 Z0
G0 X213.993 Y162.595
G0 Z2.2
G1 F3000
G1 X214.631 Y161.264
G1 X215.305 Y159.985
G1 X215.987 Y158.645
; Path 98
G0 Z0
G0 X212.982 Y160.600
G0 Z2.2
G1 F3000
G1 X212.699 Y160.664
G1 X212.472 Y160.785
G1 X212.204 Y160.880
G1 X211.949 Y160.942
G1 X211.681 Y160.997
G1 X211.417 Y161.084
G1 X211.158 Y161.162
G1 X210.883 Y161.221
G1 X210.599 Y161.289
G1 X210.353 Y161.366
G1 X210.111 Y161.437
G1 X209.834 Y161.531
G1 X209.596 Y161.614
G1 X209.330 Y161.728
G1 X209.062 Y161.820
G1 X208.849 Y161.968
G1 X208.604 Y162.139
G1 X208.396 Y162.263
G1 X208.187 Y162.441
G1 X207.976 Y162.624
G1 X207.795 Y162.843
G1 X207.595 Y163.061
G1 X207.429 Y163.328
G1 X207.249 Y163.565
G1 X207.077 Y163.834
G1 X206.930 Y164.123
G1 X206.781 Y164.398
G1 X206.634 Y164.726
G1 X206.515 Y165.023
G1 X206.353 Y165.359
G1 X206.216 Y165.695
G1 X206.083 Y166.012
G1 X205.961 Y166.364
G1 X205.817 Y166.673
G1 X205.671 Y167.021
G1 X205.548 Y167.331
G1 X205.423 Y167.640
G1 X205.272 Y167.972
G1 X205.128 Y168.284
G1 X204.981 Y168.586
; Path 99
G0 Z0
G0 X204.986 Y168.644
G0 Z2.2
G1 F3000
G1 X204.926 Y168.812
G1 X204.865 Y168.948
G1 X204.815 Y169.104
G1 X204.710 Y169.266
G1 X204.638 Y169.417
G1 X204.535 Y169.591
G1 X204.418 Y169.776
G1 X204.355 Y169.918
G1 X204.295 Y170.090
G1 X204.185 Y170.241
G1 X204.098 Y170.422
G1 X204.040 Y170.555
G1 X203.985 Y170.682
G1 X203.935 Y170.853
G1 X203.887 Y170.970
G1 X203.884 Y171.130
G1 X203.897 Y171.249
G1 X203.903 Y171.380
G1 X203.948 Y171.490
G1 X204.007 Y171.597
G1 X204.097 Y171.709
G1 X204.206 Y171.778
G1 X204.323 Y171.836
G1 X204.489 Y171.926
G1 X204.678 Y171.959
G1 X204.842 Y172.046
G1 X205.058 Y172.071
G1 X205.250 Y172.146
G1 X205.483 Y172.191
G1 X205.698 Y172.230
G1 X205.952 Y172.288
G1 X206.170 Y172.304
G1 X206.400 Y172.341
G1 X206.653 Y172.375
G1 X206.903 Y172.419
G1 X207.130 Y172.447
G1 X207.359 Y172.475
G1 X207.588 Y172.527
G1 X207.778 Y172.580
G1 X208.010 Y172.621
; Path 100
G0 Z0
G0 X208.005 Y172.606
G0 Z2.2
G1 F3000
G1 X208.185 Y172.708
G1 X208.382 Y172.810
G1 X208.566 Y172.887
G1 X208.731 Y173.020
G1 X208.907 Y173.115
G1 X209.064 Y173.234
G1 X209.213 Y173.347
G1 X209.392 Y173.448
G1 X209.572 Y173.580
G1 X209.729 Y173.661
G1 X209.892 Y173.764
G1 X210.086 Y173.869
G1 X210.289 Y173.989
G1 X210.476 Y174.070
G1 X210.722 Y174.175
G1 X210.910 Y174.260
G1 X211.137 Y174.363
G1 X211.401 Y174.436
G1 X211.701 Y174.508
G1 X211.961 Y174.597
G1 X212.263 Y174.688
G1 X212.598 Y174.739
G1 X212.949 Y174.820
G1 X213.304 Y174.864
G1 X213.679 Y174.946
G1 X214.067 Y174.977
G1 X214.492 Y175.005
G1 X214.874 Y175.078
G1 X215.293 Y175.104
G1 X215.714 Y175.173
G1 X216.140 Y175.234
G1 X216.575 Y175.262
G1 X216.997 Y175.323
G1 X217.443 Y175.349
G1 X217.873 Y175.381
G1 X218.307 Y175.438
G1 X218.744 Y175.497
G1 X219.155 Y175.530
G1 X219.547 Y175.571
G1 X219.975 Y175.629
; Path 101
G0 Z0
G0 X219.987 Y175.625
G0 Z2.2
G1 F3000
G1 X219.807 Y175.136
G1 X219.571 Y174.621
G1 X219.375 Y174.120
G1 X219.134 Y173.618
G1 X218.897 Y173.140
G1 X218.684 Y172.614
G1 X218.432 Y172.088
G1 X218.232 Y171.610
G1 X217.995 Y171.089
G1 X217.785 Y170.606
G1 X217.583 Y170.129
G1 X217.354 Y169.603
G1 X217.154 Y169.123
G1 X216.947 Y168.600
G1 X216.738 Y168.069
G1 X216.574 Y167.597
G1 X216.404 Y167.084
G1 X216.243 Y166.594
G1 X216.102 Y166.112
G1 X215.965 Y165.592
G1 X215.833 Y165.078
G1 X215.745 Y164.591
G1 X215.655 Y164.095
G1 X215.577 Y163.590
G1 X215.541 Y163.083
G1 X215.452 Y162.590
G1 X215.400 Y162.115
G1 X215.361 Y161.591
G1 X215.349 Y161.066
G1 X215.294 Y160.591
G1 X215.240 Y160.078
G1 X215.242 Y159.592
G1 X215.201 Y159.069
G1 X215.197 Y158.592
G1 X215.202 Y158.095
G1 X215.148 Y157.593
G1 X215.111 Y157.097
G1 X215.088 Y156.594
G1 X215.050 Y156.069
G1 X215.005 Y155.594
; Path 102
G0 Z0
G0 X214.998 Y155.592
G0 Z2.2
G1 F3000
G1 X214.858 Y154.924
G1 X214.676 Y154.292
G1 X214.491 Y153.654
G1 X214.325 Y152.984
G1 X214.131 Y152.308
G1 X213.958 Y151.673
G1 X213.775 Y151.040
G1 X213.587 Y150.361
G1 X213.413 Y149.714
G1 X213.225 Y149.051
G1 X213.057 Y148.383
G1 X212.882 Y147.746
G1 X212.709 Y147.086
G1 X212.572 Y146.448
G1 X212.469 Y145.822
G1 X212.307 Y145.161
G1 X212.231 Y144.529
G1 X212.099 Y143.888
G1 X212.007 Y143.241
G1 X211.960 Y142.631
G1 X211.913 Y142.005
G1 X211.898 Y141.393
G1 X211.895 Y140.769
G1 X211.905 Y140.171
G1 X211.961 Y139.575
G1 X211.969 Y138.963
G1 X212.037 Y138.347
G1 X212.077 Y137.765
G1 X212.135 Y137.180
G1 X212.218 Y136.575
G1 X212.278 Y135.964
G1 X212.380 Y135.390
G1 X212.489 Y134.821
G1 X212.549 Y134.207
G1 X212.642 Y133.628
G1 X212.715 Y133.022
G1 X212.778 Y132.420
G1 X212.864 Y131.834
G1 X212.895 Y131.247
G1 X212.985 Y130.640
; Path 103
G0 Z0
G0 X213.014 Y130.634
G0 Z2.2
G1 F3000
G1 X213.035 Y130.053
G1 X213.098 Y129.416
G1 X213.120 Y128.798
G1 X213.161 Y128.170
G1 X213.179 Y127.542
G1 X213.212 Y126.908
G1 X213.208 Y126.252
G1 X213.260 Y125.642
G1 X213.312 Y125.041
G1 X213.314 Y124.384
G1 X213.362 Y123.770
G1 X213.382 Y123.146
G1 X213.455 Y122.534
G1 X213.475 Y121.940
G1 X213.549 Y121.347
G1 X213.602 Y120.777
G1 X213.706 Y120.219
G1 X213.770 Y119.671
G1 X213.893 Y119.142
G1 X213.989 Y118.631
G1 X214.099 Y118.174
G1 X214.266 Y117.667
G1 X214.427 Y117.193
G1 X214.593 Y116.771
G1 X214.774 Y116.368
G1 X214.963 Y115.930
G1 X215.142 Y115.545
G1 X215.366 Y115.133
G1 X215.600 Y114.721
G1 X215.793 Y114.368
G1 X216.025 Y114.019
G1 X216.236 Y113.622
G1 X216.479 Y113.253
G1 X216.684 Y112.885
G1 X216.885 Y112.497
G1 X217.129 Y112.143
G1 X217.341 Y111.743
G1 X217.562 Y111.386
G1 X217.770 Y110.988
G1 X217.974 Y110.601
; Path 104
G0 Z0
G0 X217.961 Y110.640
G0 Z2.2
G1 F3000
G1 X217.838 Y110.244
G1 X217.743 Y109.834
G1 X217.596 Y109.430
G1 X217.498 Y109.020
G1 X217.353 Y108.603
G1 X217.236 Y108.202
G1 X217.107 Y107.778
G1 X216.970 Y107.383
G1 X216.833 Y106.988
G1 X216.712 Y106.566
G1 X216.607 Y106.155
G1 X216.474 Y105.755
G1 X216.391 Y105.361
G1 X216.269 Y104.951
G1 X216.167 Y104.551
G1 X216.108 Y104.159
G1 X216.027 Y103.780
G1 X216.003 Y103.382
G1 X215.980 Y102.986
G1 X215.967 Y102.622
G1 X215.967 Y102.244
G1 X216.008 Y101.882
G1 X216.081 Y101.494
G1 X216.117 Y101.160
G1 X216.180 Y100.793
G1 X216.283 Y100.452
G1 X216.414 Y100.087
G1 X216.493 Y99.755
G1 X216.592 Y99.412
G1 X216.736 Y99.067
G1 X216.838 Y98.746
G1 X216.998 Y98.384
G1 X217.109 Y98.058
G1 X217.269 Y97.703
G1 X217.410 Y97.348
G1 X217.536 Y97.021
G1 X217.691 Y96.649
G1 X217.786 Y96.335
G1 X217.874 Y95.967
G1 X218.009 Y95.641
; Path 105
G0 Z0
G0 X217.960 Y95.592
G0 Z2.2
G1 F3000
G1 X218.059 Y95.352
G1 X218.147 Y95.079
G1 X218.224 Y94.816
G1 X218.313 Y94.544
G1 X218.401 Y94.276
G1 X218.467 Y93.998
G1 X218.535 Y93.707
G1 X218.618 Y93.448
G1 X218.681 Y93.173
G1 X218.775 Y92.904
G1 X218.872 Y92.643
G1 X218.948 Y92.376
G1 X219.057 Y92.126
G1 X219.144 Y91.872
G1 X219.279 Y91.610
G1 X219.373 Y91.401
G1 X219.517 Y91.162
G1 X219.645 Y90.972
G1 X219.818 Y90.787
G1 X219.969 Y90.595
G1 X220.167 Y90.425
G1 X220.349 Y90.275
G1 X220.585 Y90.157
G1 X220.781 Y90.006
G1 X221.036 Y89.905
G1 X221.256 Y89.780
G1 X221.490 Y89.689
G1 X221.763 Y89.588
G1 X222.032 Y89.532
G1 X222.295 Y89.419
G1 X222.589 Y89.344
G1 X222.842 Y89.265
G1 X223.113 Y89.170
G1 X223.395 Y89.118
G1 X223.653 Y89.014
G1 X223.945 Y88.968
G1 X224.210 Y88.914
G1 X224.483 Y88.805
G1 X224.751 Y88.727
G1 X225.000 Y88.621
; Path 106
G0 Z0
G0 X224.984 Y88.622
G0 Z2.2
G1 F3000
G1 X225.109 Y88.678
G1 X225.290 Y88.710
G1 X225.427 Y88.742
G1 X225.603 Y88.784
G1 X225.774 Y88.789
G1 X225.920 Y88.850
G1 X226.068 Y88.887
G1 X226.238 Y88.913
G1 X226.422 Y88.925
G1 X226.554 Y88.981
G1 X226.708 Y89.019
G1 X226.865 Y89.059
G1 X227.021 Y89.117
G1 X227.168 Y89.154
G1 X227.287 Y89.209
G1 X227.460 Y89.271
G1 X227.623 Y89.361
G1 X227.738 Y89.416
G1 X227.852 Y89.504
G1 X227.999 Y89.597
G1 X228.104 Y89.691
G1 X228.241 Y89.817
G1 X228.349 Y89.933
G1 X228.465 Y90.071
G1 X228.551 Y90.238
G1 X228.675 Y90.355
G1 X228.799 Y90.537
G1 X228.875 Y90.661
G1 X228.960 Y90.807
G1 X229.066 Y90.983
G1 X229.136 Y91.137
G1 X229.252 Y91.316
G1 X229.347 Y91.469
G1 X229.436 Y91.653
G1 X229.543 Y91.815
G1 X229.621 Y91.988
G1 X229.690 Y92.162
G1 X229.811 Y92.314
G1 X229.898 Y92.457
G1 X230.007 Y92.626
; Path 107
G0 Z0
G0 X229.979 Y92.600
G0 Z2.2
G1 F3000
G1 X230.273 Y92.721
G1 X230.588 Y92.791
G1 X230.913 Y92.908
G1 X231.210 Y92.967
G1 X231.528 Y93.052
G1 X231.840 Y93.136
G1 X232.158 Y93.220
G1 X232.472 Y93.302
G1 X232.791 Y93.385
G1 X233.100 Y93.473
G1 X233.439 Y93.590
G1 X233.719 Y93.653
G1 X234.029 Y93.750
G1 X234.321 Y93.850
G1 X234.582 Y93.984
G1 X234.902 Y94.068
G1 X235.155 Y94.171
G1 X235.456 Y94.314
G1 X235.699 Y94.477
G1 X235.976 Y94.595
G1 X236.247 Y94.743
G1 X236.459 Y94.913
G1 X236.694 Y95.091
G1 X236.908 Y95.266
G1 X237.129 Y95.479
G1 X237.330 Y95.646
G1 X237.545 Y95.840
G1 X237.730 Y96.049
G1 X237.897 Y96.281
G1 X238.115 Y96.467
G1 X238.291 Y96.656
G1 X238.490 Y96.896
G1 X238.702 Y97.131
G1 X238.861 Y97.328
G1 X239.046 Y97.514
G1 X239.233 Y97.759
G1 X239.445 Y97.956
G1 X239.614 Y98.181
G1 X239.800 Y98.376
G1 X240.008 Y98.590
; Path 108
G0 Z0
G0 X239.996 Y98.642
G0 Z2.2
G1 F3000
G1 X240.210 Y98.743
G1 X240.407 Y98.825
G1 X240.594 Y98.928
G1 X240.839 Y98.986
G1 X241.056 Y99.074
G1 X241.282 Y99.135
G1 X241.506 Y99.205
G1 X241.728 Y99.281
G1 X241.955 Y99.329
G1 X242.169 Y99.433
G1 X242.389 Y99.544
G1 X242.595 Y99.601
G1 X242.794 Y99.684
G1 X242.996 Y99.792
G1 X243.171 Y99.882
G1 X243.366 Y100.018
G1 X243.537 Y100.172
G1 X243.693 Y100.285
G1 X243.855 Y100.420
G1 X243.970 Y100.605
G1 X244.087 Y100.820
G1 X244.191 Y100.983
G1 X244.267 Y101.201
G1 X244.361 Y101.412
G1 X244.412 Y101.630
G1 X244.490 Y101.884
G1 X244.510 Y102.119
G1 X244.586 Y102.390
G1 X244.639 Y102.653
G1 X244.658 Y102.920
G1 X244.679 Y103.172
G1 X244.716 Y103.465
G1 X244.761 Y103.749
G1 X244.768 Y104.016
G1 X244.807 Y104.315
G1 X244.822 Y104.564
G1 X244.838 Y104.852
G1 X244.888 Y105.100
G1 X244.944 Y105.385
G1 X244.976 Y105.615
; Path 109
G0 Z0
G0 X244.988 Y105.637
G0 Z2.2
G1 F3000
G1 X244.870 Y105.767
G1 X244.800 Y105.937
G1 X244.732 Y106.061
G1 X244.633 Y106.245
G1 X244.584 Y106.382
G1 X244.478 Y106.556
G1 X244.419 Y106.707
G1 X244.327 Y106.867
G1 X244.273 Y107.032
G1 X244.169 Y107.178
G1 X244.111 Y107.330
G1 X243.996 Y107.483
G1 X243.922 Y107.608
G1 X243.799 Y107.781
G1 X243.663 Y107.898
G1 X243.569 Y108.068
G1 X243.445 Y108.203
G1 X243.297 Y108.342
G1 X243.157 Y108.482
G1 X242.975 Y108.600
G1 X242.780 Y108.693
G1 X242.595 Y108.840
G1 X242.366 Y108.928
G1 X242.164 Y109.064
G1 X241.927 Y109.191
G1 X241.692 Y109.275
G1 X241.430 Y109.388
G1 X241.186 Y109.475
G1 X240.900 Y109.568
G1 X240.656 Y109.668
G1 X240.405 Y109.760
G1 X240.112 Y109.856
G1 X239.842 Y109.964
G1 X239.561 Y110.042
G1 X239.301 Y110.130
G1 X239.014 Y110.229
G1 X238.719 Y110.329
G1 X238.478 Y110.420
G1 X238.240 Y110.498
G1 X237.963 Y110.618
; Path 110
G0 Z0
G0 X236.986 Y109.589
G0 Z2.2
G1 F3000
G1 X235.952 Y108.119
G1 X234.965 Y106.618
; Path 111
G0 Z0
G0 X232.998 Y108.622
G0 Z2.2
G1 F3000
G1 X234.021 Y110.129
G1 X235.005 Y111.628
; Path 112
G0 Z0
G0 X233.987 Y111.616
G0 Z2.2
G1 F3000
G1 X234.154 Y111.529
G1 X234.321 Y111.437
G1 X234.487 Y111.342
G1 X234.654 Y111.245
G1 X234.821 Y111.148
G1 X234.987 Y111.053
G1 X235.154 Y110.961
G1 X235.321 Y110.875
G1 X235.487 Y110.795
G1 X235.654 Y110.724
G1 X235.821 Y110.664
G1 X235.987 Y110.616
G1 X236.154 Y110.581
G1 X236.321 Y110.558
G1 X236.487 Y110.545
G1 X236.654 Y110.541
G1 X236.821 Y110.545
G1 X236.987 Y110.553
G1 X237.154 Y110.565
G1 X237.321 Y110.578
G1 X237.487 Y110.592
G1 X237.654 Y110.604
G1 X237.821 Y110.612
G1 X237.987 Y110.616
; Path 113
G0 Z0
G0 X237.993 Y110.617
G0 Z2.2
G1 F3000
G1 X237.769 Y110.745
G1 X237.590 Y110.826
G1 X237.379 Y110.957
G1 X237.188 Y111.048
G1 X237.014 Y111.160
G1 X236.786 Y111.279
G1 X236.555 Y111.392
G1 X236.383 Y111.511
G1 X236.204 Y111.621
G1 X235.981 Y111.740
G1 X235.752 Y111.826
G1 X235.579 Y111.958
G1 X235.385 Y112.081
G1 X235.177 Y112.161
G1 X234.952 Y112.226
G1 X234.775 Y112.341
G1 X234.555 Y112.422
G1 X234.373 Y112.493
G1 X234.175 Y112.531
G1 X233.972 Y112.611
G1 X233.763 Y112.656
G1 X233.572 Y112.691
G1 X233.355 Y112.707
G1 X233.172 Y112.737
G1 X232.989 Y112.761
G1 X232.772 Y112.754
G1 X232.573 Y112.723
G1 X232.373 Y112.750
G1 X232.179 Y112.742
G1 X231.973 Y112.729
G1 X231.799 Y112.691
G1 X231.574 Y112.698
G1 X231.362 Y112.679
G1 X231.175 Y112.664
G1 X230.967 Y112.647
G1 X230.776 Y112.631
G1 X230.588 Y112.642
G1 X230.377 Y112.607
G1 X230.191 Y112.579
G1 X229.978 Y112.596
; Path 114
G0 Z0
G0 X229.972 Y112.634
G0 Z2.2
G1 F3000
G1 X228.750 Y111.627
G1 X227.483 Y110.624
G1 X226.224 Y109.607
G1 X225.012 Y108.633
; Path 115
G0 Z0
G0 X224.985 Y108.629
G0 Z2.2
G1 F3000
G1 X224.308 Y109.978
G1 X223.652 Y111.298
G1 X222.973 Y112.634
; Path 116
G0 Z0
G0 X226.419 Y112.407
G0 Z2.2
G1 F3000
G1 X227.548 Y110.820
; Path 117
G0 Z0
G0 X227.516 Y111.493
G0 Z2.2
G1 F3000
G1 X228.430 Y109.728
; Path 118
G0 Z0
G0 X226.781 Y110.254
G0 Z2.2
G1 F3000
G1 X225.209 Y109.048
; Path 119
G0 Z0
G0 X223.992 Y108.593
G0 Z2.2
G1 F3000
G1 X223.309 Y109.916
G1 X222.686 Y111.257
G1 X222.014 Y112.630
; Path 120
G0 Z0
G0 X221.971 Y112.623
G0 Z2.2
G1 F3000
G1 X221.844 Y112.869
G1 X221.746 Y113.121
G1 X221.631 Y113.373
G1 X221.479 Y113.619
G1 X221.346 Y113.888
G1 X221.187 Y114.116
G1 X221.020 Y114.365
G1 X220.890 Y114.613
G1 X220.766 Y114.881
G1 X220.604 Y115.111
G1 X220.467 Y115.337
G1 X220.349 Y115.608
G1 X220.266 Y115.863
G1 X220.142 Y116.106
G1 X220.049 Y116.360
G1 X220.000 Y116.605
G1 X219.956 Y116.827
G1 X219.943 Y117.104
G1 X219.987 Y117.352
G1 X219.989 Y117.604
G1 X220.049 Y117.831
G1 X220.148 Y118.104
G1 X220.257 Y118.363
G1 X220.409 Y118.605
G1 X220.595 Y118.856
G1 X220.755 Y119.107
G1 X220.971 Y119.342
G1 X221.167 Y119.609
G1 X221.400 Y119.865
G1 X221.626 Y120.112
G1 X221.887 Y120.346
G1 X222.116 Y120.615
G1 X222.388 Y120.879
G1 X222.618 Y121.118
G1 X222.874 Y121.343
G1 X223.114 Y121.620
G1 X223.345 Y121.856
G1 X223.586 Y122.123
G1 X223.792 Y122.349
G1 X224.016 Y122.626
; Path 121
G0 Z0
G0 X225.012 Y122.618
G0 Z2.2
G1 F3000
G1 X225.985 Y121.303
G1 X226.983 Y119.976
G1 X228.011 Y118.613
; Path 122
G0 Z0
G0 X227.184 Y113.276
G0 Z2.2
G1 F3000
G1 X228.756 Y111.952
; Path 123
G0 Z0
G0 X229.758 Y112.160
G0 Z2.2
G1 F3000
G1 X228.183 Y111.001
; Path 124
G0 Z0
G0 X227.967 Y110.618
G0 Z2.2
G1 F3000
G1 X227.315 Y111.929
G1 X226.667 Y113.301
G1 X225.974 Y114.622
; Path 125
G0 Z0
G0 X222.499 Y120.616
G0 Z2.2
G1 F3000
G1 X221.999 Y120.116
G1 X221.499 Y120.616
G1 X221.999 Y121.116
G1 X222.499 Y120.616
; Path 126
G0 Z0
G0 X219.662 Y121.789
G0 Z2.2
G1 F3000
G1 X218.446 Y123.480
; Path 127
G0 Z0
G0 X218.999 Y125.639
G0 Z2.2
G1 F3000
G1 X220.004 Y124.592
G1 X220.998 Y123.593
; Path 128
G0 Z0
G0 X222.984 Y124.612
G0 Z2.2
G1 F3000
G1 X222.483 Y125.626
G1 X222.015 Y126.631
; Path 129
G0 Z0
G0 X221.264 Y127.666
G0 Z2.2
G1 F3000
G1 X220.653 Y129.609
; Path 130
G0 Z0
G0 X225.984 Y127.631
G0 Z2.2
G1 F3000
G1 X226.484 Y126.584
G1 X226.967 Y125.593
; Path 131
G0 Z0
G0 X225.970 Y124.590
G0 Z2.2
G1 F3000
G1 X226.646 Y125.919
G1 X227.284 Y127.256
G1 X227.963 Y128.626
; Path 132
G0 Z0
G0 X229.996 Y126.615
G0 Z2.2
G1 F3000
G1 X229.529 Y125.583
G1 X229.012 Y124.604
; Path 133
G0 Z0
G0 X228.960 Y124.596
G0 Z2.2
G1 F3000
G1 X229.938 Y123.297
G1 X230.955 Y121.945
G1 X231.982 Y120.613
; Path 134
G0 Z0
G0 X229.492 Y121.612
G0 Z2.2
G1 F3000
G1 X228.992 Y122.112
G1 X228.492 Y121.612
G1 X228.992 Y121.112
G1 X229.492 Y121.612
; Path 135
G0 Z0
G0 X228.002 Y123.603
G0 Z2.2
G1 F3000
G1 X228.226 Y123.356
G1 X228.426 Y123.104
G1 X228.655 Y122.884
G1 X228.892 Y122.605
G1 X229.157 Y122.334
G1 X229.382 Y122.106
G1 X229.605 Y121.868
G1 X229.878 Y121.607
G1 X230.121 Y121.377
G1 X230.361 Y121.108
G1 X230.576 Y120.837
G1 X230.815 Y120.609
G1 X231.022 Y120.338
G1 X231.222 Y120.110
G1 X231.404 Y119.849
G1 X231.563 Y119.610
G1 X231.681 Y119.348
G1 X231.820 Y119.111
G1 X231.871 Y118.866
G1 X231.976 Y118.610
G1 X232.017 Y118.364
G1 X232.018 Y118.109
G1 X232.013 Y117.840
G1 X231.960 Y117.608
G1 X231.895 Y117.352
G1 X231.818 Y117.107
G1 X231.694 Y116.886
G1 X231.610 Y116.605
G1 X231.455 Y116.363
G1 X231.355 Y116.103
G1 X231.219 Y115.853
G1 X231.069 Y115.601
G1 X230.934 Y115.367
G1 X230.772 Y115.098
G1 X230.643 Y114.843
G1 X230.481 Y114.596
G1 X230.372 Y114.342
G1 X230.214 Y114.094
G1 X230.095 Y113.824
G1 X229.988 Y113.592
; Path 136
G0 Z0
G0 X229.987 Y114.616
G0 Z2.2
G1 F3000
G1 X236.987 Y108.616
; Path 137
G0 Z0
G0 X235.991 Y107.592
G0 Z2.2
G1 F3000
G1 X235.017 Y106.099
G1 X233.995 Y104.596
; Path 138
G0 Z0
G0 X231.959 Y105.624
G0 Z2.2
G1 F3000
G1 X232.161 Y105.777
G1 X232.373 Y105.905
G1 X232.575 Y106.028
G1 X232.802 Y106.159
G1 X233.022 Y106.270
G1 X233.239 Y106.396
G1 X233.487 Y106.530
G1 X233.678 Y106.629
G1 X233.871 Y106.722
G1 X234.113 Y106.871
G1 X234.302 Y106.990
G1 X234.538 Y107.132
G1 X234.746 Y107.266
G1 X234.946 Y107.426
G1 X235.153 Y107.607
G1 X235.331 Y107.764
G1 X235.517 Y107.975
G1 X235.688 Y108.158
G1 X235.862 Y108.399
G1 X236.009 Y108.620
G1 X236.156 Y108.901
G1 X236.290 Y109.160
G1 X236.420 Y109.470
G1 X236.536 Y109.767
G1 X236.633 Y110.124
G1 X236.754 Y110.431
G1 X236.856 Y110.784
G1 X236.948 Y111.139
G1 X237.034 Y111.502
G1 X237.126 Y111.880
G1 X237.190 Y112.288
G1 X237.294 Y112.640
G1 X237.384 Y113.025
G1 X237.457 Y113.409
G1 X237.543 Y113.764
G1 X237.623 Y114.173
G1 X237.706 Y114.537
G1 X237.796 Y114.922
G1 X237.864 Y115.254
G1 X237.985 Y115.642
; Path 139
G0 Z0
G0 X237.964 Y115.596
G0 Z2.2
G1 F3000
G1 X238.161 Y116.115
G1 X238.387 Y116.578
G1 X238.590 Y117.030
G1 X238.838 Y117.526
G1 X239.091 Y117.965
G1 X239.306 Y118.455
G1 X239.542 Y118.910
G1 X239.778 Y119.378
G1 X239.980 Y119.840
G1 X240.241 Y120.311
G1 X240.451 Y120.815
G1 X240.684 Y121.269
G1 X240.905 Y121.749
G1 X241.095 Y122.267
G1 X241.280 Y122.808
G1 X241.461 Y123.319
G1 X241.602 Y123.889
G1 X241.769 Y124.440
G1 X241.877 Y125.022
G1 X242.008 Y125.645
G1 X242.115 Y126.297
G1 X242.170 Y126.945
G1 X242.228 Y127.630
G1 X242.262 Y128.328
G1 X242.295 Y129.080
G1 X242.297 Y129.781
G1 X242.272 Y130.518
G1 X242.287 Y131.288
G1 X242.264 Y132.055
G1 X242.244 Y132.834
G1 X242.193 Y133.636
G1 X242.181 Y134.406
G1 X242.142 Y135.200
G1 X242.110 Y135.987
G1 X242.072 Y136.757
G1 X242.043 Y137.563
G1 X241.990 Y138.365
G1 X241.992 Y139.120
G1 X241.973 Y139.859
G1 X241.970 Y140.641
; Path 140
G0 Z0
G0 X241.982 Y140.621
G0 Z2.2
G1 F3000
G1 X242.066 Y141.106
G1 X242.103 Y141.618
G1 X242.170 Y142.086
G1 X242.252 Y142.614
G1 X242.312 Y143.102
G1 X242.417 Y143.610
G1 X242.499 Y144.092
G1 X242.587 Y144.606
G1 X242.638 Y145.081
G1 X242.748 Y145.602
G1 X242.826 Y146.070
G1 X242.889 Y146.598
G1 X242.940 Y147.074
G1 X242.997 Y147.595
G1 X243.011 Y148.120
G1 X243.061 Y148.592
G1 X243.051 Y149.079
G1 X243.068 Y149.591
G1 X243.045 Y150.101
G1 X243.006 Y150.591
G1 X242.935 Y151.094
G1 X242.866 Y151.592
G1 X242.783 Y152.092
G1 X242.658 Y152.595
G1 X242.520 Y153.071
G1 X242.392 Y153.598
G1 X242.255 Y154.110
G1 X242.082 Y154.603
G1 X241.906 Y155.102
G1 X241.739 Y155.608
G1 X241.563 Y156.089
G1 X241.377 Y156.613
G1 X241.217 Y157.125
G1 X241.005 Y157.618
G1 X240.827 Y158.099
G1 X240.638 Y158.623
G1 X240.481 Y159.113
G1 X240.288 Y159.628
G1 X240.104 Y160.155
G1 X239.965 Y160.633
; Path 141
G0 Z0
G0 X239.977 Y160.608
G0 Z2.2
G1 F3000
G1 X239.905 Y161.035
G1 X239.784 Y161.413
G1 X239.661 Y161.803
G1 X239.598 Y162.224
G1 X239.485 Y162.605
G1 X239.416 Y163.040
G1 X239.343 Y163.432
G1 X239.235 Y163.856
G1 X239.148 Y164.246
G1 X239.052 Y164.671
G1 X238.938 Y165.074
G1 X238.864 Y165.481
G1 X238.777 Y165.911
G1 X238.668 Y166.282
G1 X238.540 Y166.655
G1 X238.460 Y167.073
G1 X238.338 Y167.440
G1 X238.238 Y167.850
G1 X238.136 Y168.217
G1 X237.999 Y168.609
G1 X237.898 Y169.005
G1 X237.741 Y169.350
G1 X237.608 Y169.713
G1 X237.465 Y170.074
G1 X237.327 Y170.412
G1 X237.175 Y170.784
G1 X237.014 Y171.113
G1 X236.874 Y171.482
G1 X236.693 Y171.830
G1 X236.565 Y172.173
G1 X236.413 Y172.538
G1 X236.251 Y172.859
G1 X236.073 Y173.221
G1 X235.935 Y173.543
G1 X235.760 Y173.914
G1 X235.619 Y174.228
G1 X235.448 Y174.593
G1 X235.308 Y174.916
G1 X235.161 Y175.263
G1 X235.004 Y175.612
; Path 142
G0 Z0
G0 X234.989 Y175.593
G0 Z2.2
G1 F3000
G1 X235.169 Y175.673
G1 X235.307 Y175.798
G1 X235.479 Y175.928
G1 X235.653 Y176.011
G1 X235.834 Y176.121
G1 X236.015 Y176.228
G1 X236.168 Y176.318
G1 X236.381 Y176.446
G1 X236.579 Y176.569
G1 X236.738 Y176.661
G1 X236.918 Y176.795
G1 X237.076 Y176.872
G1 X237.229 Y176.990
G1 X237.382 Y177.074
G1 X237.521 Y177.197
G1 X237.644 Y177.265
G1 X237.726 Y177.379
G1 X237.850 Y177.442
G1 X237.916 Y177.548
G1 X237.988 Y177.602
G1 X238.040 Y177.646
G1 X238.050 Y177.742
G1 X238.054 Y177.804
G1 X238.044 Y177.865
G1 X237.986 Y177.942
G1 X237.982 Y177.973
G1 X237.907 Y178.008
G1 X237.876 Y178.070
G1 X237.816 Y178.128
G1 X237.738 Y178.159
G1 X237.680 Y178.229
G1 X237.580 Y178.243
G1 X237.474 Y178.300
G1 X237.414 Y178.325
G1 X237.311 Y178.394
G1 X237.252 Y178.408
G1 X237.188 Y178.446
G1 X237.106 Y178.495
G1 X237.058 Y178.514
G1 X236.989 Y178.589
; Path 143
G0 Z0
G0 X237.012 Y178.592
G0 Z2.2
G1 F3000
G1 X236.550 Y178.721
G1 X236.113 Y178.814
G1 X235.674 Y178.918
G1 X235.221 Y179.064
G1 X234.777 Y179.209
G1 X234.333 Y179.331
G1 X233.902 Y179.461
G1 X233.446 Y179.602
G1 X232.995 Y179.742
G1 X232.557 Y179.864
G1 X232.130 Y179.968
G1 X231.663 Y180.107
G1 X231.232 Y180.229
G1 X230.761 Y180.316
G1 X230.289 Y180.400
G1 X229.848 Y180.481
G1 X229.377 Y180.547
G1 X228.922 Y180.589
G1 X228.432 Y180.582
G1 X227.980 Y180.628
G1 X227.473 Y180.596
G1 X227.019 Y180.589
G1 X226.504 Y180.545
G1 X226.041 Y180.481
G1 X225.525 Y180.412
G1 X225.050 Y180.316
G1 X224.576 Y180.230
G1 X224.049 Y180.106
G1 X223.553 Y179.975
G1 X223.039 Y179.864
G1 X222.556 Y179.723
G1 X222.025 Y179.601
G1 X221.545 Y179.453
G1 X221.009 Y179.330
G1 X220.472 Y179.168
G1 X219.993 Y179.063
G1 X219.496 Y178.928
G1 X218.982 Y178.813
G1 X218.453 Y178.721
G1 X217.977 Y178.591
; Path 144
G0 Z0
G0 X217.983 Y178.624
G0 Z2.2
G1 F3000
G1 X217.942 Y178.570
G1 X217.866 Y178.529
G1 X217.816 Y178.479
G1 X217.720 Y178.442
G1 X217.615 Y178.417
G1 X217.559 Y178.359
G1 X217.503 Y178.306
G1 X217.394 Y178.277
G1 X217.322 Y178.246
G1 X217.237 Y178.193
G1 X217.140 Y178.146
G1 X217.100 Y178.104
G1 X217.076 Y178.071
G1 X216.995 Y178.007
G1 X216.990 Y177.960
G1 X216.934 Y177.898
G1 X216.938 Y177.812
G1 X216.929 Y177.775
G1 X216.978 Y177.701
G1 X216.992 Y177.634
G1 X217.069 Y177.580
G1 X217.130 Y177.473
G1 X217.225 Y177.361
G1 X217.337 Y177.295
G1 X217.467 Y177.225
G1 X217.600 Y177.102
G1 X217.772 Y176.976
G1 X217.907 Y176.898
G1 X218.060 Y176.798
G1 X218.245 Y176.686
G1 X218.409 Y176.601
G1 X218.604 Y176.468
G1 X218.767 Y176.345
G1 X218.971 Y176.248
G1 X219.149 Y176.128
G1 X219.334 Y176.030
G1 X219.481 Y175.924
G1 X219.680 Y175.815
G1 X219.811 Y175.699
G1 X219.999 Y175.608
; Path 145
G0 Z0
G0 X228.499 Y181.600
G0 Z2.2
G1 F3000
G1 X227.999 Y181.100
G1 X227.499 Y181.600
G1 X227.999 Y182.100
G1 X228.499 Y181.600
; Path 146
G0 Z0
G0 X224.475 Y181.622
G0 Z2.2
G1 F3000
G1 X223.975 Y181.122
G1 X223.475 Y181.622
G1 X223.975 Y182.122
G1 X224.475 Y181.622
; Path 147
G0 Z0
G0 X220.509 Y180.609
G0 Z2.2
G1 F3000
G1 X220.009 Y180.109
G1 X219.509 Y180.609
G1 X220.009 Y181.109
G1 X220.509 Y180.609
; Path 148
G0 Z0
G0 X215.013 Y182.616
G0 Z2.2
G1 F3000
G1 X214.757 Y182.396
G1 X214.512 Y182.191
G1 X214.240 Y181.966
G1 X214.012 Y181.723
G1 X213.748 Y181.495
G1 X213.511 Y181.232
G1 X213.258 Y181.013
G1 X213.010 Y180.735
G1 X212.765 Y180.492
G1 X212.510 Y180.250
G1 X212.253 Y180.017
G1 X212.009 Y179.795
G1 X211.752 Y179.584
G1 X211.509 Y179.387
G1 X211.268 Y179.228
G1 X211.008 Y179.046
G1 X210.786 Y178.917
G1 X210.508 Y178.788
G1 X210.285 Y178.732
G1 X210.008 Y178.632
G1 X209.744 Y178.611
G1 X209.509 Y178.589
G1 X209.261 Y178.622
G1 X209.009 Y178.648
G1 X208.759 Y178.736
G1 X208.510 Y178.791
G1 X208.269 Y178.901
G1 X208.011 Y179.000
G1 X207.770 Y179.112
G1 X207.512 Y179.257
G1 X207.249 Y179.415
G1 X207.013 Y179.543
G1 X206.757 Y179.679
G1 X206.514 Y179.842
G1 X206.258 Y179.960
G1 X206.015 Y180.134
G1 X205.783 Y180.245
G1 X205.516 Y180.403
G1 X205.290 Y180.539
G1 X205.017 Y180.630
; Path 149
G0 Z0
G0 X208.914 Y172.959
G0 Z2.2
G1 F3000
G1 X207.060 Y172.253
; Path 150
G0 Z0
G0 X209.977 Y173.636
G0 Z2.2
G1 F3000
G1 X208.452 Y172.670
G1 X206.975 Y171.644
; Path 151
G0 Z0
G0 X207.525 Y171.505
G0 Z2.2
G1 F3000
G1 X206.510 Y169.762
; Path 152
G0 Z0
G0 X205.929 Y168.694
G0 Z2.2
G1 F3000
G1 X205.233 Y169.073
G1 X204.611 Y169.322
G1 X203.961 Y169.682
; Path 153
G0 Z0
G0 X204.987 Y170.595
G0 Z2.2
G1 F3000
G1 X206.308 Y169.275
G1 X207.658 Y167.967
G1 X209.016 Y166.639
; Path 154
G0 Z0
G0 X209.998 Y164.630
G0 Z2.2
G1 F3000
G1 X208.492 Y165.401
G1 X207.028 Y166.149
G1 X205.529 Y166.880
G1 X204.016 Y167.638
; Path 155
G0 Z0
G0 X205.005 Y167.612
G0 Z2.2
G1 F3000
G1 X203.502 Y168.104
G1 X202.010 Y168.634
; Path 156
G0 Z0
G0 X203.984 Y169.617
G0 Z2.2
G1 F3000
G1 X202.502 Y170.082
G1 X201.014 Y170.605
; Path 157
G0 Z0
G0 X203.000 Y172.588
G0 Z2.2
G1 F3000
G1 X203.988 Y171.601
G1 X204.990 Y170.614
; Path 158
G0 Z0
G0 X205.273 Y170.340
G0 Z2.2
G1 F3000
G1 X206.695 Y168.937
; Path 159
G0 Z0
G0 X208.110 Y171.076
G0 Z2.2
G1 F3000
G1 X209.811 Y172.089
; Path 160
G0 Z0
G0 X209.958 Y172.606
G0 Z2.2
G1 F3000
G1 X211.300 Y173.250
G1 X212.641 Y173.911
G1 X213.995 Y174.608
; Path 161
G0 Z0
G0 X212.064 Y173.236
G0 Z2.2
G1 F3000
G1 X213.889 Y174.039
; Path 162
G0 Z0
G0 X215.986 Y174.765
G0 Z2.2
G1 F3000
G1 X213.998 Y174.403
; Path 163
G0 Z0
G0 X217.995 Y175.752
G0 Z2.2
G1 F3000
G1 X216.009 Y175.405
; Path 164
G0 Z0
G0 X217.981 Y176.596
G0 Z2.2
G1 F3000
G1 X217.498 Y176.503
G1 X216.994 Y176.385
G1 X216.526 Y176.296
G1 X216.029 Y176.153
G1 X215.567 Y176.036
G1 X215.075 Y175.909
G1 X214.602 Y175.800
G1 X214.125 Y175.662
G1 X213.653 Y175.523
G1 X213.168 Y175.422
G1 X212.673 Y175.305
G1 X212.196 Y175.196
G1 X211.680 Y175.080
G1 X211.201 Y174.993
G1 X210.665 Y174.931
G1 X210.172 Y174.824
G1 X209.633 Y174.769
G1 X209.102 Y174.697
G1 X208.540 Y174.648
G1 X207.980 Y174.620
G1 X207.410 Y174.591
G1 X206.801 Y174.600
G1 X206.187 Y174.588
G1 X205.572 Y174.630
G1 X204.952 Y174.652
G1 X204.300 Y174.702
G1 X203.626 Y174.773
G1 X202.996 Y174.808
G1 X202.353 Y174.868
G1 X201.667 Y174.937
G1 X200.996 Y174.997
G1 X200.324 Y175.080
G1 X199.655 Y175.170
G1 X198.974 Y175.230
G1 X198.298 Y175.320
G1 X197.628 Y175.377
G1 X196.934 Y175.428
G1 X196.293 Y175.512
G1 X195.608 Y175.573
G1 X194.980 Y175.626
; Path 165
G0 Z0
G0 X195.004 Y175.630
G0 Z2.2
G1 F3000
G1 X194.273 Y175.610
G1 X193.503 Y175.613
G1 X192.730 Y175.598
G1 X192.002 Y175.575
G1 X191.251 Y175.532
G1 X190.501 Y175.524
G1 X189.766 Y175.506
G1 X189.000 Y175.470
G1 X188.269 Y175.450
G1 X187.499 Y175.423
G1 X186.769 Y175.418
G1 X185.998 Y175.391
G1 X185.266 Y175.399
G1 X184.497 Y175.383
G1 X183.723 Y175.372
G1 X182.996 Y175.408
G1 X182.236 Y175.430
G1 X181.494 Y175.477
G1 X180.770 Y175.513
G1 X179.993 Y175.597
G1 X179.265 Y175.685
G1 X178.491 Y175.775
G1 X177.739 Y175.903
G1 X176.989 Y176.005
G1 X176.262 Y176.157
G1 X175.486 Y176.277
G1 X174.734 Y176.441
G1 X173.984 Y176.583
G1 X173.233 Y176.769
G1 X172.481 Y176.914
G1 X171.743 Y177.086
G1 X170.979 Y177.260
G1 X170.237 Y177.449
G1 X169.476 Y177.611
G1 X168.739 Y177.764
G1 X167.974 Y177.960
G1 X167.245 Y178.144
G1 X166.471 Y178.297
G1 X165.716 Y178.452
G1 X164.969 Y178.612
; Path 166
G0 Z0
G0 X164.978 Y178.634
G0 Z2.2
G1 F3000
G1 X164.650 Y178.562
G1 X164.283 Y178.515
G1 X163.946 Y178.420
G1 X163.595 Y178.368
G1 X163.261 Y178.257
G1 X162.911 Y178.205
G1 X162.563 Y178.143
G1 X162.229 Y178.038
G1 X161.875 Y177.960
G1 X161.544 Y177.879
G1 X161.225 Y177.826
G1 X160.854 Y177.740
G1 X160.535 Y177.714
G1 X160.156 Y177.633
G1 X159.809 Y177.579
G1 X159.447 Y177.570
G1 X159.105 Y177.541
G1 X158.724 Y177.563
G1 X158.362 Y177.592
G1 X157.983 Y177.624
G1 X157.603 Y177.686
G1 X157.224 Y177.761
G1 X156.835 Y177.843
G1 X156.447 Y177.965
G1 X156.076 Y178.068
G1 X155.657 Y178.226
G1 X155.260 Y178.403
G1 X154.855 Y178.530
G1 X154.448 Y178.709
G1 X154.045 Y178.866
G1 X153.659 Y179.048
G1 X153.231 Y179.223
G1 X152.825 Y179.435
G1 X152.414 Y179.587
G1 X151.981 Y179.772
G1 X151.598 Y179.947
G1 X151.192 Y180.112
G1 X150.786 Y180.292
G1 X150.355 Y180.476
G1 X149.982 Y180.608
; Path 167
G0 Z0
G0 X149.980 Y180.641
G0 Z2.2
G1 F3000
G1 X149.783 Y180.677
G1 X149.568 Y180.728
G1 X149.335 Y180.772
G1 X149.136 Y180.793
G1 X148.888 Y180.808
G1 X148.692 Y180.847
G1 X148.462 Y180.885
G1 X148.245 Y180.897
G1 X148.023 Y180.925
G1 X147.804 Y180.954
G1 X147.569 Y181.014
G1 X147.378 Y181.025
G1 X147.148 Y181.071
G1 X146.976 Y181.120
G1 X146.775 Y181.187
G1 X146.605 Y181.249
G1 X146.426 Y181.346
G1 X146.276 Y181.419
G1 X146.148 Y181.542
G1 X145.997 Y181.641
G1 X145.916 Y181.783
G1 X145.774 Y181.920
G1 X145.678 Y182.059
G1 X145.601 Y182.249
G1 X145.562 Y182.408
G1 X145.469 Y182.621
G1 X145.405 Y182.810
G1 X145.370 Y183.026
G1 X145.332 Y183.237
G1 X145.294 Y183.455
G1 X145.292 Y183.694
G1 X145.233 Y183.898
G1 X145.189 Y184.116
G1 X145.178 Y184.348
G1 X145.172 Y184.546
G1 X145.120 Y184.795
G1 X145.090 Y185.017
G1 X145.050 Y185.230
G1 X144.986 Y185.425
G1 X144.960 Y185.643
; Path 168
G0 Z0
G0 X147.987 Y189.616
G0 Z2.2
G1 F3000
G1 X151.987 Y192.616
; Path 169
G1 X155.987 Y189.616
; Path 170
G0 Z0
G0 X151.987 Y186.616
G0 Z2.2
G1 F3000
G1 X151.987 Y192.616
; Path 171
G0 Z0
G0 X154.987 Y190.616
G0 Z2.2
G1 F3000
G1 X154.401 Y190.696
G1 X153.809 Y190.771
G1 X153.214 Y190.842
G1 X152.617 Y190.912
G1 X152.020 Y190.982
G1 X151.425 Y191.053
G1 X150.833 Y191.128
G1 X150.247 Y191.208
G1 X149.667 Y191.295
G1 X149.096 Y191.391
G1 X148.536 Y191.497
G1 X147.987 Y191.616
G1 X147.452 Y191.747
G1 X146.930 Y191.891
G1 X146.417 Y192.045
G1 X145.913 Y192.208
G1 X145.417 Y192.378
G1 X144.925 Y192.553
G1 X144.437 Y192.732
G1 X143.950 Y192.912
G1 X143.464 Y193.092
G1 X142.976 Y193.271
G1 X142.484 Y193.446
G1 X141.987 Y193.616
; Path 172
G0 Z0
G0 X140.011 Y195.591
G0 Z2.2
G1 F3000
G1 X139.904 Y195.321
G1 X139.767 Y195.096
G1 X139.623 Y194.825
G1 X139.461 Y194.602
G1 X139.262 Y194.384
G1 X139.118 Y194.108
G1 X138.931 Y193.873
G1 X138.766 Y193.614
G1 X138.594 Y193.385
G1 X138.432 Y193.120
G1 X138.274 Y192.897
G1 X138.143 Y192.625
G1 X138.058 Y192.380
G1 X137.927 Y192.130
G1 X137.857 Y191.866
G1 X137.810 Y191.635
G1 X137.841 Y191.393
G1 X137.821 Y191.139
G1 X137.885 Y190.868
G1 X137.985 Y190.642
G1 X138.141 Y190.418
G1 X138.321 Y190.144
G1 X138.578 Y189.874
G1 X138.811 Y189.645
G1 X139.126 Y189.416
G1 X139.428 Y189.145
G1 X139.811 Y188.913
G1 X140.144 Y188.645
G1 X140.551 Y188.368
G1 X140.933 Y188.145
G1 X141.324 Y187.875
G1 X141.767 Y187.644
G1 X142.220 Y187.405
G1 X142.619 Y187.143
G1 X143.013 Y186.901
G1 X143.462 Y186.642
G1 X143.845 Y186.387
G1 X144.269 Y186.142
G1 X144.611 Y185.916
G1 X145.012 Y185.641
; Path 173
G0 Z0
G0 X145.009 Y185.643
G0 Z2.2
G1 F3000
G1 X144.847 Y185.810
G1 X144.699 Y185.922
G1 X144.545 Y186.069
G1 X144.382 Y186.174
G1 X144.208 Y186.306
G1 X144.060 Y186.410
G1 X143.898 Y186.502
G1 X143.738 Y186.642
G1 X143.577 Y186.768
G1 X143.417 Y186.882
G1 X143.273 Y186.991
G1 X143.102 Y187.141
G1 X142.967 Y187.301
G1 X142.796 Y187.433
G1 X142.639 Y187.605
G1 X142.501 Y187.769
G1 X142.336 Y187.969
G1 X142.221 Y188.161
G1 X142.112 Y188.418
G1 X141.960 Y188.621
G1 X141.856 Y188.893
G1 X141.719 Y189.157
G1 X141.625 Y189.450
G1 X141.496 Y189.762
G1 X141.379 Y190.089
G1 X141.288 Y190.422
G1 X141.201 Y190.757
G1 X141.092 Y191.127
G1 X141.003 Y191.506
G1 X140.905 Y191.863
G1 X140.788 Y192.225
G1 X140.723 Y192.619
G1 X140.639 Y192.985
G1 X140.543 Y193.384
G1 X140.466 Y193.780
G1 X140.362 Y194.144
G1 X140.275 Y194.532
G1 X140.177 Y194.889
G1 X140.064 Y195.248
G1 X139.984 Y195.605
; Path 174
G0 Z0
G0 X139.969 Y195.587
G0 Z2.2
G1 F3000
G1 X140.731 Y195.874
G1 X141.469 Y196.123
G1 X142.211 Y196.409
G1 X142.968 Y196.707
G1 X143.722 Y197.010
G1 X144.468 Y197.320
G1 X145.231 Y197.632
G1 X145.967 Y197.940
G1 X146.729 Y198.270
G1 X147.466 Y198.546
G1 X148.201 Y198.817
G1 X148.966 Y199.116
G1 X149.729 Y199.359
G1 X150.466 Y199.631
G1 X151.192 Y199.828
G1 X151.966 Y200.067
G1 X152.745 Y200.243
G1 X153.467 Y200.405
G1 X154.230 Y200.538
G1 X154.969 Y200.624
G1 X155.703 Y200.675
G1 X156.471 Y200.708
G1 X157.219 Y200.687
G1 X157.973 Y200.673
G1 X158.735 Y200.623
G1 X159.477 Y200.539
G1 X160.256 Y200.423
G1 X160.980 Y200.327
G1 X161.756 Y200.172
G1 X162.484 Y200.059
G1 X163.232 Y199.914
G1 X163.988 Y199.756
G1 X164.755 Y199.590
G1 X165.492 Y199.439
G1 X166.219 Y199.266
G1 X166.996 Y199.128
G1 X167.748 Y199.006
G1 X168.500 Y198.846
G1 X169.279 Y198.718
G1 X170.004 Y198.614
; Path 175
G0 Z0
G0 X170.017 Y198.610
G0 Z2.2
G1 F3000
G1 X170.767 Y198.647
G1 X171.513 Y198.627
G1 X172.256 Y198.643
G1 X173.009 Y198.665
G1 X173.754 Y198.702
G1 X174.505 Y198.715
G1 X175.261 Y198.731
G1 X176.000 Y198.769
G1 X176.732 Y198.812
G1 X177.496 Y198.816
G1 X178.234 Y198.847
G1 X178.992 Y198.848
G1 X179.759 Y198.876
G1 X180.488 Y198.856
G1 X181.221 Y198.833
G1 X181.985 Y198.830
G1 X182.749 Y198.792
G1 X183.483 Y198.761
G1 X184.240 Y198.704
G1 X184.982 Y198.641
G1 X185.736 Y198.546
G1 X186.482 Y198.462
G1 X187.240 Y198.361
G1 X187.982 Y198.232
G1 X188.726 Y198.087
G1 X189.484 Y197.959
G1 X190.206 Y197.791
G1 X190.986 Y197.652
G1 X191.762 Y197.461
G1 X192.489 Y197.321
G1 X193.248 Y197.151
G1 X193.991 Y196.975
G1 X194.758 Y196.782
G1 X195.494 Y196.623
G1 X196.232 Y196.455
G1 X196.997 Y196.273
G1 X197.723 Y196.085
G1 X198.500 Y195.936
G1 X199.240 Y195.799
G1 X200.002 Y195.620
; Path 176
G0 Z0
G0 X199.972 Y195.631
G0 Z2.2
G1 F3000
G1 X200.968 Y195.265
G1 X201.997 Y194.933
G1 X203.011 Y194.598
G1 X204.057 Y194.242
G1 X205.084 Y193.893
G1 X206.137 Y193.554
G1 X207.150 Y193.215
G1 X208.222 Y192.868
G1 X209.259 Y192.503
G1 X210.297 Y192.180
G1 X211.314 Y191.828
G1 X212.346 Y191.487
G1 X213.366 Y191.138
G1 X214.356 Y190.786
G1 X215.331 Y190.419
G1 X216.310 Y190.074
G1 X217.260 Y189.710
G1 X218.193 Y189.349
G1 X219.081 Y188.981
G1 X219.990 Y188.606
G1 X220.833 Y188.196
G1 X221.692 Y187.845
G1 X222.504 Y187.482
G1 X223.307 Y187.067
G1 X224.069 Y186.698
G1 X224.852 Y186.275
G1 X225.604 Y185.870
G1 X226.342 Y185.472
G1 X227.056 Y185.085
G1 X227.791 Y184.661
G1 X228.496 Y184.274
G1 X229.215 Y183.845
G1 X229.943 Y183.453
G1 X230.629 Y183.028
G1 X231.319 Y182.622
G1 X232.048 Y182.211
G1 X232.746 Y181.832
G1 X233.487 Y181.398
G1 X234.249 Y181.012
G1 X234.961 Y180.592
; Path 177
G0 Z0
G0 X236.497 Y180.608
G0 Z2.2
G1 F3000
G1 X235.997 Y181.108
G1 X235.497 Y180.608
G1 X235.997 Y180.108
G1 X236.497 Y180.608
; Path 178
G0 Z0
G0 X237.973 Y182.606
G0 Z2.2
G1 F3000
G1 X239.310 Y181.260
G1 X240.660 Y179.953
G1 X242.008 Y178.600
; Path 179
G0 Z0
G0 X241.404 Y179.410
G0 Z2.2
G1 F3000
G1 X242.566 Y177.778
; Path 180
G0 Z0
G0 X244.989 Y177.589
G0 Z2.2
G1 F3000
G1 X245.033 Y177.829
G1 X245.085 Y178.088
G1 X245.124 Y178.360
G1 X245.175 Y178.581
G1 X245.227 Y178.838
G1 X245.260 Y179.070
G1 X245.319 Y179.314
G1 X245.344 Y179.558
G1 X245.388 Y179.789
G1 X245.431 Y180.048
G1 X245.475 Y180.294
G1 X245.522 Y180.543
G1 X245.549 Y180.793
G1 X245.622 Y181.045
G1 X245.706 Y181.295
G1 X245.732 Y181.558
G1 X245.798 Y181.809
G1 X245.857 Y182.085
G1 X245.920 Y182.334
G1 X245.998 Y182.628
G1 X246.058 Y182.891
G1 X246.159 Y183.190
G1 X246.237 Y183.482
G1 X246.337 Y183.768
G1 X246.438 Y184.049
G1 X246.529 Y184.360
G1 X246.626 Y184.689
G1 X246.732 Y184.962
G1 X246.830 Y185.245
G1 X246.942 Y185.572
G1 X247.031 Y185.869
G1 X247.158 Y186.187
G1 X247.271 Y186.503
G1 X247.376 Y186.804
G1 X247.457 Y187.090
G1 X247.593 Y187.420
G1 X247.694 Y187.750
G1 X247.806 Y188.032
G1 X247.879 Y188.337
G1 X248.012 Y188.637
; Path 181
G0 Z0
G0 X248.003 Y188.618
G0 Z2.2
G1 F3000
G1 X248.697 Y186.957
G1 X249.353 Y185.276
G1 X250.001 Y183.595
G1 X250.664 Y181.951
G1 X251.355 Y180.307
G1 X252.007 Y178.625
; Path 182
G0 Z0
G0 X250.956 Y178.816
G0 Z2.2
G1 F3000
G1 X252.925 Y178.474
; Path 183
G0 Z0
G0 X254.941 Y178.686
G0 Z2.2
G1 F3000
G1 X255.826 Y178.756
G1 X256.771 Y178.916
G1 X257.728 Y179.105
G1 X258.771 Y179.133
G1 X259.711 Y179.212
G1 X260.580 Y179.417
G1 X261.566 Y179.588
G1 X262.502 Y179.613
G1 X263.393 Y179.776
G1 X264.344 Y179.815
G1 X265.252 Y180.041
G1 X266.312 Y180.177
G1 X267.113 Y180.247
G1 X268.184 Y180.332
G1 X269.071 Y180.449
G1 X270.015 Y180.603
; Path 184
G0 Z0
G0 X271.339 Y179.882
G0 Z2.2
G1 F3000
G1 X272.663 Y181.361
; Path 185
G0 Z0
G0 X272.006 Y182.625
G0 Z2.2
G1 F3000
G1 X271.479 Y180.869
G1 X271.030 Y179.124
G1 X270.508 Y177.342
G1 X270.006 Y175.609
; Path 186
G0 Z0
G0 X270.865 Y176.143
G0 Z2.2
G1 F3000
G1 X269.106 Y175.136
; Path 187
G0 Z0
G0 X268.987 Y171.616
G0 Z2.2
G1 F3000
G1 X272.987 Y175.616
; Path 188
G0 Z0
G0 X277.963 Y175.600
G0 Z2.2
G1 F3000
G1 X279.664 Y174.620
G1 X281.332 Y173.629
G1 X282.986 Y172.602
; Path 189
G0 Z0
G0 X283.006 Y173.608
G0 Z2.2
G1 F3000
G1 X283.028 Y173.917
G1 X283.106 Y174.206
G1 X283.129 Y174.486
G1 X283.206 Y174.803
G1 X283.279 Y175.092
G1 X283.306 Y175.401
G1 X283.378 Y175.726
G1 X283.406 Y175.998
G1 X283.430 Y176.302
G1 X283.506 Y176.596
G1 X283.564 Y176.884
G1 X283.606 Y177.193
G1 X283.683 Y177.519
G1 X283.706 Y177.791
G1 X283.734 Y178.083
G1 X283.806 Y178.389
G1 X283.860 Y178.689
G1 X283.906 Y178.988
G1 X283.981 Y179.279
G1 X284.005 Y179.587
G1 X284.058 Y179.907
G1 X284.105 Y180.188
G1 X284.138 Y180.484
G1 X284.205 Y180.788
G1 X284.274 Y181.071
G1 X284.305 Y181.390
G1 X284.332 Y181.664
G1 X284.405 Y181.991
G1 X284.436 Y182.311
G1 X284.505 Y182.593
G1 X284.557 Y182.870
G1 X284.605 Y183.195
G1 X284.659 Y183.471
G1 X284.705 Y183.798
G1 X284.771 Y184.082
G1 X284.805 Y184.400
G1 X284.874 Y184.704
G1 X284.904 Y185.002
G1 X284.942 Y185.281
G1 X285.004 Y185.604
; Path 190
G0 Z0
G0 X284.963 Y185.639
G0 Z2.2
G1 F3000
G1 X286.359 Y184.234
G1 X287.799 Y182.828
G1 X289.200 Y181.443
G1 X290.585 Y179.991
G1 X291.986 Y178.613
; Path 191
G0 Z0
G0 X289.990 Y174.610
G0 Z2.2
G1 F3000
G1 X289.273 Y176.207
G1 X288.585 Y177.753
G1 X287.810 Y179.326
G1 X287.129 Y180.929
G1 X286.417 Y182.515
G1 X285.679 Y184.044
G1 X284.968 Y185.644
; Path 192
G0 Z0
G0 X284.993 Y185.634
G0 Z2.2
G1 F3000
G1 X285.017 Y185.220
G1 X285.090 Y184.829
G1 X285.126 Y184.437
G1 X285.186 Y184.017
G1 X285.229 Y183.585
G1 X285.282 Y183.201
G1 X285.314 Y182.798
G1 X285.378 Y182.385
G1 X285.423 Y181.996
G1 X285.474 Y181.570
G1 X285.499 Y181.150
G1 X285.570 Y180.760
G1 X285.604 Y180.377
G1 X285.667 Y179.958
G1 X285.697 Y179.545
G1 X285.764 Y179.167
G1 X285.831 Y178.755
G1 X285.862 Y178.389
G1 X285.940 Y177.990
G1 X285.961 Y177.628
G1 X286.010 Y177.248
G1 X286.061 Y176.885
G1 X286.089 Y176.495
G1 X286.161 Y176.159
G1 X286.204 Y175.814
G1 X286.263 Y175.447
G1 X286.337 Y175.082
G1 X286.365 Y174.746
G1 X286.409 Y174.373
G1 X286.467 Y174.052
G1 X286.515 Y173.736
G1 X286.570 Y173.363
G1 X286.649 Y173.044
G1 X286.672 Y172.676
G1 X286.727 Y172.334
G1 X286.775 Y171.988
G1 X286.812 Y171.620
G1 X286.877 Y171.296
G1 X286.955 Y170.917
G1 X286.979 Y170.597
; Path 193
G0 Z0
G0 X290.970 Y172.608
G0 Z2.2
G1 F3000
G1 X290.930 Y172.789
G1 X290.878 Y173.010
G1 X290.851 Y173.200
G1 X290.793 Y173.413
G1 X290.759 Y173.591
G1 X290.712 Y173.816
G1 X290.658 Y174.035
G1 X290.633 Y174.219
G1 X290.564 Y174.409
G1 X290.551 Y174.621
G1 X290.490 Y174.845
G1 X290.464 Y175.024
G1 X290.415 Y175.208
G1 X290.369 Y175.426
G1 X290.334 Y175.633
G1 X290.262 Y175.828
G1 X290.177 Y176.013
G1 X290.139 Y176.229
G1 X290.092 Y176.440
G1 X289.999 Y176.630
G1 X289.898 Y176.846
G1 X289.839 Y177.029
G1 X289.779 Y177.228
G1 X289.660 Y177.428
G1 X289.538 Y177.657
G1 X289.467 Y177.827
G1 X289.368 Y178.040
G1 X289.262 Y178.225
G1 X289.178 Y178.427
G1 X289.049 Y178.622
G1 X288.951 Y178.817
G1 X288.830 Y179.020
G1 X288.699 Y179.196
G1 X288.609 Y179.417
G1 X288.503 Y179.625
G1 X288.389 Y179.815
G1 X288.290 Y180.031
G1 X288.173 Y180.212
G1 X288.059 Y180.406
G1 X287.965 Y180.610
; Path 194
G0 Z0
G0 X287.982 Y182.794
G0 Z2.2
G1 F3000
G1 X286.008 Y182.464
; Path 195
G0 Z0
G0 X284.985 Y180.623
G0 Z2.2
G1 F3000
G1 X283.969 Y182.205
G1 X282.964 Y183.818
G1 X282.026 Y185.420
G1 X281.006 Y187.044
G1 X280.004 Y188.627
; Path 196
G0 Z0
G0 X280.000 Y188.624
G0 Z2.2
G1 F3000
G1 X279.679 Y186.975
G1 X279.310 Y185.309
G1 X278.984 Y183.630
G1 X278.634 Y181.937
G1 X278.289 Y180.234
G1 X277.964 Y178.589
; Path 197
G0 Z0
G0 X281.133 Y179.628
G0 Z2.2
G1 F3000
G1 X280.842 Y181.648
; Path 198
G0 Z0
G0 X279.185 Y183.616
G0 Z2.2
G1 F3000
G1 X278.837 Y181.657
; Path 199
G0 Z0
G0 X276.459 Y185.610
G0 Z2.2
G1 F3000
G1 X275.959 Y186.110
G1 X275.459 Y185.610
G1 X275.959 Y185.110
G1 X276.459 Y185.610
; Path 200
G0 Z0
G0 X268.477 Y188.618
G0 Z2.2
G1 F3000
G1 X267.977 Y189.118
G1 X267.477 Y188.618
G1 X267.977 Y188.118
G1 X268.477 Y188.618
; Path 201
G0 Z0
G0 X264.417 Y187.415
G0 Z2.2
G1 F3000
G1 X265.612 Y185.814
; Path 202
G0 Z0
G0 X268.335 Y185.600
G0 Z2.2
G1 F3000
G1 X267.583 Y183.714
; Path 203
G0 Z0
G0 X268.045 Y182.672
G0 Z2.2
G1 F3000
G1 X267.199 Y182.139
G1 X266.453 Y181.539
G1 X265.793 Y181.087
G1 X264.875 Y180.410
G1 X264.152 Y179.925
G1 X263.416 Y179.379
G1 X262.627 Y178.804
G1 X261.859 Y178.266
G1 X260.979 Y177.707
G1 X260.266 Y177.166
G1 X259.438 Y176.651
G1 X258.701 Y176.171
G1 X257.952 Y175.548
; Path 204
G0 Z0
G0 X256.009 Y173.588
G0 Z2.2
G1 F3000
G1 X256.524 Y174.386
G1 X256.933 Y175.295
G1 X257.410 Y176.200
G1 X257.828 Y176.911
G1 X258.302 Y177.786
G1 X258.788 Y178.678
G1 X259.283 Y179.569
G1 X259.684 Y180.339
G1 X260.092 Y181.317
G1 X260.624 Y182.052
G1 X261.102 Y182.939
G1 X261.556 Y183.748
G1 X261.964 Y184.646
; Path 205
G0 Z0
G0 X264.959 Y185.688
G0 Z2.2
G1 F3000
G1 X264.656 Y184.836
G1 X264.278 Y183.937
G1 X263.980 Y183.072
G1 X263.695 Y182.139
G1 X263.230 Y181.290
G1 X262.986 Y180.431
G1 X262.536 Y179.500
G1 X262.294 Y178.636
G1 X261.888 Y177.881
G1 X261.662 Y176.987
G1 X261.233 Y176.109
G1 X260.980 Y175.166
G1 X260.633 Y174.266
G1 X260.232 Y173.406
G1 X259.924 Y172.550
; Path 206
G0 Z0
G0 X263.997 Y162.479
G0 Z2.2
G1 F3000
G1 X266.002 Y162.711
; Path 207
G0 Z0
G0 X267.998 Y165.627
G0 Z2.2
G1 F3000
G1 X267.895 Y165.372
G1 X267.791 Y165.120
G1 X267.671 Y164.873
G1 X267.577 Y164.606
G1 X267.444 Y164.352
G1 X267.360 Y164.089
G1 X267.242 Y163.809
G1 X267.141 Y163.570
G1 X267.030 Y163.302
G1 X266.924 Y163.053
G1 X266.840 Y162.785
G1 X266.713 Y162.541
G1 X266.620 Y162.309
G1 X266.509 Y162.038
G1 X266.402 Y161.805
G1 X266.317 Y161.545
G1 X266.245 Y161.309
G1 X266.138 Y161.067
G1 X266.052 Y160.849
G1 X265.977 Y160.606
G1 X265.881 Y160.389
G1 X265.835 Y160.163
G1 X265.777 Y159.973
G1 X265.710 Y159.738
G1 X265.636 Y159.533
G1 X265.599 Y159.328
G1 X265.547 Y159.147
G1 X265.499 Y158.928
G1 X265.433 Y158.714
G1 X265.408 Y158.536
G1 X265.368 Y158.330
G1 X265.321 Y158.149
G1 X265.266 Y157.980
G1 X265.236 Y157.765
G1 X265.208 Y157.568
G1 X265.151 Y157.379
G1 X265.114 Y157.173
G1 X265.061 Y156.989
G1 X265.039 Y156.795
G1 X264.964 Y156.593
; Path 208
G0 Z0
G0 X269.963 Y154.597
G0 Z2.2
G1 F3000
G1 X269.656 Y156.402
G1 X269.278 Y158.268
G1 X268.989 Y160.101
G1 X268.659 Y161.924
G1 X268.300 Y163.749
G1 X267.983 Y165.590
; Path 209
G0 Z0
G0 X267.976 Y165.586
G0 Z2.2
G1 F3000
G1 X268.974 Y164.174
G1 X269.972 Y162.800
G1 X271.012 Y161.433
G1 X271.975 Y159.990
G1 X272.987 Y158.620
; Path 210
G0 Z0
G0 X269.969 Y163.588
G0 Z2.2
G1 F3000
G1 X271.488 Y164.110
G1 X272.970 Y164.586
G1 X274.475 Y165.097
G1 X275.998 Y165.605
; Path 211
G0 Z0
G0 X273.969 Y164.893
G0 Z2.2
G1 F3000
G1 X272.051 Y164.262
; Path 212
G0 Z0
G0 X279.140 Y168.079
G0 Z2.2
G1 F3000
G1 X280.859 Y169.182
; Path 213
G0 Z0
G0 X281.971 Y170.632
G0 Z2.2
G1 F3000
G1 X282.992 Y171.900
G1 X283.947 Y173.120
G1 X284.961 Y174.343
G1 X285.967 Y175.589
; Path 214
G0 Z0
G0 X285.854 Y178.127
G0 Z2.2
G1 F3000
G1 X284.108 Y179.145
; Path 215
G0 Z0
G0 X283.012 Y178.624
G0 Z2.2
G1 F3000
G1 X282.964 Y176.640
; Path 216
G0 Z0
G0 X282.002 Y175.640
G0 Z2.2
G1 F3000
G1 X281.706 Y177.479
G1 X281.435 Y179.323
G1 X281.142 Y181.218
G1 X280.837 Y183.046
G1 X280.565 Y184.900
G1 X280.296 Y186.767
G1 X279.980 Y188.602
; Path 217
G0 Z0
G0 X286.004 Y193.395
G0 Z2.2
G1 F3000
G1 X284.025 Y193.881
; Path 218
G0 Z0
G0 X289.988 Y192.615
G0 Z2.2
G1 F3000
G1 X290.364 Y192.566
G1 X290.796 Y192.490
G1 X291.222 Y192.388
G1 X291.610 Y192.329
G1 X292.008 Y192.248
G1 X292.429 Y192.148
G1 X292.823 Y192.051
G1 X293.249 Y191.961
G1 X293.656 Y191.862
G1 X294.067 Y191.785
G1 X294.501 Y191.697
G1 X294.879 Y191.634
G1 X295.293 Y191.607
G1 X295.684 Y191.524
G1 X296.060 Y191.501
G1 X296.477 Y191.470
G1 X296.838 Y191.476
G1 X297.255 Y191.486
G1 X297.618 Y191.559
G1 X298.016 Y191.589
G1 X298.384 Y191.697
G1 X298.757 Y191.789
G1 X299.102 Y191.938
G1 X299.481 Y192.074
G1 X299.859 Y192.244
G1 X300.190 Y192.431
G1 X300.528 Y192.645
G1 X300.888 Y192.843
G1 X301.212 Y193.078
G1 X301.577 Y193.296
G1 X301.890 Y193.564
G1 X302.261 Y193.775
G1 X302.589 Y194.025
G1 X302.944 Y194.263
G1 X303.281 Y194.504
G1 X303.627 Y194.747
G1 X303.998 Y194.963
G1 X304.314 Y195.210
G1 X304.669 Y195.436
G1 X305.009 Y195.637
; Path 219
G0 Z0
G0 X300.956 Y199.854
G0 Z2.2
G1 F3000
G1 X298.976 Y199.348
; Path 220
G0 Z0
G0 X295.940 Y197.734
G0 Z2.2
G1 F3000
G1 X293.948 Y197.461
; Path 221
G0 Z0
G0 X276.000 Y198.674
G0 Z2.2
G1 F3000
G1 X273.988 Y198.581
; Path 222
G0 Z0
G0 X281.987 Y212.616
G0 Z2.2
G1 F3000
G1 X277.987 Y208.616
; Path 223
G1 X269.987 Y205.616
; Path 224
G0 Z0
G0 X265.831 Y196.137
G0 Z2.2
G1 F3000
G1 X264.072 Y195.122
; Path 225
G0 Z0
G0 X259.988 Y188.609
G0 Z2.2
G1 F3000
G1 X259.486 Y188.628
G1 X258.968 Y188.644
G1 X258.435 Y188.661
G1 X257.914 Y188.734
G1 X257.374 Y188.812
G1 X256.840 Y188.856
G1 X256.305 Y188.931
G1 X255.761 Y188.986
G1 X255.197 Y189.040
G1 X254.691 Y189.100
G1 X254.162 Y189.146
G1 X253.647 Y189.174
G1 X253.134 Y189.151
G1 X252.642 Y189.184
G1 X252.157 Y189.123
G1 X251.691 Y189.106
G1 X251.236 Y188.983
G1 X250.810 Y188.917
G1 X250.437 Y188.776
G1 X250.013 Y188.593
G1 X249.658 Y188.328
G1 X249.310 Y188.116
G1 X249.029 Y187.793
G1 X248.692 Y187.504
G1 X248.389 Y187.130
G1 X248.142 Y186.780
G1 X247.903 Y186.370
G1 X247.647 Y185.969
G1 X247.398 Y185.534
G1 X247.192 Y185.094
G1 X246.982 Y184.645
G1 X246.762 Y184.178
G1 X246.526 Y183.707
G1 X246.341 Y183.247
G1 X246.158 Y182.766
G1 X245.915 Y182.324
G1 X245.667 Y181.862
G1 X245.470 Y181.433
G1 X245.246 Y180.998
G1 X244.990 Y180.598
; Path 226
G0 Z0
G0 X244.969 Y180.634
G0 Z2.2
G1 F3000
G1 X245.082 Y180.220
G1 X245.252 Y179.816
G1 X245.404 Y179.400
G1 X245.508 Y178.970
G1 X245.641 Y178.526
G1 X245.747 Y178.108
G1 X245.853 Y177.702
G1 X245.983 Y177.242
G1 X246.126 Y176.823
G1 X246.227 Y176.384
G1 X246.386 Y175.970
G1 X246.490 Y175.546
G1 X246.663 Y175.114
G1 X246.786 Y174.740
G1 X246.970 Y174.342
G1 X247.125 Y173.978
G1 X247.294 Y173.613
G1 X247.520 Y173.271
G1 X247.769 Y172.941
G1 X247.983 Y172.633
G1 X248.248 Y172.334
G1 X248.522 Y172.070
G1 X248.829 Y171.843
G1 X249.129 Y171.575
G1 X249.451 Y171.349
G1 X249.791 Y171.136
G1 X250.172 Y170.937
G1 X250.497 Y170.740
G1 X250.857 Y170.529
G1 X251.236 Y170.377
G1 X251.632 Y170.205
G1 X251.994 Y170.034
G1 X252.372 Y169.885
G1 X252.760 Y169.698
G1 X253.163 Y169.535
G1 X253.522 Y169.359
G1 X253.890 Y169.169
G1 X254.269 Y169.003
G1 X254.648 Y168.826
G1 X254.987 Y168.620
; Path 227
G0 Z0
G0 X254.966 Y168.593
G0 Z2.2
G1 F3000
G1 X255.620 Y168.693
G1 X256.298 Y168.768
G1 X256.991 Y168.856
G1 X257.672 Y168.901
G1 X258.348 Y168.959
G1 X259.070 Y169.010
G1 X259.770 Y169.075
G1 X260.475 Y169.113
G1 X261.164 Y169.150
G1 X261.867 Y169.228
G1 X262.540 Y169.305
G1 X263.229 Y169.373
G1 X263.859 Y169.455
G1 X264.542 Y169.566
G1 X265.189 Y169.723
G1 X265.788 Y169.824
G1 X266.352 Y170.002
G1 X266.950 Y170.167
G1 X267.485 Y170.369
G1 X268.008 Y170.611
G1 X268.463 Y170.906
G1 X268.950 Y171.168
G1 X269.386 Y171.471
G1 X269.790 Y171.828
G1 X270.191 Y172.190
G1 X270.544 Y172.571
G1 X270.881 Y172.947
G1 X271.231 Y173.380
G1 X271.562 Y173.816
G1 X271.870 Y174.237
G1 X272.201 Y174.664
G1 X272.478 Y175.123
G1 X272.794 Y175.552
G1 X273.074 Y176.022
G1 X273.390 Y176.461
G1 X273.676 Y176.915
G1 X273.988 Y177.329
G1 X274.303 Y177.784
G1 X274.622 Y178.216
G1 X274.972 Y178.611
; Path 228
G0 Z0
G0 X275.001 Y178.641
G0 Z2.2
G1 F3000
G1 X274.884 Y178.981
G1 X274.738 Y179.357
G1 X274.667 Y179.707
G1 X274.538 Y180.100
G1 X274.461 Y180.497
G1 X274.373 Y180.860
G1 X274.281 Y181.225
G1 X274.217 Y181.624
G1 X274.145 Y181.997
G1 X274.044 Y182.379
G1 X273.941 Y182.730
G1 X273.826 Y183.115
G1 X273.673 Y183.463
G1 X273.536 Y183.819
G1 X273.331 Y184.168
G1 X273.147 Y184.478
G1 X272.915 Y184.784
G1 X272.633 Y185.082
G1 X272.325 Y185.371
G1 X271.966 Y185.618
G1 X271.535 Y185.877
G1 X271.130 Y186.078
G1 X270.660 Y186.272
G1 X270.140 Y186.470
G1 X269.558 Y186.660
G1 X269.025 Y186.806
G1 X268.404 Y186.930
G1 X267.812 Y187.098
G1 X267.197 Y187.243
G1 X266.527 Y187.358
G1 X265.840 Y187.495
G1 X265.197 Y187.598
G1 X264.520 Y187.735
G1 X263.849 Y187.830
G1 X263.170 Y187.948
G1 X262.510 Y188.066
G1 X261.886 Y188.207
G1 X261.207 Y188.319
G1 X260.578 Y188.439
G1 X259.967 Y188.599
; Path 229
G0 Z0
G0 X255.480 Y190.612
G0 Z2.2
G1 F3000
G1 X254.980 Y191.112
G1 X254.480 Y190.612
G1 X254.980 Y190.112
G1 X255.480 Y190.612
; Path 230
G0 Z0
G0 X252.046 Y202.331
G0 Z2.2
G1 F3000
G1 X253.949 Y203.087
; Path 231
G0 Z0
G0 X255.453 Y202.736
G0 Z2.2
G1 F3000
G1 X256.360 Y204.383
; Path 232
G0 Z0
G0 X254.976 Y206.609
G0 Z2.2
G1 F3000
G1 X255.161 Y206.502
G1 X255.403 Y206.411
G1 X255.651 Y206.324
G1 X255.864 Y206.213
G1 X256.105 Y206.128
G1 X256.346 Y206.015
G1 X256.605 Y205.914
G1 X256.833 Y205.817
G1 X257.085 Y205.690
G1 X257.310 Y205.619
G1 X257.517 Y205.521
G1 X257.761 Y205.421
G1 X257.984 Y205.324
G1 X258.172 Y205.222
G1 X258.375 Y205.152
G1 X258.528 Y205.024
G1 X258.663 Y204.916
G1 X258.812 Y204.825
G1 X258.934 Y204.704
G1 X259.011 Y204.626
G1 X259.070 Y204.517
G1 X259.114 Y204.427
G1 X259.100 Y204.312
G1 X259.130 Y204.228
G1 X259.113 Y204.110
G1 X259.077 Y204.028
G1 X259.039 Y203.900
G1 X258.967 Y203.828
G1 X258.902 Y203.722
G1 X258.817 Y203.628
G1 X258.726 Y203.498
G1 X258.642 Y203.428
G1 X258.523 Y203.302
G1 X258.456 Y203.228
G1 X258.376 Y203.127
G1 X258.276 Y203.028
G1 X258.206 Y202.929
G1 X258.116 Y202.828
G1 X258.052 Y202.742
G1 X257.991 Y202.628
; Path 233
G0 Z0
G0 X258.016 Y202.628
G0 Z2.2
G1 F3000
G1 X257.806 Y202.489
G1 X257.611 Y202.307
G1 X257.415 Y202.157
G1 X257.206 Y201.958
G1 X256.999 Y201.769
G1 X256.800 Y201.592
G1 X256.572 Y201.422
G1 X256.394 Y201.222
G1 X256.186 Y201.014
G1 X255.989 Y200.861
G1 X255.776 Y200.687
G1 X255.583 Y200.520
G1 X255.352 Y200.341
G1 X255.179 Y200.211
G1 X254.949 Y200.103
G1 X254.775 Y199.947
G1 X254.591 Y199.865
G1 X254.372 Y199.740
G1 X254.144 Y199.644
G1 X253.971 Y199.601
G1 X253.752 Y199.600
G1 X253.571 Y199.540
G1 X253.379 Y199.560
G1 X253.172 Y199.548
G1 X252.953 Y199.599
G1 X252.774 Y199.613
G1 X252.554 Y199.643
G1 X252.378 Y199.723
G1 X252.177 Y199.764
G1 X251.981 Y199.864
G1 X251.787 Y199.962
G1 X251.585 Y200.027
G1 X251.361 Y200.123
G1 X251.190 Y200.197
G1 X250.996 Y200.257
G1 X250.794 Y200.364
G1 X250.620 Y200.467
G1 X250.398 Y200.514
G1 X250.186 Y200.589
G1 X250.001 Y200.635
; Path 234
G0 Z0
G0 X248.028 Y188.657
G0 Z2.2
G1 F3000
G1 X247.839 Y187.707
G1 X247.791 Y186.912
G1 X247.708 Y185.979
G1 X247.541 Y184.989
G1 X247.416 Y184.134
G1 X247.296 Y183.257
G1 X247.219 Y182.418
G1 X247.148 Y181.377
G1 X247.013 Y180.555
; Path 235
G0 Z0
G0 X247.914 Y180.692
G0 Z2.2
G1 F3000
G1 X248.194 Y178.617
; Path 236
G0 Z0
G0 X247.964 Y177.632
G0 Z2.2
G1 F3000
G1 X247.985 Y177.487
G1 X248.058 Y177.314
G1 X248.088 Y177.119
G1 X248.138 Y176.968
G1 X248.192 Y176.797
G1 X248.211 Y176.606
G1 X248.237 Y176.422
G1 X248.282 Y176.240
G1 X248.298 Y176.079
G1 X248.357 Y175.882
G1 X248.387 Y175.706
G1 X248.442 Y175.544
G1 X248.502 Y175.380
G1 X248.542 Y175.238
G1 X248.579 Y175.077
G1 X248.663 Y174.975
G1 X248.757 Y174.859
G1 X248.812 Y174.768
G1 X248.918 Y174.674
G1 X248.995 Y174.628
G1 X249.092 Y174.602
G1 X249.214 Y174.564
G1 X249.323 Y174.554
G1 X249.467 Y174.567
G1 X249.579 Y174.600
G1 X249.747 Y174.625
G1 X249.900 Y174.696
G1 X250.048 Y174.728
G1 X250.208 Y174.821
G1 X250.365 Y174.861
G1 X250.520 Y174.951
G1 X250.692 Y175.015
G1 X250.876 Y175.096
G1 X251.023 Y175.177
G1 X251.159 Y175.237
G1 X251.352 Y175.335
G1 X251.501 Y175.406
G1 X251.673 Y175.476
G1 X251.797 Y175.514
G1 X251.980 Y175.591
; Path 237
G0 Z0
G0 X251.981 Y175.610
G0 Z2.2
G1 F3000
G1 X252.012 Y175.891
G1 X252.078 Y176.112
G1 X252.113 Y176.389
G1 X252.167 Y176.615
G1 X252.217 Y176.878
G1 X252.253 Y177.118
G1 X252.315 Y177.395
G1 X252.338 Y177.620
G1 X252.377 Y177.878
G1 X252.425 Y178.123
G1 X252.483 Y178.347
G1 X252.516 Y178.626
G1 X252.542 Y178.867
G1 X252.616 Y179.128
G1 X252.693 Y179.357
G1 X252.726 Y179.630
G1 X252.798 Y179.860
G1 X252.849 Y180.132
G1 X252.946 Y180.397
G1 X252.989 Y180.632
G1 X253.088 Y180.910
G1 X253.147 Y181.133
G1 X253.233 Y181.363
G1 X253.321 Y181.633
G1 X253.386 Y181.900
G1 X253.509 Y182.132
G1 X253.588 Y182.408
G1 X253.707 Y182.631
G1 X253.805 Y182.880
G1 X253.913 Y183.129
G1 X254.042 Y183.362
G1 X254.124 Y183.628
G1 X254.207 Y183.848
G1 X254.337 Y184.126
G1 X254.421 Y184.401
G1 X254.549 Y184.625
G1 X254.647 Y184.875
G1 X254.757 Y185.123
G1 X254.832 Y185.359
G1 X254.958 Y185.622
; Path 238
G0 Z0
G0 X256.971 Y182.648
G0 Z2.2
G1 F3000
G1 X257.660 Y182.111
G1 X258.470 Y181.498
G1 X259.259 Y180.910
G1 X259.977 Y180.347
G1 X260.659 Y179.669
G1 X261.434 Y179.218
G1 X262.241 Y178.559
G1 X263.007 Y177.987
G1 X263.698 Y177.447
G1 X264.464 Y176.848
G1 X265.169 Y176.176
G1 X265.945 Y175.674
; Path 239
G0 Z0
G0 X264.959 Y173.561
G0 Z2.2
G1 F3000
G1 X264.384 Y174.407
G1 X263.911 Y175.161
G1 X263.418 Y175.879
G1 X262.779 Y176.690
G1 X262.232 Y177.416
G1 X261.746 Y178.181
G1 X261.212 Y178.972
G1 X260.654 Y179.750
G1 X260.168 Y180.489
G1 X259.575 Y181.278
G1 X259.065 Y182.071
G1 X258.554 Y182.933
G1 X258.046 Y183.646
; Path 240
G0 Z0
G0 X261.045 Y182.566
G0 Z2.2
G1 F3000
G1 X261.227 Y181.689
G1 X261.269 Y180.922
G1 X261.445 Y180.045
G1 X261.542 Y179.223
G1 X261.724 Y178.281
G1 X261.933 Y177.500
G1 X262.055 Y176.644
; Path 241
G0 Z0
G0 X260.012 Y178.649
G0 Z2.2
G1 F3000
G1 X260.813 Y178.961
G1 X261.508 Y179.424
G1 X262.351 Y179.829
G1 X263.178 Y180.221
G1 X263.913 Y180.538
; Path 242
G0 Z0
G0 X266.951 Y178.550
G0 Z2.2
G1 F3000
G1 X265.940 Y178.634
G1 X265.098 Y178.758
G1 X264.090 Y178.990
G1 X263.209 Y179.098
G1 X262.244 Y179.251
G1 X261.390 Y179.412
G1 X260.379 Y179.507
G1 X259.517 Y179.567
G1 X258.468 Y179.783
G1 X257.616 Y179.904
G1 X256.632 Y179.934
G1 X255.793 Y180.116
G1 X254.751 Y180.254
G1 X253.821 Y180.423
G1 X253.005 Y180.462
G1 X252.002 Y180.663
; Path 243
G0 Z0
G0 X249.635 Y182.591
G0 Z2.2
G1 F3000
G1 X250.354 Y180.695
; Path 244
G0 Z0
G0 X247.850 Y181.645
G0 Z2.2
G1 F3000
G1 X248.128 Y183.634
; Path 245
G0 Z0
G0 X245.003 Y183.627
G0 Z2.2
G1 F3000
G1 X243.312 Y184.255
G1 X241.683 Y184.926
G1 X240.007 Y185.592
; Path 246
G0 Z0
G0 X238.004 Y184.592
G0 Z2.2
G1 F3000
G1 X238.373 Y186.213
G1 X238.818 Y187.789
G1 X239.217 Y189.392
G1 X239.576 Y191.013
G1 X239.977 Y192.621
; Path 247
G0 Z0
G0 X239.966 Y192.639
G0 Z2.2
G1 F3000
G1 X240.485 Y190.959
G1 X240.958 Y189.285
G1 X241.444 Y187.663
G1 X241.985 Y185.955
G1 X242.467 Y184.333
G1 X242.981 Y182.645
; Path 248
G0 Z0
G0 X246.464 Y182.718
G0 Z2.2
G1 F3000
G1 X245.500 Y184.513
; Path 249
G0 Z0
G0 X243.491 Y186.617
G0 Z2.2
G1 F3000
G1 X242.991 Y186.117
G1 X242.491 Y186.617
G1 X242.991 Y187.117
G1 X243.491 Y186.617
; Path 250
G0 Z0
G0 X242.017 Y185.587
G0 Z2.2
G1 F3000
G1 X240.253 Y186.321
G1 X238.511 Y187.078
G1 X236.775 Y187.875
G1 X234.994 Y188.625
; Path 251
G0 Z0
G0 X235.116 Y189.156
G0 Z2.2
G1 F3000
G1 X236.874 Y188.200
; Path 252
G0 Z0
G0 X238.001 Y188.608
G0 Z2.2
G1 F3000
G1 X237.809 Y188.640
G1 X237.599 Y188.697
G1 X237.401 Y188.709
G1 X237.196 Y188.772
G1 X237.011 Y188.829
G1 X236.793 Y188.839
G1 X236.601 Y188.854
G1 X236.390 Y188.904
G1 X236.210 Y188.930
G1 X235.988 Y188.973
G1 X235.787 Y189.026
G1 X235.585 Y189.052
G1 X235.379 Y189.085
G1 X235.183 Y189.147
G1 X234.971 Y189.185
G1 X234.781 Y189.265
G1 X234.591 Y189.357
G1 X234.379 Y189.411
G1 X234.161 Y189.521
G1 X233.979 Y189.592
G1 X233.780 Y189.707
G1 X233.579 Y189.811
G1 X233.361 Y189.953
G1 X233.179 Y190.065
G1 X233.000 Y190.200
G1 X232.781 Y190.348
G1 X232.576 Y190.525
G1 X232.382 Y190.653
G1 X232.168 Y190.807
G1 X231.984 Y190.974
G1 X231.814 Y191.163
G1 X231.586 Y191.306
G1 X231.410 Y191.459
G1 X231.189 Y191.641
G1 X231.007 Y191.807
G1 X230.791 Y191.974
G1 X230.569 Y192.133
G1 X230.393 Y192.300
G1 X230.216 Y192.465
G1 X229.994 Y192.611
; Path 253
G0 Z0
G0 X222.995 Y193.530
G0 Z2.2
G1 F3000
G1 X220.959 Y193.663
; Path 254
G0 Z0
G0 X213.961 Y199.741
G0 Z2.2
G1 F3000
G1 X215.993 Y199.522
; Path 255
G0 Z0
G0 X220.992 Y203.693
G0 Z2.2
G1 F3000
G1 X222.992 Y203.479
; Path 256
G0 Z0
G0 X229.972 Y198.635
G0 Z2.2
G1 F3000
G1 X229.466 Y198.472
G1 X228.972 Y198.316
G1 X228.498 Y198.160
G1 X227.971 Y197.969
G1 X227.452 Y197.815
G1 X226.971 Y197.606
G1 X226.443 Y197.401
G1 X225.970 Y197.239
G1 X225.457 Y197.041
G1 X224.969 Y196.880
G1 X224.478 Y196.700
G1 X223.969 Y196.541
G1 X223.493 Y196.396
G1 X222.968 Y196.234
G1 X222.444 Y196.120
G1 X221.969 Y195.970
G1 X221.480 Y195.838
G1 X220.970 Y195.762
G1 X220.497 Y195.698
G1 X219.971 Y195.622
G1 X219.481 Y195.589
G1 X218.974 Y195.557
G1 X218.503 Y195.542
G1 X217.977 Y195.561
G1 X217.496 Y195.568
G1 X216.981 Y195.619
G1 X216.500 Y195.678
G1 X215.985 Y195.722
G1 X215.490 Y195.761
G1 X214.989 Y195.856
G1 X214.508 Y195.932
G1 X213.994 Y196.010
G1 X213.478 Y196.118
G1 X212.999 Y196.173
G1 X212.531 Y196.238
G1 X212.004 Y196.331
G1 X211.526 Y196.383
G1 X211.008 Y196.473
G1 X210.520 Y196.507
G1 X210.013 Y196.588
; Path 257
G0 Z0
G0 X206.032 Y200.637
G0 Z2.2
G1 F3000
G1 X205.154 Y200.920
G1 X204.324 Y201.276
G1 X203.512 Y201.453
G1 X202.648 Y201.781
G1 X201.808 Y202.157
G1 X200.841 Y202.409
G1 X200.051 Y202.682
; Path 258
G0 Z0
G0 X202.928 Y204.334
G0 Z2.2
G1 F3000
G1 X201.006 Y204.919
; Path 259
G0 Z0
G0 X204.979 Y203.631
G0 Z2.2
G1 F3000
G1 X204.313 Y203.845
G1 X203.677 Y204.058
G1 X203.034 Y204.283
G1 X202.369 Y204.528
G1 X201.718 Y204.773
G1 X201.057 Y205.021
G1 X200.392 Y205.266
G1 X199.744 Y205.521
G1 X199.075 Y205.779
G1 X198.434 Y206.008
G1 X197.780 Y206.255
G1 X197.127 Y206.465
G1 X196.487 Y206.693
G1 X195.829 Y206.875
G1 X195.169 Y207.046
G1 X194.541 Y207.217
G1 X193.912 Y207.320
G1 X193.267 Y207.476
G1 X192.662 Y207.584
G1 X192.010 Y207.632
G1 X191.415 Y207.651
G1 X190.771 Y207.674
G1 X190.140 Y207.670
G1 X189.548 Y207.613
G1 X188.918 Y207.566
G1 X188.339 Y207.468
G1 X187.721 Y207.383
G1 X187.141 Y207.257
G1 X186.538 Y207.123
G1 X185.950 Y206.998
G1 X185.358 Y206.853
G1 X184.765 Y206.708
G1 X184.185 Y206.551
G1 X183.581 Y206.406
G1 X182.975 Y206.279
G1 X182.396 Y206.111
G1 X181.803 Y206.002
G1 X181.208 Y205.839
G1 X180.598 Y205.722
G1 X180.012 Y205.610
; Path 260
G0 Z0
G0 X200.987 Y209.642
G0 Z2.2
G1 F3000
G1 X200.879 Y209.517
G1 X200.783 Y209.427
G1 X200.661 Y209.291
G1 X200.573 Y209.191
G1 X200.487 Y209.050
G1 X200.359 Y208.943
G1 X200.262 Y208.843
G1 X200.144 Y208.693
G1 X200.034 Y208.546
G1 X199.931 Y208.448
G1 X199.856 Y208.319
G1 X199.723 Y208.218
G1 X199.594 Y208.109
G1 X199.522 Y208.012
G1 X199.452 Y207.948
G1 X199.333 Y207.839
G1 X199.264 Y207.747
G1 X199.157 Y207.708
G1 X199.086 Y207.666
G1 X198.998 Y207.628
G1 X198.928 Y207.620
G1 X198.858 Y207.605
G1 X198.774 Y207.598
G1 X198.734 Y207.633
G1 X198.700 Y207.689
G1 X198.624 Y207.703
G1 X198.593 Y207.770
G1 X198.525 Y207.806
G1 X198.477 Y207.893
G1 X198.434 Y207.932
G1 X198.393 Y207.999
G1 X198.347 Y208.074
G1 X198.307 Y208.147
G1 X198.263 Y208.222
G1 X198.219 Y208.284
G1 X198.178 Y208.366
G1 X198.117 Y208.415
G1 X198.088 Y208.499
G1 X198.046 Y208.583
G1 X197.992 Y208.611
; Path 261
G0 Z0
G0 X193.991 Y200.828
G0 Z2.2
G1 F3000
G1 X195.956 Y200.316
; Path 262
G0 Z0
G0 X194.975 Y195.587
G0 Z2.2
G1 F3000
G1 X194.705 Y193.859
G1 X194.478 Y192.109
G1 X194.271 Y190.396
G1 X194.006 Y188.642
; Path 263
G0 Z0
G0 X190.987 Y188.616
G0 Z2.2
G1 F3000
G1 X187.987 Y190.616
; Path 264
G1 X184.987 Y187.616
; Path 265
G0 Z0
G0 X186.963 Y186.611
G0 Z2.2
G1 F3000
G1 X186.632 Y188.256
G1 X186.273 Y189.949
G1 X185.966 Y191.632
G1 X185.647 Y193.307
G1 X185.299 Y194.957
G1 X184.978 Y196.640
; Path 266
G0 Z0
G0 X184.969 Y196.622
G0 Z2.2
G1 F3000
G1 X184.563 Y195.050
G1 X184.153 Y193.427
G1 X183.793 Y191.841
G1 X183.380 Y190.233
G1 X182.959 Y188.619
; Path 267
G0 Z0
G0 X187.987 Y193.616
G0 Z2.2
G1 F3000
G1 X187.321 Y193.519
G1 X186.654 Y193.403
G1 X185.987 Y193.272
G1 X185.321 Y193.134
G1 X184.654 Y192.996
G1 X183.987 Y192.866
G1 X183.321 Y192.749
G1 X182.654 Y192.653
G1 X181.987 Y192.584
G1 X181.321 Y192.551
G1 X180.654 Y192.559
G1 X179.987 Y192.616
G1 X179.321 Y192.725
G1 X178.654 Y192.884
G1 X177.987 Y193.084
G1 X177.321 Y193.319
G1 X176.654 Y193.582
G1 X175.987 Y193.866
G1 X175.321 Y194.163
G1 X174.654 Y194.467
G1 X173.987 Y194.772
G1 X173.321 Y195.069
G1 X172.654 Y195.353
G1 X171.987 Y195.616
; Path 268
G0 Z0
G0 X169.031 Y192.658
G0 Z2.2
G1 F3000
G1 X168.471 Y193.431
G1 X168.031 Y194.110
G1 X167.581 Y194.871
G1 X167.048 Y195.673
G1 X166.431 Y196.359
G1 X165.999 Y197.103
G1 X165.487 Y197.942
G1 X164.997 Y198.653
; Path 269
G0 Z0
G0 X166.984 Y188.590
G0 Z2.2
G1 F3000
G1 X166.618 Y190.270
G1 X166.314 Y191.943
G1 X165.968 Y193.592
G1 X165.608 Y195.268
G1 X165.295 Y196.962
G1 X164.963 Y198.631
; Path 270
G0 Z0
G0 X165.010 Y198.637
G0 Z2.2
G1 F3000
G1 X164.614 Y197.036
G1 X164.187 Y195.427
G1 X163.799 Y193.836
G1 X163.383 Y192.234
G1 X162.998 Y190.598
; Path 271
G0 Z0
G0 X155.969 Y193.645
G0 Z2.2
G1 F3000
G1 X156.503 Y195.403
G1 X156.958 Y197.145
G1 X157.482 Y198.873
G1 X158.006 Y200.602
; Path 272
G0 Z0
G0 X159.969 Y199.602
G0 Z2.2
G1 F3000
G1 X160.366 Y199.547
G1 X160.760 Y199.484
G1 X161.164 Y199.392
G1 X161.538 Y199.339
G1 X161.925 Y199.264
G1 X162.307 Y199.178
G1 X162.679 Y199.101
G1 X163.075 Y199.013
G1 X163.464 Y198.955
G1 X163.846 Y198.856
G1 X164.214 Y198.774
G1 X164.628 Y198.719
G1 X165.026 Y198.667
G1 X165.425 Y198.614
G1 X165.833 Y198.558
G1 X166.244 Y198.553
G1 X166.677 Y198.549
G1 X167.091 Y198.547
G1 X167.531 Y198.601
G1 X167.972 Y198.610
G1 X168.423 Y198.694
G1 X168.891 Y198.748
G1 X169.348 Y198.877
G1 X169.844 Y198.954
G1 X170.337 Y199.101
G1 X170.824 Y199.216
G1 X171.336 Y199.357
G1 X171.827 Y199.521
G1 X172.335 Y199.709
G1 X172.845 Y199.859
G1 X173.349 Y200.030
G1 X173.873 Y200.217
G1 X174.374 Y200.415
G1 X174.905 Y200.582
G1 X175.413 Y200.739
G1 X175.936 Y200.944
G1 X176.472 Y201.107
G1 X176.958 Y201.289
G1 X177.436 Y201.423
G1 X177.966 Y201.607
; Path 273
G0 Z0
G0 X175.914 Y200.815
G0 Z2.2
G1 F3000
G1 X174.073 Y200.283
; Path 274
G0 Z0
G0 X171.961 Y205.600
G0 Z2.2
G1 F3000
G1 X171.919 Y205.703
G1 X171.872 Y205.806
G1 X171.850 Y205.906
G1 X171.797 Y206.019
G1 X171.743 Y206.142
G1 X171.731 Y206.236
G1 X171.693 Y206.365
G1 X171.666 Y206.454
G1 X171.637 Y206.537
G1 X171.597 Y206.670
G1 X171.538 Y206.774
G1 X171.519 Y206.881
G1 X171.443 Y206.973
G1 X171.424 Y207.084
G1 X171.344 Y207.193
G1 X171.306 Y207.276
G1 X171.237 Y207.348
G1 X171.161 Y207.454
G1 X171.070 Y207.551
G1 X170.981 Y207.615
G1 X170.855 Y207.668
G1 X170.762 Y207.757
G1 X170.642 Y207.842
G1 X170.510 Y207.882
G1 X170.347 Y207.949
G1 X170.228 Y207.993
G1 X170.098 Y208.015
G1 X169.925 Y208.094
G1 X169.738 Y208.127
G1 X169.605 Y208.186
G1 X169.465 Y208.208
G1 X169.275 Y208.273
G1 X169.080 Y208.332
G1 X168.941 Y208.358
G1 X168.796 Y208.383
G1 X168.609 Y208.444
G1 X168.449 Y208.476
G1 X168.286 Y208.534
G1 X168.112 Y208.564
G1 X167.976 Y208.631
; Path 275
G0 Z0
G0 X167.994 Y208.618
G0 Z2.2
G1 F3000
G1 X167.824 Y208.535
G1 X167.679 Y208.422
G1 X167.516 Y208.333
G1 X167.343 Y208.233
G1 X167.187 Y208.161
G1 X166.995 Y208.048
G1 X166.802 Y207.947
G1 X166.643 Y207.863
G1 X166.472 Y207.782
G1 X166.298 Y207.677
G1 X166.120 Y207.594
G1 X165.968 Y207.486
G1 X165.799 Y207.383
G1 X165.662 Y207.287
G1 X165.519 Y207.174
G1 X165.389 Y207.077
G1 X165.274 Y206.995
G1 X165.159 Y206.854
G1 X165.044 Y206.761
G1 X164.979 Y206.614
G1 X164.914 Y206.462
G1 X164.857 Y206.356
G1 X164.805 Y206.217
G1 X164.786 Y206.081
G1 X164.774 Y205.936
G1 X164.758 Y205.792
G1 X164.779 Y205.619
G1 X164.762 Y205.493
G1 X164.798 Y205.358
G1 X164.790 Y205.186
G1 X164.812 Y205.011
G1 X164.834 Y204.875
G1 X164.849 Y204.733
G1 X164.884 Y204.561
G1 X164.879 Y204.409
G1 X164.930 Y204.248
G1 X164.976 Y204.122
G1 X164.965 Y203.939
G1 X164.987 Y203.807
G1 X164.978 Y203.637
; Path 276
G0 Z0
G0 X164.992 Y203.636
G0 Z2.2
G1 F3000
G1 X165.129 Y203.597
G1 X165.285 Y203.514
G1 X165.415 Y203.438
G1 X165.571 Y203.364
G1 X165.710 Y203.267
G1 X165.853 Y203.197
G1 X166.023 Y203.095
G1 X166.134 Y203.026
G1 X166.302 Y202.945
G1 X166.416 Y202.864
G1 X166.541 Y202.805
G1 X166.704 Y202.721
G1 X166.860 Y202.661
G1 X167.000 Y202.612
G1 X167.172 Y202.585
G1 X167.308 Y202.547
G1 X167.489 Y202.524
G1 X167.629 Y202.539
G1 X167.784 Y202.596
G1 X167.968 Y202.601
G1 X168.122 Y202.689
G1 X168.327 Y202.740
G1 X168.519 Y202.840
G1 X168.703 Y202.948
G1 X168.889 Y203.083
G1 X169.093 Y203.214
G1 X169.270 Y203.359
G1 X169.494 Y203.524
G1 X169.673 Y203.679
G1 X169.904 Y203.867
G1 X170.135 Y204.071
G1 X170.319 Y204.230
G1 X170.534 Y204.396
G1 X170.735 Y204.601
G1 X170.918 Y204.770
G1 X171.151 Y204.969
G1 X171.383 Y205.173
G1 X171.563 Y205.320
G1 X171.743 Y205.500
G1 X171.967 Y205.642
; Path 277
G0 Z0
G0 X169.706 Y206.457
G0 Z2.2
G1 F3000
G1 X168.368 Y204.878
; Path 278
G0 Z0
G0 X167.842 Y204.119
G0 Z2.2
G1 F3000
G1 X166.081 Y205.182
; Path 279
G0 Z0
G0 X167.034 Y206.408
G0 Z2.2
G1 F3000
G1 X168.987 Y206.952
; Path 280
G0 Z0
G0 X158.951 Y206.504
G0 Z2.2
G1 F3000
G1 X156.999 Y206.751
; Path 281
G0 Z0
G0 X154.971 Y202.639
G0 Z2.2
G1 F3000
G1 X154.193 Y202.415
G1 X153.471 Y202.212
G1 X152.710 Y201.979
G1 X151.970 Y201.743
G1 X151.243 Y201.499
G1 X150.470 Y201.251
G1 X149.733 Y201.014
G1 X148.969 Y200.752
G1 X148.222 Y200.527
G1 X147.469 Y200.265
G1 X146.698 Y200.060
G1 X145.968 Y199.809
G1 X145.231 Y199.616
G1 X144.468 Y199.400
G1 X143.691 Y199.220
G1 X142.969 Y199.057
G1 X142.234 Y198.910
G1 X141.469 Y198.799
G1 X140.695 Y198.691
G1 X139.971 Y198.642
G1 X139.251 Y198.625
G1 X138.472 Y198.599
G1 X137.739 Y198.643
G1 X136.975 Y198.658
G1 X136.216 Y198.755
G1 X135.478 Y198.801
G1 X134.739 Y198.917
G1 X133.981 Y199.010
G1 X133.235 Y199.123
G1 X132.485 Y199.267
G1 X131.751 Y199.416
G1 X130.988 Y199.554
G1 X130.228 Y199.691
G1 X129.492 Y199.853
G1 X128.740 Y199.979
G1 X127.996 Y200.146
G1 X127.271 Y200.273
G1 X126.499 Y200.415
G1 X125.743 Y200.533
G1 X125.003 Y200.642
; Path 282
G0 Z0
G0 X122.983 Y202.517
G0 Z2.2
G1 F3000
G1 X120.975 Y202.738
; Path 283
G0 Z0
G0 X117.987 Y208.616
G0 Z2.2
G1 F3000
G1 X124.987 Y212.616
; Path 284
G0 Z0
G0 X127.012 Y205.722
G0 Z2.2
G1 F3000
G1 X128.979 Y205.488
; Path 285
G0 Z0
G0 X131.963 Y207.586
G0 Z2.2
G1 F3000
G1 X131.962 Y207.688
G1 X131.959 Y207.791
G1 X131.943 Y207.883
G1 X131.948 Y208.003
G1 X131.965 Y208.088
G1 X131.933 Y208.220
G1 X131.934 Y208.332
G1 X131.917 Y208.437
G1 X131.895 Y208.563
G1 X131.903 Y208.652
G1 X131.911 Y208.752
G1 X131.894 Y208.863
G1 X131.882 Y208.987
G1 X131.893 Y209.065
G1 X131.928 Y209.164
G1 X131.903 Y209.257
G1 X131.923 Y209.350
G1 X131.927 Y209.434
G1 X131.968 Y209.502
G1 X131.967 Y209.594
G1 X132.026 Y209.661
G1 X132.027 Y209.736
G1 X132.074 Y209.794
G1 X132.103 Y209.861
G1 X132.163 Y209.902
G1 X132.193 Y209.971
G1 X132.273 Y209.995
G1 X132.294 Y210.071
G1 X132.326 Y210.128
G1 X132.403 Y210.163
G1 X132.475 Y210.206
G1 X132.517 Y210.250
G1 X132.569 Y210.312
G1 X132.633 Y210.334
G1 X132.711 Y210.375
G1 X132.747 Y210.420
G1 X132.795 Y210.448
G1 X132.858 Y210.510
G1 X132.911 Y210.577
G1 X132.962 Y210.606
; Path 286
G0 Z0
G0 X132.985 Y210.627
G0 Z2.2
G1 F3000
G1 X133.107 Y210.576
G1 X133.196 Y210.528
G1 X133.293 Y210.474
G1 X133.427 Y210.429
G1 X133.533 Y210.365
G1 X133.671 Y210.330
G1 X133.765 Y210.263
G1 X133.918 Y210.231
G1 X134.023 Y210.169
G1 X134.158 Y210.132
G1 X134.244 Y210.103
G1 X134.384 Y210.033
G1 X134.476 Y209.995
G1 X134.587 Y209.934
G1 X134.696 Y209.894
G1 X134.756 Y209.835
G1 X134.811 Y209.790
G1 X134.885 Y209.735
G1 X134.953 Y209.663
G1 X134.963 Y209.634
G1 X134.981 Y209.580
G1 X134.985 Y209.533
G1 X134.966 Y209.473
G1 X134.956 Y209.431
G1 X134.928 Y209.375
G1 X134.886 Y209.329
G1 X134.844 Y209.290
G1 X134.784 Y209.227
G1 X134.694 Y209.161
G1 X134.658 Y209.124
G1 X134.580 Y209.063
G1 X134.517 Y209.022
G1 X134.472 Y208.990
G1 X134.371 Y208.919
G1 X134.274 Y208.868
G1 X134.227 Y208.816
G1 X134.178 Y208.775
G1 X134.095 Y208.713
G1 X134.026 Y208.642
G1 X133.984 Y208.611
; Path 287
G0 Z0
G0 X133.976 Y208.615
G0 Z2.2
G1 F3000
G1 X133.953 Y208.563
G1 X133.986 Y208.512
G1 X133.973 Y208.478
G1 X134.010 Y208.401
G1 X133.997 Y208.340
G1 X134.042 Y208.286
G1 X134.053 Y208.225
G1 X134.076 Y208.171
G1 X134.095 Y208.099
G1 X134.106 Y208.057
G1 X134.096 Y208.026
G1 X134.126 Y207.948
G1 X134.135 Y207.899
G1 X134.130 Y207.847
G1 X134.105 Y207.804
G1 X134.112 Y207.757
G1 X134.111 Y207.696
G1 X134.065 Y207.681
G1 X134.022 Y207.677
G1 X133.985 Y207.622
G1 X133.919 Y207.620
G1 X133.867 Y207.581
G1 X133.811 Y207.557
G1 X133.715 Y207.558
G1 X133.632 Y207.543
G1 X133.535 Y207.548
G1 X133.457 Y207.555
G1 X133.333 Y207.549
G1 X133.213 Y207.535
G1 X133.115 Y207.558
G1 X133.028 Y207.539
G1 X132.886 Y207.572
G1 X132.762 Y207.588
G1 X132.654 Y207.588
G1 X132.539 Y207.603
G1 X132.424 Y207.602
G1 X132.320 Y207.591
G1 X132.202 Y207.613
G1 X132.110 Y207.643
G1 X131.994 Y207.617
; Path 288
G0 Z0
G0 X137.004 Y199.690
G0 Z2.2
G1 F3000
G1 X138.964 Y199.614
; Path 289
G0 Z0
G0 X141.057 Y198.394
G0 Z2.2
G1 F3000
G1 X143.090 Y198.893
; Path 290
G0 Z0
G0 X143.990 Y204.509
G0 Z2.2
G1 F3000
G1 X145.999 Y204.707
; Path 291
G0 Z0
G0 X141.936 Y201.662
G0 Z2.2
G1 F3000
G1 X141.095 Y201.513
G1 X140.262 Y201.404
G1 X139.318 Y201.220
G1 X138.490 Y201.123
G1 X137.587 Y200.958
G1 X136.634 Y200.889
G1 X135.771 Y200.842
G1 X134.953 Y200.648
; Path 292
G0 Z0
G0 X135.009 Y200.598
G0 Z2.2
G1 F3000
G1 X134.535 Y200.466
G1 X134.006 Y200.282
G1 X133.531 Y200.093
G1 X133.003 Y199.939
G1 X132.511 Y199.767
G1 X132.001 Y199.580
G1 X131.496 Y199.374
G1 X130.998 Y199.217
G1 X130.476 Y199.034
G1 X129.995 Y198.862
G1 X129.472 Y198.686
G1 X128.992 Y198.527
G1 X128.463 Y198.374
G1 X127.990 Y198.224
G1 X127.471 Y198.084
G1 X126.987 Y197.965
G1 X126.508 Y197.860
G1 X125.986 Y197.761
G1 X125.465 Y197.686
G1 X124.985 Y197.625
G1 X124.510 Y197.599
G1 X123.984 Y197.565
G1 X123.506 Y197.568
G1 X122.984 Y197.572
G1 X122.471 Y197.615
G1 X121.984 Y197.635
G1 X121.461 Y197.662
G1 X120.985 Y197.742
G1 X120.491 Y197.830
G1 X119.986 Y197.881
G1 X119.479 Y197.948
G1 X118.987 Y198.040
G1 X118.460 Y198.129
G1 X117.988 Y198.206
G1 X117.462 Y198.274
G1 X116.989 Y198.369
G1 X116.472 Y198.452
G1 X115.990 Y198.516
G1 X115.502 Y198.600
G1 X114.991 Y198.635
G0 Z0
M5
G4 P0.3
G0 X0 Y0
; End