; Generated by Sketch DSL for Machine
; Work area: 420mm x 297mm (A3)
G21
G90
M5
G4 P0.5
G0 F11000
; 123 paths
; Path 1
G0 X110.009 Y98.480
G0 Z2.2
G1 F3000
G1 X310.009 Y98.480
; Path 2
G0 Z0
G0 X310.018 Y98.470
G0 Z2.2
G1 F3000
G1 X309.517 Y98.314
G1 X309.037 Y98.190
G1 X308.588 Y98.094
G1 X308.091 Y97.939
G1 X307.608 Y97.846
G1 X307.164 Y97.703
G1 X306.699 Y97.576
G1 X306.242 Y97.472
G1 X305.761 Y97.336
G1 X305.311 Y97.232
G1 X304.816 Y97.100
G1 X304.354 Y96.973
G1 X303.880 Y96.844
G1 X303.359 Y96.681
G1 X302.806 Y96.510
G1 X302.309 Y96.346
G1 X301.754 Y96.161
G1 X301.191 Y95.953
G1 X300.588 Y95.723
G1 X299.988 Y95.493
G1 X299.355 Y95.198
G1 X298.670 Y94.948
G1 X297.941 Y94.639
G1 X297.233 Y94.320
G1 X296.483 Y93.946
G1 X295.708 Y93.628
G1 X294.896 Y93.254
G1 X294.124 Y92.890
G1 X293.289 Y92.519
G1 X292.510 Y92.124
G1 X291.715 Y91.717
G1 X290.896 Y91.348
G1 X290.124 Y90.974
G1 X289.312 Y90.579
G1 X288.546 Y90.214
G1 X287.788 Y89.836
G1 X287.058 Y89.504
G1 X286.352 Y89.136
G1 X285.701 Y88.796
G1 X285.035 Y88.498
G1 X284.435 Y88.219
G1 X283.834 Y87.916
G1 X283.289 Y87.637
G1 X282.718 Y87.367
G1 X282.188 Y87.115
G1 X281.671 Y86.845
G1 X281.195 Y86.578
G1 X280.678 Y86.345
G1 X280.222 Y86.121
G1 X279.725 Y85.861
G1 X279.245 Y85.626
G1 X278.796 Y85.387
G1 X278.328 Y85.164
G1 X277.878 Y84.917
G1 X277.397 Y84.654
G1 X276.954 Y84.444
G1 X276.456 Y84.192
G1 X276.011 Y83.964
G1 X275.496 Y83.727
G1 X275.033 Y83.470
; Path 3
G0 Z0
G0 X274.984 Y83.496
G0 Z2.2
G1 F3000
G1 X274.666 Y83.678
G1 X274.293 Y83.885
G1 X273.922 Y84.043
G1 X273.609 Y84.259
G1 X273.278 Y84.432
G1 X272.930 Y84.626
G1 X272.564 Y84.827
G1 X272.251 Y84.990
G1 X271.903 Y85.187
G1 X271.570 Y85.358
G1 X271.252 Y85.524
G1 X270.885 Y85.737
G1 X270.527 Y85.910
G1 X270.190 Y86.132
G1 X269.848 Y86.312
G1 X269.485 Y86.549
G1 X269.133 Y86.766
G1 X268.765 Y86.994
G1 X268.373 Y87.261
G1 X268.027 Y87.474
G1 X267.629 Y87.750
G1 X267.278 Y87.996
G1 X266.923 Y88.306
G1 X266.526 Y88.560
G1 X266.156 Y88.872
G1 X265.768 Y89.156
G1 X265.362 Y89.452
G1 X265.000 Y89.776
G1 X264.583 Y90.115
G1 X264.219 Y90.410
G1 X263.828 Y90.729
G1 X263.424 Y91.048
G1 X263.038 Y91.340
G1 X262.610 Y91.683
G1 X262.190 Y92.020
G1 X261.775 Y92.305
G1 X261.325 Y92.630
G1 X260.917 Y92.904
G1 X260.482 Y93.216
G1 X260.032 Y93.473
G1 X259.572 Y93.760
G1 X259.113 Y94.013
G1 X258.648 Y94.303
G1 X258.160 Y94.536
G1 X257.689 Y94.805
G1 X257.180 Y95.045
G1 X256.649 Y95.275
G1 X256.177 Y95.543
G1 X255.668 Y95.790
G1 X255.158 Y96.033
G1 X254.643 Y96.299
G1 X254.130 Y96.518
G1 X253.634 Y96.736
G1 X253.097 Y97.001
G1 X252.582 Y97.229
G1 X252.066 Y97.485
G1 X251.556 Y97.702
G1 X251.044 Y97.973
G1 X250.541 Y98.198
G1 X250.035 Y98.468
; Path 4
G0 Z0
G0 X254.989 Y98.510
G0 Z2.2
G1 F3000
G1 X254.759 Y98.383
G1 X254.516 Y98.236
G1 X254.269 Y98.121
G1 X254.079 Y98.011
G1 X253.898 Y97.927
G1 X253.662 Y97.814
G1 X253.481 Y97.726
G1 X253.250 Y97.623
G1 X253.045 Y97.497
G1 X252.827 Y97.419
G1 X252.621 Y97.296
G1 X252.380 Y97.180
G1 X252.144 Y97.059
G1 X251.892 Y96.885
G1 X251.611 Y96.677
G1 X251.348 Y96.515
G1 X251.039 Y96.307
G1 X250.734 Y96.047
G1 X250.402 Y95.729
G1 X250.033 Y95.461
G1 X249.618 Y95.108
G1 X249.236 Y94.743
G1 X248.780 Y94.350
G1 X248.354 Y93.908
G1 X247.857 Y93.428
G1 X247.400 Y92.975
G1 X246.893 Y92.459
G1 X246.391 Y91.966
G1 X245.840 Y91.434
G1 X245.342 Y90.901
G1 X244.776 Y90.339
G1 X244.267 Y89.802
G1 X243.728 Y89.263
G1 X243.181 Y88.689
G1 X242.636 Y88.144
G1 X242.101 Y87.583
G1 X241.582 Y87.036
G1 X241.041 Y86.504
G1 X240.540 Y85.992
G1 X240.015 Y85.474
G1 X239.510 Y85.004
G1 X239.013 Y84.476
G1 X238.531 Y83.955
G1 X238.010 Y83.477
G1 X237.483 Y82.989
G1 X237.007 Y82.479
G1 X236.506 Y81.999
G1 X236.003 Y81.480
G1 X235.489 Y80.959
G1 X235.000 Y80.482
G1 X234.501 Y79.961
G1 X233.996 Y79.483
G1 X233.506 Y78.973
G1 X232.993 Y78.485
G1 X232.480 Y77.973
G1 X231.989 Y77.486
G1 X231.460 Y76.992
G1 X230.985 Y76.488
G1 X230.503 Y75.992
G1 X229.982 Y75.489
; Path 5
G0 Z0
G0 X230.005 Y75.457
G0 Z2.2
G1 F3000
G1 X229.512 Y75.751
G1 X229.004 Y76.043
G1 X228.516 Y76.339
G1 X228.002 Y76.600
G1 X227.518 Y76.867
G1 X227.000 Y77.142
G1 X226.524 Y77.407
G1 X225.999 Y77.679
G1 X225.492 Y77.933
G1 X224.997 Y78.225
G1 X224.485 Y78.502
G1 X223.996 Y78.791
G1 X223.509 Y79.077
G1 X222.994 Y79.388
G1 X222.495 Y79.685
G1 X221.993 Y80.028
G1 X221.484 Y80.351
G1 X220.993 Y80.724
G1 X220.488 Y81.090
G1 X219.993 Y81.487
G1 X219.501 Y81.888
G1 X218.994 Y82.339
G1 X218.515 Y82.822
G1 X217.995 Y83.279
G1 X217.512 Y83.766
G1 X216.997 Y84.287
G1 X216.503 Y84.818
G1 X216.000 Y85.341
G1 X215.512 Y85.865
G1 X215.003 Y86.421
G1 X214.517 Y86.962
G1 X214.005 Y87.505
G1 X213.485 Y88.047
G1 X213.008 Y88.574
G1 X212.490 Y89.067
G1 X212.010 Y89.605
G1 X211.531 Y90.090
G1 X211.011 Y90.579
G1 X210.495 Y90.999
G1 X210.011 Y91.474
G1 X209.489 Y91.889
G1 X209.010 Y92.294
G1 X208.530 Y92.684
G1 X208.009 Y93.063
G1 X207.498 Y93.404
G1 X207.007 Y93.791
G1 X206.525 Y94.157
G1 X206.005 Y94.485
G1 X205.485 Y94.820
G1 X205.002 Y95.156
G1 X204.514 Y95.504
G1 X203.999 Y95.811
G1 X203.517 Y96.139
G1 X202.996 Y96.460
G1 X202.480 Y96.784
G1 X201.993 Y97.113
G1 X201.493 Y97.433
G1 X200.990 Y97.777
G1 X200.517 Y98.130
G1 X199.988 Y98.462
; Path 6
G0 Z0
G0 X210.012 Y98.455
G0 Z2.2
G1 F3000
G1 X209.785 Y98.218
G1 X209.518 Y97.982
G1 X209.288 Y97.786
G1 X209.037 Y97.544
G1 X208.821 Y97.305
G1 X208.564 Y97.126
G1 X208.306 Y96.933
G1 X208.093 Y96.713
G1 X207.851 Y96.519
G1 X207.618 Y96.290
G1 X207.373 Y96.040
G1 X207.133 Y95.842
G1 X206.855 Y95.622
G1 X206.633 Y95.353
G1 X206.386 Y95.072
G1 X206.112 Y94.809
G1 X205.857 Y94.497
G1 X205.563 Y94.195
G1 X205.282 Y93.833
G1 X204.981 Y93.495
G1 X204.704 Y93.100
G1 X204.376 Y92.723
G1 X204.081 Y92.316
G1 X203.759 Y91.900
G1 X203.468 Y91.491
G1 X203.126 Y91.027
G1 X202.773 Y90.542
G1 X202.476 Y90.104
G1 X202.132 Y89.620
G1 X201.803 Y89.130
G1 X201.446 Y88.624
G1 X201.106 Y88.106
G1 X200.723 Y87.597
G1 X200.381 Y87.031
G1 X200.005 Y86.484
G1 X199.625 Y85.906
G1 X199.216 Y85.304
G1 X198.834 Y84.730
G1 X198.447 Y84.135
G1 X198.006 Y83.504
G1 X197.534 Y82.846
G1 X197.121 Y82.167
G1 X196.634 Y81.419
G1 X196.170 Y80.689
G1 X195.680 Y79.911
G1 X195.169 Y79.107
G1 X194.676 Y78.306
G1 X194.134 Y77.461
G1 X193.584 Y76.608
G1 X193.078 Y75.791
G1 X192.535 Y74.974
G1 X192.017 Y74.136
G1 X191.506 Y73.320
G1 X190.965 Y72.536
G1 X190.476 Y71.791
G1 X189.939 Y71.030
G1 X189.439 Y70.330
G1 X188.952 Y69.657
G1 X188.470 Y69.049
G1 X188.019 Y68.456
G1 X187.556 Y67.926
G1 X187.138 Y67.432
G1 X186.742 Y66.993
G1 X186.290 Y66.545
G1 X185.909 Y66.174
G1 X185.469 Y65.771
G1 X185.052 Y65.417
G1 X184.670 Y65.086
G1 X184.283 Y64.759
G1 X183.887 Y64.465
G1 X183.508 Y64.182
G1 X183.114 Y63.885
G1 X182.732 Y63.625
G1 X182.345 Y63.321
G1 X181.949 Y63.013
G1 X181.574 Y62.748
G1 X181.175 Y62.462
G1 X180.795 Y62.144
G1 X180.419 Y61.796
G1 X180.002 Y61.483
; Path 7
G0 Z0
G0 X180.006 Y61.506
G0 Z2.2
G1 F3000
G1 X179.632 Y61.697
G1 X179.199 Y61.882
G1 X178.773 Y62.033
G1 X178.384 Y62.230
G1 X177.947 Y62.382
G1 X177.565 Y62.561
G1 X177.177 Y62.700
G1 X176.745 Y62.888
G1 X176.330 Y63.080
G1 X175.928 Y63.223
G1 X175.548 Y63.394
G1 X175.115 Y63.579
G1 X174.707 Y63.777
G1 X174.311 Y63.967
G1 X173.893 Y64.170
G1 X173.519 Y64.401
G1 X173.128 Y64.665
G1 X172.742 Y64.891
G1 X172.359 Y65.160
G1 X171.983 Y65.451
G1 X171.598 Y65.725
G1 X171.258 Y66.058
G1 X170.919 Y66.393
G1 X170.573 Y66.685
G1 X170.259 Y67.037
G1 X169.916 Y67.341
G1 X169.582 Y67.669
G1 X169.273 Y68.036
G1 X168.928 Y68.383
G1 X168.633 Y68.777
G1 X168.296 Y69.199
G1 X167.983 Y69.573
G1 X167.669 Y70.004
G1 X167.310 Y70.433
G1 X166.983 Y70.913
G1 X166.602 Y71.366
G1 X166.201 Y71.850
G1 X165.846 Y72.380
G1 X165.456 Y72.911
G1 X165.030 Y73.485
G1 X164.590 Y74.114
G1 X164.150 Y74.725
G1 X163.679 Y75.435
G1 X163.217 Y76.119
G1 X162.716 Y76.870
G1 X162.241 Y77.630
G1 X161.736 Y78.420
G1 X161.230 Y79.223
G1 X160.741 Y80.060
G1 X160.195 Y80.862
G1 X159.645 Y81.659
G1 X159.145 Y82.511
G1 X158.593 Y83.311
G1 X158.088 Y84.134
G1 X157.566 Y84.901
G1 X157.036 Y85.695
G1 X156.530 Y86.439
G1 X155.997 Y87.158
G1 X155.497 Y87.837
G1 X154.981 Y88.488
G1 X154.494 Y89.100
G1 X153.980 Y89.692
G1 X153.486 Y90.262
G1 X152.979 Y90.811
G1 X152.487 Y91.342
G1 X151.980 Y91.860
G1 X151.469 Y92.383
G1 X150.982 Y92.855
G1 X150.488 Y93.331
G1 X149.984 Y93.810
G1 X149.482 Y94.267
G1 X148.986 Y94.739
G1 X148.467 Y95.227
G1 X147.989 Y95.659
G1 X147.498 Y96.122
G1 X146.991 Y96.584
G1 X146.496 Y97.029
G1 X145.993 Y97.529
G1 X145.490 Y98.007
G1 X144.995 Y98.508
; Path 8
G0 Z0
G0 X155.008 Y98.482
G0 Z2.2
G1 F3000
G1 X154.741 Y98.225
G1 X154.520 Y98.012
G1 X154.305 Y97.776
G1 X154.053 Y97.590
G1 X153.825 Y97.387
G1 X153.597 Y97.197
G1 X153.341 Y96.999
G1 X153.145 Y96.810
G1 X152.904 Y96.634
G1 X152.687 Y96.409
G1 X152.466 Y96.173
G1 X152.214 Y95.974
G1 X151.968 Y95.744
G1 X151.717 Y95.483
G1 X151.439 Y95.208
G1 X151.187 Y94.915
G1 X150.891 Y94.562
G1 X150.617 Y94.250
G1 X150.332 Y93.861
G1 X149.995 Y93.467
G1 X149.667 Y92.997
G1 X149.313 Y92.542
G1 X148.959 Y92.039
G1 X148.573 Y91.485
G1 X148.161 Y90.888
G1 X147.788 Y90.323
G1 X147.378 Y89.697
G1 X146.970 Y89.082
G1 X146.530 Y88.452
G1 X146.130 Y87.790
G1 X145.700 Y87.136
G1 X145.279 Y86.473
G1 X144.850 Y85.797
G1 X144.431 Y85.157
G1 X143.987 Y84.537
G1 X143.597 Y83.870
G1 X143.184 Y83.233
G1 X142.788 Y82.638
G1 X142.423 Y82.094
G1 X142.017 Y81.489
G1 X141.624 Y80.929
G1 X141.278 Y80.408
G1 X140.900 Y79.911
G1 X140.556 Y79.361
G1 X140.225 Y78.838
G1 X139.848 Y78.341
G1 X139.492 Y77.813
G1 X139.151 Y77.343
G1 X138.784 Y76.842
G1 X138.461 Y76.361
G1 X138.116 Y75.859
G1 X137.777 Y75.388
G1 X137.407 Y74.882
G1 X137.095 Y74.419
G1 X136.760 Y73.904
G1 X136.411 Y73.449
G1 X136.064 Y72.937
G1 X135.724 Y72.470
G1 X135.359 Y72.000
G1 X135.030 Y71.478
; Path 9
G0 Z0
G0 X134.999 Y71.472
G0 Z2.2
G1 F3000
G1 X134.646 Y71.783
G1 X134.305 Y72.146
G1 X133.979 Y72.471
G1 X133.618 Y72.777
G1 X133.272 Y73.078
G1 X132.935 Y73.385
G1 X132.600 Y73.665
G1 X132.253 Y73.987
G1 X131.937 Y74.304
G1 X131.569 Y74.601
G1 X131.230 Y74.901
G1 X130.881 Y75.245
G1 X130.550 Y75.578
G1 X130.184 Y75.936
G1 X129.807 Y76.339
G1 X129.476 Y76.694
G1 X129.133 Y77.090
G1 X128.753 Y77.535
G1 X128.379 Y78.012
G1 X128.014 Y78.478
G1 X127.617 Y79.038
G1 X127.265 Y79.562
G1 X126.912 Y80.201
G1 X126.512 Y80.790
G1 X126.103 Y81.442
G1 X125.753 Y82.126
G1 X125.348 Y82.802
G1 X124.985 Y83.533
G1 X124.613 Y84.239
G1 X124.206 Y84.976
G1 X123.813 Y85.680
G1 X123.411 Y86.419
G1 X122.984 Y87.122
G1 X122.598 Y87.827
G1 X122.192 Y88.524
G1 X121.764 Y89.162
G1 X121.311 Y89.753
G1 X120.906 Y90.390
G1 X120.452 Y90.910
G1 X120.021 Y91.473
G1 X119.578 Y91.933
G1 X119.102 Y92.416
G1 X118.654 Y92.862
G1 X118.150 Y93.257
G1 X117.664 Y93.637
G1 X117.169 Y94.015
G1 X116.675 Y94.343
G1 X116.167 Y94.706
G1 X115.647 Y95.007
G1 X115.148 Y95.349
G1 X114.607 Y95.658
G1 X114.120 Y95.963
G1 X113.608 Y96.285
G1 X113.087 Y96.564
G1 X112.552 Y96.888
G1 X112.057 Y97.172
G1 X111.529 Y97.516
G1 X111.034 Y97.803
G1 X110.514 Y98.160
G1 X110.025 Y98.476
; Path 10
G0 Z0
G0 X110.009 Y118.480
G0 Z2.2
G1 F3000
G1 X111.676 Y118.563
G1 X113.342 Y118.646
G1 X115.009 Y118.730
G1 X116.676 Y118.813
G1 X118.342 Y118.896
G1 X120.009 Y118.980
G1 X121.676 Y119.063
G1 X123.342 Y119.146
G1 X125.009 Y119.230
G1 X126.676 Y119.313
G1 X128.342 Y119.396
G1 X130.009 Y119.480
G1 X131.676 Y119.563
G1 X133.342 Y119.646
G1 X135.009 Y119.730
G1 X136.676 Y119.813
G1 X138.342 Y119.896
G1 X140.009 Y119.980
G1 X141.676 Y120.063
G1 X143.342 Y120.146
G1 X145.009 Y120.230
G1 X146.676 Y120.313
G1 X148.342 Y120.396
G1 X150.009 Y120.480
G1 X151.676 Y120.563
G1 X153.342 Y120.646
G1 X155.009 Y120.730
G1 X156.676 Y120.813
G1 X158.342 Y120.896
G1 X160.009 Y120.980
G1 X161.676 Y121.063
G1 X163.342 Y121.146
G1 X165.009 Y121.230
G1 X166.676 Y121.313
G1 X168.342 Y121.396
G1 X170.009 Y121.480
; Path 11
G0 Z0
G0 X185.009 Y111.480
G0 Z2.2
G1 F3000
G1 X205.009 Y113.480
; Path 12
G0 Z0
G0 X232.009 Y128.480
G0 Z2.2
G1 F3000
G1 X235.009 Y138.480
; Path 13
G0 Z0
G0 X232.008 Y135.509
G0 Z2.2
G1 F3000
G1 X232.494 Y137.008
G1 X233.014 Y138.459
; Path 14
G0 Z0
G0 X232.035 Y139.467
G0 Z2.2
G1 F3000
G1 X231.335 Y141.147
G1 X230.712 Y142.840
G1 X230.024 Y144.496
; Path 15
G0 Z0
G0 X230.321 Y144.489
G0 Z2.2
G1 F3000
G1 X229.718 Y146.390
; Path 16
G0 Z0
G0 X228.634 Y145.389
G0 Z2.2
G1 F3000
G1 X229.378 Y143.546
; Path 17
G0 Z0
G0 X230.616 Y143.411
G0 Z2.2
G1 F3000
G1 X231.344 Y141.527
; Path 18
G0 Z0
G0 X229.988 Y141.465
G0 Z2.2
G1 F3000
G1 X229.339 Y143.138
G1 X228.709 Y144.791
G1 X228.033 Y146.458
; Path 19
G0 Z0
G0 X228.000 Y146.451
G0 Z2.2
G1 F3000
G1 X227.337 Y147.813
G1 X226.695 Y149.099
G1 X226.036 Y150.454
; Path 20
G0 Z0
G0 X228.001 Y147.480
G0 Z2.2
G1 F3000
G1 X228.094 Y147.254
G1 X228.203 Y146.977
G1 X228.276 Y146.753
G1 X228.405 Y146.474
G1 X228.489 Y146.213
G1 X228.608 Y145.970
G1 X228.722 Y145.731
G1 X228.810 Y145.467
G1 X228.909 Y145.203
G1 X229.013 Y144.964
G1 X229.102 Y144.730
G1 X229.215 Y144.461
G1 X229.312 Y144.226
G1 X229.417 Y143.958
G1 X229.516 Y143.685
G1 X229.618 Y143.456
G1 X229.740 Y143.182
G1 X229.819 Y142.954
G1 X229.913 Y142.729
G1 X230.019 Y142.452
G1 X230.116 Y142.220
G1 X230.217 Y141.952
G1 X230.299 Y141.722
G1 X230.415 Y141.452
G1 X230.534 Y141.193
G1 X230.612 Y140.952
G1 X230.691 Y140.717
G1 X230.808 Y140.453
G1 X230.935 Y140.214
G1 X231.004 Y139.954
G1 X231.110 Y139.724
G1 X231.199 Y139.456
G1 X231.282 Y139.205
G1 X231.395 Y138.957
G1 X231.504 Y138.733
G1 X231.591 Y138.458
G1 X231.673 Y138.215
G1 X231.786 Y137.960
G1 X231.894 Y137.698
G1 X231.982 Y137.461
; Path 21
G0 Z0
G0 X230.996 Y138.473
G0 Z2.2
G1 F3000
G1 X230.323 Y139.820
G1 X229.711 Y141.118
G1 X229.028 Y142.477
; Path 22
G0 Z0
G0 X229.328 Y142.553
G0 Z2.2
G1 F3000
G1 X228.589 Y144.450
; Path 23
G0 Z0
G0 X226.464 Y144.391
G0 Z2.2
G1 F3000
G1 X225.524 Y142.658
; Path 24
G0 Z0
G0 X226.019 Y142.473
G0 Z2.2
G1 F3000
G1 X226.342 Y143.826
G1 X226.696 Y145.136
G1 X226.999 Y146.467
; Path 25
G0 Z0
G0 X227.749 Y145.463
G0 Z2.2
G1 F3000
G1 X228.294 Y143.515
; Path 26
G0 Z0
G0 X228.001 Y141.508
G0 Z2.2
G1 F3000
G1 X227.696 Y140.185
G1 X227.370 Y138.823
G1 X227.038 Y137.492
; Path 27
G0 Z0
G0 X227.522 Y136.348
G0 Z2.2
G1 F3000
G1 X228.538 Y134.589
; Path 28
G0 Z0
G0 X226.335 Y138.757
G0 Z2.2
G1 F3000
G1 X227.674 Y140.191
; Path 29
G0 Z0
G0 X229.560 Y141.397
G0 Z2.2
G1 F3000
G1 X230.451 Y139.615
; Path 30
G0 Z0
G0 X229.768 Y139.423
G0 Z2.2
G1 F3000
G1 X230.324 Y137.497
; Path 31
G0 Z0
G0 X230.981 Y136.459
G0 Z2.2
G1 F3000
G1 X229.985 Y134.963
G1 X229.006 Y133.471
; Path 32
G0 Z0
G0 X231.001 Y131.478
G0 Z2.2
G1 F3000
G1 X231.975 Y132.485
G1 X232.993 Y133.453
G1 X234.001 Y134.451
; Path 33
G0 Z0
G0 X236.026 Y134.461
G0 Z2.2
G1 F3000
G1 X235.515 Y132.957
G1 X234.983 Y131.465
; Path 34
G0 Z0
G0 X236.001 Y132.509
G0 Z2.2
G1 F3000
G1 X235.005 Y131.009
G1 X234.036 Y129.490
; Path 35
G0 Z0
G0 X235.992 Y126.472
G0 Z2.2
G1 F3000
G1 X237.025 Y127.464
G1 X238.015 Y128.477
; Path 36
G0 Z0
G0 X239.014 Y127.494
G0 Z2.2
G1 F3000
G1 X240.010 Y128.512
G1 X241.033 Y129.500
; Path 37
G0 Z0
G0 X242.520 Y130.480
G0 Z2.2
G1 F3000
G1 X242.020 Y129.980
G1 X241.520 Y130.480
G1 X242.020 Y130.980
G1 X242.520 Y130.480
; Path 38
G0 Z0
G0 X243.037 Y130.495
G0 Z2.2
G1 F3000
G1 X244.380 Y131.146
G1 X245.683 Y131.820
G1 X246.992 Y132.484
; Path 39
G0 Z0
G0 X310.009 Y118.480
G0 Z2.2
G1 F3000
G1 X308.342 Y118.396
G1 X306.676 Y118.313
G1 X305.009 Y118.230
G1 X303.342 Y118.146
G1 X301.676 Y118.063
G1 X300.009 Y117.980
G1 X298.342 Y117.896
G1 X296.676 Y117.813
G1 X295.009 Y117.730
G1 X293.342 Y117.646
G1 X291.676 Y117.563
G1 X290.009 Y117.480
G1 X288.342 Y117.396
G1 X286.676 Y117.313
G1 X285.009 Y117.230
G1 X283.342 Y117.146
G1 X281.676 Y117.063
G1 X280.009 Y116.980
G1 X278.342 Y116.896
G1 X276.676 Y116.813
G1 X275.009 Y116.730
G1 X273.342 Y116.646
G1 X271.676 Y116.563
G1 X270.009 Y116.480
G1 X268.342 Y116.396
G1 X266.676 Y116.313
G1 X265.009 Y116.230
G1 X263.342 Y116.146
G1 X261.676 Y116.063
G1 X260.009 Y115.980
G1 X258.342 Y115.896
G1 X256.676 Y115.813
G1 X255.009 Y115.730
G1 X253.342 Y115.646
G1 X251.676 Y115.563
G1 X250.009 Y115.480
; Path 40
G0 Z0
G0 X234.009 Y101.480
G0 Z2.2
G1 F3000
G1 X236.009 Y108.480
; Path 41
G0 Z0
G0 X235.009 Y113.480
G0 Z2.2
G1 F3000
G1 X238.009 Y123.480
; Path 42
G0 Z0
G0 X238.019 Y125.481
G0 Z2.2
G1 F3000
G1 X237.586 Y125.782
G1 X237.184 Y126.093
G1 X236.761 Y126.414
G1 X236.300 Y126.719
G1 X235.828 Y127.049
G1 X235.388 Y127.354
G1 X234.912 Y127.664
G1 X234.469 Y127.991
G1 X234.044 Y128.309
G1 X233.564 Y128.624
G1 X233.133 Y128.911
G1 X232.694 Y129.246
G1 X232.288 Y129.578
G1 X231.880 Y129.852
G1 X231.502 Y130.122
G1 X231.143 Y130.435
G1 X230.853 Y130.707
G1 X230.505 Y130.989
G1 X230.220 Y131.229
G1 X229.987 Y131.507
G1 X229.819 Y131.728
G1 X229.606 Y131.977
G1 X229.492 Y132.183
G1 X229.352 Y132.398
G1 X229.252 Y132.570
G1 X229.200 Y132.780
G1 X229.177 Y132.976
G1 X229.126 Y133.139
G1 X229.091 Y133.314
G1 X229.107 Y133.484
G1 X229.124 Y133.645
G1 X229.118 Y133.830
G1 X229.112 Y133.992
G1 X229.135 Y134.188
G1 X229.125 Y134.381
G1 X229.135 Y134.570
G1 X229.108 Y134.803
G1 X229.093 Y134.990
G1 X229.056 Y135.208
G1 X228.985 Y135.459
G1 X228.897 Y135.700
G1 X228.827 Y135.973
G1 X228.726 Y136.267
G1 X228.654 Y136.514
G1 X228.568 Y136.826
G1 X228.467 Y137.081
G1 X228.371 Y137.370
G1 X228.269 Y137.669
G1 X228.165 Y137.963
G1 X228.064 Y138.275
G1 X227.950 Y138.589
G1 X227.853 Y138.897
G1 X227.726 Y139.184
G1 X227.640 Y139.531
G1 X227.536 Y139.822
G1 X227.427 Y140.174
G1 X227.305 Y140.506
G1 X227.217 Y140.822
G1 X227.111 Y141.130
G1 X227.013 Y141.473
G1 X226.893 Y141.784
G1 X226.813 Y142.134
G1 X226.717 Y142.479
G1 X226.611 Y142.812
G1 X226.490 Y143.168
G1 X226.408 Y143.504
G1 X226.304 Y143.884
G1 X226.205 Y144.207
G1 X226.119 Y144.562
G1 X226.001 Y144.918
G1 X225.912 Y145.269
G1 X225.797 Y145.634
G1 X225.683 Y145.966
G1 X225.592 Y146.352
G1 X225.471 Y146.723
G1 X225.388 Y147.069
G1 X225.275 Y147.441
G1 X225.184 Y147.782
G1 X225.095 Y148.146
G1 X224.981 Y148.488
; Path 43
G0 Z0
G0 X224.998 Y148.482
G0 Z2.2
G1 F3000
G1 X225.024 Y148.499
G1 X225.027 Y148.501
; Path 44
G0 Z0
G0 X224.986 Y148.467
G0 Z2.2
G1 F3000
G1 X224.724 Y148.935
G1 X224.486 Y149.445
G1 X224.222 Y149.942
G1 X223.979 Y150.388
G1 X223.738 Y150.879
G1 X223.468 Y151.311
G1 X223.215 Y151.771
G1 X222.956 Y152.230
G1 X222.703 Y152.695
G1 X222.447 Y153.158
G1 X222.199 Y153.632
G1 X221.942 Y154.111
G1 X221.723 Y154.635
G1 X221.444 Y155.104
G1 X221.209 Y155.627
G1 X220.956 Y156.152
G1 X220.689 Y156.737
G1 X220.482 Y157.271
G1 X220.229 Y157.853
G1 X220.023 Y158.475
G1 X219.771 Y159.158
G1 X219.554 Y159.796
G1 X219.336 Y160.505
G1 X219.059 Y161.238
G1 X218.816 Y162.006
G1 X218.552 Y162.770
G1 X218.312 Y163.589
G1 X218.050 Y164.362
G1 X217.823 Y165.166
G1 X217.567 Y165.985
G1 X217.317 Y166.819
G1 X217.119 Y167.607
G1 X216.909 Y168.377
G1 X216.721 Y169.199
G1 X216.582 Y169.983
G1 X216.389 Y170.730
G1 X216.262 Y171.421
G1 X216.138 Y172.171
G1 X216.082 Y172.817
G1 X215.983 Y173.491
G1 X215.957 Y174.071
G1 X215.953 Y174.670
G1 X216.009 Y175.226
G1 X216.047 Y175.728
G1 X216.131 Y176.211
G1 X216.238 Y176.696
G1 X216.351 Y177.139
G1 X216.498 Y177.603
G1 X216.657 Y178.050
G1 X216.801 Y178.480
G1 X216.931 Y178.941
G1 X217.119 Y179.357
G1 X217.267 Y179.823
G1 X217.425 Y180.263
G1 X217.558 Y180.744
G1 X217.691 Y181.231
G1 X217.798 Y181.732
G1 X217.892 Y182.288
G1 X217.952 Y182.904
G1 X217.998 Y183.467
G1 X218.001 Y184.107
G1 X218.007 Y184.772
G1 X217.966 Y185.451
G1 X217.943 Y186.177
G1 X217.892 Y186.939
G1 X217.825 Y187.660
G1 X217.771 Y188.405
G1 X217.671 Y189.200
G1 X217.591 Y190.015
G1 X217.499 Y190.777
G1 X217.403 Y191.576
G1 X217.326 Y192.369
G1 X217.235 Y193.143
G1 X217.172 Y193.954
G1 X217.085 Y194.716
G1 X217.055 Y195.513
G1 X217.040 Y196.267
G1 X216.991 Y197.023
G1 X216.988 Y197.724
G1 X217.001 Y198.464
G1 X217.058 Y199.177
G1 X217.077 Y199.871
G1 X217.149 Y200.604
G1 X217.197 Y201.286
G1 X217.260 Y202.011
G1 X217.357 Y202.697
G1 X217.465 Y203.422
G1 X217.549 Y204.092
G1 X217.658 Y204.796
G1 X217.766 Y205.458
G1 X217.861 Y206.124
G1 X218.004 Y206.785
G1 X218.117 Y207.407
G1 X218.256 Y208.060
G1 X218.361 Y208.645
G1 X218.515 Y209.271
G1 X218.660 Y209.809
G1 X218.775 Y210.406
G1 X218.930 Y210.912
G1 X219.030 Y211.454
G1 X219.176 Y211.921
G1 X219.290 Y212.397
G1 X219.453 Y212.827
G1 X219.565 Y213.238
G1 X219.739 Y213.617
G1 X219.855 Y213.996
G1 X220.029 Y214.319
G1 X220.154 Y214.688
G1 X220.287 Y214.984
G1 X220.461 Y215.333
G1 X220.630 Y215.637
G1 X220.773 Y215.947
G1 X220.951 Y216.259
G1 X221.087 Y216.549
G1 X221.240 Y216.826
G1 X221.400 Y217.158
G1 X221.541 Y217.449
G1 X221.710 Y217.790
G1 X221.860 Y218.149
G1 X222.012 Y218.464
; Path 45
G0 Z0
G0 X225.017 Y218.469
G0 Z2.2
G1 F3000
G1 X224.643 Y218.524
G1 X224.301 Y218.559
G1 X223.916 Y218.577
G1 X223.564 Y218.628
G1 X223.192 Y218.647
G1 X222.814 Y218.685
G1 X222.412 Y218.689
G1 X222.062 Y218.739
G1 X221.674 Y218.784
G1 X221.315 Y218.799
G1 X220.939 Y218.857
G1 X220.584 Y218.874
G1 X220.205 Y218.904
G1 X219.877 Y218.973
G1 X219.527 Y219.046
G1 X219.204 Y219.104
G1 X218.904 Y219.174
G1 X218.573 Y219.277
G1 X218.291 Y219.391
G1 X217.993 Y219.500
G1 X217.757 Y219.614
G1 X217.472 Y219.779
G1 X217.207 Y219.929
G1 X217.001 Y220.109
G1 X216.780 Y220.285
G1 X216.574 Y220.480
G1 X216.384 Y220.695
G1 X216.180 Y220.883
G1 X216.000 Y221.092
G1 X215.810 Y221.311
G1 X215.640 Y221.535
G1 X215.455 Y221.753
G1 X215.296 Y221.973
G1 X215.107 Y222.201
G1 X214.915 Y222.413
G1 X214.755 Y222.646
G1 X214.592 Y222.886
G1 X214.391 Y223.079
G1 X214.188 Y223.301
G1 X214.006 Y223.492
; Path 46
G0 Z0
G0 X214.003 Y223.505
G0 Z2.2
G1 F3000
G1 X215.339 Y224.162
G1 X216.686 Y224.853
G1 X218.024 Y225.484
; Path 47
G0 Z0
G0 X217.990 Y225.488
G0 Z2.2
G1 F3000
G1 X218.223 Y225.389
G1 X218.398 Y225.303
G1 X218.632 Y225.209
G1 X218.813 Y225.138
G1 X219.023 Y225.081
G1 X219.232 Y224.987
G1 X219.417 Y224.894
G1 X219.652 Y224.838
G1 X219.875 Y224.753
G1 X220.070 Y224.683
G1 X220.273 Y224.604
G1 X220.483 Y224.512
G1 X220.709 Y224.394
G1 X220.888 Y224.318
G1 X221.112 Y224.195
G1 X221.281 Y224.090
G1 X221.480 Y223.973
G1 X221.660 Y223.820
G1 X221.838 Y223.656
G1 X222.022 Y223.499
G1 X222.176 Y223.318
G1 X222.364 Y223.119
G1 X222.538 Y222.928
G1 X222.688 Y222.688
G1 X222.872 Y222.459
G1 X222.998 Y222.215
G1 X223.124 Y221.941
G1 X223.297 Y221.709
G1 X223.455 Y221.428
G1 X223.588 Y221.178
G1 X223.715 Y220.890
G1 X223.873 Y220.632
G1 X224.027 Y220.383
G1 X224.157 Y220.080
G1 X224.313 Y219.807
G1 X224.441 Y219.530
G1 X224.590 Y219.259
G1 X224.730 Y218.994
G1 X224.870 Y218.730
G1 X225.026 Y218.478
; Path 48
G0 Z0
G0 X227.998 Y215.489
G0 Z2.2
G1 F3000
G1 X227.698 Y213.776
G1 X227.419 Y212.079
G1 X227.106 Y210.334
G1 X226.828 Y208.617
G1 X226.542 Y206.876
G1 X226.292 Y205.198
G1 X225.982 Y203.453
; Path 49
G0 Z0
G0 X224.993 Y201.503
G0 Z2.2
G1 F3000
G1 X224.863 Y201.195
G1 X224.788 Y200.908
G1 X224.671 Y200.615
G1 X224.576 Y200.319
G1 X224.491 Y200.030
G1 X224.360 Y199.735
G1 X224.264 Y199.456
G1 X224.143 Y199.152
G1 X224.039 Y198.878
G1 X223.928 Y198.567
G1 X223.802 Y198.295
G1 X223.718 Y197.977
G1 X223.630 Y197.689
G1 X223.516 Y197.379
G1 X223.394 Y197.065
G1 X223.326 Y196.769
G1 X223.253 Y196.440
G1 X223.150 Y196.146
G1 X223.047 Y195.797
G1 X222.992 Y195.506
G1 X222.952 Y195.180
G1 X222.853 Y194.846
G1 X222.808 Y194.523
G1 X222.732 Y194.170
G1 X222.669 Y193.851
G1 X222.626 Y193.480
G1 X222.587 Y193.140
G1 X222.531 Y192.778
G1 X222.490 Y192.407
G1 X222.444 Y192.069
G1 X222.418 Y191.717
G1 X222.362 Y191.354
G1 X222.310 Y190.983
G1 X222.282 Y190.638
G1 X222.238 Y190.259
G1 X222.201 Y189.922
G1 X222.182 Y189.559
G1 X222.116 Y189.211
G1 X222.063 Y188.862
G1 X222.024 Y188.506
; Path 50
G0 Z0
G0 X220.206 Y192.467
G0 Z2.2
G1 F3000
G1 X219.808 Y190.536
; Path 51
G0 Z0
G0 X230.020 Y193.483
G0 Z2.2
G1 F3000
G1 X231.521 Y193.983
G1 X233.037 Y194.473
G1 X234.518 Y194.977
G1 X236.023 Y195.480
; Path 52
G0 Z0
G0 X232.000 Y195.495
G0 Z2.2
G1 F3000
G1 X231.746 Y193.738
G1 X231.509 Y191.991
G1 X231.275 Y190.231
G1 X231.003 Y188.505
G1 X230.772 Y186.759
G1 X230.513 Y184.977
G1 X230.302 Y183.243
G1 X230.034 Y181.474
; Path 53
G0 Z0
G0 X228.024 Y178.501
G0 Z2.2
G1 F3000
G1 X229.538 Y179.268
G1 X230.999 Y179.966
G1 X232.507 Y180.715
G1 X234.025 Y181.479
; Path 54
G0 Z0
G0 X236.990 Y183.500
G0 Z2.2
G1 F3000
G1 X237.095 Y185.403
G1 X237.262 Y187.250
G1 X237.386 Y189.157
G1 X237.495 Y190.976
G1 X237.595 Y192.878
G1 X237.744 Y194.777
G1 X237.859 Y196.648
G1 X237.983 Y198.505
; Path 55
G0 Z0
G0 X235.039 Y201.500
G0 Z2.2
G1 F3000
G1 X235.171 Y203.238
G1 X235.297 Y204.923
G1 X235.453 Y206.629
G1 X235.611 Y208.364
G1 X235.741 Y210.073
G1 X235.858 Y211.776
G1 X236.028 Y213.494
; Path 56
G0 Z0
G0 X245.998 Y213.485
G0 Z2.2
G1 F3000
G1 X245.836 Y211.790
G1 X245.690 Y210.062
G1 X245.599 Y208.314
G1 X245.463 Y206.592
G1 X245.285 Y204.888
G1 X245.167 Y203.149
G1 X245.009 Y201.453
; Path 57
G0 Z0
G0 X245.000 Y197.475
G0 Z2.2
G1 F3000
G1 X244.863 Y195.757
G1 X244.768 Y194.003
G1 X244.599 Y192.206
G1 X244.510 Y190.493
G1 X244.357 Y188.737
G1 X244.257 Y186.979
G1 X244.124 Y185.241
G1 X243.995 Y183.494
; Path 58
G0 Z0
G0 X245.979 Y178.465
G0 Z2.2
G1 F3000
G1 X247.471 Y179.242
G1 X248.979 Y179.942
G1 X250.491 Y180.697
G1 X252.001 Y181.476
; Path 59
G0 Z0
G0 X251.011 Y181.503
G0 Z2.2
G1 F3000
G1 X251.245 Y183.223
G1 X251.500 Y184.984
G1 X251.772 Y186.769
G1 X252.034 Y188.509
G1 X252.262 Y190.242
G1 X252.494 Y191.986
G1 X252.759 Y193.758
G1 X253.000 Y195.482
; Path 60
G0 Z0
G0 X250.018 Y195.468
G0 Z2.2
G1 F3000
G1 X248.505 Y194.965
G1 X247.047 Y194.431
G1 X245.529 Y193.978
G1 X244.016 Y193.451
; Path 61
G0 Z0
G0 X240.037 Y198.502
G0 Z2.2
G1 F3000
G1 X239.911 Y196.639
G1 X239.740 Y194.761
G1 X239.566 Y192.900
G1 X239.457 Y191.066
G1 X239.287 Y189.165
G1 X239.152 Y187.307
G1 X238.984 Y185.463
; Path 62
G0 Z0
G0 X240.004 Y183.493
G0 Z2.2
G1 F3000
G1 X240.001 Y181.470
G1 X240.005 Y179.468
G1 X239.974 Y177.481
G1 X239.967 Y175.508
G1 X239.961 Y173.503
G1 X239.980 Y171.494
; Path 63
G0 Z0
G0 X239.984 Y171.489
G0 Z2.2
G1 F3000
G1 X239.808 Y169.817
G1 X239.681 Y168.179
G1 X239.479 Y166.504
G1 X239.343 Y164.799
G1 X239.192 Y163.151
G1 X239.022 Y161.493
; Path 64
G0 Z0
G0 X242.989 Y159.493
G0 Z2.2
G1 F3000
G1 X242.820 Y157.881
G1 X242.573 Y156.314
G1 X242.378 Y154.694
G1 X242.213 Y153.127
G1 X242.000 Y151.502
; Path 65
G0 Z0
G0 X245.315 Y149.465
G0 Z2.2
G1 F3000
G1 X244.755 Y147.575
; Path 66
G0 Z0
G0 X244.031 Y136.464
G0 Z2.2
G1 F3000
G1 X244.184 Y136.534
G1 X244.330 Y136.664
G1 X244.460 Y136.768
G1 X244.630 Y136.857
G1 X244.789 Y136.957
G1 X244.929 Y137.046
G1 X245.105 Y137.134
G1 X245.229 Y137.234
G1 X245.385 Y137.347
G1 X245.529 Y137.424
G1 X245.695 Y137.492
G1 X245.828 Y137.619
G1 X245.960 Y137.696
G1 X246.128 Y137.822
G1 X246.254 Y137.951
G1 X246.427 Y138.035
G1 X246.574 Y138.169
G1 X246.725 Y138.261
G1 X246.879 Y138.362
G1 X247.024 Y138.504
G1 X247.186 Y138.607
G1 X247.321 Y138.765
G1 X247.442 Y138.892
G1 X247.618 Y139.043
G1 X247.783 Y139.185
G1 X247.915 Y139.333
G1 X248.046 Y139.481
G1 X248.212 Y139.634
G1 X248.346 Y139.785
G1 X248.508 Y139.943
G1 X248.681 Y140.078
G1 X248.805 Y140.257
G1 X248.942 Y140.409
G1 X249.101 Y140.573
G1 X249.265 Y140.718
G1 X249.397 Y140.887
G1 X249.549 Y141.028
G1 X249.693 Y141.198
G1 X249.820 Y141.353
G1 X249.990 Y141.502
; Path 67
G0 Z0
G0 X251.026 Y141.475
G0 Z2.2
G1 F3000
G1 X251.003 Y141.389
G1 X250.923 Y141.277
G1 X250.884 Y141.157
G1 X250.819 Y141.085
G1 X250.754 Y140.998
G1 X250.715 Y140.898
G1 X250.643 Y140.807
G1 X250.611 Y140.711
G1 X250.568 Y140.615
G1 X250.507 Y140.522
G1 X250.449 Y140.439
G1 X250.404 Y140.329
G1 X250.338 Y140.247
G1 X250.301 Y140.128
G1 X250.248 Y140.036
G1 X250.199 Y139.917
G1 X250.126 Y139.817
G1 X250.097 Y139.693
G1 X250.056 Y139.556
G1 X249.997 Y139.452
G1 X249.925 Y139.347
G1 X249.898 Y139.195
G1 X249.828 Y139.058
G1 X249.800 Y138.921
G1 X249.745 Y138.774
G1 X249.703 Y138.634
G1 X249.647 Y138.476
G1 X249.607 Y138.337
G1 X249.567 Y138.184
G1 X249.511 Y138.032
G1 X249.470 Y137.887
G1 X249.416 Y137.723
G1 X249.378 Y137.555
G1 X249.321 Y137.412
G1 X249.253 Y137.258
G1 X249.226 Y137.102
G1 X249.151 Y136.925
G1 X249.130 Y136.795
G1 X249.078 Y136.621
G1 X249.034 Y136.495
; Path 68
G0 Z0
G0 X247.032 Y136.550
G0 Z2.2
G1 F3000
G1 X247.115 Y136.247
G1 X247.079 Y135.730
G1 X247.082 Y135.409
; Path 69
G0 Z0
G0 X246.497 Y135.493
G0 Z2.2
G1 F3000
G1 X245.997 Y134.993
G1 X245.497 Y135.493
G1 X245.997 Y135.993
G1 X246.497 Y135.493
; Path 70
G0 Z0
G0 X245.021 Y134.471
G0 Z2.2
G1 F3000
G1 X245.709 Y134.423
G1 X246.306 Y134.456
G1 X246.999 Y134.551
; Path 71
G0 Z0
G0 X247.989 Y134.457
G0 Z2.2
G1 F3000
G1 X246.678 Y133.428
G1 X245.349 Y132.469
G1 X244.034 Y131.453
; Path 72
G0 Z0
G0 X243.004 Y131.470
G0 Z2.2
G1 F3000
G1 X241.994 Y130.508
G1 X241.023 Y129.520
G1 X240.027 Y128.501
; Path 73
G0 Z0
G0 X239.981 Y128.472
G0 Z2.2
G1 F3000
G1 X239.018 Y127.487
G1 X238.004 Y126.509
; Path 74
G0 Z0
G0 X238.020 Y125.501
G0 Z2.2
G1 F3000
G1 X238.128 Y125.604
G1 X238.217 Y125.701
G1 X238.328 Y125.776
G1 X238.415 Y125.901
G1 X238.526 Y125.974
G1 X238.612 Y126.100
G1 X238.686 Y126.184
G1 X238.809 Y126.300
G1 X238.898 Y126.421
G1 X239.006 Y126.500
G1 X239.098 Y126.601
G1 X239.204 Y126.700
G1 X239.306 Y126.793
G1 X239.402 Y126.900
G1 X239.478 Y126.978
G1 X239.600 Y127.099
G1 X239.696 Y127.176
G1 X239.798 Y127.299
G1 X239.883 Y127.423
G1 X239.997 Y127.498
G1 X240.122 Y127.608
G1 X240.197 Y127.698
G1 X240.270 Y127.819
G1 X240.397 Y127.897
G1 X240.513 Y127.985
G1 X240.598 Y128.096
G1 X240.725 Y128.193
G1 X240.799 Y128.295
G1 X240.899 Y128.411
G1 X241.000 Y128.494
G1 X241.120 Y128.575
G1 X241.201 Y128.693
G1 X241.325 Y128.798
G1 X241.403 Y128.892
G1 X241.501 Y129.020
G1 X241.604 Y129.091
G1 X241.706 Y129.196
G1 X241.805 Y129.290
G1 X241.918 Y129.378
G1 X242.006 Y129.489
; Path 75
G0 Z0
G0 X242.016 Y129.494
G0 Z2.2
G1 F3000
G1 X243.538 Y130.471
G1 X245.016 Y131.460
G1 X246.505 Y132.473
G1 X248.018 Y133.480
; Path 76
G0 Z0
G0 X248.000 Y133.501
G0 Z2.2
G1 F3000
G1 X248.208 Y133.748
G1 X248.413 Y134.001
G1 X248.608 Y134.275
G1 X248.839 Y134.501
G1 X249.029 Y134.724
G1 X249.274 Y135.002
G1 X249.506 Y135.236
G1 X249.710 Y135.502
G1 X249.944 Y135.741
G1 X250.143 Y136.003
G1 X250.335 Y136.248
G1 X250.565 Y136.503
G1 X250.776 Y136.763
G1 X250.972 Y137.003
G1 X251.162 Y137.237
G1 X251.355 Y137.503
G1 X251.526 Y137.768
G1 X251.710 Y138.001
G1 X251.843 Y138.221
G1 X252.030 Y138.499
G1 X252.162 Y138.757
G1 X252.316 Y138.996
G1 X252.440 Y139.214
G1 X252.575 Y139.492
G1 X252.686 Y139.724
G1 X252.809 Y139.986
G1 X252.943 Y140.216
G1 X253.021 Y140.480
G1 X253.115 Y140.732
G1 X253.215 Y140.974
G1 X253.312 Y141.247
G1 X253.394 Y141.468
G1 X253.477 Y141.722
G1 X253.560 Y141.962
G1 X253.633 Y142.184
G1 X253.718 Y142.457
G1 X253.813 Y142.698
G1 X253.869 Y142.953
G1 X253.958 Y143.223
G1 X254.017 Y143.451
G1 X254.109 Y143.671
G1 X254.155 Y143.950
G1 X254.233 Y144.177
G1 X254.276 Y144.450
G1 X254.307 Y144.693
G1 X254.383 Y144.951
G1 X254.413 Y145.223
G1 X254.478 Y145.453
G1 X254.512 Y145.678
G1 X254.566 Y145.955
G1 X254.603 Y146.193
G1 X254.648 Y146.458
G1 X254.689 Y146.719
G1 X254.728 Y146.961
G1 X254.781 Y147.231
G1 X254.809 Y147.463
G1 X254.844 Y147.713
G1 X254.895 Y147.966
G1 X254.967 Y148.221
G1 X254.987 Y148.468
; Path 77
G0 Z0
G0 X253.026 Y146.493
G0 Z2.2
G1 F3000
G1 X253.355 Y147.843
G1 X253.672 Y149.158
G1 X254.028 Y150.509
; Path 78
G0 Z0
G0 X254.988 Y148.485
G0 Z2.2
G1 F3000
G1 X255.015 Y148.467
G1 X255.009 Y148.467
; Path 79
G0 Z0
G0 X255.000 Y148.493
G0 Z2.2
G1 F3000
G1 X255.259 Y148.982
G1 X255.507 Y149.468
G1 X255.755 Y149.919
G1 X256.022 Y150.409
G1 X256.267 Y150.865
G1 X256.542 Y151.329
G1 X256.779 Y151.811
G1 X257.062 Y152.245
G1 X257.311 Y152.727
G1 X257.580 Y153.170
G1 X257.864 Y153.642
G1 X258.093 Y154.121
G1 X258.316 Y154.613
G1 X258.598 Y155.112
G1 X258.866 Y155.631
G1 X259.091 Y156.158
G1 X259.303 Y156.694
G1 X259.569 Y157.275
G1 X259.807 Y157.897
G1 X260.030 Y158.477
G1 X260.240 Y159.113
G1 X260.498 Y159.798
G1 X260.724 Y160.523
G1 X260.989 Y161.239
G1 X261.242 Y161.984
G1 X261.490 Y162.771
G1 X261.729 Y163.572
G1 X261.986 Y164.364
G1 X262.207 Y165.168
G1 X262.461 Y165.986
G1 X262.698 Y166.813
G1 X262.901 Y167.609
G1 X263.097 Y168.376
G1 X263.292 Y169.201
G1 X263.460 Y169.970
G1 X263.617 Y170.733
G1 X263.765 Y171.431
G1 X263.863 Y172.174
G1 X263.927 Y172.832
G1 X264.015 Y173.495
G1 X264.021 Y174.084
G1 X264.044 Y174.674
G1 X264.009 Y175.226
G1 X263.952 Y175.732
G1 X263.872 Y176.194
G1 X263.763 Y176.700
G1 X263.620 Y177.172
G1 X263.507 Y177.607
G1 X263.382 Y178.063
G1 X263.208 Y178.484
G1 X263.068 Y178.916
G1 X262.894 Y179.361
G1 X262.733 Y179.806
G1 X262.592 Y180.269
G1 X262.431 Y180.726
G1 X262.328 Y181.236
G1 X262.201 Y181.742
G1 X262.129 Y182.294
G1 X262.088 Y182.890
G1 X262.023 Y183.473
G1 X261.998 Y184.105
G1 X262.012 Y184.780
G1 X262.047 Y185.499
G1 X262.072 Y186.186
G1 X262.123 Y186.933
G1 X262.185 Y187.670
G1 X262.271 Y188.447
G1 X262.334 Y189.213
G1 X262.409 Y189.986
G1 X262.500 Y190.791
G1 X262.567 Y191.584
G1 X262.666 Y192.384
G1 X262.751 Y193.180
G1 X262.815 Y193.971
G1 X262.883 Y194.753
G1 X262.929 Y195.531
G1 X262.981 Y196.260
G1 X262.991 Y197.042
G1 X262.994 Y197.738
G1 X262.982 Y198.483
G1 X262.957 Y199.191
G1 X262.910 Y199.890
G1 X262.860 Y200.587
G1 X262.795 Y201.304
G1 X262.739 Y202.025
G1 X262.644 Y202.713
G1 X262.571 Y203.422
G1 X262.463 Y204.106
G1 X262.339 Y204.793
G1 X262.255 Y205.471
G1 X262.145 Y206.162
G1 X262.028 Y206.795
G1 X261.927 Y207.434
G1 X261.786 Y208.068
G1 X261.655 Y208.651
G1 X261.536 Y209.278
G1 X261.391 Y209.816
G1 X261.281 Y210.412
G1 X261.151 Y210.963
G1 X261.029 Y211.459
G1 X260.908 Y211.944
G1 X260.769 Y212.402
G1 X260.603 Y212.848
G1 X260.490 Y213.244
G1 X260.364 Y213.648
G1 X260.196 Y214.002
G1 X260.023 Y214.355
G1 X259.891 Y214.695
G1 X259.719 Y215.024
G1 X259.576 Y215.340
G1 X259.392 Y215.651
G1 X259.256 Y215.955
G1 X259.082 Y216.249
G1 X258.934 Y216.558
G1 X258.778 Y216.848
G1 X258.613 Y217.168
G1 X258.447 Y217.498
G1 X258.297 Y217.801
G1 X258.156 Y218.132
G1 X257.988 Y218.476
; Path 80
G0 Z0
G0 X275.002 Y223.489
G0 Z2.2
G1 F3000
G1 X275.777 Y223.461
G1 X276.502 Y223.391
G1 X277.248 Y223.318
G1 X278.002 Y223.299
G1 X278.780 Y223.237
G1 X279.502 Y223.210
G1 X280.224 Y223.154
G1 X281.001 Y223.123
G1 X281.760 Y223.074
G1 X282.501 Y223.034
G1 X283.229 Y222.990
G1 X284.001 Y222.940
G1 X284.756 Y222.898
G1 X285.501 Y222.839
G1 X286.226 Y222.777
G1 X287.001 Y222.726
G1 X287.780 Y222.644
G1 X288.500 Y222.600
G1 X289.224 Y222.512
G1 X290.000 Y222.457
G1 X290.789 Y222.357
G1 X291.544 Y222.292
G1 X292.333 Y222.215
G1 X293.159 Y222.102
G1 X293.985 Y222.003
G1 X294.813 Y221.895
G1 X295.641 Y221.803
G1 X296.477 Y221.676
G1 X297.271 Y221.559
G1 X298.121 Y221.452
G1 X298.943 Y221.347
G1 X299.716 Y221.228
G1 X300.487 Y221.105
G1 X301.230 Y221.009
G1 X301.920 Y220.933
G1 X302.634 Y220.803
G1 X303.288 Y220.719
G1 X303.899 Y220.615
G1 X304.474 Y220.538
G1 X304.994 Y220.451
G1 X305.472 Y220.351
G1 X305.899 Y220.310
G1 X306.282 Y220.231
G1 X306.634 Y220.187
G1 X306.903 Y220.120
G1 X307.230 Y220.077
G1 X307.490 Y220.017
G1 X307.715 Y219.979
G1 X307.913 Y219.916
G1 X308.121 Y219.888
G1 X308.303 Y219.866
G1 X308.476 Y219.803
G1 X308.636 Y219.755
G1 X308.812 Y219.720
G1 X309.013 Y219.677
G1 X309.158 Y219.636
G1 X309.341 Y219.562
G1 X309.543 Y219.547
G1 X309.788 Y219.500
G1 X309.999 Y219.452
; Path 81
G0 Z0
G0 X305.036 Y231.502
G0 Z2.2
G1 F3000
G1 X304.409 Y231.692
G1 X303.729 Y231.926
G1 X303.101 Y232.156
G1 X302.415 Y232.393
G1 X301.758 Y232.608
G1 X301.097 Y232.883
G1 X300.461 Y233.125
G1 X299.778 Y233.380
G1 X299.094 Y233.645
G1 X298.461 Y233.864
G1 X297.821 Y234.069
G1 X297.150 Y234.318
G1 X296.484 Y234.494
G1 X295.846 Y234.725
G1 X295.219 Y234.902
G1 X294.553 Y235.065
G1 X293.937 Y235.195
G1 X293.274 Y235.322
G1 X292.652 Y235.422
G1 X292.012 Y235.476
G1 X291.412 Y235.485
G1 X290.769 Y235.517
G1 X290.162 Y235.498
G1 X289.544 Y235.456
G1 X288.934 Y235.400
G1 X288.332 Y235.311
G1 X287.728 Y235.222
G1 X287.131 Y235.099
G1 X286.555 Y234.970
G1 X285.939 Y234.840
G1 X285.315 Y234.671
G1 X284.751 Y234.551
G1 X284.167 Y234.387
G1 X283.565 Y234.250
G1 X282.998 Y234.107
G1 X282.378 Y233.955
G1 X281.796 Y233.840
G1 X281.188 Y233.684
G1 X280.596 Y233.560
G1 X279.990 Y233.455
; Path 82
G0 Z0
G0 X255.000 Y218.483
G0 Z2.2
G1 F3000
G1 X255.348 Y218.531
G1 X255.711 Y218.569
G1 X256.070 Y218.582
G1 X256.443 Y218.635
G1 X256.813 Y218.675
G1 X257.187 Y218.688
G1 X257.537 Y218.717
G1 X257.934 Y218.739
G1 X258.311 Y218.788
G1 X258.675 Y218.795
G1 X259.026 Y218.843
G1 X259.402 Y218.867
G1 X259.773 Y218.910
G1 X260.104 Y218.962
G1 X260.424 Y219.022
G1 X260.775 Y219.091
G1 X261.069 Y219.154
G1 X261.404 Y219.262
G1 X261.677 Y219.374
G1 X261.984 Y219.484
G1 X262.251 Y219.639
G1 X262.507 Y219.763
G1 X262.757 Y219.944
G1 X262.980 Y220.093
G1 X263.203 Y220.263
G1 X263.413 Y220.465
G1 X263.587 Y220.652
G1 X263.813 Y220.871
G1 X264.006 Y221.097
G1 X264.189 Y221.300
G1 X264.381 Y221.505
G1 X264.551 Y221.745
G1 X264.716 Y221.967
G1 X264.907 Y222.196
G1 X265.104 Y222.410
G1 X265.266 Y222.643
G1 X265.467 Y222.864
G1 X265.636 Y223.079
G1 X265.853 Y223.313
G1 X266.027 Y223.493
; Path 83
G0 Z0
G0 X266.008 Y223.456
G0 Z2.2
G1 F3000
G1 X264.684 Y224.114
G1 X263.333 Y224.820
G1 X261.995 Y225.494
; Path 84
G0 Z0
G0 X261.980 Y225.484
G0 Z2.2
G1 F3000
G1 X261.784 Y225.410
G1 X261.579 Y225.294
G1 X261.368 Y225.237
G1 X261.171 Y225.126
G1 X260.937 Y225.053
G1 X260.759 Y224.969
G1 X260.549 Y224.882
G1 X260.346 Y224.815
G1 X260.162 Y224.762
G1 X259.935 Y224.656
G1 X259.757 Y224.586
G1 X259.528 Y224.481
G1 X259.308 Y224.409
G1 X259.130 Y224.283
G1 X258.917 Y224.171
G1 X258.742 Y224.052
G1 X258.576 Y223.933
G1 X258.367 Y223.780
G1 X258.181 Y223.640
G1 X258.009 Y223.458
G1 X257.829 Y223.287
G1 X257.669 Y223.079
G1 X257.514 Y222.862
G1 X257.345 Y222.650
G1 X257.179 Y222.442
G1 X257.035 Y222.180
G1 X256.889 Y221.955
G1 X256.735 Y221.677
G1 X256.581 Y221.385
G1 X256.443 Y221.151
G1 X256.289 Y220.884
G1 X256.155 Y220.610
G1 X256.022 Y220.334
G1 X255.870 Y220.063
G1 X255.725 Y219.779
G1 X255.584 Y219.519
G1 X255.454 Y219.254
G1 X255.293 Y218.986
G1 X255.137 Y218.725
G1 X254.996 Y218.475
; Path 85
G0 Z0
G0 X255.025 Y215.465
G0 Z2.2
G1 F3000
G1 X254.847 Y213.495
G1 X254.673 Y211.502
G1 X254.523 Y209.465
G1 X254.314 Y207.515
G1 X254.159 Y205.479
G1 X254.003 Y203.509
; Path 86
G0 Z0
G0 X260.889 Y192.473
G0 Z2.2
G1 F3000
G1 X261.072 Y190.481
; Path 87
G0 Z0
G0 X262.006 Y187.506
G0 Z2.2
G1 F3000
G1 X262.186 Y187.741
G1 X262.403 Y188.033
G1 X262.616 Y188.295
G1 X262.800 Y188.602
G1 X263.007 Y188.875
G1 X263.196 Y189.196
G1 X263.366 Y189.525
G1 X263.592 Y189.795
G1 X263.779 Y190.101
G1 X263.988 Y190.383
G1 X264.182 Y190.680
G1 X264.384 Y190.940
G1 X264.570 Y191.219
G1 X264.782 Y191.449
G1 X265.004 Y191.672
G1 X265.180 Y191.891
G1 X265.367 Y192.053
G1 X265.579 Y192.249
G1 X265.805 Y192.382
G1 X265.979 Y192.504
G1 X266.163 Y192.552
G1 X266.382 Y192.644
G1 X266.571 Y192.688
G1 X266.785 Y192.681
G1 X267.000 Y192.637
G1 X267.189 Y192.634
G1 X267.399 Y192.598
G1 X267.595 Y192.520
G1 X267.824 Y192.456
G1 X268.001 Y192.357
G1 X268.217 Y192.235
G1 X268.407 Y192.165
G1 X268.585 Y192.043
G1 X268.814 Y191.960
G1 X269.044 Y191.873
G1 X269.221 Y191.762
G1 X269.396 Y191.683
G1 X269.627 Y191.587
G1 X269.809 Y191.516
G1 X270.032 Y191.455
; Path 88
G0 Z0
G0 X270.000 Y191.467
G0 Z2.2
G1 F3000
G1 X270.033 Y191.207
G1 X270.016 Y190.896
G1 X270.046 Y190.644
G1 X270.054 Y190.368
G1 X270.095 Y190.144
G1 X270.105 Y189.865
G1 X270.146 Y189.621
G1 X270.158 Y189.367
G1 X270.184 Y189.126
G1 X270.205 Y188.858
G1 X270.228 Y188.569
G1 X270.237 Y188.318
G1 X270.232 Y188.020
G1 X270.245 Y187.729
G1 X270.213 Y187.387
G1 X270.218 Y187.074
G1 X270.162 Y186.727
G1 X270.149 Y186.334
G1 X270.084 Y185.921
G1 X270.027 Y185.491
G1 X269.936 Y185.003
G1 X269.847 Y184.533
G1 X269.750 Y183.984
G1 X269.614 Y183.472
G1 X269.476 Y182.872
G1 X269.337 Y182.325
G1 X269.198 Y181.705
G1 X269.027 Y181.112
G1 X268.838 Y180.499
G1 X268.693 Y179.851
G1 X268.539 Y179.200
G1 X268.343 Y178.559
G1 X268.166 Y177.896
G1 X267.988 Y177.255
G1 X267.819 Y176.622
G1 X267.637 Y175.958
G1 X267.466 Y175.338
G1 X267.300 Y174.686
G1 X267.116 Y174.054
G1 X266.986 Y173.456
G1 X266.808 Y172.860
G1 X266.687 Y172.255
G1 X266.531 Y171.659
G1 X266.390 Y171.054
G1 X266.235 Y170.435
G1 X266.094 Y169.854
G1 X265.939 Y169.264
G1 X265.799 Y168.654
G1 X265.671 Y168.042
G1 X265.505 Y167.454
G1 X265.335 Y166.858
G1 X265.211 Y166.254
G1 X265.064 Y165.637
G1 X264.918 Y165.055
G1 X264.786 Y164.463
G1 X264.624 Y163.855
G1 X264.497 Y163.259
G1 X264.330 Y162.655
G1 X264.203 Y162.066
G1 X264.036 Y161.455
; Path 89
G0 Z0
G0 X260.012 Y163.460
G0 Z2.2
G1 F3000
G1 X260.198 Y164.238
G1 X260.327 Y164.965
G1 X260.485 Y165.711
G1 X260.669 Y166.470
G1 X260.835 Y167.239
G1 X261.027 Y167.976
G1 X261.185 Y168.741
G1 X261.389 Y169.482
G1 X261.557 Y170.217
G1 X261.743 Y170.988
G1 X261.889 Y171.714
G1 X262.077 Y172.493
G1 X262.233 Y173.267
G1 X262.380 Y173.998
G1 X262.503 Y174.730
G1 X262.639 Y175.502
G1 X262.752 Y176.250
G1 X262.843 Y177.005
G1 X262.900 Y177.775
G1 X262.981 Y178.507
G1 X263.039 Y179.235
G1 X263.048 Y180.007
G1 X263.052 Y180.751
G1 X263.055 Y181.506
G1 X263.032 Y182.263
G1 X263.011 Y183.003
G1 X262.951 Y183.755
G1 X262.924 Y184.500
G1 X262.836 Y185.258
G1 X262.804 Y185.997
G1 X262.761 Y186.730
G1 X262.660 Y187.493
G1 X262.567 Y188.264
G1 X262.499 Y188.989
G1 X262.399 Y189.762
G1 X262.331 Y190.487
G1 X262.225 Y191.213
G1 X262.165 Y191.985
G1 X262.098 Y192.727
G1 X262.010 Y193.484
G1 X261.959 Y194.231
G1 X261.858 Y195.029
G1 X261.795 Y195.808
G1 X261.696 Y196.646
G1 X261.612 Y197.464
G1 X261.525 Y198.304
G1 X261.446 Y199.151
G1 X261.343 Y199.972
G1 X261.228 Y200.779
G1 X261.152 Y201.621
G1 X261.021 Y202.411
G1 X260.950 Y203.219
G1 X260.816 Y203.961
G1 X260.737 Y204.737
G1 X260.605 Y205.445
G1 X260.515 Y206.145
G1 X260.407 Y206.768
G1 X260.281 Y207.411
G1 X260.134 Y207.981
G1 X260.037 Y208.506
G1 X259.906 Y208.969
G1 X259.777 Y209.410
G1 X259.617 Y209.772
G1 X259.500 Y210.142
G1 X259.355 Y210.464
G1 X259.208 Y210.734
G1 X259.035 Y210.994
G1 X258.904 Y211.215
G1 X258.753 Y211.438
G1 X258.592 Y211.616
G1 X258.461 Y211.819
G1 X258.275 Y211.966
G1 X258.127 Y212.136
G1 X257.955 Y212.296
G1 X257.783 Y212.477
G1 X257.637 Y212.636
G1 X257.468 Y212.837
G1 X257.323 Y213.017
G1 X257.183 Y213.244
G1 X257.016 Y213.468
; Path 90
G0 Z0
G0 X259.014 Y206.481
G0 Z2.2
G1 F3000
G1 X259.535 Y204.991
G1 X260.041 Y203.450
G1 X260.543 Y201.962
G1 X261.017 Y200.477
; Path 91
G0 Z0
G0 X259.001 Y201.468
G0 Z2.2
G1 F3000
G1 X258.997 Y201.151
G1 X259.009 Y200.875
G1 X259.030 Y200.605
G1 X259.023 Y200.289
G1 X259.002 Y199.985
G1 X259.041 Y199.708
G1 X259.070 Y199.407
G1 X259.061 Y199.127
G1 X259.058 Y198.817
G1 X259.078 Y198.545
G1 X259.090 Y198.222
G1 X259.090 Y197.957
G1 X259.110 Y197.687
G1 X259.094 Y197.361
G1 X259.118 Y197.064
G1 X259.087 Y196.753
G1 X259.086 Y196.429
G1 X259.065 Y196.131
G1 X259.068 Y195.839
G1 X259.026 Y195.491
G1 X259.009 Y195.169
G1 X258.967 Y194.830
G1 X258.927 Y194.485
G1 X258.891 Y194.152
G1 X258.851 Y193.801
G1 X258.800 Y193.459
G1 X258.755 Y193.078
G1 X258.698 Y192.754
G1 X258.615 Y192.379
G1 X258.587 Y192.041
G1 X258.510 Y191.663
G1 X258.472 Y191.322
G1 X258.384 Y190.956
G1 X258.354 Y190.602
G1 X258.326 Y190.237
G1 X258.238 Y189.882
G1 X258.187 Y189.543
G1 X258.125 Y189.167
G1 X258.070 Y188.821
G1 X258.020 Y188.459
; Path 92
G0 Z0
G0 X259.998 Y191.482
G0 Z2.2
G1 F3000
G1 X260.491 Y190.012
G1 X261.023 Y188.489
G1 X261.528 Y186.981
G1 X261.998 Y185.504
; Path 93
G0 Z0
G0 X260.113 Y176.437
G0 Z2.2
G1 F3000
G1 X259.922 Y174.493
; Path 94
G0 Z0
G0 X261.015 Y168.462
G0 Z2.2
G1 F3000
G1 X260.339 Y170.153
G1 X259.654 Y171.853
G1 X258.998 Y173.503
; Path 95
G0 Z0
G0 X254.004 Y174.506
G0 Z2.2
G1 F3000
G1 X254.034 Y174.219
G1 X254.009 Y173.896
G1 X254.012 Y173.578
G1 X254.022 Y173.279
G1 X254.043 Y172.991
G1 X254.039 Y172.657
G1 X254.024 Y172.368
G1 X254.057 Y172.034
G1 X254.082 Y171.753
G1 X254.073 Y171.413
G1 X254.083 Y171.117
G1 X254.084 Y170.798
G1 X254.061 Y170.490
G1 X254.087 Y170.191
G1 X254.069 Y169.883
G1 X254.079 Y169.597
G1 X254.073 Y169.334
G1 X254.056 Y169.018
G1 X254.018 Y168.727
G1 X254.016 Y168.458
G1 X253.973 Y168.200
G1 X253.957 Y167.918
G1 X253.916 Y167.664
G1 X253.881 Y167.397
G1 X253.828 Y167.173
G1 X253.790 Y166.891
G1 X253.711 Y166.651
G1 X253.688 Y166.398
G1 X253.614 Y166.135
G1 X253.578 Y165.913
G1 X253.509 Y165.647
G1 X253.463 Y165.434
G1 X253.378 Y165.185
G1 X253.346 Y164.956
G1 X253.272 Y164.741
G1 X253.230 Y164.478
G1 X253.192 Y164.263
G1 X253.118 Y163.996
G1 X253.039 Y163.774
G1 X253.013 Y163.505
; Path 96
G0 Z0
G0 X253.019 Y161.509
G0 Z2.2
G1 F3000
G1 X254.287 Y159.990
G1 X255.475 Y158.474
G1 X256.769 Y156.968
G1 X257.980 Y155.489
; Path 97
G0 Z0
G0 X253.011 Y152.468
G0 Z2.2
G1 F3000
G1 X252.353 Y150.827
G1 X251.647 Y149.149
G1 X251.008 Y147.504
; Path 98
G0 Z0
G0 X247.699 Y148.537
G0 Z2.2
G1 F3000
G1 X248.359 Y150.388
; Path 99
G0 Z0
G0 X250.033 Y153.504
G0 Z2.2
G1 F3000
G1 X250.263 Y155.100
G1 X250.417 Y156.709
G1 X250.608 Y158.282
G1 X250.836 Y159.879
G1 X251.039 Y161.486
; Path 100
G0 Z0
G0 X245.982 Y161.491
G0 Z2.2
G1 F3000
G1 X246.139 Y163.298
G1 X246.326 Y165.164
G1 X246.499 Y166.952
G1 X246.662 Y168.808
G1 X246.883 Y170.609
G1 X247.031 Y172.451
; Path 101
G0 Z0
G0 X239.017 Y168.477
G0 Z2.2
G1 F3000
G1 X238.873 Y166.813
G1 X238.709 Y165.113
G1 X238.545 Y163.472
G1 X238.343 Y161.818
G1 X238.176 Y160.096
G1 X238.034 Y158.451
; Path 102
G0 Z0
G0 X236.020 Y160.485
G0 Z2.2
G1 F3000
G1 X235.790 Y158.687
G1 X235.615 Y156.856
G1 X235.437 Y155.066
G1 X235.222 Y153.249
G1 X235.003 Y151.458
; Path 103
G0 Z0
G0 X235.076 Y149.466
G0 Z2.2
G1 F3000
G1 X234.988 Y147.440
; Path 104
G0 Z0
G0 X232.112 Y148.467
G0 Z2.2
G1 F3000
G1 X231.937 Y150.474
; Path 105
G0 Z0
G0 X229.982 Y147.503
G0 Z2.2
G1 F3000
G1 X228.961 Y149.191
G1 X228.003 Y150.866
G1 X226.991 Y152.510
; Path 106
G0 Z0
G0 X228.007 Y153.496
G0 Z2.2
G1 F3000
G1 X228.390 Y155.116
G1 X228.831 Y156.672
G1 X229.216 Y158.265
G1 X229.572 Y159.869
G1 X229.993 Y161.475
; Path 107
G0 Z0
G0 X226.988 Y161.478
G0 Z2.2
G1 F3000
G1 X225.729 Y159.999
G1 X224.476 Y158.498
G1 X223.290 Y156.998
G1 X222.023 Y155.485
; Path 108
G0 Z0
G0 X231.990 Y163.457
G0 Z2.2
G1 F3000
G1 X232.341 Y165.104
G1 X232.674 Y166.770
G1 X233.011 Y168.478
G1 X233.338 Y170.116
G1 X233.689 Y171.836
G1 X234.015 Y173.483
; Path 109
G0 Z0
G0 X228.006 Y175.482
G0 Z2.2
G1 F3000
G1 X227.886 Y175.216
G1 X227.799 Y174.985
G1 X227.707 Y174.760
G1 X227.585 Y174.488
G1 X227.504 Y174.225
G1 X227.367 Y173.992
G1 X227.256 Y173.724
G1 X227.148 Y173.496
G1 X227.020 Y173.232
G1 X226.931 Y172.999
G1 X226.841 Y172.761
G1 X226.719 Y172.502
G1 X226.601 Y172.238
G1 X226.515 Y172.005
G1 X226.427 Y171.748
G1 X226.322 Y171.507
G1 X226.249 Y171.272
G1 X226.145 Y171.007
G1 X226.075 Y170.760
G1 X225.984 Y170.507
G1 X225.893 Y170.257
G1 X225.844 Y170.005
G1 X225.768 Y169.754
G1 X225.721 Y169.501
G1 X225.681 Y169.261
G1 X225.612 Y168.996
G1 X225.544 Y168.773
G1 X225.515 Y168.491
G1 X225.460 Y168.228
G1 X225.426 Y167.985
G1 X225.370 Y167.724
G1 X225.342 Y167.478
G1 X225.324 Y167.216
G1 X225.260 Y166.972
G1 X225.197 Y166.698
G1 X225.178 Y166.465
G1 X225.141 Y166.197
G1 X225.091 Y165.959
G1 X225.049 Y165.697
G1 X224.997 Y165.453
; Path 110
G0 Z0
G0 X221.970 Y167.467
G0 Z2.2
G1 F3000
G1 X222.003 Y169.467
; Path 111
G0 Z0
G0 X219.924 Y172.520
G0 Z2.2
G1 F3000
G1 X220.128 Y170.518
; Path 112
G0 Z0
G0 X219.018 Y168.497
G0 Z2.2
G1 F3000
G1 X219.649 Y170.148
G1 X220.333 Y171.802
G1 X220.996 Y173.492
; Path 113
G0 Z0
G0 X218.994 Y177.488
G0 Z2.2
G1 F3000
G1 X219.036 Y179.509
; Path 114
G0 Z0
G0 X218.919 Y180.505
G0 Z2.2
G1 F3000
G1 X219.097 Y182.466
; Path 115
G0 Z0
G0 X218.022 Y183.509
G0 Z2.2
G1 F3000
G1 X218.688 Y185.149
G1 X219.351 Y186.812
G1 X220.004 Y188.476
; Path 116
G0 Z0
G0 X218.085 Y185.479
G0 Z2.2
G1 F3000
G1 X217.961 Y187.478
; Path 117
G0 Z0
G0 X218.028 Y188.453
G0 Z2.2
G1 F3000
G1 X217.851 Y188.714
G1 X217.627 Y188.976
G1 X217.426 Y189.268
G1 X217.226 Y189.534
G1 X217.050 Y189.839
G1 X216.825 Y190.111
G1 X216.623 Y190.413
G1 X216.423 Y190.694
G1 X216.223 Y191.000
G1 X216.022 Y191.266
G1 X215.834 Y191.540
G1 X215.621 Y191.814
G1 X215.429 Y192.081
G1 X215.219 Y192.322
G1 X215.034 Y192.527
G1 X214.818 Y192.775
G1 X214.641 Y192.983
G1 X214.418 Y193.158
G1 X214.213 Y193.305
G1 X214.017 Y193.457
G1 X213.822 Y193.540
G1 X213.616 Y193.661
G1 X213.433 Y193.735
G1 X213.216 Y193.780
G1 X212.997 Y193.801
G1 X212.816 Y193.829
G1 X212.636 Y193.814
G1 X212.416 Y193.824
G1 X212.223 Y193.780
G1 X212.016 Y193.779
G1 X211.824 Y193.714
G1 X211.617 Y193.709
G1 X211.409 Y193.689
G1 X211.217 Y193.628
G1 X211.006 Y193.592
G1 X210.817 Y193.553
G1 X210.644 Y193.541
G1 X210.417 Y193.498
G1 X210.247 Y193.515
G1 X210.017 Y193.478
; Path 118
G0 Z0
G0 X209.990 Y193.469
G0 Z2.2
G1 F3000
G1 X209.985 Y193.071
G1 X209.981 Y192.685
G1 X209.966 Y192.287
G1 X209.951 Y191.929
G1 X209.954 Y191.531
G1 X209.910 Y191.189
G1 X209.892 Y190.845
G1 X209.866 Y190.452
G1 X209.844 Y190.091
G1 X209.827 Y189.708
G1 X209.836 Y189.330
G1 X209.804 Y188.944
G1 X209.806 Y188.576
G1 X209.803 Y188.149
G1 X209.794 Y187.734
G1 X209.836 Y187.310
G1 X209.872 Y186.855
G1 X209.909 Y186.415
G1 X209.941 Y185.960
G1 X210.032 Y185.454
G1 X210.118 Y184.944
G1 X210.211 Y184.417
G1 X210.316 Y183.884
G1 X210.440 Y183.313
G1 X210.569 Y182.726
G1 X210.710 Y182.154
G1 X210.870 Y181.545
G1 X211.012 Y180.951
G1 X211.158 Y180.345
G1 X211.338 Y179.717
G1 X211.482 Y179.078
G1 X211.679 Y178.463
G1 X211.845 Y177.845
G1 X212.025 Y177.200
G1 X212.196 Y176.571
G1 X212.369 Y175.942
G1 X212.514 Y175.345
G1 X212.702 Y174.699
G1 X212.829 Y174.090
G1 X213.014 Y173.484
G1 X213.148 Y172.888
G1 X213.314 Y172.287
G1 X213.449 Y171.700
G1 X213.614 Y171.089
G1 X213.775 Y170.502
G1 X213.914 Y169.891
G1 X214.094 Y169.295
G1 X214.214 Y168.693
G1 X214.354 Y168.069
G1 X214.515 Y167.495
G1 X214.692 Y166.869
G1 X214.816 Y166.297
G1 X214.951 Y165.685
G1 X215.117 Y165.099
G1 X215.266 Y164.497
G1 X215.417 Y163.901
G1 X215.596 Y163.320
G1 X215.718 Y162.703
G1 X215.852 Y162.097
G1 X216.019 Y161.505
; Path 119
G0 Z0
G0 X220.028 Y163.487
G0 Z2.2
G1 F3000
G1 X219.885 Y164.211
G1 X219.705 Y164.988
G1 X219.509 Y165.725
G1 X219.353 Y166.488
G1 X219.195 Y167.223
G1 X218.986 Y167.989
G1 X218.777 Y168.741
G1 X218.614 Y169.489
G1 X218.402 Y170.260
G1 X218.250 Y170.990
G1 X218.053 Y171.755
G1 X217.906 Y172.490
G1 X217.758 Y173.226
G1 X217.595 Y173.991
G1 X217.492 Y174.712
G1 X217.329 Y175.490
G1 X217.201 Y176.219
G1 X217.120 Y176.990
G1 X217.063 Y177.767
G1 X216.980 Y178.489
G1 X216.955 Y179.239
G1 X216.913 Y179.988
G1 X216.914 Y180.765
G1 X216.909 Y181.485
G1 X216.952 Y182.233
G1 X216.958 Y182.982
G1 X216.990 Y183.738
G1 X217.050 Y184.479
G1 X217.090 Y185.247
G1 X217.177 Y185.976
G1 X217.281 Y186.749
G1 X217.330 Y187.473
G1 X217.391 Y188.212
G1 X217.498 Y188.970
G1 X217.567 Y189.737
G1 X217.672 Y190.467
G1 X217.743 Y191.202
G1 X217.844 Y191.965
G1 X217.939 Y192.730
G1 X218.004 Y193.464
G1 X218.073 Y194.261
G1 X218.159 Y195.008
G1 X218.232 Y195.819
G1 X218.323 Y196.623
G1 X218.437 Y197.461
G1 X218.496 Y198.279
G1 X218.571 Y199.136
G1 X218.680 Y199.945
G1 X218.750 Y200.742
G1 X218.872 Y201.591
G1 X218.962 Y202.416
G1 X219.075 Y203.187
G1 X219.175 Y203.964
G1 X219.288 Y204.703
G1 X219.380 Y205.380
G1 X219.511 Y206.109
G1 X219.604 Y206.743
G1 X219.744 Y207.376
G1 X219.868 Y207.952
G1 X219.988 Y208.471
G1 X220.132 Y208.897
G1 X220.247 Y209.377
G1 X220.386 Y209.758
G1 X220.523 Y210.112
G1 X220.669 Y210.391
G1 X220.814 Y210.708
G1 X220.959 Y210.959
G1 X221.115 Y211.193
G1 X221.291 Y211.402
G1 X221.425 Y211.599
G1 X221.590 Y211.771
G1 X221.739 Y211.954
G1 X221.890 Y212.138
G1 X222.056 Y212.290
G1 X222.235 Y212.481
G1 X222.372 Y212.635
G1 X222.558 Y212.851
G1 X222.684 Y213.020
G1 X222.831 Y213.235
G1 X222.988 Y213.476
; Path 120
G0 Z0
G0 X221.029 Y205.458
G0 Z2.2
G1 F3000
G1 X220.513 Y203.725
G1 X220.005 Y201.969
G1 X219.525 Y200.224
G1 X218.993 Y198.475
; Path 121
G0 Z0
G0 X221.177 Y202.463
G0 Z2.2
G1 F3000
G1 X220.814 Y200.439
; Path 122
G0 Z0
G0 X205.033 Y225.508
G0 Z2.2
G1 F3000
G1 X204.263 Y225.456
G1 X203.551 Y225.411
G1 X202.832 Y225.377
G1 X202.104 Y225.322
G1 X201.387 Y225.296
G1 X200.676 Y225.237
G1 X199.959 Y225.167
G1 X199.254 Y225.152
G1 X198.545 Y225.111
G1 X197.821 Y225.066
G1 X197.119 Y224.997
G1 X196.364 Y224.975
G1 X195.618 Y224.907
G1 X194.868 Y224.875
G1 X194.093 Y224.814
G1 X193.317 Y224.764
G1 X192.497 Y224.682
G1 X191.697 Y224.639
G1 X190.872 Y224.582
G1 X189.993 Y224.496
G1 X189.106 Y224.408
G1 X188.240 Y224.321
G1 X187.354 Y224.234
G1 X186.474 Y224.106
G1 X185.554 Y224.002
G1 X184.679 Y223.864
G1 X183.786 Y223.752
G1 X182.840 Y223.609
G1 X181.875 Y223.457
G1 X180.941 Y223.351
G1 X179.929 Y223.249
G1 X178.967 Y223.103
G1 X177.960 Y222.988
G1 X176.903 Y222.878
G1 X175.804 Y222.812
G1 X174.733 Y222.688
G1 X173.613 Y222.637
G1 X172.442 Y222.544
G1 X171.254 Y222.506
G1 X170.015 Y222.460
G1 X168.707 Y222.476
G1 X167.420 Y222.452
G1 X166.029 Y222.481
G1 X164.653 Y222.518
G1 X163.206 Y222.561
G1 X161.746 Y222.639
G1 X160.252 Y222.713
G1 X158.729 Y222.796
G1 X157.165 Y222.868
G1 X155.630 Y222.972
G1 X154.062 Y223.077
G1 X152.482 Y223.148
G1 X150.928 Y223.206
G1 X149.314 Y223.306
G1 X147.750 Y223.349
G1 X146.156 Y223.427
G1 X144.576 Y223.463
G1 X143.039 Y223.494
G1 X141.495 Y223.473
G1 X139.992 Y223.487
G1 X138.504 Y223.473
G1 X136.990 Y223.408
G1 X135.475 Y223.362
G1 X133.989 Y223.277
G1 X132.486 Y223.171
G1 X130.988 Y223.104
G1 X129.502 Y222.993
G1 X127.987 Y222.898
G1 X126.504 Y222.762
G1 X124.986 Y222.666
G1 X123.512 Y222.528
G1 X121.985 Y222.420
G1 X120.497 Y222.301
G1 X118.985 Y222.168
G1 X117.478 Y222.015
G1 X115.984 Y221.918
G1 X114.508 Y221.791
G1 X112.983 Y221.681
G1 X111.499 Y221.547
G1 X109.982 Y221.465
; Path 123
G0 Z0
G0 X130.004 Y228.498
G0 Z2.2
G1 F3000
G1 X130.622 Y228.450
G1 X131.200 Y228.373
G1 X131.783 Y228.306
G1 X132.388 Y228.211
G1 X132.951 Y228.104
G1 X133.572 Y228.030
G1 X134.140 Y227.924
G1 X134.755 Y227.844
G1 X135.353 Y227.728
G1 X135.940 Y227.667
G1 X136.557 Y227.602
G1 X137.130 Y227.516
G1 X137.758 Y227.474
G1 X138.328 Y227.406
G1 X138.950 Y227.385
G1 X139.538 Y227.350
G1 X140.144 Y227.385
G1 X140.762 Y227.366
G1 X141.390 Y227.424
G1 X142.004 Y227.467
G1 X142.626 Y227.544
G1 X143.265 Y227.665
G1 X143.924 Y227.821
G1 X144.543 Y227.948
G1 X145.179 Y228.102
G1 X145.836 Y228.302
G1 X146.481 Y228.479
G1 X147.141 Y228.711
G1 X147.824 Y228.960
G1 X148.453 Y229.161
G1 X149.108 Y229.389
G1 X149.771 Y229.636
G1 X150.428 Y229.885
G1 X151.090 Y230.122
G1 X151.736 Y230.372
G1 X152.409 Y230.602
G1 X153.037 Y230.804
G1 X153.724 Y231.062
G1 X154.359 Y231.249
G1 X155.031 Y231.486
G0 Z0
M5
G4 P0.3
G0 X0 Y0
; End