; Generated by Sketch DSL for Machine
; Work area: 420mm x 297mm (A3)
G21
G90
M5
G4 P0.5
G0 F11000
; 303 paths
; Path 1
G0 X110.009 Y94.495
G0 Z2.2
G1 F3000
G1 X310.009 Y94.495
; Path 2
G0 Z0
G0 X310.018 Y94.485
G0 Z2.2
G1 F3000
G1 X309.517 Y94.330
G1 X309.037 Y94.206
G1 X308.588 Y94.109
G1 X308.091 Y93.954
G1 X307.608 Y93.861
G1 X307.164 Y93.719
G1 X306.699 Y93.592
G1 X306.242 Y93.487
G1 X305.761 Y93.352
G1 X305.311 Y93.248
G1 X304.816 Y93.115
G1 X304.354 Y92.989
G1 X303.880 Y92.860
G1 X303.359 Y92.697
G1 X302.806 Y92.526
G1 X302.309 Y92.361
G1 X301.754 Y92.176
G1 X301.191 Y91.969
G1 X300.588 Y91.738
G1 X299.988 Y91.509
G1 X299.355 Y91.214
G1 X298.670 Y90.963
G1 X297.941 Y90.655
G1 X297.233 Y90.335
G1 X296.483 Y89.961
G1 X295.708 Y89.644
G1 X294.896 Y89.269
G1 X294.124 Y88.906
G1 X293.289 Y88.535
G1 X292.510 Y88.140
G1 X291.715 Y87.733
G1 X290.896 Y87.363
G1 X290.124 Y86.990
G1 X289.312 Y86.594
G1 X288.546 Y86.230
G1 X287.788 Y85.851
G1 X287.058 Y85.520
G1 X286.352 Y85.152
G1 X285.701 Y84.812
G1 X285.035 Y84.514
G1 X284.435 Y84.234
G1 X283.834 Y83.932
G1 X283.289 Y83.652
G1 X282.718 Y83.382
G1 X282.188 Y83.130
G1 X281.671 Y82.861
G1 X281.195 Y82.594
G1 X280.678 Y82.361
G1 X280.222 Y82.137
G1 X279.725 Y81.877
G1 X279.245 Y81.641
G1 X278.796 Y81.403
G1 X278.328 Y81.179
G1 X277.878 Y80.932
G1 X277.397 Y80.669
G1 X276.954 Y80.460
G1 X276.456 Y80.207
G1 X276.011 Y79.980
G1 X275.496 Y79.742
G1 X275.033 Y79.486
; Path 3
G0 Z0
G0 X277.160 Y82.983
G0 Z2.2
G1 F3000
G1 X278.888 Y83.973
; Path 4
G0 Z0
G0 X281.096 Y86.048
G0 Z2.2
G1 F3000
G1 X282.909 Y86.932
; Path 5
G0 Z0
G0 X294.010 Y93.443
G0 Z2.2
G1 F3000
G1 X296.008 Y93.548
; Path 6
G0 Z0
G0 X284.045 Y103.230
G0 Z2.2
G1 F3000
G1 X285.973 Y103.760
; Path 7
G0 Z0
G0 X290.009 Y97.495
G0 Z2.2
G1 F3000
G1 X302.009 Y98.495
; Path 8
G0 Z0
G0 X298.992 Y101.677
G0 Z2.2
G1 F3000
G1 X297.026 Y101.313
; Path 9
G0 Z0
G0 X310.009 Y114.495
G0 Z2.2
G1 F3000
G1 X308.342 Y114.412
G1 X306.676 Y114.329
G1 X305.009 Y114.245
G1 X303.342 Y114.162
G1 X301.676 Y114.079
G1 X300.009 Y113.995
G1 X298.342 Y113.912
G1 X296.676 Y113.829
G1 X295.009 Y113.745
G1 X293.342 Y113.662
G1 X291.676 Y113.579
G1 X290.009 Y113.495
G1 X288.342 Y113.412
G1 X286.676 Y113.329
G1 X285.009 Y113.245
G1 X283.342 Y113.162
G1 X281.676 Y113.079
G1 X280.009 Y112.995
G1 X278.342 Y112.912
G1 X276.676 Y112.829
G1 X275.009 Y112.745
G1 X273.342 Y112.662
G1 X271.676 Y112.579
G1 X270.009 Y112.495
G1 X268.342 Y112.412
G1 X266.676 Y112.329
G1 X265.009 Y112.245
G1 X263.342 Y112.162
G1 X261.676 Y112.079
G1 X260.009 Y111.995
G1 X258.342 Y111.912
G1 X256.676 Y111.829
G1 X255.009 Y111.745
G1 X253.342 Y111.662
G1 X251.676 Y111.579
G1 X250.009 Y111.495
; Path 10
G0 Z0
G0 X240.621 Y116.704
G0 Z2.2
G1 F3000
G1 X239.397 Y118.286
; Path 11
G0 Z0
G0 X238.009 Y119.495
G0 Z2.2
G1 F3000
G1 X235.009 Y109.495
; Path 12
G0 Z0
G0 X236.009 Y104.495
G0 Z2.2
G1 F3000
G1 X234.009 Y97.495
; Path 13
G0 Z0
G0 X234.009 Y95.495
G0 Z2.2
G1 F3000
G1 X230.009 Y97.495
; Path 14
G0 Z0
G0 X226.007 Y93.555
G0 Z2.2
G1 F3000
G1 X224.011 Y93.435
; Path 15
G0 Z0
G0 X218.028 Y87.499
G0 Z2.2
G1 F3000
G1 X218.229 Y87.293
G1 X218.431 Y87.105
G1 X218.665 Y86.895
G1 X218.841 Y86.724
G1 X219.066 Y86.515
G1 X219.254 Y86.352
G1 X219.443 Y86.149
G1 X219.669 Y85.981
G1 X219.861 Y85.812
G1 X220.082 Y85.607
G1 X220.262 Y85.399
G1 X220.489 Y85.223
G1 X220.686 Y85.041
G1 X220.889 Y84.823
G1 X221.068 Y84.616
G1 X221.279 Y84.401
G1 X221.461 Y84.153
G1 X221.654 Y83.952
G1 X221.822 Y83.725
G1 X222.013 Y83.470
G1 X222.155 Y83.199
G1 X222.345 Y82.950
G1 X222.469 Y82.686
G1 X222.647 Y82.397
G1 X222.779 Y82.089
G1 X222.927 Y81.817
G1 X223.066 Y81.534
G1 X223.194 Y81.215
G1 X223.298 Y80.916
G1 X223.458 Y80.597
G1 X223.564 Y80.264
G1 X223.726 Y79.970
G1 X223.890 Y79.644
G1 X224.008 Y79.338
G1 X224.182 Y79.050
G1 X224.313 Y78.709
G1 X224.455 Y78.403
G1 X224.649 Y78.087
G1 X224.845 Y77.772
G1 X225.025 Y77.478
G1 X225.261 Y77.205
G1 X225.443 Y76.878
G1 X225.646 Y76.571
G1 X225.894 Y76.278
G1 X226.137 Y75.978
G1 X226.372 Y75.677
G1 X226.648 Y75.368
G1 X226.872 Y75.077
G1 X227.133 Y74.796
G1 X227.388 Y74.476
G1 X227.633 Y74.172
G1 X227.914 Y73.876
G1 X228.197 Y73.557
G1 X228.443 Y73.275
G1 X228.684 Y72.948
G1 X228.971 Y72.674
G1 X229.211 Y72.392
G1 X229.490 Y72.073
G1 X229.746 Y71.748
G1 X229.996 Y71.473
; Path 16
G0 Z0
G0 X230.005 Y71.473
G0 Z2.2
G1 F3000
G1 X229.512 Y71.767
G1 X229.004 Y72.058
G1 X228.516 Y72.354
G1 X228.002 Y72.616
G1 X227.518 Y72.883
G1 X227.000 Y73.157
G1 X226.524 Y73.423
G1 X225.999 Y73.695
G1 X225.492 Y73.948
G1 X224.997 Y74.241
G1 X224.485 Y74.518
G1 X223.996 Y74.806
G1 X223.509 Y75.092
G1 X222.994 Y75.403
G1 X222.495 Y75.700
G1 X221.993 Y76.044
G1 X221.484 Y76.366
G1 X220.993 Y76.740
G1 X220.488 Y77.106
G1 X219.993 Y77.503
G1 X219.501 Y77.903
G1 X218.994 Y78.355
G1 X218.515 Y78.837
G1 X217.995 Y79.295
G1 X217.512 Y79.782
G1 X216.997 Y80.303
G1 X216.503 Y80.834
G1 X216.000 Y81.357
G1 X215.512 Y81.880
G1 X215.003 Y82.436
G1 X214.517 Y82.978
G1 X214.005 Y83.521
G1 X213.485 Y84.063
G1 X213.008 Y84.589
G1 X212.490 Y85.082
G1 X212.010 Y85.621
G1 X211.531 Y86.106
G1 X211.011 Y86.594
G1 X210.495 Y87.015
G1 X210.011 Y87.489
G1 X209.489 Y87.904
G1 X209.010 Y88.310
G1 X208.530 Y88.700
G1 X208.009 Y89.079
G1 X207.498 Y89.420
G1 X207.007 Y89.806
G1 X206.525 Y90.173
G1 X206.005 Y90.501
G1 X205.485 Y90.836
G1 X205.002 Y91.171
G1 X204.514 Y91.519
G1 X203.999 Y91.826
G1 X203.517 Y92.154
G1 X202.996 Y92.476
G1 X202.480 Y92.799
G1 X201.993 Y93.128
G1 X201.493 Y93.449
G1 X200.990 Y93.793
G1 X200.517 Y94.145
G1 X199.988 Y94.478
; Path 17
G0 Z0
G0 X210.012 Y94.471
G0 Z2.2
G1 F3000
G1 X209.785 Y94.233
G1 X209.518 Y93.997
G1 X209.288 Y93.802
G1 X209.037 Y93.559
G1 X208.821 Y93.320
G1 X208.564 Y93.141
G1 X208.306 Y92.948
G1 X208.093 Y92.728
G1 X207.851 Y92.534
G1 X207.618 Y92.305
G1 X207.373 Y92.055
G1 X207.133 Y91.857
G1 X206.855 Y91.637
G1 X206.633 Y91.369
G1 X206.386 Y91.087
G1 X206.112 Y90.825
G1 X205.857 Y90.513
G1 X205.563 Y90.211
G1 X205.282 Y89.849
G1 X204.981 Y89.511
G1 X204.704 Y89.116
G1 X204.376 Y88.738
G1 X204.081 Y88.332
G1 X203.759 Y87.916
G1 X203.468 Y87.507
G1 X203.126 Y87.043
G1 X202.773 Y86.558
G1 X202.476 Y86.119
G1 X202.132 Y85.636
G1 X201.803 Y85.146
G1 X201.446 Y84.639
G1 X201.106 Y84.122
G1 X200.723 Y83.612
G1 X200.381 Y83.047
G1 X200.005 Y82.500
G1 X199.625 Y81.922
G1 X199.216 Y81.319
G1 X198.834 Y80.746
G1 X198.447 Y80.151
G1 X198.006 Y79.519
G1 X197.534 Y78.861
G1 X197.121 Y78.183
G1 X196.634 Y77.435
G1 X196.170 Y76.704
G1 X195.680 Y75.926
G1 X195.169 Y75.122
G1 X194.676 Y74.322
G1 X194.134 Y73.477
G1 X193.584 Y72.623
G1 X193.078 Y71.807
G1 X192.535 Y70.989
G1 X192.017 Y70.152
G1 X191.506 Y69.335
G1 X190.965 Y68.552
G1 X190.476 Y67.807
G1 X189.939 Y67.045
G1 X189.439 Y66.346
G1 X188.952 Y65.672
G1 X188.470 Y65.065
G1 X188.019 Y64.472
G1 X187.556 Y63.941
G1 X187.138 Y63.447
G1 X186.742 Y63.008
G1 X186.290 Y62.560
G1 X185.909 Y62.190
G1 X185.469 Y61.786
G1 X185.052 Y61.432
G1 X184.670 Y61.101
G1 X184.283 Y60.775
G1 X183.887 Y60.481
G1 X183.508 Y60.198
G1 X183.114 Y59.900
G1 X182.732 Y59.641
G1 X182.345 Y59.336
G1 X181.949 Y59.029
G1 X181.574 Y58.764
G1 X181.175 Y58.478
G1 X180.795 Y58.160
G1 X180.419 Y57.812
G1 X180.002 Y57.499
; Path 18
G0 Z0
G0 X180.009 Y57.495
G0 Z2.2
G1 F3000
G1 X179.592 Y58.162
G1 X179.176 Y58.829
G1 X178.759 Y59.495
G1 X178.342 Y60.162
G1 X177.926 Y60.829
G1 X177.509 Y61.495
G1 X177.092 Y62.162
G1 X176.676 Y62.829
G1 X176.259 Y63.495
G1 X175.842 Y64.162
G1 X175.426 Y64.829
G1 X175.009 Y65.495
G1 X174.592 Y66.162
G1 X174.176 Y66.829
G1 X173.759 Y67.495
G1 X173.342 Y68.162
G1 X172.926 Y68.829
G1 X172.509 Y69.495
G1 X172.092 Y70.162
G1 X171.676 Y70.829
G1 X171.259 Y71.495
G1 X170.842 Y72.162
G1 X170.426 Y72.829
G1 X170.009 Y73.495
G1 X169.592 Y74.162
G1 X169.176 Y74.829
G1 X168.759 Y75.495
G1 X168.342 Y76.162
G1 X167.926 Y76.829
G1 X167.509 Y77.495
G1 X167.092 Y78.162
G1 X166.676 Y78.829
G1 X166.259 Y79.495
G1 X165.842 Y80.162
G1 X165.426 Y80.829
G1 X165.009 Y81.495
; Path 19
G0 Z0
G0 X165.009 Y75.495
G0 Z2.2
G1 F3000
G1 X173.009 Y74.495
; Path 20
G0 Z0
G0 X189.025 Y92.315
G0 Z2.2
G1 F3000
G1 X190.993 Y92.676
; Path 21
G0 Z0
G0 X185.009 Y107.495
G0 Z2.2
G1 F3000
G1 X205.009 Y109.495
; Path 22
G0 Z0
G0 X204.009 Y111.495
G0 Z2.2
G1 F3000
G1 X186.009 Y110.495
; Path 23
G0 Z0
G0 X195.009 Y114.495
G0 Z2.2
G1 F3000
G1 X202.009 Y115.495
; Path 24
G0 Z0
G0 X209.087 Y114.109
G0 Z2.2
G1 F3000
G1 X210.931 Y114.882
; Path 25
G0 Z0
G0 X205.509 Y124.495
G0 Z2.2
G1 F3000
G1 X205.009 Y123.995
G1 X204.509 Y124.495
G1 X205.009 Y124.995
G1 X205.509 Y124.495
; Path 26
G0 Z0
G0 X177.477 Y143.684
G0 Z2.2
G1 F3000
G1 X178.558 Y145.355
; Path 27
G0 Z0
G0 X170.009 Y179.495
G0 Z2.2
G1 F3000
G1 X190.009 Y181.495
; Path 28
G0 Z0
G0 X188.509 Y191.495
G0 Z2.2
G1 F3000
G1 X188.009 Y190.995
G1 X187.509 Y191.495
G1 X188.009 Y191.995
G1 X188.509 Y191.495
; Path 29
G0 Z0
G0 X195.009 Y201.495
G0 Z2.2
G1 F3000
G1 X193.326 Y201.412
G1 X191.618 Y201.329
G1 X189.892 Y201.245
G1 X188.157 Y201.162
G1 X186.422 Y201.079
G1 X184.696 Y200.995
G1 X182.988 Y200.912
G1 X181.305 Y200.829
G1 X179.657 Y200.745
G1 X178.053 Y200.662
G1 X176.501 Y200.579
G1 X175.009 Y200.495
G1 X173.584 Y200.412
G1 X172.220 Y200.329
G1 X170.907 Y200.245
G1 X169.639 Y200.162
G1 X168.405 Y200.079
G1 X167.196 Y199.995
G1 X166.006 Y199.912
G1 X164.824 Y199.829
G1 X163.642 Y199.745
G1 X162.451 Y199.662
G1 X161.243 Y199.579
G1 X160.009 Y199.495
; Path 30
G0 Z0
G0 X165.009 Y174.495
G0 Z2.2
G1 F3000
G1 X163.775 Y174.415
G1 X162.567 Y174.340
G1 X161.376 Y174.269
G1 X160.194 Y174.199
G1 X159.012 Y174.129
G1 X157.821 Y174.058
G1 X156.613 Y173.983
G1 X155.379 Y173.903
G1 X154.111 Y173.816
G1 X152.798 Y173.720
G1 X151.434 Y173.614
G1 X150.009 Y173.495
G1 X148.517 Y173.364
G1 X146.965 Y173.220
G1 X145.361 Y173.066
G1 X143.713 Y172.903
G1 X142.030 Y172.733
G1 X140.321 Y172.558
G1 X138.595 Y172.379
G1 X136.861 Y172.199
G1 X135.126 Y172.019
G1 X133.400 Y171.840
G1 X131.692 Y171.665
G1 X130.009 Y171.495
G1 X128.342 Y171.329
G1 X126.676 Y171.162
G1 X125.009 Y170.995
G1 X123.342 Y170.829
G1 X121.676 Y170.662
G1 X120.009 Y170.495
G1 X118.342 Y170.329
G1 X116.676 Y170.162
G1 X115.009 Y169.995
G1 X113.342 Y169.829
G1 X111.676 Y169.662
G1 X110.009 Y169.495
; Path 31
G0 Z0
G0 X120.009 Y184.495
G0 Z2.2
G1 F3000
G1 X135.009 Y186.495
; Path 32
G0 Z0
G0 X132.509 Y194.495
G0 Z2.2
G1 F3000
G1 X132.009 Y194.995
G1 X131.509 Y194.495
G1 X132.009 Y193.995
G1 X132.509 Y194.495
; Path 33
G0 Z0
G0 X125.978 Y211.647
G0 Z2.2
G1 F3000
G1 X123.990 Y211.358
; Path 34
G0 Z0
G0 X136.990 Y214.437
G0 Z2.2
G1 F3000
G1 X138.998 Y214.616
; Path 35
G0 Z0
G0 X130.004 Y224.514
G0 Z2.2
G1 F3000
G1 X130.622 Y224.466
G1 X131.200 Y224.388
G1 X131.783 Y224.322
G1 X132.388 Y224.227
G1 X132.951 Y224.119
G1 X133.572 Y224.046
G1 X134.140 Y223.940
G1 X134.755 Y223.859
G1 X135.353 Y223.744
G1 X135.940 Y223.683
G1 X136.557 Y223.618
G1 X137.130 Y223.532
G1 X137.758 Y223.490
G1 X138.328 Y223.421
G1 X138.950 Y223.400
G1 X139.538 Y223.366
G1 X140.144 Y223.400
G1 X140.762 Y223.382
G1 X141.390 Y223.439
G1 X142.004 Y223.483
G1 X142.626 Y223.560
G1 X143.265 Y223.680
G1 X143.924 Y223.837
G1 X144.543 Y223.964
G1 X145.179 Y224.117
G1 X145.836 Y224.318
G1 X146.481 Y224.495
G1 X147.141 Y224.727
G1 X147.824 Y224.975
G1 X148.453 Y225.177
G1 X149.108 Y225.404
G1 X149.771 Y225.652
G1 X150.428 Y225.901
G1 X151.090 Y226.137
G1 X151.736 Y226.387
G1 X152.409 Y226.617
G1 X153.037 Y226.820
G1 X153.724 Y227.077
G1 X154.359 Y227.265
G1 X155.031 Y227.502
; Path 36
G0 Z0
G0 X144.987 Y234.494
G0 Z2.2
G1 F3000
G1 X144.516 Y234.369
G1 X144.001 Y234.279
G1 X143.522 Y234.181
G1 X143.036 Y234.044
G1 X142.550 Y233.944
G1 X142.082 Y233.796
G1 X141.590 Y233.662
G1 X141.131 Y233.546
G1 X140.628 Y233.408
G1 X140.175 Y233.301
G1 X139.687 Y233.166
G1 X139.203 Y233.072
G1 X138.686 Y232.963
G1 X138.208 Y232.866
G1 X137.685 Y232.773
G1 X137.180 Y232.694
G1 X136.637 Y232.616
G1 X136.110 Y232.563
G1 X135.524 Y232.515
G1 X134.990 Y232.484
G1 X134.379 Y232.489
G1 X133.808 Y232.475
G1 X133.209 Y232.503
G1 X132.569 Y232.537
G1 X131.932 Y232.614
G1 X131.284 Y232.654
G1 X130.608 Y232.757
G1 X129.966 Y232.806
G1 X129.317 Y232.903
G1 X128.625 Y232.977
G1 X127.940 Y233.041
G1 X127.275 Y233.147
G1 X126.619 Y233.206
G1 X125.927 Y233.301
G1 X125.280 Y233.358
G1 X124.592 Y233.418
G1 X123.950 Y233.435
G1 X123.283 Y233.483
G1 X122.633 Y233.507
G1 X122.012 Y233.476
G1 X121.396 Y233.418
G1 X120.773 Y233.400
G1 X120.187 Y233.347
G1 X119.551 Y233.274
G1 X118.958 Y233.185
G1 X118.342 Y233.106
G1 X117.744 Y232.986
G1 X117.145 Y232.907
G1 X116.545 Y232.765
G1 X115.955 Y232.683
G1 X115.373 Y232.586
G1 X114.771 Y232.445
G1 X114.182 Y232.325
G1 X113.588 Y232.201
G1 X113.017 Y232.061
G1 X112.404 Y231.960
G1 X111.802 Y231.856
G1 X111.216 Y231.730
G1 X110.627 Y231.616
G1 X110.022 Y231.522
; Path 37
G0 Z0
G0 X140.006 Y239.505
G0 Z2.2
G1 F3000
G1 X140.732 Y239.463
G1 X141.514 Y239.409
G1 X142.267 Y239.353
G1 X143.035 Y239.321
G1 X143.806 Y239.298
G1 X144.564 Y239.237
G1 X145.307 Y239.169
G1 X146.096 Y239.154
G1 X146.846 Y239.123
G1 X147.623 Y239.068
G1 X148.404 Y239.023
G1 X149.141 Y238.978
G1 X149.917 Y238.933
G1 X150.642 Y238.880
G1 X151.362 Y238.818
G1 X152.122 Y238.770
G1 X152.869 Y238.705
G1 X153.573 Y238.646
G1 X154.264 Y238.564
G1 X154.991 Y238.504
G1 X155.655 Y238.416
G1 X156.375 Y238.330
G1 X157.033 Y238.214
G1 X157.732 Y238.116
G1 X158.378 Y237.990
G1 X159.065 Y237.876
G1 X159.718 Y237.724
G1 X160.377 Y237.622
G1 X161.033 Y237.501
G1 X161.671 Y237.366
G1 X162.336 Y237.225
G1 X162.950 Y237.119
G1 X163.612 Y237.034
G1 X164.218 Y236.896
G1 X164.829 Y236.787
G1 X165.477 Y236.707
G1 X166.083 Y236.627
G1 X166.731 Y236.565
G1 X167.342 Y236.517
G1 X167.982 Y236.482
G1 X168.605 Y236.476
G1 X169.225 Y236.462
G1 X169.853 Y236.458
G1 X170.451 Y236.494
G1 X171.060 Y236.536
G1 X171.664 Y236.568
G1 X172.253 Y236.628
G1 X172.866 Y236.677
G1 X173.467 Y236.763
G1 X174.061 Y236.810
G1 X174.633 Y236.870
G1 X175.251 Y236.958
G1 X175.845 Y237.035
G1 X176.439 Y237.112
G1 X177.032 Y237.163
G1 X177.628 Y237.263
G1 X178.234 Y237.332
G1 X178.821 Y237.402
G1 X179.420 Y237.484
G1 X180.021 Y237.520
; Path 38
G0 Z0
G0 X182.892 Y208.020
G0 Z2.2
G1 F3000
G1 X181.160 Y207.002
; Path 39
G0 Z0
G0 X165.954 Y209.805
G0 Z2.2
G1 F3000
G1 X164.052 Y209.158
; Path 40
G0 Z0
G0 X150.009 Y207.495
G0 Z2.2
G1 F3000
G1 X149.182 Y207.412
G1 X148.365 Y207.329
G1 X147.556 Y207.245
G1 X146.750 Y207.162
G1 X145.944 Y207.079
G1 X145.134 Y206.995
G1 X144.317 Y206.912
G1 X143.490 Y206.829
G1 X142.650 Y206.745
G1 X141.791 Y206.662
G1 X140.912 Y206.579
G1 X140.009 Y206.495
G1 X139.082 Y206.412
G1 X138.136 Y206.329
G1 X137.173 Y206.245
G1 X136.194 Y206.162
G1 X135.201 Y206.079
G1 X134.196 Y205.995
G1 X133.181 Y205.912
G1 X132.157 Y205.829
G1 X131.126 Y205.745
G1 X130.090 Y205.662
G1 X129.050 Y205.579
G1 X128.009 Y205.495
G1 X126.961 Y205.412
G1 X125.900 Y205.329
G1 X124.829 Y205.245
G1 X123.750 Y205.162
G1 X122.663 Y205.079
G1 X121.571 Y204.995
G1 X120.476 Y204.912
G1 X119.379 Y204.829
G1 X118.282 Y204.745
G1 X117.187 Y204.662
G1 X116.095 Y204.579
G1 X115.009 Y204.495
; Path 41
G0 Z0
G0 X109.982 Y217.481
G0 Z2.2
G1 F3000
G1 X111.499 Y217.562
G1 X112.983 Y217.697
G1 X114.508 Y217.807
G1 X115.984 Y217.934
G1 X117.478 Y218.031
G1 X118.985 Y218.183
G1 X120.497 Y218.317
G1 X121.985 Y218.436
G1 X123.512 Y218.543
G1 X124.986 Y218.682
G1 X126.504 Y218.777
G1 X127.987 Y218.913
G1 X129.502 Y219.009
G1 X130.988 Y219.120
G1 X132.486 Y219.186
G1 X133.989 Y219.293
G1 X135.475 Y219.377
G1 X136.990 Y219.424
G1 X138.504 Y219.488
G1 X139.992 Y219.502
G1 X141.495 Y219.489
G1 X143.039 Y219.509
G1 X144.576 Y219.478
G1 X146.156 Y219.443
G1 X147.750 Y219.364
G1 X149.314 Y219.322
G1 X150.928 Y219.221
G1 X152.482 Y219.164
G1 X154.062 Y219.093
G1 X155.630 Y218.988
G1 X157.165 Y218.883
G1 X158.729 Y218.812
G1 X160.252 Y218.729
G1 X161.746 Y218.655
G1 X163.206 Y218.577
G1 X164.653 Y218.534
G1 X166.029 Y218.497
G1 X167.420 Y218.468
G1 X168.707 Y218.492
G1 X170.015 Y218.476
G1 X171.254 Y218.522
G1 X172.442 Y218.560
G1 X173.613 Y218.653
G1 X174.733 Y218.703
G1 X175.804 Y218.828
G1 X176.903 Y218.894
G1 X177.960 Y219.004
G1 X178.967 Y219.119
G1 X179.929 Y219.265
G1 X180.941 Y219.366
G1 X181.875 Y219.473
G1 X182.840 Y219.624
G1 X183.786 Y219.767
G1 X184.679 Y219.880
G1 X185.554 Y220.018
G1 X186.474 Y220.121
G1 X187.354 Y220.249
G1 X188.240 Y220.336
G1 X189.106 Y220.424
G1 X189.993 Y220.512
G1 X190.872 Y220.597
G1 X191.697 Y220.655
G1 X192.497 Y220.698
G1 X193.317 Y220.780
G1 X194.093 Y220.829
G1 X194.868 Y220.891
G1 X195.618 Y220.923
G1 X196.364 Y220.990
G1 X197.119 Y221.013
G1 X197.821 Y221.082
G1 X198.545 Y221.126
G1 X199.254 Y221.168
G1 X199.959 Y221.182
G1 X200.676 Y221.252
G1 X201.387 Y221.312
G1 X202.104 Y221.337
G1 X202.832 Y221.392
G1 X203.551 Y221.427
G1 X204.263 Y221.472
G1 X205.033 Y221.523
; Path 42
G0 Z0
G0 X210.009 Y221.495
G0 Z2.2
G1 F3000
G1 X206.009 Y223.495
; Path 43
G0 Z0
G0 X209.009 Y228.495
G0 Z2.2
G1 F3000
G1 X213.009 Y224.495
; Path 44
G0 Z0
G0 X213.015 Y225.513
G0 Z2.2
G1 F3000
G1 X214.043 Y224.484
G1 X215.006 Y223.482
G1 X216.021 Y222.504
; Path 45
G0 Z0
G0 X216.907 Y220.983
G0 Z2.2
G1 F3000
G1 X215.129 Y220.082
; Path 46
G0 Z0
G0 X217.996 Y218.462
G0 Z2.2
G1 F3000
G1 X216.046 Y218.559
; Path 47
G0 Z0
G0 X218.013 Y219.512
G0 Z2.2
G1 F3000
G1 X216.180 Y219.287
G1 X214.378 Y219.135
G1 X212.621 Y218.931
G1 X210.773 Y218.683
G1 X208.979 Y218.538
G1 X207.202 Y218.323
G1 X205.371 Y218.126
G1 X203.566 Y217.882
G1 X201.784 Y217.677
G1 X199.983 Y217.506
; Path 48
G0 Z0
G0 X195.000 Y224.511
G0 Z2.2
G1 F3000
G1 X195.359 Y224.449
G1 X195.697 Y224.411
G1 X196.041 Y224.380
G1 X196.387 Y224.311
G1 X196.720 Y224.253
G1 X197.073 Y224.210
G1 X197.401 Y224.176
G1 X197.759 Y224.110
G1 X198.094 Y224.036
G1 X198.446 Y224.010
G1 X198.817 Y223.951
G1 X199.138 Y223.910
G1 X199.462 Y223.835
G1 X199.838 Y223.810
G1 X200.218 Y223.733
G1 X200.548 Y223.710
G1 X200.895 Y223.680
G1 X201.272 Y223.611
G1 X201.626 Y223.567
G1 X202.012 Y223.511
G1 X202.401 Y223.438
G1 X202.771 Y223.412
G1 X203.178 Y223.343
G1 X203.546 Y223.313
G1 X203.970 Y223.249
G1 X204.335 Y223.214
G1 X204.715 Y223.190
G1 X205.134 Y223.115
G1 X205.554 Y223.063
G1 X205.941 Y223.016
G1 X206.350 Y222.939
G1 X206.753 Y222.917
G1 X207.176 Y222.875
G1 X207.566 Y222.818
G1 X207.990 Y222.747
G1 X208.379 Y222.719
G1 X208.811 Y222.653
G1 X209.188 Y222.621
G1 X209.598 Y222.570
G1 X209.990 Y222.522
; Path 49
G0 Z0
G0 X212.025 Y222.571
G0 Z2.2
G1 F3000
G1 X212.701 Y221.918
G1 X213.349 Y221.142
G1 X213.932 Y220.521
; Path 50
G0 Z0
G0 X214.120 Y222.015
G0 Z2.2
G1 F3000
G1 X215.848 Y223.039
; Path 51
G0 Z0
G0 X215.380 Y222.351
G0 Z2.2
G1 F3000
G1 X214.478 Y220.620
; Path 52
G0 Z0
G0 X214.038 Y219.478
G0 Z2.2
G1 F3000
G1 X214.685 Y220.815
G1 X215.350 Y222.156
G1 X215.990 Y223.488
; Path 53
G0 Z0
G0 X215.982 Y223.474
G0 Z2.2
G1 F3000
G1 X217.014 Y222.475
G1 X218.017 Y221.478
; Path 54
G0 Z0
G0 X218.757 Y221.845
G0 Z2.2
G1 F3000
G1 X217.195 Y223.139
; Path 55
G0 Z0
G0 X217.786 Y222.792
G0 Z2.2
G1 F3000
G1 X216.193 Y224.070
; Path 56
G0 Z0
G0 X216.037 Y224.465
G0 Z2.2
G1 F3000
G1 X216.745 Y224.625
G1 X217.601 Y224.855
G1 X218.313 Y225.005
G1 X219.229 Y225.300
G1 X219.942 Y225.424
; Path 57
G0 Z0
G0 X217.989 Y226.490
G0 Z2.2
G1 F3000
G1 X218.307 Y224.803
G1 X218.676 Y223.159
G1 X218.990 Y221.504
; Path 58
G0 Z0
G0 X220.189 Y222.483
G0 Z2.2
G1 F3000
G1 X219.869 Y224.509
; Path 59
G0 Z0
G0 X222.981 Y224.512
G0 Z2.2
G1 F3000
G1 X222.313 Y223.189
G1 X221.683 Y221.828
G1 X221.012 Y220.508
; Path 60
G0 Z0
G0 X228.139 Y226.479
G0 Z2.2
G1 F3000
G1 X227.926 Y224.500
; Path 61
G0 Z0
G0 X224.404 Y216.592
G0 Z2.2
G1 F3000
G1 X223.669 Y218.435
; Path 62
G0 Z0
G0 X222.701 Y218.724
G0 Z2.2
G1 F3000
G1 X221.363 Y220.190
; Path 63
G0 Z0
G0 X219.789 Y218.459
G0 Z2.2
G1 F3000
G1 X220.253 Y216.490
; Path 64
G0 Z0
G0 X221.000 Y216.517
G0 Z2.2
G1 F3000
G1 X222.008 Y214.984
G1 X222.990 Y213.468
; Path 65
G0 Z0
G0 X225.017 Y214.485
G0 Z2.2
G1 F3000
G1 X224.643 Y214.540
G1 X224.301 Y214.574
G1 X223.916 Y214.592
G1 X223.564 Y214.643
G1 X223.192 Y214.663
G1 X222.814 Y214.701
G1 X222.412 Y214.704
G1 X222.062 Y214.755
G1 X221.674 Y214.800
G1 X221.315 Y214.815
G1 X220.939 Y214.873
G1 X220.584 Y214.890
G1 X220.205 Y214.919
G1 X219.877 Y214.988
G1 X219.527 Y215.061
G1 X219.204 Y215.120
G1 X218.904 Y215.189
G1 X218.573 Y215.292
G1 X218.291 Y215.407
G1 X217.993 Y215.515
G1 X217.757 Y215.630
G1 X217.472 Y215.795
G1 X217.207 Y215.945
G1 X217.001 Y216.124
G1 X216.780 Y216.301
G1 X216.574 Y216.495
G1 X216.384 Y216.711
G1 X216.180 Y216.899
G1 X216.000 Y217.107
G1 X215.810 Y217.326
G1 X215.640 Y217.550
G1 X215.455 Y217.768
G1 X215.296 Y217.989
G1 X215.107 Y218.216
G1 X214.915 Y218.429
G1 X214.755 Y218.662
G1 X214.592 Y218.902
G1 X214.391 Y219.095
G1 X214.188 Y219.316
G1 X214.006 Y219.507
; Path 66
G0 Z0
G0 X214.003 Y219.520
G0 Z2.2
G1 F3000
G1 X215.339 Y220.177
G1 X216.686 Y220.869
G1 X218.024 Y221.500
; Path 67
G0 Z0
G0 X217.990 Y221.503
G0 Z2.2
G1 F3000
G1 X218.223 Y221.405
G1 X218.398 Y221.318
G1 X218.632 Y221.224
G1 X218.813 Y221.154
G1 X219.023 Y221.096
G1 X219.232 Y221.002
G1 X219.417 Y220.910
G1 X219.652 Y220.853
G1 X219.875 Y220.768
G1 X220.070 Y220.698
G1 X220.273 Y220.620
G1 X220.483 Y220.528
G1 X220.709 Y220.410
G1 X220.888 Y220.334
G1 X221.112 Y220.210
G1 X221.281 Y220.106
G1 X221.480 Y219.989
G1 X221.660 Y219.836
G1 X221.838 Y219.672
G1 X222.022 Y219.514
G1 X222.176 Y219.333
G1 X222.364 Y219.135
G1 X222.538 Y218.943
G1 X222.688 Y218.704
G1 X222.872 Y218.474
G1 X222.998 Y218.231
G1 X223.124 Y217.956
G1 X223.297 Y217.724
G1 X223.455 Y217.444
G1 X223.588 Y217.193
G1 X223.715 Y216.906
G1 X223.873 Y216.647
G1 X224.027 Y216.398
G1 X224.157 Y216.095
G1 X224.313 Y215.822
G1 X224.441 Y215.546
G1 X224.590 Y215.274
G1 X224.730 Y215.009
G1 X224.870 Y214.746
G1 X225.026 Y214.493
; Path 68
G0 Z0
G0 X226.026 Y215.497
G0 Z2.2
G1 F3000
G1 X225.023 Y214.007
G1 X224.010 Y212.500
; Path 69
G0 Z0
G0 X225.036 Y212.514
G0 Z2.2
G1 F3000
G1 X226.039 Y213.028
G1 X227.029 Y213.523
; Path 70
G0 Z0
G0 X227.998 Y211.504
G0 Z2.2
G1 F3000
G1 X227.698 Y209.792
G1 X227.419 Y208.095
G1 X227.106 Y206.349
G1 X226.828 Y204.633
G1 X226.542 Y202.892
G1 X226.292 Y201.214
G1 X225.982 Y199.468
; Path 71
G0 Z0
G0 X224.993 Y197.518
G0 Z2.2
G1 F3000
G1 X224.863 Y197.210
G1 X224.788 Y196.923
G1 X224.671 Y196.630
G1 X224.576 Y196.335
G1 X224.491 Y196.045
G1 X224.360 Y195.751
G1 X224.264 Y195.472
G1 X224.143 Y195.168
G1 X224.039 Y194.893
G1 X223.928 Y194.583
G1 X223.802 Y194.311
G1 X223.718 Y193.992
G1 X223.630 Y193.705
G1 X223.516 Y193.394
G1 X223.394 Y193.081
G1 X223.326 Y192.785
G1 X223.253 Y192.455
G1 X223.150 Y192.162
G1 X223.047 Y191.813
G1 X222.992 Y191.521
G1 X222.952 Y191.196
G1 X222.853 Y190.862
G1 X222.808 Y190.538
G1 X222.732 Y190.186
G1 X222.669 Y189.866
G1 X222.626 Y189.495
G1 X222.587 Y189.156
G1 X222.531 Y188.794
G1 X222.490 Y188.423
G1 X222.444 Y188.084
G1 X222.418 Y187.733
G1 X222.362 Y187.370
G1 X222.310 Y186.999
G1 X222.282 Y186.653
G1 X222.238 Y186.275
G1 X222.201 Y185.938
G1 X222.182 Y185.575
G1 X222.116 Y185.226
G1 X222.063 Y184.878
G1 X222.024 Y184.522
; Path 72
G0 Z0
G0 X220.206 Y188.482
G0 Z2.2
G1 F3000
G1 X219.808 Y186.552
; Path 73
G0 Z0
G0 X220.004 Y184.492
G0 Z2.2
G1 F3000
G1 X219.351 Y182.828
G1 X218.688 Y181.165
G1 X218.022 Y179.524
; Path 74
G0 Z0
G0 X219.097 Y178.481
G0 Z2.2
G1 F3000
G1 X218.919 Y176.520
; Path 75
G0 Z0
G0 X219.036 Y175.524
G0 Z2.2
G1 F3000
G1 X218.994 Y173.504
; Path 76
G0 Z0
G0 X219.924 Y168.536
G0 Z2.2
G1 F3000
G1 X220.128 Y166.533
; Path 77
G0 Z0
G0 X222.003 Y165.483
G0 Z2.2
G1 F3000
G1 X221.970 Y163.483
; Path 78
G0 Z0
G0 X220.996 Y169.508
G0 Z2.2
G1 F3000
G1 X220.333 Y167.817
G1 X219.649 Y166.164
G1 X219.018 Y164.513
; Path 79
G0 Z0
G0 X219.039 Y164.497
G0 Z2.2
G1 F3000
G1 X218.374 Y162.801
G1 X217.684 Y161.146
G1 X217.019 Y159.475
; Path 80
G0 Z0
G0 X216.019 Y157.521
G0 Z2.2
G1 F3000
G1 X215.852 Y158.112
G1 X215.718 Y158.719
G1 X215.596 Y159.335
G1 X215.417 Y159.917
G1 X215.266 Y160.513
G1 X215.117 Y161.115
G1 X214.951 Y161.701
G1 X214.816 Y162.313
G1 X214.692 Y162.885
G1 X214.515 Y163.511
G1 X214.354 Y164.084
G1 X214.214 Y164.709
G1 X214.094 Y165.310
G1 X213.914 Y165.907
G1 X213.775 Y166.517
G1 X213.614 Y167.105
G1 X213.449 Y167.715
G1 X213.314 Y168.302
G1 X213.148 Y168.903
G1 X213.014 Y169.500
G1 X212.829 Y170.106
G1 X212.702 Y170.715
G1 X212.514 Y171.361
G1 X212.369 Y171.958
G1 X212.196 Y172.586
G1 X212.025 Y173.216
G1 X211.845 Y173.860
G1 X211.679 Y174.478
G1 X211.482 Y175.094
G1 X211.338 Y175.732
G1 X211.158 Y176.361
G1 X211.012 Y176.967
G1 X210.870 Y177.560
G1 X210.710 Y178.169
G1 X210.569 Y178.742
G1 X210.440 Y179.329
G1 X210.316 Y179.899
G1 X210.211 Y180.433
G1 X210.118 Y180.959
G1 X210.032 Y181.469
G1 X209.941 Y181.976
G1 X209.909 Y182.431
G1 X209.872 Y182.870
G1 X209.836 Y183.325
G1 X209.794 Y183.750
G1 X209.803 Y184.164
G1 X209.806 Y184.592
G1 X209.804 Y184.960
G1 X209.836 Y185.345
G1 X209.827 Y185.724
G1 X209.844 Y186.106
G1 X209.866 Y186.468
G1 X209.892 Y186.861
G1 X209.910 Y187.204
G1 X209.954 Y187.547
G1 X209.951 Y187.944
G1 X209.966 Y188.303
G1 X209.981 Y188.700
G1 X209.985 Y189.086
G1 X209.990 Y189.484
; Path 81
G0 Z0
G0 X209.980 Y189.468
G0 Z2.2
G1 F3000
G1 X210.489 Y187.990
G1 X211.004 Y186.493
; Path 82
G0 Z0
G0 X212.150 Y182.462
G0 Z2.2
G1 F3000
G1 X211.856 Y184.442
; Path 83
G0 Z0
G0 X211.036 Y184.473
G0 Z2.2
G1 F3000
G1 X211.438 Y182.657
G1 X211.786 Y180.912
G1 X212.204 Y179.111
G1 X212.609 Y177.274
G1 X212.982 Y175.506
; Path 84
G0 Z0
G0 X214.234 Y173.513
G0 Z2.2
G1 F3000
G1 X213.795 Y175.468
; Path 85
G0 Z0
G0 X212.013 Y177.474
G0 Z2.2
G1 F3000
G1 X212.065 Y177.205
G1 X212.107 Y176.883
G1 X212.174 Y176.616
G1 X212.195 Y176.299
G1 X212.218 Y175.995
G1 X212.278 Y175.720
G1 X212.295 Y175.430
G1 X212.361 Y175.141
G1 X212.423 Y174.848
G1 X212.445 Y174.560
G1 X212.511 Y174.294
G1 X212.535 Y173.974
G1 X212.573 Y173.669
G1 X212.633 Y173.380
G1 X212.682 Y173.088
G1 X212.742 Y172.774
G1 X212.798 Y172.480
G1 X212.865 Y172.154
G1 X212.913 Y171.843
G1 X213.006 Y171.516
G1 X213.106 Y171.191
G1 X213.167 Y170.857
G1 X213.272 Y170.534
G1 X213.345 Y170.181
G1 X213.447 Y169.824
G1 X213.538 Y169.491
G1 X213.649 Y169.133
G1 X213.741 Y168.789
G1 X213.844 Y168.452
G1 X213.954 Y168.078
G1 X214.034 Y167.714
G1 X214.171 Y167.363
G1 X214.277 Y167.012
G1 X214.390 Y166.645
G1 X214.476 Y166.299
G1 X214.608 Y165.928
G1 X214.693 Y165.571
G1 X214.822 Y165.215
G1 X214.954 Y164.850
G1 X215.029 Y164.510
; Path 86
G0 Z0
G0 X217.932 Y166.485
G0 Z2.2
G1 F3000
G1 X218.097 Y164.527
; Path 87
G0 Z0
G0 X218.909 Y162.484
G0 Z2.2
G1 F3000
G1 X219.125 Y160.511
; Path 88
G0 Z0
G0 X218.038 Y159.490
G0 Z2.2
G1 F3000
G1 X217.859 Y160.308
G1 X217.884 Y161.326
G1 X217.652 Y162.118
G1 X217.506 Y163.060
G1 X217.413 Y164.004
G1 X217.372 Y164.809
G1 X217.171 Y165.661
G1 X217.059 Y166.589
G1 X216.997 Y167.488
; Path 89
G0 Z0
G0 X216.037 Y167.498
G0 Z2.2
G1 F3000
G1 X215.942 Y167.830
G1 X215.831 Y168.201
G1 X215.727 Y168.529
G1 X215.617 Y168.904
G1 X215.532 Y169.260
G1 X215.399 Y169.607
G1 X215.267 Y169.960
G1 X215.181 Y170.310
G1 X215.071 Y170.634
G1 X214.964 Y171.013
G1 X214.836 Y171.380
G1 X214.753 Y171.715
G1 X214.662 Y172.073
G1 X214.549 Y172.418
G1 X214.470 Y172.781
G1 X214.357 Y173.119
G1 X214.288 Y173.474
G1 X214.180 Y173.820
G1 X214.090 Y174.143
G1 X214.019 Y174.521
G1 X213.947 Y174.858
G1 X213.878 Y175.220
G1 X213.805 Y175.597
G1 X213.755 Y175.918
G1 X213.716 Y176.253
G1 X213.645 Y176.616
G1 X213.598 Y176.985
G1 X213.547 Y177.313
G1 X213.487 Y177.648
G1 X213.458 Y178.010
G1 X213.442 Y178.363
G1 X213.373 Y178.706
G1 X213.308 Y179.031
G1 X213.290 Y179.403
G1 X213.242 Y179.768
G1 X213.206 Y180.099
G1 X213.184 Y180.470
G1 X213.119 Y180.796
G1 X213.066 Y181.124
G1 X213.024 Y181.493
; Path 90
G0 Z0
G0 X212.859 Y180.464
G0 Z2.2
G1 F3000
G1 X213.169 Y178.469
; Path 91
G0 Z0
G0 X212.037 Y179.478
G0 Z2.2
G1 F3000
G1 X212.458 Y177.911
G1 X212.834 Y176.282
G1 X213.197 Y174.717
G1 X213.637 Y173.126
G1 X214.014 Y171.508
; Path 92
G0 Z0
G0 X214.830 Y170.525
G0 Z2.2
G1 F3000
G1 X215.273 Y168.543
; Path 93
G0 Z0
G0 X217.011 Y169.472
G0 Z2.2
G1 F3000
G1 X217.008 Y169.856
G1 X217.015 Y170.182
G1 X217.001 Y170.568
G1 X217.025 Y170.898
G1 X217.023 Y171.240
G1 X217.040 Y171.619
G1 X217.040 Y171.965
G1 X217.056 Y172.341
G1 X217.055 Y172.700
G1 X217.069 Y173.061
G1 X217.067 Y173.420
G1 X217.078 Y173.775
G1 X217.070 Y174.116
G1 X217.078 Y174.481
G1 X217.082 Y174.855
G1 X217.068 Y175.176
G1 X217.044 Y175.523
G1 X217.043 Y175.856
G1 X217.031 Y176.197
G1 X217.001 Y176.517
G1 X216.970 Y176.827
G1 X216.940 Y177.159
G1 X216.872 Y177.494
G1 X216.862 Y177.783
G1 X216.837 Y178.081
G1 X216.769 Y178.391
G1 X216.692 Y178.663
G1 X216.666 Y178.989
G1 X216.606 Y179.255
G1 X216.554 Y179.577
G1 X216.518 Y179.880
G1 X216.438 Y180.161
G1 X216.367 Y180.445
G1 X216.319 Y180.742
G1 X216.277 Y181.023
G1 X216.201 Y181.325
G1 X216.115 Y181.638
G1 X216.088 Y181.912
G1 X216.021 Y182.218
G1 X215.981 Y182.506
; Path 94
G0 Z0
G0 X213.947 Y182.490
G0 Z2.2
G1 F3000
G1 X214.112 Y180.490
; Path 95
G0 Z0
G0 X214.934 Y178.481
G0 Z2.2
G1 F3000
G1 X215.087 Y176.478
; Path 96
G0 Z0
G0 X218.085 Y181.494
G0 Z2.2
G1 F3000
G1 X217.961 Y183.494
; Path 97
G0 Z0
G0 X218.028 Y184.469
G0 Z2.2
G1 F3000
G1 X217.851 Y184.730
G1 X217.627 Y184.992
G1 X217.426 Y185.284
G1 X217.226 Y185.549
G1 X217.050 Y185.854
G1 X216.825 Y186.127
G1 X216.623 Y186.429
G1 X216.423 Y186.709
G1 X216.223 Y187.016
G1 X216.022 Y187.282
G1 X215.834 Y187.555
G1 X215.621 Y187.830
G1 X215.429 Y188.097
G1 X215.219 Y188.338
G1 X215.034 Y188.542
G1 X214.818 Y188.791
G1 X214.641 Y188.998
G1 X214.418 Y189.174
G1 X214.213 Y189.321
G1 X214.017 Y189.472
G1 X213.822 Y189.556
G1 X213.616 Y189.676
G1 X213.433 Y189.750
G1 X213.216 Y189.795
G1 X212.997 Y189.816
G1 X212.816 Y189.845
G1 X212.636 Y189.830
G1 X212.416 Y189.839
G1 X212.223 Y189.796
G1 X212.016 Y189.794
G1 X211.824 Y189.729
G1 X211.617 Y189.724
G1 X211.409 Y189.705
G1 X211.217 Y189.644
G1 X211.006 Y189.608
G1 X210.817 Y189.569
G1 X210.644 Y189.557
G1 X210.417 Y189.514
G1 X210.247 Y189.531
G1 X210.017 Y189.493
; Path 98
G0 Z0
G0 X212.021 Y187.481
G0 Z2.2
G1 F3000
G1 X213.021 Y187.983
G1 X214.016 Y188.512
; Path 99
G0 Z0
G0 X218.993 Y194.490
G0 Z2.2
G1 F3000
G1 X219.525 Y196.239
G1 X220.005 Y197.985
G1 X220.513 Y199.741
G1 X221.029 Y201.473
; Path 100
G0 Z0
G0 X221.177 Y198.478
G0 Z2.2
G1 F3000
G1 X220.814 Y196.455
; Path 101
G0 Z0
G0 X236.023 Y191.496
G0 Z2.2
G1 F3000
G1 X234.518 Y190.992
G1 X233.037 Y190.488
G1 X231.521 Y189.999
G1 X230.020 Y189.499
; Path 102
G0 Z0
G0 X232.000 Y191.511
G0 Z2.2
G1 F3000
G1 X231.746 Y189.754
G1 X231.509 Y188.006
G1 X231.275 Y186.247
G1 X231.003 Y184.521
G1 X230.772 Y182.775
G1 X230.513 Y180.993
G1 X230.302 Y179.259
G1 X230.034 Y177.490
; Path 103
G0 Z0
G0 X228.024 Y174.517
G0 Z2.2
G1 F3000
G1 X229.538 Y175.283
G1 X230.999 Y175.982
G1 X232.507 Y176.731
G1 X234.025 Y177.494
; Path 104
G0 Z0
G0 X236.990 Y179.516
G0 Z2.2
G1 F3000
G1 X237.095 Y181.418
G1 X237.262 Y183.265
G1 X237.386 Y185.173
G1 X237.495 Y186.991
G1 X237.595 Y188.894
G1 X237.744 Y190.793
G1 X237.859 Y192.663
G1 X237.983 Y194.521
; Path 105
G0 Z0
G0 X235.039 Y197.516
G0 Z2.2
G1 F3000
G1 X235.171 Y199.254
G1 X235.297 Y200.938
G1 X235.453 Y202.645
G1 X235.611 Y204.380
G1 X235.741 Y206.089
G1 X235.858 Y207.791
G1 X236.028 Y209.509
; Path 106
G0 Z0
G0 X235.163 Y225.480
G0 Z2.2
G1 F3000
G1 X234.808 Y223.514
; Path 107
G0 Z0
G0 X241.866 Y224.522
G0 Z2.2
G1 F3000
G1 X242.125 Y226.508
; Path 108
G0 Z0
G0 X250.064 Y224.476
G0 Z2.2
G1 F3000
G1 X249.893 Y222.506
; Path 109
G0 Z0
G0 X245.998 Y209.501
G0 Z2.2
G1 F3000
G1 X245.836 Y207.805
G1 X245.690 Y206.078
G1 X245.599 Y204.330
G1 X245.463 Y202.607
G1 X245.285 Y200.904
G1 X245.167 Y199.164
G1 X245.009 Y197.469
; Path 110
G0 Z0
G0 X245.000 Y193.490
G0 Z2.2
G1 F3000
G1 X244.863 Y191.773
G1 X244.768 Y190.018
G1 X244.599 Y188.221
G1 X244.510 Y186.509
G1 X244.357 Y184.753
G1 X244.257 Y182.995
G1 X244.124 Y181.256
G1 X243.995 Y179.510
; Path 111
G0 Z0
G0 X245.979 Y174.481
G0 Z2.2
G1 F3000
G1 X247.471 Y175.257
G1 X248.979 Y175.957
G1 X250.491 Y176.713
G1 X252.001 Y177.492
; Path 112
G0 Z0
G0 X251.011 Y177.518
G0 Z2.2
G1 F3000
G1 X251.245 Y179.239
G1 X251.500 Y181.000
G1 X251.772 Y182.785
G1 X252.034 Y184.525
G1 X252.262 Y186.257
G1 X252.494 Y188.002
G1 X252.759 Y189.774
G1 X253.000 Y191.498
; Path 113
G0 Z0
G0 X250.018 Y191.484
G0 Z2.2
G1 F3000
G1 X248.505 Y190.981
G1 X247.047 Y190.447
G1 X245.529 Y189.994
G1 X244.016 Y189.467
; Path 114
G0 Z0
G0 X240.037 Y194.518
G0 Z2.2
G1 F3000
G1 X239.911 Y192.655
G1 X239.740 Y190.776
G1 X239.566 Y188.916
G1 X239.457 Y187.081
G1 X239.287 Y185.181
G1 X239.152 Y183.323
G1 X238.984 Y181.478
; Path 115
G0 Z0
G0 X240.004 Y179.509
G0 Z2.2
G1 F3000
G1 X240.001 Y177.486
G1 X240.005 Y175.484
G1 X239.974 Y173.497
G1 X239.967 Y171.524
G1 X239.961 Y169.518
G1 X239.980 Y167.509
; Path 116
G0 Z0
G0 X239.984 Y167.505
G0 Z2.2
G1 F3000
G1 X239.808 Y165.833
G1 X239.681 Y164.195
G1 X239.479 Y162.519
G1 X239.343 Y160.814
G1 X239.192 Y159.166
G1 X239.022 Y157.509
; Path 117
G0 Z0
G0 X231.990 Y159.472
G0 Z2.2
G1 F3000
G1 X232.341 Y161.120
G1 X232.674 Y162.785
G1 X233.011 Y164.494
G1 X233.338 Y166.132
G1 X233.689 Y167.852
G1 X234.015 Y169.499
; Path 118
G0 Z0
G0 X228.006 Y171.497
G0 Z2.2
G1 F3000
G1 X227.886 Y171.232
G1 X227.799 Y171.000
G1 X227.707 Y170.775
G1 X227.585 Y170.504
G1 X227.504 Y170.241
G1 X227.367 Y170.007
G1 X227.256 Y169.739
G1 X227.148 Y169.511
G1 X227.020 Y169.247
G1 X226.931 Y169.015
G1 X226.841 Y168.777
G1 X226.719 Y168.518
G1 X226.601 Y168.254
G1 X226.515 Y168.021
G1 X226.427 Y167.764
G1 X226.322 Y167.522
G1 X226.249 Y167.288
G1 X226.145 Y167.023
G1 X226.075 Y166.776
G1 X225.984 Y166.522
G1 X225.893 Y166.273
G1 X225.844 Y166.020
G1 X225.768 Y165.769
G1 X225.721 Y165.517
G1 X225.681 Y165.276
G1 X225.612 Y165.012
G1 X225.544 Y164.789
G1 X225.515 Y164.506
G1 X225.460 Y164.244
G1 X225.426 Y164.000
G1 X225.370 Y163.739
G1 X225.342 Y163.494
G1 X225.324 Y163.232
G1 X225.260 Y162.987
G1 X225.197 Y162.713
G1 X225.178 Y162.481
G1 X225.141 Y162.213
G1 X225.091 Y161.974
G1 X225.049 Y161.713
G1 X224.997 Y161.469
; Path 119
G0 Z0
G0 X220.028 Y159.503
G0 Z2.2
G1 F3000
G1 X219.885 Y160.226
G1 X219.705 Y161.003
G1 X219.509 Y161.741
G1 X219.353 Y162.504
G1 X219.195 Y163.238
G1 X218.986 Y164.004
G1 X218.777 Y164.756
G1 X218.614 Y165.505
G1 X218.402 Y166.276
G1 X218.250 Y167.006
G1 X218.053 Y167.771
G1 X217.906 Y168.506
G1 X217.758 Y169.242
G1 X217.595 Y170.006
G1 X217.492 Y170.728
G1 X217.329 Y171.506
G1 X217.201 Y172.235
G1 X217.120 Y173.006
G1 X217.063 Y173.782
G1 X216.980 Y174.505
G1 X216.955 Y175.254
G1 X216.913 Y176.003
G1 X216.914 Y176.781
G1 X216.909 Y177.501
G1 X216.952 Y178.248
G1 X216.958 Y178.998
G1 X216.990 Y179.753
G1 X217.050 Y180.495
G1 X217.090 Y181.262
G1 X217.177 Y181.992
G1 X217.281 Y182.765
G1 X217.330 Y183.488
G1 X217.391 Y184.227
G1 X217.498 Y184.985
G1 X217.567 Y185.752
G1 X217.672 Y186.483
G1 X217.743 Y187.217
G1 X217.844 Y187.981
G1 X217.939 Y188.746
G1 X218.004 Y189.479
G1 X218.073 Y190.277
G1 X218.159 Y191.024
G1 X218.232 Y191.835
G1 X218.323 Y192.639
G1 X218.437 Y193.476
G1 X218.496 Y194.294
G1 X218.571 Y195.151
G1 X218.680 Y195.960
G1 X218.750 Y196.757
G1 X218.872 Y197.606
G1 X218.962 Y198.432
G1 X219.075 Y199.203
G1 X219.175 Y199.979
G1 X219.288 Y200.719
G1 X219.380 Y201.395
G1 X219.511 Y202.125
G1 X219.604 Y202.759
G1 X219.744 Y203.391
G1 X219.868 Y203.967
G1 X219.988 Y204.487
G1 X220.132 Y204.912
G1 X220.247 Y205.392
G1 X220.386 Y205.773
G1 X220.523 Y206.128
G1 X220.669 Y206.406
G1 X220.814 Y206.723
G1 X220.959 Y206.974
G1 X221.115 Y207.209
G1 X221.291 Y207.418
G1 X221.425 Y207.614
G1 X221.590 Y207.786
G1 X221.739 Y207.970
G1 X221.890 Y208.154
G1 X222.056 Y208.305
G1 X222.235 Y208.497
G1 X222.372 Y208.651
G1 X222.558 Y208.867
G1 X222.684 Y209.036
G1 X222.831 Y209.251
G1 X222.988 Y209.491
; Path 120
G0 Z0
G0 X223.006 Y211.513
G0 Z2.2
G1 F3000
G1 X221.994 Y212.483
G1 X220.985 Y213.480
; Path 121
G0 Z0
G0 X222.012 Y214.480
G0 Z2.2
G1 F3000
G1 X221.860 Y214.164
G1 X221.710 Y213.806
G1 X221.541 Y213.465
G1 X221.400 Y213.173
G1 X221.240 Y212.841
G1 X221.087 Y212.565
G1 X220.951 Y212.275
G1 X220.773 Y211.962
G1 X220.630 Y211.653
G1 X220.461 Y211.348
G1 X220.287 Y211.000
G1 X220.154 Y210.704
G1 X220.029 Y210.335
G1 X219.855 Y210.012
G1 X219.739 Y209.632
G1 X219.565 Y209.254
G1 X219.453 Y208.842
G1 X219.290 Y208.412
G1 X219.176 Y207.936
G1 X219.030 Y207.469
G1 X218.930 Y206.927
G1 X218.775 Y206.421
G1 X218.660 Y205.824
G1 X218.515 Y205.286
G1 X218.361 Y204.661
G1 X218.256 Y204.075
G1 X218.117 Y203.422
G1 X218.004 Y202.800
G1 X217.861 Y202.139
G1 X217.766 Y201.474
G1 X217.658 Y200.812
G1 X217.549 Y200.107
G1 X217.465 Y199.438
G1 X217.357 Y198.713
G1 X217.260 Y198.027
G1 X217.197 Y197.302
G1 X217.149 Y196.619
G1 X217.077 Y195.887
G1 X217.058 Y195.192
G1 X217.001 Y194.480
G1 X216.988 Y193.739
G1 X216.991 Y193.039
G1 X217.040 Y192.282
G1 X217.055 Y191.528
G1 X217.085 Y190.732
G1 X217.172 Y189.970
G1 X217.235 Y189.159
G1 X217.326 Y188.384
G1 X217.403 Y187.592
G1 X217.499 Y186.793
G1 X217.591 Y186.031
G1 X217.671 Y185.216
G1 X217.771 Y184.420
G1 X217.825 Y183.676
G1 X217.892 Y182.955
G1 X217.943 Y182.192
G1 X217.966 Y181.467
G1 X218.007 Y180.788
G1 X218.001 Y180.123
G1 X217.998 Y179.482
G1 X217.952 Y178.920
G1 X217.892 Y178.304
G1 X217.798 Y177.747
G1 X217.691 Y177.246
G1 X217.558 Y176.760
G1 X217.425 Y176.279
G1 X217.267 Y175.839
G1 X217.119 Y175.372
G1 X216.931 Y174.956
G1 X216.801 Y174.495
G1 X216.657 Y174.066
G1 X216.498 Y173.618
G1 X216.351 Y173.154
G1 X216.238 Y172.711
G1 X216.131 Y172.227
G1 X216.047 Y171.744
G1 X216.009 Y171.241
G1 X215.953 Y170.685
G1 X215.957 Y170.086
G1 X215.983 Y169.506
G1 X216.082 Y168.833
G1 X216.138 Y168.186
G1 X216.262 Y167.437
G1 X216.389 Y166.745
G1 X216.582 Y165.998
G1 X216.721 Y165.214
G1 X216.909 Y164.393
G1 X217.119 Y163.622
G1 X217.317 Y162.834
G1 X217.567 Y162.000
G1 X217.823 Y161.182
G1 X218.050 Y160.378
G1 X218.312 Y159.605
G1 X218.552 Y158.786
G1 X218.816 Y158.021
G1 X219.059 Y157.253
G1 X219.336 Y156.521
G1 X219.554 Y155.812
G1 X219.771 Y155.173
G1 X220.023 Y154.490
G1 X220.229 Y153.868
G1 X220.482 Y153.287
G1 X220.689 Y152.752
G1 X220.956 Y152.168
G1 X221.209 Y151.642
G1 X221.444 Y151.120
G1 X221.723 Y150.650
G1 X221.942 Y150.126
G1 X222.199 Y149.647
G1 X222.447 Y149.173
G1 X222.703 Y148.710
G1 X222.956 Y148.245
G1 X223.215 Y147.787
G1 X223.468 Y147.327
G1 X223.738 Y146.895
G1 X223.979 Y146.404
G1 X224.222 Y145.958
G1 X224.486 Y145.461
G1 X224.724 Y144.951
G1 X224.986 Y144.482
; Path 122
G0 Z0
G0 X224.998 Y144.497
G0 Z2.2
G1 F3000
G1 X225.024 Y144.515
G1 X225.027 Y144.516
; Path 123
G0 Z0
G0 X224.981 Y144.503
G0 Z2.2
G1 F3000
G1 X225.095 Y144.162
G1 X225.184 Y143.797
G1 X225.275 Y143.456
G1 X225.388 Y143.084
G1 X225.471 Y142.739
G1 X225.592 Y142.367
G1 X225.683 Y141.982
G1 X225.797 Y141.649
G1 X225.912 Y141.285
G1 X226.001 Y140.934
G1 X226.119 Y140.577
G1 X226.205 Y140.223
G1 X226.304 Y139.900
G1 X226.408 Y139.520
G1 X226.490 Y139.184
G1 X226.611 Y138.828
G1 X226.717 Y138.495
G1 X226.813 Y138.150
G1 X226.893 Y137.799
G1 X227.013 Y137.489
G1 X227.111 Y137.146
G1 X227.217 Y136.838
G1 X227.305 Y136.521
G1 X227.427 Y136.189
G1 X227.536 Y135.838
G1 X227.640 Y135.546
G1 X227.726 Y135.200
G1 X227.853 Y134.912
G1 X227.950 Y134.605
G1 X228.064 Y134.291
G1 X228.165 Y133.979
G1 X228.269 Y133.684
G1 X228.371 Y133.386
G1 X228.467 Y133.096
G1 X228.568 Y132.841
G1 X228.654 Y132.530
G1 X228.726 Y132.283
G1 X228.827 Y131.988
G1 X228.897 Y131.715
G1 X228.985 Y131.475
G1 X229.056 Y131.224
G1 X229.093 Y131.006
G1 X229.108 Y130.818
G1 X229.135 Y130.586
G1 X229.125 Y130.396
G1 X229.135 Y130.203
G1 X229.112 Y130.008
G1 X229.118 Y129.845
G1 X229.124 Y129.661
G1 X229.107 Y129.500
G1 X229.091 Y129.330
G1 X229.126 Y129.154
G1 X229.177 Y128.992
G1 X229.200 Y128.796
G1 X229.252 Y128.586
G1 X229.352 Y128.413
G1 X229.492 Y128.198
G1 X229.606 Y127.993
G1 X229.819 Y127.744
G1 X229.987 Y127.523
G1 X230.220 Y127.244
G1 X230.505 Y127.004
G1 X230.853 Y126.722
G1 X231.143 Y126.450
G1 X231.502 Y126.138
G1 X231.880 Y125.867
G1 X232.288 Y125.594
G1 X232.694 Y125.262
G1 X233.133 Y124.927
G1 X233.564 Y124.639
G1 X234.044 Y124.324
G1 X234.469 Y124.006
G1 X234.912 Y123.680
G1 X235.388 Y123.370
G1 X235.828 Y123.065
G1 X236.300 Y122.735
G1 X236.761 Y122.429
G1 X237.184 Y122.108
G1 X237.586 Y121.797
G1 X238.019 Y121.496
; Path 124
G0 Z0
G0 X238.020 Y121.517
G0 Z2.2
G1 F3000
G1 X238.128 Y121.620
G1 X238.217 Y121.716
G1 X238.328 Y121.792
G1 X238.415 Y121.916
G1 X238.526 Y121.989
G1 X238.612 Y122.116
G1 X238.686 Y122.200
G1 X238.809 Y122.316
G1 X238.898 Y122.437
G1 X239.006 Y122.516
G1 X239.098 Y122.616
G1 X239.204 Y122.715
G1 X239.306 Y122.809
G1 X239.402 Y122.915
G1 X239.478 Y122.994
G1 X239.600 Y123.115
G1 X239.696 Y123.192
G1 X239.798 Y123.314
G1 X239.883 Y123.438
G1 X239.997 Y123.514
G1 X240.122 Y123.623
G1 X240.197 Y123.713
G1 X240.270 Y123.835
G1 X240.397 Y123.912
G1 X240.513 Y124.001
G1 X240.598 Y124.111
G1 X240.725 Y124.209
G1 X240.799 Y124.310
G1 X240.899 Y124.426
G1 X241.000 Y124.509
G1 X241.120 Y124.591
G1 X241.201 Y124.708
G1 X241.325 Y124.813
G1 X241.403 Y124.907
G1 X241.501 Y125.035
G1 X241.604 Y125.106
G1 X241.706 Y125.211
G1 X241.805 Y125.305
G1 X241.918 Y125.393
G1 X242.006 Y125.504
; Path 125
G0 Z0
G0 X242.016 Y125.510
G0 Z2.2
G1 F3000
G1 X243.538 Y126.487
G1 X245.016 Y127.476
G1 X246.505 Y128.489
G1 X248.018 Y129.495
; Path 126
G0 Z0
G0 X248.000 Y129.516
G0 Z2.2
G1 F3000
G1 X248.208 Y129.763
G1 X248.413 Y130.016
G1 X248.608 Y130.291
G1 X248.839 Y130.517
G1 X249.029 Y130.739
G1 X249.274 Y131.017
G1 X249.506 Y131.252
G1 X249.710 Y131.518
G1 X249.944 Y131.756
G1 X250.143 Y132.019
G1 X250.335 Y132.264
G1 X250.565 Y132.519
G1 X250.776 Y132.779
G1 X250.972 Y133.019
G1 X251.162 Y133.252
G1 X251.355 Y133.518
G1 X251.526 Y133.784
G1 X251.710 Y134.017
G1 X251.843 Y134.237
G1 X252.030 Y134.515
G1 X252.162 Y134.772
G1 X252.316 Y135.012
G1 X252.440 Y135.230
G1 X252.575 Y135.507
G1 X252.686 Y135.739
G1 X252.809 Y136.002
G1 X252.943 Y136.232
G1 X253.021 Y136.496
G1 X253.115 Y136.748
G1 X253.215 Y136.990
G1 X253.312 Y137.263
G1 X253.394 Y137.483
G1 X253.477 Y137.737
G1 X253.560 Y137.978
G1 X253.633 Y138.199
G1 X253.718 Y138.473
G1 X253.813 Y138.714
G1 X253.869 Y138.969
G1 X253.958 Y139.239
G1 X254.017 Y139.466
G1 X254.109 Y139.687
G1 X254.155 Y139.965
G1 X254.233 Y140.193
G1 X254.276 Y140.466
G1 X254.307 Y140.708
G1 X254.383 Y140.967
G1 X254.413 Y141.238
G1 X254.478 Y141.469
G1 X254.512 Y141.694
G1 X254.566 Y141.971
G1 X254.603 Y142.209
G1 X254.648 Y142.473
G1 X254.689 Y142.735
G1 X254.728 Y142.976
G1 X254.781 Y143.247
G1 X254.809 Y143.479
G1 X254.844 Y143.729
G1 X254.895 Y143.981
G1 X254.967 Y144.236
G1 X254.987 Y144.483
; Path 127
G0 Z0
G0 X254.988 Y144.501
G0 Z2.2
G1 F3000
G1 X255.015 Y144.483
G1 X255.009 Y144.483
; Path 128
G0 Z0
G0 X253.026 Y142.509
G0 Z2.2
G1 F3000
G1 X253.355 Y143.859
G1 X253.672 Y145.173
G1 X254.028 Y146.524
; Path 129
G0 Z0
G0 X255.000 Y144.508
G0 Z2.2
G1 F3000
G1 X255.259 Y144.998
G1 X255.507 Y145.484
G1 X255.755 Y145.935
G1 X256.022 Y146.425
G1 X256.267 Y146.880
G1 X256.542 Y147.345
G1 X256.779 Y147.826
G1 X257.062 Y148.260
G1 X257.311 Y148.743
G1 X257.580 Y149.186
G1 X257.864 Y149.658
G1 X258.093 Y150.136
G1 X258.316 Y150.629
G1 X258.598 Y151.127
G1 X258.866 Y151.646
G1 X259.091 Y152.174
G1 X259.303 Y152.709
G1 X259.569 Y153.290
G1 X259.807 Y153.913
G1 X260.030 Y154.493
G1 X260.240 Y155.128
G1 X260.498 Y155.813
G1 X260.724 Y156.539
G1 X260.989 Y157.255
G1 X261.242 Y157.999
G1 X261.490 Y158.787
G1 X261.729 Y159.588
G1 X261.986 Y160.379
G1 X262.207 Y161.184
G1 X262.461 Y162.002
G1 X262.698 Y162.829
G1 X262.901 Y163.624
G1 X263.097 Y164.392
G1 X263.292 Y165.217
G1 X263.460 Y165.986
G1 X263.617 Y166.749
G1 X263.765 Y167.446
G1 X263.863 Y168.190
G1 X263.927 Y168.848
G1 X264.015 Y169.510
G1 X264.021 Y170.100
G1 X264.044 Y170.690
G1 X264.009 Y171.241
G1 X263.952 Y171.748
G1 X263.872 Y172.209
G1 X263.763 Y172.716
G1 X263.620 Y173.188
G1 X263.507 Y173.623
G1 X263.382 Y174.078
G1 X263.208 Y174.500
G1 X263.068 Y174.931
G1 X262.894 Y175.377
G1 X262.733 Y175.822
G1 X262.592 Y176.284
G1 X262.431 Y176.742
G1 X262.328 Y177.252
G1 X262.201 Y177.758
G1 X262.129 Y178.310
G1 X262.088 Y178.905
G1 X262.023 Y179.489
G1 X261.998 Y180.121
G1 X262.012 Y180.795
G1 X262.047 Y181.514
G1 X262.072 Y182.201
G1 X262.123 Y182.948
G1 X262.185 Y183.686
G1 X262.271 Y184.462
G1 X262.334 Y185.228
G1 X262.409 Y186.001
G1 X262.500 Y186.807
G1 X262.567 Y187.600
G1 X262.666 Y188.400
G1 X262.751 Y189.196
G1 X262.815 Y189.987
G1 X262.883 Y190.769
G1 X262.929 Y191.547
G1 X262.981 Y192.276
G1 X262.991 Y193.058
G1 X262.994 Y193.754
G1 X262.982 Y194.499
G1 X262.957 Y195.206
G1 X262.910 Y195.906
G1 X262.860 Y196.603
G1 X262.795 Y197.320
G1 X262.739 Y198.040
G1 X262.644 Y198.729
G1 X262.571 Y199.437
G1 X262.463 Y200.122
G1 X262.339 Y200.809
G1 X262.255 Y201.486
G1 X262.145 Y202.178
G1 X262.028 Y202.811
G1 X261.927 Y203.449
G1 X261.786 Y204.084
G1 X261.655 Y204.667
G1 X261.536 Y205.293
G1 X261.391 Y205.832
G1 X261.281 Y206.427
G1 X261.151 Y206.978
G1 X261.029 Y207.474
G1 X260.908 Y207.960
G1 X260.769 Y208.417
G1 X260.603 Y208.863
G1 X260.490 Y209.259
G1 X260.364 Y209.664
G1 X260.196 Y210.018
G1 X260.023 Y210.370
G1 X259.891 Y210.710
G1 X259.719 Y211.040
G1 X259.576 Y211.355
G1 X259.392 Y211.666
G1 X259.256 Y211.971
G1 X259.082 Y212.264
G1 X258.934 Y212.574
G1 X258.778 Y212.864
G1 X258.613 Y213.183
G1 X258.447 Y213.513
G1 X258.297 Y213.817
G1 X258.156 Y214.148
G1 X257.988 Y214.491
; Path 130
G0 Z0
G0 X259.034 Y213.505
G0 Z2.2
G1 F3000
G1 X258.042 Y212.458
G1 X257.039 Y211.466
; Path 131
G0 Z0
G0 X257.020 Y213.522
G0 Z2.2
G1 F3000
G1 X257.997 Y215.040
G1 X259.009 Y216.512
; Path 132
G0 Z0
G0 X259.704 Y216.535
G0 Z2.2
G1 F3000
G1 X260.300 Y218.497
; Path 133
G0 Z0
G0 X262.015 Y218.458
G0 Z2.2
G1 F3000
G1 X263.987 Y218.487
; Path 134
G0 Z0
G0 X261.999 Y219.492
G0 Z2.2
G1 F3000
G1 X263.832 Y219.217
G1 X265.710 Y218.908
G1 X267.579 Y218.649
G1 X269.422 Y218.356
G1 X271.292 Y218.058
G1 X273.135 Y217.750
G1 X275.004 Y217.467
; Path 135
G0 Z0
G0 X285.009 Y209.495
G0 Z2.2
G1 F3000
G1 X286.095 Y209.579
G1 X287.187 Y209.662
G1 X288.282 Y209.745
G1 X289.379 Y209.829
G1 X290.476 Y209.912
G1 X291.571 Y209.995
G1 X292.663 Y210.079
G1 X293.750 Y210.162
G1 X294.829 Y210.245
G1 X295.900 Y210.329
G1 X296.961 Y210.412
G1 X298.009 Y210.495
G1 X299.044 Y210.579
G1 X300.067 Y210.662
G1 X301.079 Y210.745
G1 X302.083 Y210.829
G1 X303.080 Y210.912
G1 X304.071 Y210.995
G1 X305.060 Y211.079
G1 X306.046 Y211.162
G1 X307.032 Y211.245
G1 X308.021 Y211.329
G1 X309.012 Y211.412
G1 X310.009 Y211.495
; Path 136
G0 Z0
G0 X309.999 Y215.468
G0 Z2.2
G1 F3000
G1 X309.788 Y215.515
G1 X309.543 Y215.563
G1 X309.341 Y215.578
G1 X309.158 Y215.651
G1 X309.013 Y215.693
G1 X308.812 Y215.736
G1 X308.636 Y215.771
G1 X308.476 Y215.819
G1 X308.303 Y215.882
G1 X308.121 Y215.904
G1 X307.913 Y215.932
G1 X307.715 Y215.994
G1 X307.490 Y216.033
G1 X307.230 Y216.093
G1 X306.903 Y216.136
G1 X306.634 Y216.202
G1 X306.282 Y216.247
G1 X305.899 Y216.326
G1 X305.472 Y216.366
G1 X304.994 Y216.466
G1 X304.474 Y216.554
G1 X303.899 Y216.631
G1 X303.288 Y216.735
G1 X302.634 Y216.819
G1 X301.920 Y216.949
G1 X301.230 Y217.025
G1 X300.487 Y217.121
G1 X299.716 Y217.243
G1 X298.943 Y217.363
G1 X298.121 Y217.468
G1 X297.271 Y217.574
G1 X296.477 Y217.692
G1 X295.641 Y217.819
G1 X294.813 Y217.911
G1 X293.985 Y218.018
G1 X293.159 Y218.118
G1 X292.333 Y218.231
G1 X291.544 Y218.307
G1 X290.789 Y218.372
G1 X290.000 Y218.473
G1 X289.224 Y218.528
G1 X288.500 Y218.616
G1 X287.780 Y218.659
G1 X287.001 Y218.742
G1 X286.226 Y218.792
G1 X285.501 Y218.854
G1 X284.756 Y218.914
G1 X284.001 Y218.956
G1 X283.229 Y219.006
G1 X282.501 Y219.050
G1 X281.760 Y219.090
G1 X281.001 Y219.139
G1 X280.224 Y219.170
G1 X279.502 Y219.226
G1 X278.780 Y219.253
G1 X278.002 Y219.314
G1 X277.248 Y219.334
G1 X276.502 Y219.406
G1 X275.777 Y219.476
G1 X275.002 Y219.505
; Path 137
G0 Z0
G0 X274.009 Y223.495
G0 Z2.2
G1 F3000
G1 X270.009 Y221.495
; Path 138
G0 Z0
G0 X269.990 Y222.507
G0 Z2.2
G1 F3000
G1 X270.415 Y222.590
G1 X270.798 Y222.711
G1 X271.192 Y222.842
G1 X271.614 Y222.922
G1 X271.998 Y223.048
G1 X272.434 Y223.137
G1 X272.849 Y223.241
G1 X273.255 Y223.353
G1 X273.656 Y223.462
G1 X274.074 Y223.567
G1 X274.457 Y223.662
G1 X274.887 Y223.775
G1 X275.264 Y223.860
G1 X275.693 Y223.976
G1 X276.114 Y224.094
G1 X276.486 Y224.166
G1 X276.883 Y224.235
G1 X277.265 Y224.342
G1 X277.620 Y224.406
G1 X278.027 Y224.500
G1 X278.424 Y224.599
G1 X278.768 Y224.640
G1 X279.108 Y224.720
G1 X279.492 Y224.763
G1 X279.819 Y224.801
G1 X280.201 Y224.871
G1 X280.538 Y224.935
G1 X280.898 Y224.968
G1 X281.236 Y225.013
G1 X281.587 Y225.058
G1 X281.932 Y225.100
G1 X282.271 Y225.142
G1 X282.627 Y225.177
G1 X282.953 Y225.224
G1 X283.274 Y225.280
G1 X283.635 Y225.308
G1 X283.974 Y225.371
G1 X284.322 Y225.395
G1 X284.675 Y225.417
G1 X285.017 Y225.490
; Path 139
G0 Z0
G0 X284.989 Y234.493
G0 Z2.2
G1 F3000
G1 X285.644 Y234.536
G1 X286.293 Y234.613
G1 X286.948 Y234.703
G1 X287.605 Y234.761
G1 X288.246 Y234.824
G1 X288.920 Y234.925
G1 X289.584 Y235.031
G1 X290.237 Y235.093
G1 X290.872 Y235.184
G1 X291.551 Y235.253
G1 X292.228 Y235.294
G1 X292.861 Y235.393
G1 X293.484 Y235.434
G1 X294.162 Y235.500
G1 X294.832 Y235.510
G1 X295.452 Y235.563
G1 X296.062 Y235.584
G1 X296.728 Y235.570
G1 X297.379 Y235.521
G1 X297.988 Y235.508
G1 X298.609 Y235.426
G1 X299.228 Y235.369
G1 X299.821 Y235.247
G1 X300.451 Y235.162
G1 X301.061 Y235.033
G1 X301.659 Y234.898
G1 X302.249 Y234.766
G1 X302.857 Y234.590
G1 X303.444 Y234.418
G1 X304.047 Y234.249
G1 X304.627 Y234.083
G1 X305.232 Y233.888
G1 X305.828 Y233.709
G1 X306.414 Y233.519
G1 X307.024 Y233.358
G1 X307.598 Y233.154
G1 X308.174 Y232.971
G1 X308.786 Y232.806
G1 X309.384 Y232.658
G1 X309.980 Y232.485
; Path 140
G0 Z0
G0 X305.036 Y227.518
G0 Z2.2
G1 F3000
G1 X304.409 Y227.707
G1 X303.729 Y227.942
G1 X303.101 Y228.171
G1 X302.415 Y228.408
G1 X301.758 Y228.624
G1 X301.097 Y228.899
G1 X300.461 Y229.140
G1 X299.778 Y229.395
G1 X299.094 Y229.661
G1 X298.461 Y229.879
G1 X297.821 Y230.085
G1 X297.150 Y230.334
G1 X296.484 Y230.510
G1 X295.846 Y230.740
G1 X295.219 Y230.918
G1 X294.553 Y231.081
G1 X293.937 Y231.211
G1 X293.274 Y231.337
G1 X292.652 Y231.438
G1 X292.012 Y231.492
G1 X291.412 Y231.501
G1 X290.769 Y231.533
G1 X290.162 Y231.514
G1 X289.544 Y231.471
G1 X288.934 Y231.416
G1 X288.332 Y231.326
G1 X287.728 Y231.237
G1 X287.131 Y231.115
G1 X286.555 Y230.986
G1 X285.939 Y230.856
G1 X285.315 Y230.687
G1 X284.751 Y230.567
G1 X284.167 Y230.403
G1 X283.565 Y230.266
G1 X282.998 Y230.122
G1 X282.378 Y229.971
G1 X281.796 Y229.855
G1 X281.188 Y229.700
G1 X280.596 Y229.576
G1 X279.990 Y229.470
; Path 141
G0 Z0
G0 X271.009 Y228.495
G0 Z2.2
G1 F3000
G1 X267.009 Y224.495
; Path 142
G0 Z0
G0 X267.008 Y225.513
G0 Z2.2
G1 F3000
G1 X266.026 Y224.520
G1 X265.009 Y223.529
G1 X263.985 Y222.503
; Path 143
G0 Z0
G0 X263.117 Y220.981
G0 Z2.2
G1 F3000
G1 X264.891 Y220.086
; Path 144
G0 Z0
G0 X265.528 Y220.489
G0 Z2.2
G1 F3000
G1 X264.607 Y222.326
; Path 145
G0 Z0
G0 X265.893 Y222.042
G0 Z2.2
G1 F3000
G1 X264.129 Y223.009
; Path 146
G0 Z0
G0 X268.068 Y222.572
G0 Z2.2
G1 F3000
G1 X267.548 Y222.038
G1 X266.994 Y221.479
G1 X266.425 Y220.985
G1 X265.955 Y220.424
; Path 147
G0 Z0
G0 X266.027 Y219.509
G0 Z2.2
G1 F3000
G1 X265.853 Y219.328
G1 X265.636 Y219.094
G1 X265.467 Y218.880
G1 X265.266 Y218.659
G1 X265.104 Y218.426
G1 X264.907 Y218.211
G1 X264.716 Y217.983
G1 X264.551 Y217.761
G1 X264.381 Y217.521
G1 X264.189 Y217.316
G1 X264.006 Y217.112
G1 X263.813 Y216.886
G1 X263.587 Y216.667
G1 X263.413 Y216.481
G1 X263.203 Y216.279
G1 X262.980 Y216.109
G1 X262.757 Y215.960
G1 X262.507 Y215.778
G1 X262.251 Y215.654
G1 X261.984 Y215.499
G1 X261.677 Y215.390
G1 X261.404 Y215.277
G1 X261.069 Y215.170
G1 X260.775 Y215.107
G1 X260.424 Y215.037
G1 X260.104 Y214.978
G1 X259.773 Y214.925
G1 X259.402 Y214.882
G1 X259.026 Y214.859
G1 X258.675 Y214.811
G1 X258.311 Y214.804
G1 X257.934 Y214.754
G1 X257.537 Y214.733
G1 X257.187 Y214.704
G1 X256.813 Y214.690
G1 X256.443 Y214.651
G1 X256.070 Y214.597
G1 X255.711 Y214.585
G1 X255.348 Y214.546
G1 X255.000 Y214.499
; Path 148
G0 Z0
G0 X254.996 Y214.490
G0 Z2.2
G1 F3000
G1 X255.137 Y214.740
G1 X255.293 Y215.002
G1 X255.454 Y215.269
G1 X255.584 Y215.534
G1 X255.725 Y215.795
G1 X255.870 Y216.078
G1 X256.022 Y216.350
G1 X256.155 Y216.625
G1 X256.289 Y216.900
G1 X256.443 Y217.167
G1 X256.581 Y217.401
G1 X256.735 Y217.693
G1 X256.889 Y217.970
G1 X257.035 Y218.196
G1 X257.179 Y218.458
G1 X257.345 Y218.666
G1 X257.514 Y218.878
G1 X257.669 Y219.095
G1 X257.829 Y219.303
G1 X258.009 Y219.473
G1 X258.181 Y219.656
G1 X258.367 Y219.796
G1 X258.576 Y219.948
G1 X258.742 Y220.068
G1 X258.917 Y220.186
G1 X259.130 Y220.299
G1 X259.308 Y220.425
G1 X259.528 Y220.497
G1 X259.757 Y220.601
G1 X259.935 Y220.671
G1 X260.162 Y220.778
G1 X260.346 Y220.831
G1 X260.549 Y220.897
G1 X260.759 Y220.985
G1 X260.937 Y221.069
G1 X261.171 Y221.141
G1 X261.368 Y221.253
G1 X261.579 Y221.310
G1 X261.784 Y221.426
G1 X261.980 Y221.499
; Path 149
G0 Z0
G0 X262.029 Y221.491
G0 Z2.2
G1 F3000
G1 X263.024 Y222.503
G1 X264.007 Y223.506
; Path 150
G0 Z0
G0 X263.998 Y223.465
G0 Z2.2
G1 F3000
G1 X264.644 Y222.117
G1 X265.353 Y220.802
G1 X266.018 Y219.508
; Path 151
G0 Z0
G0 X266.008 Y219.471
G0 Z2.2
G1 F3000
G1 X264.684 Y220.130
G1 X263.333 Y220.836
G1 X261.995 Y221.509
; Path 152
G0 Z0
G0 X261.225 Y221.872
G0 Z2.2
G1 F3000
G1 X262.747 Y223.190
; Path 153
G0 Z0
G0 X262.346 Y222.972
G0 Z2.2
G1 F3000
G1 X263.951 Y224.086
; Path 154
G0 Z0
G0 X263.933 Y224.480
G0 Z2.2
G1 F3000
G1 X263.117 Y224.687
G1 X262.401 Y224.871
G1 X261.536 Y225.058
G1 X260.704 Y225.218
G1 X259.988 Y225.485
; Path 155
G0 Z0
G0 X262.017 Y226.499
G0 Z2.2
G1 F3000
G1 X261.659 Y224.840
G1 X261.344 Y223.130
G1 X261.031 Y221.476
; Path 156
G0 Z0
G0 X258.407 Y223.537
G0 Z2.2
G1 F3000
G1 X257.663 Y225.411
; Path 157
G0 Z0
G0 X256.985 Y224.513
G0 Z2.2
G1 F3000
G1 X257.655 Y223.154
G1 X258.340 Y221.828
G1 X258.997 Y220.502
; Path 158
G0 Z0
G0 X258.758 Y220.179
G0 Z2.2
G1 F3000
G1 X257.274 Y218.838
; Path 159
G0 Z0
G0 X256.436 Y218.372
G0 Z2.2
G1 F3000
G1 X255.573 Y216.561
; Path 160
G0 Z0
G0 X254.034 Y215.521
G0 Z2.2
G1 F3000
G1 X255.031 Y213.999
G1 X256.011 Y212.508
; Path 161
G0 Z0
G0 X253.031 Y213.470
G0 Z2.2
G1 F3000
G1 X254.020 Y212.967
G1 X255.001 Y212.470
; Path 162
G0 Z0
G0 X255.025 Y211.480
G0 Z2.2
G1 F3000
G1 X254.847 Y209.510
G1 X254.673 Y207.517
G1 X254.523 Y205.481
G1 X254.314 Y203.531
G1 X254.159 Y201.495
G1 X254.003 Y199.525
; Path 163
G0 Z0
G0 X259.014 Y202.497
G0 Z2.2
G1 F3000
G1 X259.535 Y201.007
G1 X260.041 Y199.465
G1 X260.543 Y197.978
G1 X261.017 Y196.492
; Path 164
G0 Z0
G0 X259.001 Y197.483
G0 Z2.2
G1 F3000
G1 X258.997 Y197.166
G1 X259.009 Y196.890
G1 X259.030 Y196.620
G1 X259.023 Y196.305
G1 X259.002 Y196.001
G1 X259.041 Y195.723
G1 X259.070 Y195.423
G1 X259.061 Y195.143
G1 X259.058 Y194.833
G1 X259.078 Y194.561
G1 X259.090 Y194.238
G1 X259.090 Y193.973
G1 X259.110 Y193.702
G1 X259.094 Y193.377
G1 X259.118 Y193.080
G1 X259.087 Y192.769
G1 X259.086 Y192.444
G1 X259.065 Y192.147
G1 X259.068 Y191.854
G1 X259.026 Y191.506
G1 X259.009 Y191.185
G1 X258.967 Y190.846
G1 X258.927 Y190.501
G1 X258.891 Y190.167
G1 X258.851 Y189.816
G1 X258.800 Y189.474
G1 X258.755 Y189.094
G1 X258.698 Y188.770
G1 X258.615 Y188.395
G1 X258.587 Y188.056
G1 X258.510 Y187.679
G1 X258.472 Y187.338
G1 X258.384 Y186.971
G1 X258.354 Y186.618
G1 X258.326 Y186.252
G1 X258.238 Y185.898
G1 X258.187 Y185.559
G1 X258.125 Y185.183
G1 X258.070 Y184.836
G1 X258.020 Y184.475
; Path 165
G0 Z0
G0 X261.072 Y186.497
G0 Z2.2
G1 F3000
G1 X260.889 Y188.489
; Path 166
G0 Z0
G0 X259.998 Y187.497
G0 Z2.2
G1 F3000
G1 X260.491 Y186.028
G1 X261.023 Y184.504
G1 X261.528 Y182.997
G1 X261.998 Y181.519
; Path 167
G0 Z0
G0 X262.006 Y183.521
G0 Z2.2
G1 F3000
G1 X262.186 Y183.757
G1 X262.403 Y184.048
G1 X262.616 Y184.311
G1 X262.800 Y184.618
G1 X263.007 Y184.891
G1 X263.196 Y185.211
G1 X263.366 Y185.540
G1 X263.592 Y185.811
G1 X263.779 Y186.117
G1 X263.988 Y186.398
G1 X264.182 Y186.696
G1 X264.384 Y186.956
G1 X264.570 Y187.235
G1 X264.782 Y187.464
G1 X265.004 Y187.688
G1 X265.180 Y187.907
G1 X265.367 Y188.069
G1 X265.579 Y188.264
G1 X265.805 Y188.398
G1 X265.979 Y188.519
G1 X266.163 Y188.568
G1 X266.382 Y188.659
G1 X266.571 Y188.703
G1 X266.785 Y188.697
G1 X267.000 Y188.653
G1 X267.189 Y188.649
G1 X267.399 Y188.614
G1 X267.595 Y188.535
G1 X267.824 Y188.472
G1 X268.001 Y188.373
G1 X268.217 Y188.250
G1 X268.407 Y188.181
G1 X268.585 Y188.059
G1 X268.814 Y187.976
G1 X269.044 Y187.888
G1 X269.221 Y187.777
G1 X269.396 Y187.699
G1 X269.627 Y187.603
G1 X269.809 Y187.532
G1 X270.032 Y187.471
; Path 168
G0 Z0
G0 X270.000 Y187.482
G0 Z2.2
G1 F3000
G1 X270.033 Y187.223
G1 X270.016 Y186.912
G1 X270.046 Y186.660
G1 X270.054 Y186.384
G1 X270.095 Y186.159
G1 X270.105 Y185.881
G1 X270.146 Y185.637
G1 X270.158 Y185.383
G1 X270.184 Y185.142
G1 X270.205 Y184.873
G1 X270.228 Y184.585
G1 X270.237 Y184.333
G1 X270.232 Y184.035
G1 X270.245 Y183.745
G1 X270.213 Y183.403
G1 X270.218 Y183.090
G1 X270.162 Y182.742
G1 X270.149 Y182.350
G1 X270.084 Y181.937
G1 X270.027 Y181.507
G1 X269.936 Y181.018
G1 X269.847 Y180.549
G1 X269.750 Y180.000
G1 X269.614 Y179.487
G1 X269.476 Y178.888
G1 X269.337 Y178.341
G1 X269.198 Y177.720
G1 X269.027 Y177.128
G1 X268.838 Y176.515
G1 X268.693 Y175.866
G1 X268.539 Y175.216
G1 X268.343 Y174.574
G1 X268.166 Y173.911
G1 X267.988 Y173.271
G1 X267.819 Y172.637
G1 X267.637 Y171.974
G1 X267.466 Y171.354
G1 X267.300 Y170.701
G1 X267.116 Y170.070
G1 X266.986 Y169.472
G1 X266.808 Y168.875
G1 X266.687 Y168.271
G1 X266.531 Y167.674
G1 X266.390 Y167.070
G1 X266.235 Y166.450
G1 X266.094 Y165.869
G1 X265.939 Y165.280
G1 X265.799 Y164.669
G1 X265.671 Y164.057
G1 X265.505 Y163.469
G1 X265.335 Y162.874
G1 X265.211 Y162.270
G1 X265.064 Y161.652
G1 X264.918 Y161.070
G1 X264.786 Y160.479
G1 X264.624 Y159.871
G1 X264.497 Y159.274
G1 X264.330 Y158.671
G1 X264.203 Y158.082
G1 X264.036 Y157.471
; Path 169
G0 Z0
G0 X263.034 Y159.487
G0 Z2.2
G1 F3000
G1 X262.357 Y161.136
G1 X261.697 Y162.845
G1 X260.989 Y164.502
; Path 170
G0 Z0
G0 X261.015 Y164.478
G0 Z2.2
G1 F3000
G1 X260.339 Y166.169
G1 X259.654 Y167.868
G1 X258.998 Y169.519
; Path 171
G0 Z0
G0 X259.922 Y170.508
G0 Z2.2
G1 F3000
G1 X260.113 Y172.452
; Path 172
G0 Z0
G0 X264.953 Y174.468
G0 Z2.2
G1 F3000
G1 X265.068 Y176.453
; Path 173
G0 Z0
G0 X262.008 Y179.476
G0 Z2.2
G1 F3000
G1 X262.035 Y179.157
G1 X262.114 Y178.877
G1 X262.195 Y178.556
G1 X262.227 Y178.278
G1 X262.265 Y177.959
G1 X262.344 Y177.679
G1 X262.394 Y177.383
G1 X262.462 Y177.080
G1 X262.521 Y176.755
G1 X262.578 Y176.481
G1 X262.620 Y176.186
G1 X262.690 Y175.882
G1 X262.737 Y175.554
G1 X262.792 Y175.283
G1 X262.831 Y174.992
G1 X262.884 Y174.684
G1 X262.930 Y174.370
G1 X262.961 Y174.085
G1 X262.984 Y173.785
G1 X263.020 Y173.487
G1 X263.052 Y173.160
G1 X263.059 Y172.888
G1 X263.073 Y172.587
G1 X263.081 Y172.289
G1 X263.088 Y171.961
G1 X263.089 Y171.691
G1 X263.114 Y171.381
G1 X263.085 Y171.092
G1 X263.076 Y170.795
G1 X263.073 Y170.494
G1 X263.059 Y170.176
G1 X263.055 Y169.896
G1 X263.068 Y169.615
G1 X263.036 Y169.297
G1 X263.045 Y168.994
G1 X263.018 Y168.699
G1 X263.002 Y168.378
G1 X263.003 Y168.100
G1 X263.025 Y167.804
G1 X262.996 Y167.502
; Path 174
G0 Z0
G0 X262.991 Y167.426
G0 Z2.2
G1 F3000
G1 X262.836 Y166.509
G1 X262.676 Y165.381
G1 X262.611 Y164.422
G1 X262.540 Y163.435
G1 X262.285 Y162.480
G1 X262.300 Y161.540
G1 X262.056 Y160.534
G1 X261.982 Y159.507
; Path 175
G0 Z0
G0 X260.890 Y160.482
G0 Z2.2
G1 F3000
G1 X261.139 Y162.476
; Path 176
G0 Z0
G0 X261.935 Y164.541
G0 Z2.2
G1 F3000
G1 X262.061 Y166.541
; Path 177
G0 Z0
G0 X264.985 Y164.472
G0 Z2.2
G1 F3000
G1 X265.084 Y164.833
G1 X265.191 Y165.179
G1 X265.286 Y165.545
G1 X265.405 Y165.893
G1 X265.524 Y166.279
G1 X265.623 Y166.612
G1 X265.744 Y166.986
G1 X265.842 Y167.331
G1 X265.979 Y167.712
G1 X266.059 Y168.048
G1 X266.155 Y168.424
G1 X266.271 Y168.761
G1 X266.394 Y169.127
G1 X266.475 Y169.464
G1 X266.589 Y169.805
G1 X266.668 Y170.157
G1 X266.785 Y170.519
G1 X266.846 Y170.834
G1 X266.926 Y171.143
G1 X267.008 Y171.494
G1 X267.064 Y171.823
G1 X267.150 Y172.134
G1 X267.191 Y172.443
G1 X267.275 Y172.756
G1 X267.319 Y173.088
G1 X267.386 Y173.363
G1 X267.426 Y173.682
G1 X267.486 Y173.959
G1 X267.508 Y174.282
G1 X267.578 Y174.546
G1 X267.592 Y174.828
G1 X267.665 Y175.129
G1 X267.715 Y175.411
G1 X267.749 Y175.709
G1 X267.788 Y175.977
G1 X267.835 Y176.290
G1 X267.871 Y176.553
G1 X267.925 Y176.875
G1 X267.961 Y177.187
G1 X268.022 Y177.468
; Path 178
G0 Z0
G0 X267.212 Y177.479
G0 Z2.2
G1 F3000
G1 X266.811 Y175.501
; Path 179
G0 Z0
G0 X267.997 Y177.479
G0 Z2.2
G1 F3000
G1 X268.263 Y179.258
G1 X268.531 Y180.997
G1 X268.752 Y182.747
G1 X269.038 Y184.517
; Path 180
G0 Z0
G0 X268.999 Y184.523
G0 Z2.2
G1 F3000
G1 X269.486 Y186.001
G1 X269.984 Y187.498
; Path 181
G0 Z0
G0 X266.018 Y187.487
G0 Z2.2
G1 F3000
G1 X267.005 Y186.973
G1 X267.980 Y186.483
; Path 182
G0 Z0
G0 X267.062 Y184.502
G0 Z2.2
G1 F3000
G1 X266.987 Y182.455
; Path 183
G0 Z0
G0 X267.900 Y180.487
G0 Z2.2
G1 F3000
G1 X268.132 Y182.475
; Path 184
G0 Z0
G0 X268.999 Y181.481
G0 Z2.2
G1 F3000
G1 X268.924 Y181.158
G1 X268.903 Y180.882
G1 X268.873 Y180.576
G1 X268.815 Y180.283
G1 X268.779 Y179.966
G1 X268.731 Y179.684
G1 X268.685 Y179.391
G1 X268.647 Y179.085
G1 X268.577 Y178.771
G1 X268.562 Y178.486
G1 X268.500 Y178.189
G1 X268.471 Y177.887
G1 X268.444 Y177.584
G1 X268.373 Y177.288
G1 X268.300 Y176.977
G1 X268.264 Y176.689
G1 X268.193 Y176.391
G1 X268.142 Y176.091
G1 X268.083 Y175.820
G1 X268.003 Y175.492
G1 X267.907 Y175.189
G1 X267.845 Y174.894
G1 X267.776 Y174.569
G1 X267.671 Y174.296
G1 X267.550 Y173.978
G1 X267.484 Y173.698
G1 X267.403 Y173.402
G1 X267.285 Y173.100
G1 X267.177 Y172.798
G1 X267.079 Y172.502
G1 X266.997 Y172.221
G1 X266.868 Y171.905
G1 X266.760 Y171.594
G1 X266.655 Y171.307
G1 X266.534 Y171.027
G1 X266.443 Y170.709
G1 X266.330 Y170.435
G1 X266.235 Y170.112
G1 X266.113 Y169.842
G1 X266.034 Y169.514
; Path 185
G0 Z0
G0 X265.741 Y170.541
G0 Z2.2
G1 F3000
G1 X266.235 Y172.508
; Path 186
G0 Z0
G0 X266.985 Y172.521
G0 Z2.2
G1 F3000
G1 X267.457 Y174.261
G1 X268.007 Y175.999
G1 X268.508 Y177.752
G1 X268.983 Y179.491
; Path 187
G0 Z0
G0 X280.009 Y177.495
G0 Z2.2
G1 F3000
G1 X300.009 Y179.495
; Path 188
G0 Z0
G0 X292.509 Y187.495
G0 Z2.2
G1 F3000
G1 X292.009 Y186.995
G1 X291.509 Y187.495
G1 X292.009 Y187.995
G1 X292.509 Y187.495
; Path 189
G0 Z0
G0 X287.150 Y197.016
G0 Z2.2
G1 F3000
G1 X288.855 Y198.030
; Path 190
G0 Z0
G0 X299.011 Y207.371
G0 Z2.2
G1 F3000
G1 X300.987 Y207.645
; Path 191
G0 Z0
G0 X310.009 Y204.495
G0 Z2.2
G1 F3000
G1 X309.355 Y204.412
G1 X308.722 Y204.329
G1 X308.103 Y204.245
G1 X307.490 Y204.162
G1 X306.878 Y204.079
G1 X306.259 Y203.995
G1 X305.626 Y203.912
G1 X304.972 Y203.829
G1 X304.290 Y203.745
G1 X303.574 Y203.662
G1 X302.816 Y203.579
G1 X302.009 Y203.495
G1 X301.159 Y203.412
G1 X300.275 Y203.329
G1 X299.361 Y203.245
G1 X298.416 Y203.162
G1 X297.444 Y203.079
G1 X296.446 Y202.995
G1 X295.424 Y202.912
G1 X294.379 Y202.829
G1 X293.314 Y202.745
G1 X292.229 Y202.662
G1 X291.127 Y202.579
G1 X290.009 Y202.495
G1 X288.864 Y202.412
G1 X287.683 Y202.329
G1 X286.470 Y202.245
G1 X285.231 Y202.162
G1 X283.972 Y202.079
G1 X282.696 Y201.995
G1 X281.411 Y201.912
G1 X280.120 Y201.829
G1 X278.829 Y201.745
G1 X277.544 Y201.662
G1 X276.269 Y201.579
G1 X275.009 Y201.495
; Path 192
G0 Z0
G0 X257.016 Y209.483
G0 Z2.2
G1 F3000
G1 X257.183 Y209.259
G1 X257.323 Y209.032
G1 X257.468 Y208.853
G1 X257.637 Y208.652
G1 X257.783 Y208.493
G1 X257.955 Y208.312
G1 X258.127 Y208.152
G1 X258.275 Y207.982
G1 X258.461 Y207.834
G1 X258.592 Y207.631
G1 X258.753 Y207.453
G1 X258.904 Y207.231
G1 X259.035 Y207.009
G1 X259.208 Y206.750
G1 X259.355 Y206.480
G1 X259.500 Y206.158
G1 X259.617 Y205.787
G1 X259.777 Y205.425
G1 X259.906 Y204.984
G1 X260.037 Y204.522
G1 X260.134 Y203.997
G1 X260.281 Y203.427
G1 X260.407 Y202.783
G1 X260.515 Y202.160
G1 X260.605 Y201.460
G1 X260.737 Y200.753
G1 X260.816 Y199.976
G1 X260.950 Y199.235
G1 X261.021 Y198.426
G1 X261.152 Y197.637
G1 X261.228 Y196.794
G1 X261.343 Y195.988
G1 X261.446 Y195.166
G1 X261.525 Y194.320
G1 X261.612 Y193.480
G1 X261.696 Y192.662
G1 X261.795 Y191.824
G1 X261.858 Y191.045
G1 X261.959 Y190.246
G1 X262.010 Y189.499
G1 X262.098 Y188.743
G1 X262.165 Y188.000
G1 X262.225 Y187.228
G1 X262.331 Y186.502
G1 X262.399 Y185.778
G1 X262.499 Y185.005
G1 X262.567 Y184.279
G1 X262.660 Y183.509
G1 X262.761 Y182.746
G1 X262.804 Y182.012
G1 X262.836 Y181.274
G1 X262.924 Y180.516
G1 X262.951 Y179.770
G1 X263.011 Y179.019
G1 X263.032 Y178.279
G1 X263.055 Y177.521
G1 X263.052 Y176.767
G1 X263.048 Y176.022
G1 X263.039 Y175.250
G1 X262.981 Y174.522
G1 X262.900 Y173.790
G1 X262.843 Y173.020
G1 X262.752 Y172.266
G1 X262.639 Y171.517
G1 X262.503 Y170.745
G1 X262.380 Y170.013
G1 X262.233 Y169.283
G1 X262.077 Y168.509
G1 X261.889 Y167.729
G1 X261.743 Y167.003
G1 X261.557 Y166.233
G1 X261.389 Y165.498
G1 X261.185 Y164.756
G1 X261.027 Y163.992
G1 X260.835 Y163.254
G1 X260.669 Y162.486
G1 X260.485 Y161.727
G1 X260.327 Y160.981
G1 X260.198 Y160.254
G1 X260.012 Y159.476
; Path 193
G0 Z0
G0 X253.019 Y157.525
G0 Z2.2
G1 F3000
G1 X254.287 Y156.006
G1 X255.475 Y154.489
G1 X256.769 Y152.983
G1 X257.980 Y151.505
; Path 194
G0 Z0
G0 X253.011 Y148.483
G0 Z2.2
G1 F3000
G1 X252.353 Y146.843
G1 X251.647 Y145.165
G1 X251.008 Y143.520
; Path 195
G0 Z0
G0 X248.359 Y146.403
G0 Z2.2
G1 F3000
G1 X247.699 Y144.553
; Path 196
G0 Z0
G0 X245.315 Y145.480
G0 Z2.2
G1 F3000
G1 X244.755 Y143.591
; Path 197
G0 Z0
G0 X235.009 Y134.495
G0 Z2.2
G1 F3000
G1 X232.009 Y124.495
; Path 198
G0 Z0
G0 X235.992 Y122.488
G0 Z2.2
G1 F3000
G1 X237.025 Y123.480
G1 X238.015 Y124.492
; Path 199
G0 Z0
G0 X239.014 Y123.510
G0 Z2.2
G1 F3000
G1 X240.010 Y124.527
G1 X241.033 Y125.516
; Path 200
G0 Z0
G0 X242.520 Y126.495
G0 Z2.2
G1 F3000
G1 X242.020 Y125.995
G1 X241.520 Y126.495
G1 X242.020 Y126.995
G1 X242.520 Y126.495
; Path 201
G0 Z0
G0 X243.037 Y126.510
G0 Z2.2
G1 F3000
G1 X244.380 Y127.162
G1 X245.683 Y127.836
G1 X246.992 Y128.500
; Path 202
G0 Z0
G0 X246.999 Y130.567
G0 Z2.2
G1 F3000
G1 X246.306 Y130.471
G1 X245.709 Y130.438
G1 X245.021 Y130.487
; Path 203
G0 Z0
G0 X246.497 Y131.509
G0 Z2.2
G1 F3000
G1 X245.997 Y132.009
G1 X245.497 Y131.509
G1 X245.997 Y131.009
G1 X246.497 Y131.509
; Path 204
G0 Z0
G0 X247.082 Y131.425
G0 Z2.2
G1 F3000
G1 X247.079 Y131.745
G1 X247.115 Y132.262
G1 X247.032 Y132.566
; Path 205
G0 Z0
G0 X244.031 Y132.480
G0 Z2.2
G1 F3000
G1 X244.184 Y132.550
G1 X244.330 Y132.679
G1 X244.460 Y132.784
G1 X244.630 Y132.872
G1 X244.789 Y132.973
G1 X244.929 Y133.062
G1 X245.105 Y133.150
G1 X245.229 Y133.250
G1 X245.385 Y133.362
G1 X245.529 Y133.440
G1 X245.695 Y133.508
G1 X245.828 Y133.635
G1 X245.960 Y133.711
G1 X246.128 Y133.837
G1 X246.254 Y133.967
G1 X246.427 Y134.050
G1 X246.574 Y134.184
G1 X246.725 Y134.277
G1 X246.879 Y134.377
G1 X247.024 Y134.520
G1 X247.186 Y134.623
G1 X247.321 Y134.781
G1 X247.442 Y134.908
G1 X247.618 Y135.058
G1 X247.783 Y135.200
G1 X247.915 Y135.349
G1 X248.046 Y135.497
G1 X248.212 Y135.650
G1 X248.346 Y135.801
G1 X248.508 Y135.959
G1 X248.681 Y136.094
G1 X248.805 Y136.273
G1 X248.942 Y136.424
G1 X249.101 Y136.588
G1 X249.265 Y136.734
G1 X249.397 Y136.903
G1 X249.549 Y137.044
G1 X249.693 Y137.214
G1 X249.820 Y137.368
G1 X249.990 Y137.518
; Path 206
G0 Z0
G0 X251.026 Y137.490
G0 Z2.2
G1 F3000
G1 X251.003 Y137.405
G1 X250.923 Y137.292
G1 X250.884 Y137.173
G1 X250.819 Y137.101
G1 X250.754 Y137.013
G1 X250.715 Y136.913
G1 X250.643 Y136.822
G1 X250.611 Y136.726
G1 X250.568 Y136.631
G1 X250.507 Y136.538
G1 X250.449 Y136.455
G1 X250.404 Y136.344
G1 X250.338 Y136.263
G1 X250.301 Y136.143
G1 X250.248 Y136.051
G1 X250.199 Y135.932
G1 X250.126 Y135.833
G1 X250.097 Y135.708
G1 X250.056 Y135.572
G1 X249.997 Y135.468
G1 X249.925 Y135.363
G1 X249.898 Y135.210
G1 X249.828 Y135.073
G1 X249.800 Y134.936
G1 X249.745 Y134.790
G1 X249.703 Y134.650
G1 X249.647 Y134.492
G1 X249.607 Y134.352
G1 X249.567 Y134.200
G1 X249.511 Y134.048
G1 X249.470 Y133.902
G1 X249.416 Y133.739
G1 X249.378 Y133.571
G1 X249.321 Y133.427
G1 X249.253 Y133.273
G1 X249.226 Y133.117
G1 X249.151 Y132.941
G1 X249.130 Y132.811
G1 X249.078 Y132.636
G1 X249.034 Y132.511
; Path 207
G0 Z0
G0 X247.989 Y130.473
G0 Z2.2
G1 F3000
G1 X246.678 Y129.444
G1 X245.349 Y128.485
G1 X244.034 Y127.469
; Path 208
G0 Z0
G0 X243.004 Y127.486
G0 Z2.2
G1 F3000
G1 X241.994 Y126.523
G1 X241.023 Y125.536
G1 X240.027 Y124.516
; Path 209
G0 Z0
G0 X239.981 Y124.488
G0 Z2.2
G1 F3000
G1 X239.018 Y123.503
G1 X238.004 Y122.524
; Path 210
G0 Z0
G0 X234.036 Y125.506
G0 Z2.2
G1 F3000
G1 X235.005 Y127.024
G1 X236.001 Y128.524
; Path 211
G0 Z0
G0 X234.983 Y127.481
G0 Z2.2
G1 F3000
G1 X235.515 Y128.973
G1 X236.026 Y130.477
; Path 212
G0 Z0
G0 X234.001 Y130.467
G0 Z2.2
G1 F3000
G1 X232.993 Y129.468
G1 X231.975 Y128.501
G1 X231.001 Y127.493
; Path 213
G0 Z0
G0 X225.009 Y120.495
G0 Z2.2
G1 F3000
G1 X218.009 Y119.495
; Path 214
G0 Z0
G0 X226.335 Y134.773
G0 Z2.2
G1 F3000
G1 X227.674 Y136.207
; Path 215
G0 Z0
G0 X229.560 Y137.413
G0 Z2.2
G1 F3000
G1 X230.451 Y135.631
; Path 216
G0 Z0
G0 X229.768 Y135.439
G0 Z2.2
G1 F3000
G1 X230.324 Y133.512
; Path 217
G0 Z0
G0 X230.996 Y134.489
G0 Z2.2
G1 F3000
G1 X230.323 Y135.836
G1 X229.711 Y137.134
G1 X229.028 Y138.493
; Path 218
G0 Z0
G0 X229.328 Y138.568
G0 Z2.2
G1 F3000
G1 X228.589 Y140.465
; Path 219
G0 Z0
G0 X228.634 Y141.405
G0 Z2.2
G1 F3000
G1 X229.378 Y139.561
; Path 220
G0 Z0
G0 X228.294 Y139.531
G0 Z2.2
G1 F3000
G1 X227.749 Y141.479
; Path 221
G0 Z0
G0 X226.999 Y142.483
G0 Z2.2
G1 F3000
G1 X226.696 Y141.152
G1 X226.342 Y139.842
G1 X226.019 Y138.488
; Path 222
G0 Z0
G0 X225.524 Y138.673
G0 Z2.2
G1 F3000
G1 X226.464 Y140.406
; Path 223
G0 Z0
G0 X228.001 Y137.523
G0 Z2.2
G1 F3000
G1 X227.696 Y136.201
G1 X227.370 Y134.839
G1 X227.038 Y133.508
; Path 224
G0 Z0
G0 X227.522 Y132.364
G0 Z2.2
G1 F3000
G1 X228.538 Y130.605
; Path 225
G0 Z0
G0 X229.006 Y129.487
G0 Z2.2
G1 F3000
G1 X229.985 Y130.979
G1 X230.981 Y132.475
; Path 226
G0 Z0
G0 X232.008 Y131.524
G0 Z2.2
G1 F3000
G1 X232.494 Y133.023
G1 X233.014 Y134.475
; Path 227
G0 Z0
G0 X231.982 Y133.476
G0 Z2.2
G1 F3000
G1 X231.894 Y133.714
G1 X231.786 Y133.975
G1 X231.673 Y134.230
G1 X231.591 Y134.474
G1 X231.504 Y134.748
G1 X231.395 Y134.973
G1 X231.282 Y135.220
G1 X231.199 Y135.471
G1 X231.110 Y135.740
G1 X231.004 Y135.970
G1 X230.935 Y136.229
G1 X230.808 Y136.469
G1 X230.691 Y136.733
G1 X230.612 Y136.968
G1 X230.534 Y137.209
G1 X230.415 Y137.467
G1 X230.299 Y137.738
G1 X230.217 Y137.967
G1 X230.116 Y138.236
G1 X230.019 Y138.468
G1 X229.913 Y138.744
G1 X229.819 Y138.969
G1 X229.740 Y139.198
G1 X229.618 Y139.471
G1 X229.516 Y139.701
G1 X229.417 Y139.974
G1 X229.312 Y140.242
G1 X229.215 Y140.476
G1 X229.102 Y140.746
G1 X229.013 Y140.979
G1 X228.909 Y141.218
G1 X228.810 Y141.483
G1 X228.722 Y141.747
G1 X228.608 Y141.986
G1 X228.489 Y142.229
G1 X228.405 Y142.489
G1 X228.276 Y142.769
G1 X228.203 Y142.992
G1 X228.094 Y143.270
G1 X228.001 Y143.495
; Path 228
G0 Z0
G0 X229.718 Y142.406
G0 Z2.2
G1 F3000
G1 X230.321 Y140.505
; Path 229
G0 Z0
G0 X230.024 Y140.511
G0 Z2.2
G1 F3000
G1 X230.712 Y138.856
G1 X231.335 Y137.162
G1 X232.035 Y135.482
; Path 230
G0 Z0
G0 X230.616 Y139.427
G0 Z2.2
G1 F3000
G1 X231.344 Y137.543
; Path 231
G0 Z0
G0 X229.988 Y137.480
G0 Z2.2
G1 F3000
G1 X229.339 Y139.154
G1 X228.709 Y140.806
G1 X228.033 Y142.474
; Path 232
G0 Z0
G0 X228.000 Y142.467
G0 Z2.2
G1 F3000
G1 X227.337 Y143.828
G1 X226.695 Y145.115
G1 X226.036 Y146.469
; Path 233
G0 Z0
G0 X222.023 Y151.500
G0 Z2.2
G1 F3000
G1 X223.290 Y153.013
G1 X224.476 Y154.513
G1 X225.729 Y156.015
G1 X226.988 Y157.493
; Path 234
G0 Z0
G0 X229.993 Y157.490
G0 Z2.2
G1 F3000
G1 X229.572 Y155.885
G1 X229.216 Y154.280
G1 X228.831 Y152.687
G1 X228.390 Y151.132
G1 X228.007 Y149.512
; Path 235
G0 Z0
G0 X226.991 Y148.525
G0 Z2.2
G1 F3000
G1 X228.003 Y146.881
G1 X228.961 Y145.207
G1 X229.982 Y143.518
; Path 236
G0 Z0
G0 X231.937 Y146.489
G0 Z2.2
G1 F3000
G1 X232.112 Y144.483
; Path 237
G0 Z0
G0 X234.988 Y143.456
G0 Z2.2
G1 F3000
G1 X235.076 Y145.482
; Path 238
G0 Z0
G0 X235.003 Y147.473
G0 Z2.2
G1 F3000
G1 X235.222 Y149.264
G1 X235.437 Y151.082
G1 X235.615 Y152.872
G1 X235.790 Y154.703
G1 X236.020 Y156.501
; Path 239
G0 Z0
G0 X238.034 Y154.466
G0 Z2.2
G1 F3000
G1 X238.176 Y156.111
G1 X238.343 Y157.833
G1 X238.545 Y159.487
G1 X238.709 Y161.129
G1 X238.873 Y162.828
G1 X239.017 Y164.492
; Path 240
G0 Z0
G0 X247.031 Y168.467
G0 Z2.2
G1 F3000
G1 X246.883 Y166.625
G1 X246.662 Y164.824
G1 X246.499 Y162.968
G1 X246.326 Y161.180
G1 X246.139 Y159.314
G1 X245.982 Y157.506
; Path 241
G0 Z0
G0 X242.989 Y155.509
G0 Z2.2
G1 F3000
G1 X242.820 Y153.897
G1 X242.573 Y152.330
G1 X242.378 Y150.710
G1 X242.213 Y149.143
G1 X242.000 Y147.518
; Path 242
G0 Z0
G0 X250.033 Y149.519
G0 Z2.2
G1 F3000
G1 X250.263 Y151.115
G1 X250.417 Y152.725
G1 X250.608 Y154.298
G1 X250.836 Y155.895
G1 X251.039 Y157.501
; Path 243
G0 Z0
G0 X253.013 Y159.521
G0 Z2.2
G1 F3000
G1 X253.039 Y159.790
G1 X253.118 Y160.011
G1 X253.192 Y160.279
G1 X253.230 Y160.494
G1 X253.272 Y160.756
G1 X253.346 Y160.972
G1 X253.378 Y161.200
G1 X253.463 Y161.449
G1 X253.509 Y161.663
G1 X253.578 Y161.928
G1 X253.614 Y162.150
G1 X253.688 Y162.413
G1 X253.711 Y162.667
G1 X253.790 Y162.907
G1 X253.828 Y163.189
G1 X253.881 Y163.413
G1 X253.916 Y163.680
G1 X253.957 Y163.933
G1 X253.973 Y164.215
G1 X254.016 Y164.473
G1 X254.018 Y164.743
G1 X254.056 Y165.034
G1 X254.073 Y165.350
G1 X254.079 Y165.613
G1 X254.069 Y165.899
G1 X254.087 Y166.207
G1 X254.061 Y166.506
G1 X254.084 Y166.813
G1 X254.083 Y167.133
G1 X254.073 Y167.429
G1 X254.082 Y167.768
G1 X254.057 Y168.049
G1 X254.024 Y168.384
G1 X254.039 Y168.672
G1 X254.043 Y169.006
G1 X254.022 Y169.294
G1 X254.012 Y169.594
G1 X254.009 Y169.912
G1 X254.034 Y170.235
G1 X254.004 Y170.521
; Path 244
G0 Z0
G0 X255.009 Y167.495
G0 Z2.2
G1 F3000
G1 X256.676 Y167.575
G1 X258.342 Y167.650
G1 X260.009 Y167.722
G1 X261.676 Y167.792
G1 X263.342 Y167.861
G1 X265.009 Y167.933
G1 X266.676 Y168.008
G1 X268.342 Y168.088
G1 X270.009 Y168.175
G1 X271.676 Y168.271
G1 X273.342 Y168.377
G1 X275.009 Y168.495
G1 X276.692 Y168.630
G1 X278.400 Y168.782
G1 X280.126 Y168.948
G1 X281.861 Y169.125
G1 X283.595 Y169.308
G1 X285.321 Y169.495
G1 X287.030 Y169.682
G1 X288.713 Y169.866
G1 X290.361 Y170.042
G1 X291.965 Y170.208
G1 X293.517 Y170.360
G1 X295.009 Y170.495
G1 X296.434 Y170.614
G1 X297.798 Y170.720
G1 X299.111 Y170.816
G1 X300.379 Y170.903
G1 X301.613 Y170.983
G1 X302.821 Y171.058
G1 X304.012 Y171.129
G1 X305.194 Y171.199
G1 X306.376 Y171.269
G1 X307.567 Y171.340
G1 X308.775 Y171.415
G1 X310.009 Y171.495
; Path 245
G0 Z0
G0 X298.563 Y155.313
G0 Z2.2
G1 F3000
G1 X297.456 Y153.713
; Path 246
G0 Z0
G0 X285.467 Y142.388
G0 Z2.2
G1 F3000
G1 X284.591 Y140.640
; Path 247
G0 Z0
G0 X284.092 Y137.096
G0 Z2.2
G1 F3000
G1 X285.926 Y137.895
; Path 248
G0 Z0
G0 X294.160 Y140.967
G0 Z2.2
G1 F3000
G1 X295.858 Y142.024
; Path 249
G0 Z0
G0 X310.009 Y134.495
G0 Z2.2
G1 F3000
G1 X308.342 Y134.325
G1 X306.676 Y134.150
G1 X305.009 Y133.972
G1 X303.342 Y133.792
G1 X301.676 Y133.611
G1 X300.009 Y133.433
G1 X298.342 Y133.258
G1 X296.676 Y133.088
G1 X295.009 Y132.925
G1 X293.342 Y132.771
G1 X291.676 Y132.627
G1 X290.009 Y132.495
G1 X288.342 Y132.377
G1 X286.676 Y132.271
G1 X285.009 Y132.175
G1 X283.342 Y132.088
G1 X281.676 Y132.008
G1 X280.009 Y131.933
G1 X278.342 Y131.861
G1 X276.676 Y131.792
G1 X275.009 Y131.722
G1 X273.342 Y131.650
G1 X271.676 Y131.575
G1 X270.009 Y131.495
; Path 250
G0 Z0
G0 X265.009 Y127.495
G0 Z2.2
G1 F3000
G1 X288.009 Y129.495
; Path 251
G0 Z0
G0 X294.030 Y119.293
G0 Z2.2
G1 F3000
G1 X295.988 Y119.698
; Path 252
G0 Z0
G0 X305.009 Y124.495
G0 Z2.2
G1 F3000
G1 X303.759 Y124.325
G1 X302.509 Y124.150
G1 X301.259 Y123.972
G1 X300.009 Y123.792
G1 X298.759 Y123.611
G1 X297.509 Y123.433
G1 X296.259 Y123.258
G1 X295.009 Y123.088
G1 X293.759 Y122.925
G1 X292.509 Y122.771
G1 X291.259 Y122.627
G1 X290.009 Y122.495
G1 X288.759 Y122.377
G1 X287.509 Y122.271
G1 X286.259 Y122.175
G1 X285.009 Y122.088
G1 X283.759 Y122.008
G1 X282.509 Y121.933
G1 X281.259 Y121.861
G1 X280.009 Y121.792
G1 X278.759 Y121.722
G1 X277.509 Y121.650
G1 X276.259 Y121.575
G1 X275.009 Y121.495
; Path 253
G0 Z0
G0 X280.983 Y117.721
G0 Z2.2
G1 F3000
G1 X279.035 Y117.270
; Path 254
G0 Z0
G0 X278.990 Y109.690
G0 Z2.2
G1 F3000
G1 X277.028 Y109.301
; Path 255
G0 Z0
G0 X270.509 Y105.495
G0 Z2.2
G1 F3000
G1 X270.009 Y104.995
G1 X269.509 Y105.495
G1 X270.009 Y105.995
G1 X270.509 Y105.495
; Path 256
G0 Z0
G0 X272.009 Y99.495
G0 Z2.2
G1 F3000
G1 X260.009 Y98.495
; Path 257
G0 Z0
G0 X265.967 Y92.783
G0 Z2.2
G1 F3000
G1 X264.051 Y92.207
; Path 258
G0 Z0
G0 X264.988 Y89.496
G0 Z2.2
G1 F3000
G1 X265.252 Y89.254
G1 X265.490 Y88.998
G1 X265.711 Y88.733
G1 X265.991 Y88.501
G1 X266.240 Y88.234
G1 X266.493 Y88.004
G1 X266.739 Y87.771
G1 X266.995 Y87.508
G1 X267.262 Y87.275
G1 X267.497 Y87.011
G1 X267.751 Y86.776
G1 X267.998 Y86.514
G1 X268.220 Y86.271
G1 X268.500 Y86.016
G1 X268.754 Y85.773
G1 X269.001 Y85.518
G1 X269.246 Y85.250
G1 X269.501 Y85.019
G1 X269.723 Y84.752
G1 X270.002 Y84.519
G1 X270.247 Y84.272
G1 X270.502 Y84.018
G1 X270.748 Y83.741
G1 X271.001 Y83.516
G1 X271.226 Y83.280
G1 X271.500 Y83.013
G1 X271.732 Y82.790
G1 X271.999 Y82.510
G1 X272.244 Y82.281
G1 X272.498 Y82.006
G1 X272.728 Y81.760
G1 X272.996 Y81.502
G1 X273.252 Y81.258
G1 X273.495 Y80.998
G1 X273.755 Y80.729
G1 X273.993 Y80.494
G1 X274.266 Y80.263
G1 X274.492 Y79.990
G1 X274.750 Y79.710
G1 X274.991 Y79.487
; Path 259
G0 Z0
G0 X274.984 Y79.512
G0 Z2.2
G1 F3000
G1 X274.666 Y79.693
G1 X274.293 Y79.900
G1 X273.922 Y80.058
G1 X273.609 Y80.275
G1 X273.278 Y80.448
G1 X272.930 Y80.641
G1 X272.564 Y80.842
G1 X272.251 Y81.006
G1 X271.903 Y81.202
G1 X271.570 Y81.374
G1 X271.252 Y81.540
G1 X270.885 Y81.753
G1 X270.527 Y81.925
G1 X270.190 Y82.147
G1 X269.848 Y82.328
G1 X269.485 Y82.564
G1 X269.133 Y82.782
G1 X268.765 Y83.010
G1 X268.373 Y83.276
G1 X268.027 Y83.489
G1 X267.629 Y83.766
G1 X267.278 Y84.012
G1 X266.923 Y84.322
G1 X266.526 Y84.576
G1 X266.156 Y84.887
G1 X265.768 Y85.172
G1 X265.362 Y85.468
G1 X265.000 Y85.791
G1 X264.583 Y86.131
G1 X264.219 Y86.425
G1 X263.828 Y86.745
G1 X263.424 Y87.064
G1 X263.038 Y87.355
G1 X262.610 Y87.699
G1 X262.190 Y88.036
G1 X261.775 Y88.320
G1 X261.325 Y88.646
G1 X260.917 Y88.920
G1 X260.482 Y89.231
G1 X260.032 Y89.488
G1 X259.572 Y89.775
G1 X259.113 Y90.028
G1 X258.648 Y90.318
G1 X258.160 Y90.551
G1 X257.689 Y90.821
G1 X257.180 Y91.060
G1 X256.649 Y91.291
G1 X256.177 Y91.558
G1 X255.668 Y91.805
G1 X255.158 Y92.048
G1 X254.643 Y92.314
G1 X254.130 Y92.533
G1 X253.634 Y92.752
G1 X253.097 Y93.016
G1 X252.582 Y93.245
G1 X252.066 Y93.500
G1 X251.556 Y93.718
G1 X251.044 Y93.988
G1 X250.541 Y94.213
G1 X250.035 Y94.483
; Path 260
G0 Z0
G0 X254.989 Y94.525
G0 Z2.2
G1 F3000
G1 X254.759 Y94.399
G1 X254.516 Y94.251
G1 X254.269 Y94.137
G1 X254.079 Y94.026
G1 X253.898 Y93.943
G1 X253.662 Y93.829
G1 X253.481 Y93.742
G1 X253.250 Y93.639
G1 X253.045 Y93.512
G1 X252.827 Y93.434
G1 X252.621 Y93.311
G1 X252.380 Y93.195
G1 X252.144 Y93.074
G1 X251.892 Y92.901
G1 X251.611 Y92.693
G1 X251.348 Y92.530
G1 X251.039 Y92.322
G1 X250.734 Y92.062
G1 X250.402 Y91.745
G1 X250.033 Y91.477
G1 X249.618 Y91.124
G1 X249.236 Y90.759
G1 X248.780 Y90.365
G1 X248.354 Y89.923
G1 X247.857 Y89.444
G1 X247.400 Y88.990
G1 X246.893 Y88.475
G1 X246.391 Y87.981
G1 X245.840 Y87.450
G1 X245.342 Y86.917
G1 X244.776 Y86.354
G1 X244.267 Y85.817
G1 X243.728 Y85.279
G1 X243.181 Y84.704
G1 X242.636 Y84.159
G1 X242.101 Y83.598
G1 X241.582 Y83.051
G1 X241.041 Y82.520
G1 X240.540 Y82.007
G1 X240.015 Y81.490
G1 X239.510 Y81.020
G1 X239.013 Y80.491
G1 X238.531 Y79.970
G1 X238.010 Y79.493
G1 X237.483 Y79.005
G1 X237.007 Y78.494
G1 X236.506 Y78.014
G1 X236.003 Y77.496
G1 X235.489 Y76.975
G1 X235.000 Y76.497
G1 X234.501 Y75.976
G1 X233.996 Y75.499
G1 X233.506 Y74.988
G1 X232.993 Y74.500
G1 X232.480 Y73.989
G1 X231.989 Y73.502
G1 X231.460 Y73.008
G1 X230.985 Y72.503
G1 X230.503 Y72.008
G1 X229.982 Y71.505
; Path 261
G0 Z0
G0 X231.987 Y74.468
G0 Z2.2
G1 F3000
G1 X232.291 Y74.748
G1 X232.601 Y74.970
G1 X232.944 Y75.246
G1 X233.230 Y75.471
G1 X233.552 Y75.725
G1 X233.866 Y75.973
G1 X234.172 Y76.201
G1 X234.505 Y76.474
G1 X234.849 Y76.696
G1 X235.139 Y76.976
G1 X235.432 Y77.255
G1 X235.764 Y77.477
G1 X236.070 Y77.722
G1 X236.371 Y77.979
G1 X236.657 Y78.206
G1 X236.956 Y78.480
G1 X237.248 Y78.754
G1 X237.512 Y78.980
G1 X237.781 Y79.244
G1 X238.032 Y79.481
G1 X238.247 Y79.722
G1 X238.517 Y79.989
G1 X238.776 Y80.241
G1 X238.974 Y80.511
G1 X239.191 Y80.797
G1 X239.406 Y81.041
G1 X239.587 Y81.329
G1 X239.816 Y81.572
G1 X240.010 Y81.833
G1 X240.207 Y82.099
G1 X240.387 Y82.357
G1 X240.583 Y82.616
G1 X240.792 Y82.866
G1 X240.948 Y83.117
G1 X241.149 Y83.377
G1 X241.303 Y83.597
G1 X241.482 Y83.796
G1 X241.654 Y84.050
G1 X241.852 Y84.281
G1 X242.002 Y84.469
G1 X242.173 Y84.634
G1 X242.341 Y84.852
G1 X242.513 Y85.040
G1 X242.664 Y85.202
G1 X242.788 Y85.366
G1 X242.973 Y85.524
G1 X243.116 Y85.699
G1 X243.271 Y85.825
G1 X243.389 Y85.946
G1 X243.562 Y86.110
G1 X243.709 Y86.255
G1 X243.848 Y86.385
G1 X243.971 Y86.510
G1 X244.132 Y86.657
G1 X244.267 Y86.771
G1 X244.417 Y86.930
G1 X244.556 Y87.098
G1 X244.705 Y87.211
G1 X244.858 Y87.343
G1 X245.001 Y87.506
; Path 262
G0 Z0
G0 X249.988 Y91.477
G0 Z2.2
G1 F3000
G1 X249.831 Y91.359
G1 X249.700 Y91.291
G1 X249.570 Y91.217
G1 X249.426 Y91.126
G1 X249.288 Y91.071
G1 X249.160 Y90.974
G1 X248.999 Y90.880
G1 X248.896 Y90.824
G1 X248.771 Y90.723
G1 X248.627 Y90.668
G1 X248.504 Y90.598
G1 X248.349 Y90.497
G1 X248.218 Y90.417
G1 X248.055 Y90.302
G1 X247.888 Y90.184
G1 X247.738 Y90.074
G1 X247.562 Y89.913
G1 X247.392 Y89.804
G1 X247.218 Y89.632
G1 X247.012 Y89.482
G1 X246.835 Y89.297
G1 X246.603 Y89.103
G1 X246.407 Y88.897
G1 X246.172 Y88.673
G1 X245.962 Y88.439
G1 X245.722 Y88.200
G1 X245.513 Y87.947
G1 X245.250 Y87.694
G1 X244.997 Y87.442
G1 X244.759 Y87.163
G1 X244.480 Y86.920
G1 X244.247 Y86.618
G1 X244.011 Y86.351
G1 X243.716 Y86.068
G1 X243.458 Y85.783
G1 X243.164 Y85.520
G1 X242.866 Y85.245
G1 X242.593 Y84.985
G1 X242.322 Y84.735
G1 X242.002 Y84.472
G1 X241.694 Y84.215
G1 X241.382 Y83.973
G1 X241.065 Y83.694
G1 X240.729 Y83.475
G1 X240.383 Y83.217
G1 X240.047 Y82.978
G1 X239.690 Y82.754
G1 X239.344 Y82.480
G1 X238.994 Y82.244
G1 X238.625 Y81.983
G1 X238.277 Y81.734
G1 X237.895 Y81.486
G1 X237.529 Y81.223
G1 X237.162 Y80.990
G1 X236.795 Y80.740
G1 X236.431 Y80.493
G1 X236.046 Y80.244
G1 X235.708 Y79.996
G1 X235.382 Y79.740
G1 X234.998 Y79.499
; Path 263
G0 Z0
G0 X230.984 Y77.500
G0 Z2.2
G1 F3000
G1 X229.498 Y76.526
G1 X228.003 Y75.508
; Path 264
G0 Z0
G0 X225.009 Y77.495
G0 Z2.2
G1 F3000
G1 X215.009 Y81.495
; Path 265
G0 Z0
G0 X212.035 Y89.499
G0 Z2.2
G1 F3000
G1 X210.267 Y89.987
G1 X208.502 Y90.474
G1 X206.767 Y90.963
G1 X205.017 Y91.484
; Path 266
G0 Z0
G0 X205.029 Y89.489
G0 Z2.2
G1 F3000
G1 X204.884 Y89.356
G1 X204.745 Y89.208
G1 X204.599 Y89.102
G1 X204.489 Y88.955
G1 X204.341 Y88.835
G1 X204.249 Y88.718
G1 X204.111 Y88.606
G1 X204.013 Y88.486
G1 X203.903 Y88.393
G1 X203.769 Y88.245
G1 X203.665 Y88.102
G1 X203.506 Y87.984
G1 X203.355 Y87.826
G1 X203.210 Y87.691
G1 X203.023 Y87.520
G1 X202.870 Y87.354
G1 X202.660 Y87.168
G1 X202.474 Y86.962
G1 X202.261 Y86.710
G1 X202.010 Y86.501
G1 X201.712 Y86.248
G1 X201.470 Y85.968
G1 X201.194 Y85.645
G1 X200.862 Y85.375
G1 X200.551 Y85.074
G1 X200.197 Y84.729
G1 X199.843 Y84.384
G1 X199.489 Y84.040
G1 X199.108 Y83.702
G1 X198.748 Y83.318
G1 X198.352 Y82.957
G1 X197.988 Y82.570
G1 X197.620 Y82.194
G1 X197.220 Y81.807
G1 X196.868 Y81.426
G1 X196.456 Y81.036
G1 X196.056 Y80.630
G1 X195.709 Y80.267
G1 X195.372 Y79.887
G1 X194.991 Y79.510
G1 X194.649 Y79.118
G1 X194.291 Y78.751
G1 X193.944 Y78.337
G1 X193.591 Y77.976
G1 X193.258 Y77.605
G1 X192.892 Y77.186
G1 X192.552 Y76.769
G1 X192.193 Y76.386
G1 X191.865 Y75.974
G1 X191.495 Y75.577
G1 X191.146 Y75.184
G1 X190.797 Y74.764
G1 X190.443 Y74.341
G1 X190.099 Y73.948
G1 X189.739 Y73.520
G1 X189.401 Y73.134
G1 X189.062 Y72.748
G1 X188.702 Y72.324
G1 X188.335 Y71.942
G1 X188.004 Y71.520
; Path 267
G0 Z0
G0 X189.391 Y68.712
G0 Z2.2
G1 F3000
G1 X190.605 Y70.291
; Path 268
G0 Z0
G0 X192.348 Y72.740
G0 Z2.2
G1 F3000
G1 X193.586 Y74.301
; Path 269
G0 Z0
G0 X189.717 Y79.195
G0 Z2.2
G1 F3000
G1 X188.372 Y77.736
; Path 270
G0 Z0
G0 X186.681 Y75.233
G0 Z2.2
G1 F3000
G1 X185.294 Y73.729
; Path 271
G0 Z0
G0 X184.006 Y71.486
G0 Z2.2
G1 F3000
G1 X183.025 Y70.468
G1 X182.000 Y69.475
; Path 272
G0 Z0
G0 X184.998 Y67.481
G0 Z2.2
G1 F3000
G1 X185.364 Y67.844
G1 X185.709 Y68.181
G1 X186.077 Y68.560
G1 X186.434 Y68.882
G1 X186.784 Y69.215
G1 X187.167 Y69.583
G1 X187.532 Y69.923
G1 X187.902 Y70.283
G1 X188.269 Y70.632
G1 X188.632 Y70.984
G1 X188.995 Y71.330
G1 X189.353 Y71.685
G1 X189.703 Y72.059
G1 X190.058 Y72.386
G1 X190.417 Y72.752
G1 X190.740 Y73.087
G1 X191.088 Y73.459
G1 X191.394 Y73.788
G1 X191.682 Y74.118
G1 X192.014 Y74.490
G1 X192.309 Y74.853
G1 X192.604 Y75.211
G1 X192.898 Y75.583
G1 X193.174 Y75.960
G1 X193.467 Y76.316
G1 X193.723 Y76.726
G1 X194.012 Y77.133
G1 X194.253 Y77.496
G1 X194.478 Y77.871
G1 X194.762 Y78.258
G1 X195.035 Y78.615
G1 X195.251 Y79.000
G1 X195.481 Y79.331
G1 X195.720 Y79.710
G1 X195.955 Y80.068
G1 X196.169 Y80.374
G1 X196.405 Y80.661
G1 X196.598 Y80.982
G1 X196.786 Y81.234
G1 X197.008 Y81.521
G1 X197.192 Y81.735
G1 X197.389 Y81.983
G1 X197.570 Y82.175
G1 X197.736 Y82.376
G1 X197.909 Y82.536
G1 X198.055 Y82.712
G1 X198.195 Y82.834
G1 X198.353 Y83.003
G1 X198.516 Y83.142
G1 X198.634 Y83.262
G1 X198.747 Y83.377
G1 X198.905 Y83.500
G1 X199.056 Y83.614
G1 X199.173 Y83.730
G1 X199.330 Y83.833
G1 X199.442 Y83.965
G1 X199.609 Y84.113
G1 X199.719 Y84.215
G1 X199.850 Y84.349
G1 X200.011 Y84.494
; Path 273
G0 Z0
G0 X198.639 Y82.214
G0 Z2.2
G1 F3000
G1 X197.293 Y80.740
; Path 274
G0 Z0
G0 X196.596 Y78.319
G0 Z2.2
G1 F3000
G1 X195.449 Y76.666
; Path 275
G0 Z0
G0 X195.004 Y77.486
G0 Z2.2
G1 F3000
G1 X194.885 Y77.267
G1 X194.717 Y77.094
G1 X194.589 Y76.908
G1 X194.444 Y76.715
G1 X194.297 Y76.548
G1 X194.179 Y76.345
G1 X194.061 Y76.155
G1 X193.917 Y75.976
G1 X193.772 Y75.812
G1 X193.650 Y75.603
G1 X193.541 Y75.415
G1 X193.373 Y75.221
G1 X193.234 Y75.026
G1 X193.079 Y74.822
G1 X192.942 Y74.600
G1 X192.763 Y74.402
G1 X192.619 Y74.174
G1 X192.418 Y73.955
G1 X192.237 Y73.710
G1 X192.038 Y73.474
G1 X191.844 Y73.200
G1 X191.619 Y72.955
G1 X191.422 Y72.653
G1 X191.165 Y72.404
G1 X190.901 Y72.125
G1 X190.682 Y71.825
G1 X190.445 Y71.524
G1 X190.176 Y71.224
G1 X189.909 Y70.936
G1 X189.654 Y70.607
G1 X189.409 Y70.292
G1 X189.122 Y69.981
G1 X188.847 Y69.649
G1 X188.586 Y69.350
G1 X188.320 Y69.054
G1 X188.052 Y68.721
G1 X187.769 Y68.389
G1 X187.527 Y68.100
G1 X187.246 Y67.766
G1 X187.016 Y67.492
G1 X186.740 Y67.183
G1 X186.515 Y66.892
G1 X186.282 Y66.591
G1 X186.015 Y66.293
G1 X185.745 Y65.988
G1 X185.514 Y65.693
G1 X185.248 Y65.378
G1 X185.014 Y65.092
G1 X184.735 Y64.774
G1 X184.515 Y64.492
G1 X184.250 Y64.179
G1 X184.015 Y63.891
G1 X183.738 Y63.611
G1 X183.515 Y63.291
G1 X183.257 Y63.002
G1 X183.016 Y62.690
G1 X182.790 Y62.399
G1 X182.516 Y62.090
G1 X182.256 Y61.794
G1 X182.016 Y61.489
; Path 276
G0 Z0
G0 X180.006 Y57.522
G0 Z2.2
G1 F3000
G1 X179.632 Y57.713
G1 X179.199 Y57.898
G1 X178.773 Y58.048
G1 X178.384 Y58.245
G1 X177.947 Y58.398
G1 X177.565 Y58.577
G1 X177.177 Y58.715
G1 X176.745 Y58.904
G1 X176.330 Y59.096
G1 X175.928 Y59.239
G1 X175.548 Y59.409
G1 X175.115 Y59.595
G1 X174.707 Y59.793
G1 X174.311 Y59.983
G1 X173.893 Y60.186
G1 X173.519 Y60.416
G1 X173.128 Y60.681
G1 X172.742 Y60.907
G1 X172.359 Y61.176
G1 X171.983 Y61.467
G1 X171.598 Y61.741
G1 X171.258 Y62.073
G1 X170.919 Y62.408
G1 X170.573 Y62.700
G1 X170.259 Y63.052
G1 X169.916 Y63.357
G1 X169.582 Y63.685
G1 X169.273 Y64.051
G1 X168.928 Y64.398
G1 X168.633 Y64.792
G1 X168.296 Y65.215
G1 X167.983 Y65.589
G1 X167.669 Y66.020
G1 X167.310 Y66.449
G1 X166.983 Y66.928
G1 X166.602 Y67.382
G1 X166.201 Y67.866
G1 X165.846 Y68.396
G1 X165.456 Y68.927
G1 X165.030 Y69.500
G1 X164.590 Y70.130
G1 X164.150 Y70.741
G1 X163.679 Y71.450
G1 X163.217 Y72.134
G1 X162.716 Y72.886
G1 X162.241 Y73.646
G1 X161.736 Y74.435
G1 X161.230 Y75.239
G1 X160.741 Y76.076
G1 X160.195 Y76.878
G1 X159.645 Y77.674
G1 X159.145 Y78.526
G1 X158.593 Y79.327
G1 X158.088 Y80.149
G1 X157.566 Y80.917
G1 X157.036 Y81.710
G1 X156.530 Y82.454
G1 X155.997 Y83.174
G1 X155.497 Y83.853
G1 X154.981 Y84.504
G1 X154.494 Y85.116
G1 X153.980 Y85.707
G1 X153.486 Y86.278
G1 X152.979 Y86.827
G1 X152.487 Y87.358
G1 X151.980 Y87.876
G1 X151.469 Y88.398
G1 X150.982 Y88.870
G1 X150.488 Y89.347
G1 X149.984 Y89.825
G1 X149.482 Y90.283
G1 X148.986 Y90.755
G1 X148.467 Y91.243
G1 X147.989 Y91.675
G1 X147.498 Y92.138
G1 X146.991 Y92.599
G1 X146.496 Y93.045
G1 X145.993 Y93.544
G1 X145.490 Y94.023
G1 X144.995 Y94.524
; Path 277
G0 Z0
G0 X135.009 Y100.495
G0 Z2.2
G1 F3000
G1 X125.009 Y99.495
; Path 278
G0 Z0
G0 X126.009 Y92.504
G0 Z2.2
G1 F3000
G1 X124.009 Y92.486
; Path 279
G0 Z0
G0 X110.025 Y94.492
G0 Z2.2
G1 F3000
G1 X110.514 Y94.176
G1 X111.034 Y93.819
G1 X111.529 Y93.532
G1 X112.057 Y93.187
G1 X112.552 Y92.904
G1 X113.087 Y92.580
G1 X113.608 Y92.301
G1 X114.120 Y91.978
G1 X114.607 Y91.674
G1 X115.148 Y91.365
G1 X115.647 Y91.023
G1 X116.167 Y90.722
G1 X116.675 Y90.359
G1 X117.169 Y90.030
G1 X117.664 Y89.653
G1 X118.150 Y89.273
G1 X118.654 Y88.878
G1 X119.102 Y88.432
G1 X119.578 Y87.948
G1 X120.021 Y87.489
G1 X120.452 Y86.926
G1 X120.906 Y86.405
G1 X121.311 Y85.769
G1 X121.764 Y85.178
G1 X122.192 Y84.540
G1 X122.598 Y83.842
G1 X122.984 Y83.137
G1 X123.411 Y82.435
G1 X123.813 Y81.696
G1 X124.206 Y80.992
G1 X124.613 Y80.254
G1 X124.985 Y79.548
G1 X125.348 Y78.818
G1 X125.753 Y78.141
G1 X126.103 Y77.458
G1 X126.512 Y76.806
G1 X126.912 Y76.217
G1 X127.265 Y75.578
G1 X127.617 Y75.053
G1 X128.014 Y74.494
G1 X128.379 Y74.028
G1 X128.753 Y73.551
G1 X129.133 Y73.106
G1 X129.476 Y72.709
G1 X129.807 Y72.355
G1 X130.184 Y71.952
G1 X130.550 Y71.593
G1 X130.881 Y71.260
G1 X131.230 Y70.916
G1 X131.569 Y70.617
G1 X131.937 Y70.320
G1 X132.253 Y70.003
G1 X132.600 Y69.681
G1 X132.935 Y69.401
G1 X133.272 Y69.094
G1 X133.618 Y68.793
G1 X133.979 Y68.486
G1 X134.305 Y68.161
G1 X134.646 Y67.799
G1 X134.999 Y67.488
; Path 280
G0 Z0
G0 X135.030 Y67.494
G0 Z2.2
G1 F3000
G1 X135.359 Y68.016
G1 X135.724 Y68.486
G1 X136.064 Y68.953
G1 X136.411 Y69.464
G1 X136.760 Y69.920
G1 X137.095 Y70.435
G1 X137.407 Y70.897
G1 X137.777 Y71.404
G1 X138.116 Y71.874
G1 X138.461 Y72.376
G1 X138.784 Y72.858
G1 X139.151 Y73.359
G1 X139.492 Y73.828
G1 X139.848 Y74.357
G1 X140.225 Y74.853
G1 X140.556 Y75.377
G1 X140.900 Y75.926
G1 X141.278 Y76.424
G1 X141.624 Y76.944
G1 X142.017 Y77.505
G1 X142.423 Y78.109
G1 X142.788 Y78.654
G1 X143.184 Y79.248
G1 X143.597 Y79.886
G1 X143.987 Y80.553
G1 X144.431 Y81.173
G1 X144.850 Y81.812
G1 X145.279 Y82.488
G1 X145.700 Y83.151
G1 X146.130 Y83.806
G1 X146.530 Y84.468
G1 X146.970 Y85.098
G1 X147.378 Y85.712
G1 X147.788 Y86.339
G1 X148.161 Y86.904
G1 X148.573 Y87.501
G1 X148.959 Y88.055
G1 X149.313 Y88.557
G1 X149.667 Y89.013
G1 X149.995 Y89.482
G1 X150.332 Y89.876
G1 X150.617 Y90.266
G1 X150.891 Y90.577
G1 X151.187 Y90.931
G1 X151.439 Y91.224
G1 X151.717 Y91.499
G1 X151.968 Y91.759
G1 X152.214 Y91.990
G1 X152.466 Y92.188
G1 X152.687 Y92.425
G1 X152.904 Y92.650
G1 X153.145 Y92.826
G1 X153.341 Y93.015
G1 X153.597 Y93.212
G1 X153.825 Y93.403
G1 X154.053 Y93.606
G1 X154.305 Y93.791
G1 X154.520 Y94.028
G1 X154.741 Y94.240
G1 X155.008 Y94.498
; Path 281
G0 Z0
G0 X151.990 Y91.495
G0 Z2.2
G1 F3000
G1 X153.573 Y90.681
G1 X155.200 Y89.890
G1 X156.788 Y89.130
G1 X158.418 Y88.307
G1 X160.007 Y87.514
; Path 282
G0 Z0
G0 X158.015 Y89.497
G0 Z2.2
G1 F3000
G1 X158.121 Y89.313
G1 X158.210 Y89.106
G1 X158.276 Y88.903
G1 X158.398 Y88.730
G1 X158.481 Y88.536
G1 X158.581 Y88.362
G1 X158.701 Y88.199
G1 X158.764 Y87.995
G1 X158.831 Y87.811
G1 X158.949 Y87.625
G1 X159.061 Y87.445
G1 X159.138 Y87.245
G1 X159.224 Y87.027
G1 X159.336 Y86.848
G1 X159.416 Y86.657
G1 X159.545 Y86.429
G1 X159.653 Y86.217
G1 X159.767 Y85.983
G1 X159.883 Y85.738
G1 X160.007 Y85.502
G1 X160.104 Y85.246
G1 X160.257 Y84.991
G1 X160.358 Y84.748
G1 X160.509 Y84.461
G1 X160.610 Y84.182
G1 X160.768 Y83.910
G1 X160.895 Y83.621
G1 X161.035 Y83.339
G1 X161.180 Y83.029
G1 X161.315 Y82.748
G1 X161.443 Y82.465
G1 X161.609 Y82.137
G1 X161.773 Y81.823
G1 X161.922 Y81.506
G1 X162.073 Y81.182
G1 X162.255 Y80.855
G1 X162.456 Y80.496
G1 X162.613 Y80.185
G1 X162.801 Y79.865
G1 X162.997 Y79.495
G1 X163.199 Y79.154
G1 X163.415 Y78.777
G1 X163.661 Y78.388
G1 X163.867 Y78.025
G1 X164.113 Y77.625
G1 X164.346 Y77.245
G1 X164.620 Y76.850
G1 X164.848 Y76.443
G1 X165.096 Y76.016
G1 X165.365 Y75.626
G1 X165.657 Y75.186
G1 X165.893 Y74.799
G1 X166.151 Y74.391
G1 X166.425 Y73.967
G1 X166.690 Y73.561
G1 X166.954 Y73.138
G1 X167.222 Y72.711
G1 X167.476 Y72.317
G1 X167.742 Y71.941
G1 X167.983 Y71.510
; Path 283
G0 Z0
G0 X172.009 Y67.495
G0 Z2.2
G1 F3000
G1 X178.009 Y66.495
; Path 284
G0 Z0
G0 X178.996 Y65.505
G0 Z2.2
G1 F3000
G1 X177.478 Y64.504
G1 X176.010 Y63.494
; Path 285
G0 Z0
G0 X136.036 Y69.473
G0 Z2.2
G1 F3000
G1 X136.239 Y69.749
G1 X136.438 Y70.073
G1 X136.616 Y70.363
G1 X136.846 Y70.671
G1 X137.053 Y70.989
G1 X137.259 Y71.270
G1 X137.477 Y71.591
G1 X137.672 Y71.869
G1 X137.868 Y72.173
G1 X138.084 Y72.468
G1 X138.265 Y72.785
G1 X138.490 Y73.067
G1 X138.711 Y73.372
G1 X138.889 Y73.666
G1 X139.102 Y73.940
G1 X139.276 Y74.266
G1 X139.440 Y74.541
G1 X139.650 Y74.866
G1 X139.821 Y75.182
G1 X140.007 Y75.466
G1 X140.149 Y75.794
G1 X140.349 Y76.081
G1 X140.491 Y76.389
G1 X140.681 Y76.717
G1 X140.850 Y77.037
G1 X141.003 Y77.365
G1 X141.180 Y77.710
G1 X141.315 Y78.017
G1 X141.445 Y78.317
G1 X141.617 Y78.663
G1 X141.755 Y78.988
G1 X141.909 Y79.295
G1 X142.080 Y79.610
G1 X142.192 Y79.902
G1 X142.311 Y80.214
G1 X142.465 Y80.476
G1 X142.611 Y80.738
G1 X142.729 Y81.009
G1 X142.886 Y81.264
G1 X142.984 Y81.490
G1 X143.130 Y81.703
G1 X143.225 Y81.915
G1 X143.359 Y82.117
G1 X143.450 Y82.288
G1 X143.580 Y82.477
G1 X143.662 Y82.620
G1 X143.781 Y82.745
G1 X143.863 Y82.918
G1 X143.954 Y83.028
G1 X144.057 Y83.193
G1 X144.145 Y83.309
G1 X144.246 Y83.453
G1 X144.326 Y83.595
G1 X144.432 Y83.707
G1 X144.535 Y83.819
G1 X144.620 Y83.963
G1 X144.725 Y84.103
G1 X144.812 Y84.232
G1 X144.911 Y84.393
G1 X145.010 Y84.522
; Path 286
G0 Z0
G0 X148.026 Y91.467
G0 Z2.2
G1 F3000
G1 X147.597 Y91.281
G1 X147.222 Y91.078
G1 X146.842 Y90.886
G1 X146.417 Y90.702
G1 X146.014 Y90.548
G1 X145.612 Y90.335
G1 X145.205 Y90.132
G1 X144.807 Y89.969
G1 X144.384 Y89.793
G1 X144.002 Y89.600
G1 X143.618 Y89.425
G1 X143.197 Y89.220
G1 X142.793 Y89.047
G1 X142.393 Y88.825
G1 X141.980 Y88.608
G1 X141.590 Y88.407
G1 X141.199 Y88.202
G1 X140.788 Y87.961
G1 X140.397 Y87.705
G1 X139.987 Y87.480
G1 X139.581 Y87.217
G1 X139.183 Y86.953
G1 X138.755 Y86.671
G1 X138.373 Y86.377
G1 X137.972 Y86.079
G1 X137.561 Y85.764
G1 X137.132 Y85.430
G1 X136.748 Y85.128
G1 X136.334 Y84.831
G1 X135.938 Y84.479
G1 X135.520 Y84.128
G1 X135.133 Y83.830
G1 X134.717 Y83.536
G1 X134.336 Y83.193
G1 X133.916 Y82.885
G1 X133.549 Y82.581
G1 X133.188 Y82.317
G1 X132.776 Y82.005
G1 X132.369 Y81.733
G1 X132.019 Y81.477
G1 X131.667 Y81.249
G1 X131.279 Y80.997
G1 X130.918 Y80.788
G1 X130.557 Y80.550
G1 X130.218 Y80.340
G1 X129.848 Y80.132
G1 X129.512 Y79.907
G1 X129.149 Y79.737
G1 X128.785 Y79.549
G1 X128.458 Y79.357
G1 X128.133 Y79.174
G1 X127.772 Y78.987
G1 X127.456 Y78.833
G1 X127.089 Y78.622
G1 X126.739 Y78.430
G1 X126.404 Y78.254
G1 X126.081 Y78.045
G1 X125.715 Y77.879
G1 X125.375 Y77.674
G1 X125.019 Y77.489
; Path 287
G0 Z0
G0 X133.018 Y71.514
G0 Z2.2
G1 F3000
G1 X134.526 Y72.515
G1 X135.998 Y73.509
; Path 288
G0 Z0
G0 X138.011 Y73.498
G0 Z2.2
G1 F3000
G1 X138.274 Y73.811
G1 X138.519 Y74.101
G1 X138.769 Y74.395
G1 X139.033 Y74.703
G1 X139.286 Y74.999
G1 X139.551 Y75.306
G1 X139.815 Y75.606
G1 X140.070 Y75.908
G1 X140.327 Y76.239
G1 X140.588 Y76.511
G1 X140.831 Y76.829
G1 X141.100 Y77.113
G1 X141.330 Y77.424
G1 X141.604 Y77.715
G1 X141.845 Y78.009
G1 X142.096 Y78.317
G1 X142.319 Y78.631
G1 X142.575 Y78.918
G1 X142.789 Y79.215
G1 X143.036 Y79.518
G1 X143.259 Y79.797
G1 X143.482 Y80.126
G1 X143.676 Y80.467
G1 X143.918 Y80.748
G1 X144.152 Y81.041
G1 X144.344 Y81.377
G1 X144.528 Y81.671
G1 X144.760 Y82.007
G1 X144.934 Y82.315
G1 X145.165 Y82.633
G1 X145.375 Y82.947
G1 X145.560 Y83.249
G1 X145.760 Y83.564
G1 X145.945 Y83.849
G1 X146.158 Y84.140
G1 X146.319 Y84.428
G1 X146.494 Y84.690
G1 X146.683 Y84.979
G1 X146.865 Y85.236
G1 X147.036 Y85.496
G1 X147.182 Y85.722
G1 X147.374 Y85.976
G1 X147.563 Y86.196
G1 X147.695 Y86.423
G1 X147.833 Y86.639
G1 X148.000 Y86.841
G1 X148.134 Y87.026
G1 X148.295 Y87.238
G1 X148.446 Y87.436
G1 X148.581 Y87.620
G1 X148.709 Y87.789
G1 X148.861 Y87.991
G1 X149.020 Y88.157
G1 X149.140 Y88.358
G1 X149.271 Y88.552
G1 X149.420 Y88.728
G1 X149.563 Y88.923
G1 X149.703 Y89.105
G1 X149.860 Y89.326
G1 X149.995 Y89.496
; Path 289
G0 Z0
G0 X154.153 Y92.978
G0 Z2.2
G1 F3000
G1 X155.865 Y94.012
; Path 290
G0 Z0
G0 X168.009 Y98.495
G0 Z2.2
G1 F3000
G1 X160.009 Y97.495
; Path 291
G0 Z0
G0 X152.986 Y102.708
G0 Z2.2
G1 F3000
G1 X151.032 Y102.283
; Path 292
G0 Z0
G0 X148.509 Y107.495
G0 Z2.2
G1 F3000
G1 X148.009 Y106.995
G1 X147.509 Y107.495
G1 X148.009 Y107.995
G1 X148.509 Y107.495
; Path 293
G0 Z0
G0 X136.004 Y119.592
G0 Z2.2
G1 F3000
G1 X134.014 Y119.398
; Path 294
G0 Z0
G0 X123.007 Y104.556
G0 Z2.2
G1 F3000
G1 X121.011 Y104.434
; Path 295
G0 Z0
G0 X119.006 Y111.567
G0 Z2.2
G1 F3000
G1 X117.012 Y111.424
; Path 296
G0 Z0
G0 X110.009 Y114.495
G0 Z2.2
G1 F3000
G1 X111.676 Y114.579
G1 X113.342 Y114.662
G1 X115.009 Y114.745
G1 X116.676 Y114.829
G1 X118.342 Y114.912
G1 X120.009 Y114.995
G1 X121.676 Y115.079
G1 X123.342 Y115.162
G1 X125.009 Y115.245
G1 X126.676 Y115.329
G1 X128.342 Y115.412
G1 X130.009 Y115.495
G1 X131.676 Y115.579
G1 X133.342 Y115.662
G1 X135.009 Y115.745
G1 X136.676 Y115.829
G1 X138.342 Y115.912
G1 X140.009 Y115.995
G1 X141.676 Y116.079
G1 X143.342 Y116.162
G1 X145.009 Y116.245
G1 X146.676 Y116.329
G1 X148.342 Y116.412
G1 X150.009 Y116.495
G1 X151.676 Y116.579
G1 X153.342 Y116.662
G1 X155.009 Y116.745
G1 X156.676 Y116.829
G1 X158.342 Y116.912
G1 X160.009 Y116.995
G1 X161.676 Y117.079
G1 X163.342 Y117.162
G1 X165.009 Y117.245
G1 X166.676 Y117.329
G1 X168.342 Y117.412
G1 X170.009 Y117.495
; Path 297
G0 Z0
G0 X165.986 Y121.710
G0 Z2.2
G1 F3000
G1 X164.032 Y121.280
; Path 298
G0 Z0
G0 X160.009 Y130.495
G0 Z2.2
G1 F3000
G1 X140.009 Y129.495
; Path 299
G0 Z0
G0 X145.009 Y126.495
G0 Z2.2
G1 F3000
G1 X143.580 Y126.412
G1 X142.129 Y126.329
G1 X140.665 Y126.245
G1 X139.194 Y126.162
G1 X137.723 Y126.079
G1 X136.259 Y125.995
G1 X134.809 Y125.912
G1 X133.379 Y125.829
G1 X131.978 Y125.745
G1 X130.611 Y125.662
G1 X129.286 Y125.579
G1 X128.009 Y125.495
G1 X126.786 Y125.412
G1 X125.611 Y125.329
G1 X124.478 Y125.245
G1 X123.379 Y125.162
G1 X122.309 Y125.079
G1 X121.259 Y124.995
G1 X120.223 Y124.912
G1 X119.194 Y124.829
G1 X118.165 Y124.745
G1 X117.129 Y124.662
G1 X116.080 Y124.579
G1 X115.009 Y124.495
; Path 300
G0 Z0
G0 X110.009 Y134.495
G0 Z2.2
G1 F3000
G1 X111.839 Y134.575
G1 X113.664 Y134.650
G1 X115.486 Y134.722
G1 X117.305 Y134.792
G1 X119.125 Y134.861
G1 X120.946 Y134.933
G1 X122.771 Y135.008
G1 X124.602 Y135.088
G1 X126.439 Y135.175
G1 X128.284 Y135.271
G1 X130.141 Y135.377
G1 X132.009 Y135.495
G1 X133.891 Y135.627
G1 X135.784 Y135.771
G1 X137.689 Y135.925
G1 X139.602 Y136.088
G1 X141.521 Y136.258
G1 X143.446 Y136.433
G1 X145.375 Y136.611
G1 X147.305 Y136.792
G1 X149.236 Y136.972
G1 X151.164 Y137.150
G1 X153.089 Y137.325
G1 X155.009 Y137.495
; Path 301
G0 Z0
G0 X160.922 Y144.903
G0 Z2.2
G1 F3000
G1 X159.096 Y144.087
; Path 302
G0 Z0
G0 X144.203 Y148.929
G0 Z2.2
G1 F3000
G1 X145.852 Y150.101
; Path 303
G0 Z0
G0 X131.002 Y139.613
G0 Z2.2
G1 F3000
G1 X129.016 Y139.377
G0 Z0
M5
G4 P0.3
G0 X0 Y0
; End