; Generated by Sketch DSL for Machine
; Work area: 420mm x 297mm (A3)
G21
G90
M5
G4 P0.5
G0 F11000
; 235 paths
; Path 1
G0 X110.009 Y94.493
G0 Z2.2
G1 F3000
G1 X310.009 Y94.493
; Path 2
G0 Z0
G0 X310.018 Y94.483
G0 Z2.2
G1 F3000
G1 X309.517 Y94.328
G1 X309.037 Y94.204
G1 X308.588 Y94.108
G1 X308.091 Y93.952
G1 X307.608 Y93.860
G1 X307.164 Y93.717
G1 X306.699 Y93.590
G1 X306.242 Y93.486
G1 X305.761 Y93.350
G1 X305.311 Y93.246
G1 X304.816 Y93.113
G1 X304.354 Y92.987
G1 X303.880 Y92.858
G1 X303.359 Y92.695
G1 X302.806 Y92.524
G1 X302.309 Y92.359
G1 X301.754 Y92.175
G1 X301.191 Y91.967
G1 X300.588 Y91.736
G1 X299.988 Y91.507
G1 X299.355 Y91.212
G1 X298.670 Y90.961
G1 X297.941 Y90.653
G1 X297.233 Y90.334
G1 X296.483 Y89.959
G1 X295.708 Y89.642
G1 X294.896 Y89.267
G1 X294.124 Y88.904
G1 X293.289 Y88.533
G1 X292.510 Y88.138
G1 X291.715 Y87.731
G1 X290.896 Y87.361
G1 X290.124 Y86.988
G1 X289.312 Y86.593
G1 X288.546 Y86.228
G1 X287.788 Y85.850
G1 X287.058 Y85.518
G1 X286.352 Y85.150
G1 X285.701 Y84.810
G1 X285.035 Y84.512
G1 X284.435 Y84.233
G1 X283.834 Y83.930
G1 X283.289 Y83.650
G1 X282.718 Y83.381
G1 X282.188 Y83.129
G1 X281.671 Y82.859
G1 X281.195 Y82.592
G1 X280.678 Y82.359
G1 X280.222 Y82.135
G1 X279.725 Y81.875
G1 X279.245 Y81.639
G1 X278.796 Y81.401
G1 X278.328 Y81.177
G1 X277.878 Y80.930
G1 X277.397 Y80.668
G1 X276.954 Y80.458
G1 X276.456 Y80.205
G1 X276.011 Y79.978
G1 X275.496 Y79.741
G1 X275.033 Y79.484
; Path 3
G0 Z0
G0 X274.984 Y79.510
G0 Z2.2
G1 F3000
G1 X274.666 Y79.692
G1 X274.293 Y79.899
G1 X273.922 Y80.057
G1 X273.609 Y80.273
G1 X273.278 Y80.446
G1 X272.930 Y80.640
G1 X272.564 Y80.841
G1 X272.251 Y81.004
G1 X271.903 Y81.201
G1 X271.570 Y81.372
G1 X271.252 Y81.538
G1 X270.885 Y81.751
G1 X270.527 Y81.924
G1 X270.190 Y82.146
G1 X269.848 Y82.326
G1 X269.485 Y82.563
G1 X269.133 Y82.780
G1 X268.765 Y83.008
G1 X268.373 Y83.275
G1 X268.027 Y83.487
G1 X267.629 Y83.764
G1 X267.278 Y84.010
G1 X266.923 Y84.320
G1 X266.526 Y84.574
G1 X266.156 Y84.885
G1 X265.768 Y85.170
G1 X265.362 Y85.466
G1 X265.000 Y85.790
G1 X264.583 Y86.129
G1 X264.219 Y86.423
G1 X263.828 Y86.743
G1 X263.424 Y87.062
G1 X263.038 Y87.354
G1 X262.610 Y87.697
G1 X262.190 Y88.034
G1 X261.775 Y88.319
G1 X261.325 Y88.644
G1 X260.917 Y88.918
G1 X260.482 Y89.229
G1 X260.032 Y89.486
G1 X259.572 Y89.774
G1 X259.113 Y90.027
G1 X258.648 Y90.317
G1 X258.160 Y90.550
G1 X257.689 Y90.819
G1 X257.180 Y91.059
G1 X256.649 Y91.289
G1 X256.177 Y91.557
G1 X255.668 Y91.803
G1 X255.158 Y92.047
G1 X254.643 Y92.313
G1 X254.130 Y92.532
G1 X253.634 Y92.750
G1 X253.097 Y93.015
G1 X252.582 Y93.243
G1 X252.066 Y93.499
G1 X251.556 Y93.716
G1 X251.044 Y93.986
G1 X250.541 Y94.211
G1 X250.035 Y94.481
; Path 4
G0 Z0
G0 X254.989 Y94.523
G0 Z2.2
G1 F3000
G1 X254.759 Y94.397
G1 X254.516 Y94.250
G1 X254.269 Y94.135
G1 X254.079 Y94.025
G1 X253.898 Y93.941
G1 X253.662 Y93.827
G1 X253.481 Y93.740
G1 X253.250 Y93.637
G1 X253.045 Y93.511
G1 X252.827 Y93.433
G1 X252.621 Y93.310
G1 X252.380 Y93.194
G1 X252.144 Y93.073
G1 X251.892 Y92.899
G1 X251.611 Y92.691
G1 X251.348 Y92.529
G1 X251.039 Y92.321
G1 X250.734 Y92.061
G1 X250.402 Y91.743
G1 X250.033 Y91.475
G1 X249.618 Y91.122
G1 X249.236 Y90.757
G1 X248.780 Y90.363
G1 X248.354 Y89.921
G1 X247.857 Y89.442
G1 X247.400 Y88.989
G1 X246.893 Y88.473
G1 X246.391 Y87.980
G1 X245.840 Y87.448
G1 X245.342 Y86.915
G1 X244.776 Y86.352
G1 X244.267 Y85.816
G1 X243.728 Y85.277
G1 X243.181 Y84.703
G1 X242.636 Y84.158
G1 X242.101 Y83.596
G1 X241.582 Y83.050
G1 X241.041 Y82.518
G1 X240.540 Y82.006
G1 X240.015 Y81.488
G1 X239.510 Y81.018
G1 X239.013 Y80.490
G1 X238.531 Y79.968
G1 X238.010 Y79.491
G1 X237.483 Y79.003
G1 X237.007 Y78.492
G1 X236.506 Y78.012
G1 X236.003 Y77.494
G1 X235.489 Y76.973
G1 X235.000 Y76.495
G1 X234.501 Y75.974
G1 X233.996 Y75.497
G1 X233.506 Y74.987
G1 X232.993 Y74.498
G1 X232.480 Y73.987
G1 X231.989 Y73.500
G1 X231.460 Y73.006
G1 X230.985 Y72.501
G1 X230.503 Y72.006
G1 X229.982 Y71.503
; Path 5
G0 Z0
G0 X230.005 Y71.471
G0 Z2.2
G1 F3000
G1 X229.512 Y71.765
G1 X229.004 Y72.056
G1 X228.516 Y72.353
G1 X228.002 Y72.614
G1 X227.518 Y72.881
G1 X227.000 Y73.156
G1 X226.524 Y73.421
G1 X225.999 Y73.693
G1 X225.492 Y73.947
G1 X224.997 Y74.239
G1 X224.485 Y74.516
G1 X223.996 Y74.804
G1 X223.509 Y75.091
G1 X222.994 Y75.401
G1 X222.495 Y75.698
G1 X221.993 Y76.042
G1 X221.484 Y76.365
G1 X220.993 Y76.738
G1 X220.488 Y77.104
G1 X219.993 Y77.501
G1 X219.501 Y77.901
G1 X218.994 Y78.353
G1 X218.515 Y78.836
G1 X217.995 Y79.293
G1 X217.512 Y79.780
G1 X216.997 Y80.301
G1 X216.503 Y80.832
G1 X216.000 Y81.355
G1 X215.512 Y81.879
G1 X215.003 Y82.435
G1 X214.517 Y82.976
G1 X214.005 Y83.519
G1 X213.485 Y84.061
G1 X213.008 Y84.587
G1 X212.490 Y85.081
G1 X212.010 Y85.619
G1 X211.531 Y86.104
G1 X211.011 Y86.593
G1 X210.495 Y87.013
G1 X210.011 Y87.488
G1 X209.489 Y87.903
G1 X209.010 Y88.308
G1 X208.530 Y88.698
G1 X208.009 Y89.077
G1 X207.498 Y89.418
G1 X207.007 Y89.805
G1 X206.525 Y90.171
G1 X206.005 Y90.499
G1 X205.485 Y90.834
G1 X205.002 Y91.169
G1 X204.514 Y91.518
G1 X203.999 Y91.825
G1 X203.517 Y92.153
G1 X202.996 Y92.474
G1 X202.480 Y92.798
G1 X201.993 Y93.127
G1 X201.493 Y93.447
G1 X200.990 Y93.791
G1 X200.517 Y94.144
G1 X199.988 Y94.476
; Path 6
G0 Z0
G0 X210.012 Y94.469
G0 Z2.2
G1 F3000
G1 X209.785 Y94.231
G1 X209.518 Y93.995
G1 X209.288 Y93.800
G1 X209.037 Y93.557
G1 X208.821 Y93.319
G1 X208.564 Y93.139
G1 X208.306 Y92.946
G1 X208.093 Y92.727
G1 X207.851 Y92.533
G1 X207.618 Y92.304
G1 X207.373 Y92.054
G1 X207.133 Y91.855
G1 X206.855 Y91.636
G1 X206.633 Y91.367
G1 X206.386 Y91.086
G1 X206.112 Y90.823
G1 X205.857 Y90.511
G1 X205.563 Y90.209
G1 X205.282 Y89.847
G1 X204.981 Y89.509
G1 X204.704 Y89.114
G1 X204.376 Y88.737
G1 X204.081 Y88.330
G1 X203.759 Y87.914
G1 X203.468 Y87.505
G1 X203.126 Y87.041
G1 X202.773 Y86.556
G1 X202.476 Y86.118
G1 X202.132 Y85.634
G1 X201.803 Y85.144
G1 X201.446 Y84.637
G1 X201.106 Y84.120
G1 X200.723 Y83.611
G1 X200.381 Y83.045
G1 X200.005 Y82.498
G1 X199.625 Y81.920
G1 X199.216 Y81.317
G1 X198.834 Y80.744
G1 X198.447 Y80.149
G1 X198.006 Y79.518
G1 X197.534 Y78.860
G1 X197.121 Y78.181
G1 X196.634 Y77.433
G1 X196.170 Y76.702
G1 X195.680 Y75.925
G1 X195.169 Y75.121
G1 X194.676 Y74.320
G1 X194.134 Y73.475
G1 X193.584 Y72.622
G1 X193.078 Y71.805
G1 X192.535 Y70.987
G1 X192.017 Y70.150
G1 X191.506 Y69.333
G1 X190.965 Y68.550
G1 X190.476 Y67.805
G1 X189.939 Y67.044
G1 X189.439 Y66.344
G1 X188.952 Y65.670
G1 X188.470 Y65.063
G1 X188.019 Y64.470
G1 X187.556 Y63.940
G1 X187.138 Y63.446
G1 X186.742 Y63.007
G1 X186.290 Y62.559
G1 X185.909 Y62.188
G1 X185.469 Y61.785
G1 X185.052 Y61.431
G1 X184.670 Y61.099
G1 X184.283 Y60.773
G1 X183.887 Y60.479
G1 X183.508 Y60.196
G1 X183.114 Y59.899
G1 X182.732 Y59.639
G1 X182.345 Y59.334
G1 X181.949 Y59.027
G1 X181.574 Y58.762
G1 X181.175 Y58.476
G1 X180.795 Y58.158
G1 X180.419 Y57.810
G1 X180.002 Y57.497
; Path 7
G0 Z0
G0 X180.006 Y57.520
G0 Z2.2
G1 F3000
G1 X179.632 Y57.711
G1 X179.199 Y57.896
G1 X178.773 Y58.046
G1 X178.384 Y58.244
G1 X177.947 Y58.396
G1 X177.565 Y58.575
G1 X177.177 Y58.713
G1 X176.745 Y58.902
G1 X176.330 Y59.094
G1 X175.928 Y59.237
G1 X175.548 Y59.408
G1 X175.115 Y59.593
G1 X174.707 Y59.791
G1 X174.311 Y59.981
G1 X173.893 Y60.184
G1 X173.519 Y60.415
G1 X173.128 Y60.679
G1 X172.742 Y60.905
G1 X172.359 Y61.174
G1 X171.983 Y61.465
G1 X171.598 Y61.739
G1 X171.258 Y62.072
G1 X170.919 Y62.406
G1 X170.573 Y62.699
G1 X170.259 Y63.051
G1 X169.916 Y63.355
G1 X169.582 Y63.683
G1 X169.273 Y64.050
G1 X168.928 Y64.396
G1 X168.633 Y64.791
G1 X168.296 Y65.213
G1 X167.983 Y65.587
G1 X167.669 Y66.018
G1 X167.310 Y66.447
G1 X166.983 Y66.926
G1 X166.602 Y67.380
G1 X166.201 Y67.864
G1 X165.846 Y68.394
G1 X165.456 Y68.925
G1 X165.030 Y69.498
G1 X164.590 Y70.128
G1 X164.150 Y70.739
G1 X163.679 Y71.448
G1 X163.217 Y72.133
G1 X162.716 Y72.884
G1 X162.241 Y73.644
G1 X161.736 Y74.433
G1 X161.230 Y75.237
G1 X160.741 Y76.074
G1 X160.195 Y76.876
G1 X159.645 Y77.673
G1 X159.145 Y78.525
G1 X158.593 Y79.325
G1 X158.088 Y80.148
G1 X157.566 Y80.915
G1 X157.036 Y81.709
G1 X156.530 Y82.453
G1 X155.997 Y83.172
G1 X155.497 Y83.851
G1 X154.981 Y84.502
G1 X154.494 Y85.114
G1 X153.980 Y85.706
G1 X153.486 Y86.276
G1 X152.979 Y86.825
G1 X152.487 Y87.356
G1 X151.980 Y87.874
G1 X151.469 Y88.397
G1 X150.982 Y88.869
G1 X150.488 Y89.345
G1 X149.984 Y89.823
G1 X149.482 Y90.281
G1 X148.986 Y90.753
G1 X148.467 Y91.241
G1 X147.989 Y91.673
G1 X147.498 Y92.136
G1 X146.991 Y92.598
G1 X146.496 Y93.043
G1 X145.993 Y93.542
G1 X145.490 Y94.021
G1 X144.995 Y94.522
; Path 8
G0 Z0
G0 X155.008 Y94.496
G0 Z2.2
G1 F3000
G1 X154.741 Y94.239
G1 X154.520 Y94.026
G1 X154.305 Y93.790
G1 X154.053 Y93.604
G1 X153.825 Y93.401
G1 X153.597 Y93.211
G1 X153.341 Y93.013
G1 X153.145 Y92.824
G1 X152.904 Y92.648
G1 X152.687 Y92.423
G1 X152.466 Y92.187
G1 X152.214 Y91.988
G1 X151.968 Y91.757
G1 X151.717 Y91.497
G1 X151.439 Y91.222
G1 X151.187 Y90.929
G1 X150.891 Y90.576
G1 X150.617 Y90.264
G1 X150.332 Y89.875
G1 X149.995 Y89.480
G1 X149.667 Y89.011
G1 X149.313 Y88.556
G1 X148.959 Y88.053
G1 X148.573 Y87.499
G1 X148.161 Y86.902
G1 X147.788 Y86.337
G1 X147.378 Y85.711
G1 X146.970 Y85.096
G1 X146.530 Y84.466
G1 X146.130 Y83.804
G1 X145.700 Y83.149
G1 X145.279 Y82.486
G1 X144.850 Y81.811
G1 X144.431 Y81.171
G1 X143.987 Y80.551
G1 X143.597 Y79.884
G1 X143.184 Y79.246
G1 X142.788 Y78.652
G1 X142.423 Y78.107
G1 X142.017 Y77.503
G1 X141.624 Y76.943
G1 X141.278 Y76.422
G1 X140.900 Y75.924
G1 X140.556 Y75.375
G1 X140.225 Y74.852
G1 X139.848 Y74.355
G1 X139.492 Y73.826
G1 X139.151 Y73.357
G1 X138.784 Y72.856
G1 X138.461 Y72.375
G1 X138.116 Y71.872
G1 X137.777 Y71.402
G1 X137.407 Y70.895
G1 X137.095 Y70.433
G1 X136.760 Y69.918
G1 X136.411 Y69.463
G1 X136.064 Y68.951
G1 X135.724 Y68.484
G1 X135.359 Y68.014
G1 X135.030 Y67.492
; Path 9
G0 Z0
G0 X134.999 Y67.486
G0 Z2.2
G1 F3000
G1 X134.646 Y67.797
G1 X134.305 Y68.160
G1 X133.979 Y68.485
G1 X133.618 Y68.791
G1 X133.272 Y69.092
G1 X132.935 Y69.399
G1 X132.600 Y69.679
G1 X132.253 Y70.001
G1 X131.937 Y70.318
G1 X131.569 Y70.615
G1 X131.230 Y70.915
G1 X130.881 Y71.259
G1 X130.550 Y71.592
G1 X130.184 Y71.950
G1 X129.807 Y72.353
G1 X129.476 Y72.708
G1 X129.133 Y73.104
G1 X128.753 Y73.549
G1 X128.379 Y74.026
G1 X128.014 Y74.492
G1 X127.617 Y75.052
G1 X127.265 Y75.576
G1 X126.912 Y76.215
G1 X126.512 Y76.804
G1 X126.103 Y77.456
G1 X125.753 Y78.139
G1 X125.348 Y78.816
G1 X124.985 Y79.547
G1 X124.613 Y80.253
G1 X124.206 Y80.990
G1 X123.813 Y81.694
G1 X123.411 Y82.433
G1 X122.984 Y83.136
G1 X122.598 Y83.841
G1 X122.192 Y84.538
G1 X121.764 Y85.176
G1 X121.311 Y85.767
G1 X120.906 Y86.404
G1 X120.452 Y86.924
G1 X120.021 Y87.487
G1 X119.578 Y87.946
G1 X119.102 Y88.430
G1 X118.654 Y88.876
G1 X118.150 Y89.271
G1 X117.664 Y89.651
G1 X117.169 Y90.029
G1 X116.675 Y90.357
G1 X116.167 Y90.720
G1 X115.647 Y91.021
G1 X115.148 Y91.363
G1 X114.607 Y91.672
G1 X114.120 Y91.977
G1 X113.608 Y92.299
G1 X113.087 Y92.578
G1 X112.552 Y92.902
G1 X112.057 Y93.185
G1 X111.529 Y93.530
G1 X111.034 Y93.817
G1 X110.514 Y94.174
G1 X110.025 Y94.490
; Path 10
G0 Z0
G0 X110.009 Y114.493
G0 Z2.2
G1 F3000
G1 X111.676 Y114.577
G1 X113.342 Y114.660
G1 X115.009 Y114.743
G1 X116.676 Y114.827
G1 X118.342 Y114.910
G1 X120.009 Y114.993
G1 X121.676 Y115.077
G1 X123.342 Y115.160
G1 X125.009 Y115.243
G1 X126.676 Y115.327
G1 X128.342 Y115.410
G1 X130.009 Y115.493
G1 X131.676 Y115.577
G1 X133.342 Y115.660
G1 X135.009 Y115.743
G1 X136.676 Y115.827
G1 X138.342 Y115.910
G1 X140.009 Y115.993
G1 X141.676 Y116.077
G1 X143.342 Y116.160
G1 X145.009 Y116.243
G1 X146.676 Y116.327
G1 X148.342 Y116.410
G1 X150.009 Y116.493
G1 X151.676 Y116.577
G1 X153.342 Y116.660
G1 X155.009 Y116.743
G1 X156.676 Y116.827
G1 X158.342 Y116.910
G1 X160.009 Y116.993
G1 X161.676 Y117.077
G1 X163.342 Y117.160
G1 X165.009 Y117.243
G1 X166.676 Y117.327
G1 X168.342 Y117.410
G1 X170.009 Y117.493
; Path 11
G0 Z0
G0 X185.009 Y107.493
G0 Z2.2
G1 F3000
G1 X205.009 Y109.493
; Path 12
G0 Z0
G0 X232.009 Y124.493
G0 Z2.2
G1 F3000
G1 X235.009 Y134.493
; Path 13
G0 Z0
G0 X232.008 Y131.522
G0 Z2.2
G1 F3000
G1 X232.494 Y133.022
G1 X233.014 Y134.473
; Path 14
G0 Z0
G0 X232.035 Y135.481
G0 Z2.2
G1 F3000
G1 X231.335 Y137.160
G1 X230.712 Y138.854
G1 X230.024 Y140.509
; Path 15
G0 Z0
G0 X230.321 Y140.503
G0 Z2.2
G1 F3000
G1 X229.718 Y142.404
; Path 16
G0 Z0
G0 X228.634 Y141.403
G0 Z2.2
G1 F3000
G1 X229.378 Y139.560
; Path 17
G0 Z0
G0 X230.616 Y139.425
G0 Z2.2
G1 F3000
G1 X231.344 Y137.541
; Path 18
G0 Z0
G0 X229.988 Y137.479
G0 Z2.2
G1 F3000
G1 X229.339 Y139.152
G1 X228.709 Y140.805
G1 X228.033 Y142.472
; Path 19
G0 Z0
G0 X228.000 Y142.465
G0 Z2.2
G1 F3000
G1 X227.337 Y143.827
G1 X226.695 Y145.113
G1 X226.036 Y146.468
; Path 20
G0 Z0
G0 X228.001 Y143.494
G0 Z2.2
G1 F3000
G1 X228.094 Y143.268
G1 X228.203 Y142.991
G1 X228.276 Y142.767
G1 X228.405 Y142.488
G1 X228.489 Y142.227
G1 X228.608 Y141.984
G1 X228.722 Y141.745
G1 X228.810 Y141.481
G1 X228.909 Y141.217
G1 X229.013 Y140.978
G1 X229.102 Y140.744
G1 X229.215 Y140.475
G1 X229.312 Y140.240
G1 X229.417 Y139.972
G1 X229.516 Y139.699
G1 X229.618 Y139.469
G1 X229.740 Y139.196
G1 X229.819 Y138.967
G1 X229.913 Y138.743
G1 X230.019 Y138.466
G1 X230.116 Y138.234
G1 X230.217 Y137.966
G1 X230.299 Y137.736
G1 X230.415 Y137.466
G1 X230.534 Y137.207
G1 X230.612 Y136.966
G1 X230.691 Y136.731
G1 X230.808 Y136.467
G1 X230.935 Y136.228
G1 X231.004 Y135.968
G1 X231.110 Y135.738
G1 X231.199 Y135.469
G1 X231.282 Y135.219
G1 X231.395 Y134.971
G1 X231.504 Y134.747
G1 X231.591 Y134.472
G1 X231.673 Y134.229
G1 X231.786 Y133.974
G1 X231.894 Y133.712
G1 X231.982 Y133.475
; Path 21
G0 Z0
G0 X230.996 Y134.487
G0 Z2.2
G1 F3000
G1 X230.323 Y135.834
G1 X229.711 Y137.132
G1 X229.028 Y138.491
; Path 22
G0 Z0
G0 X229.328 Y138.566
G0 Z2.2
G1 F3000
G1 X228.589 Y140.463
; Path 23
G0 Z0
G0 X226.464 Y140.405
G0 Z2.2
G1 F3000
G1 X225.524 Y138.672
; Path 24
G0 Z0
G0 X226.019 Y138.487
G0 Z2.2
G1 F3000
G1 X226.342 Y139.840
G1 X226.696 Y141.150
G1 X226.999 Y142.481
; Path 25
G0 Z0
G0 X227.749 Y141.477
G0 Z2.2
G1 F3000
G1 X228.294 Y139.529
; Path 26
G0 Z0
G0 X228.001 Y137.522
G0 Z2.2
G1 F3000
G1 X227.696 Y136.199
G1 X227.370 Y134.837
G1 X227.038 Y133.506
; Path 27
G0 Z0
G0 X227.522 Y132.362
G0 Z2.2
G1 F3000
G1 X228.538 Y130.603
; Path 28
G0 Z0
G0 X226.335 Y134.771
G0 Z2.2
G1 F3000
G1 X227.674 Y136.205
; Path 29
G0 Z0
G0 X229.560 Y137.411
G0 Z2.2
G1 F3000
G1 X230.451 Y135.629
; Path 30
G0 Z0
G0 X229.768 Y135.437
G0 Z2.2
G1 F3000
G1 X230.324 Y133.511
; Path 31
G0 Z0
G0 X230.981 Y132.473
G0 Z2.2
G1 F3000
G1 X229.985 Y130.977
G1 X229.006 Y129.485
; Path 32
G0 Z0
G0 X231.001 Y127.491
G0 Z2.2
G1 F3000
G1 X231.975 Y128.499
G1 X232.993 Y129.466
G1 X234.001 Y130.465
; Path 33
G0 Z0
G0 X236.026 Y130.475
G0 Z2.2
G1 F3000
G1 X235.515 Y128.971
G1 X234.983 Y127.479
; Path 34
G0 Z0
G0 X236.001 Y128.523
G0 Z2.2
G1 F3000
G1 X235.005 Y127.023
G1 X234.036 Y125.504
; Path 35
G0 Z0
G0 X235.992 Y122.486
G0 Z2.2
G1 F3000
G1 X237.025 Y123.478
G1 X238.015 Y124.490
; Path 36
G0 Z0
G0 X239.014 Y123.508
G0 Z2.2
G1 F3000
G1 X240.010 Y124.526
G1 X241.033 Y125.514
; Path 37
G0 Z0
G0 X242.520 Y126.494
G0 Z2.2
G1 F3000
G1 X242.020 Y125.994
G1 X241.520 Y126.494
G1 X242.020 Y126.994
G1 X242.520 Y126.494
; Path 38
G0 Z0
G0 X243.037 Y126.509
G0 Z2.2
G1 F3000
G1 X244.380 Y127.160
G1 X245.683 Y127.834
G1 X246.992 Y128.498
; Path 39
G0 Z0
G0 X246.999 Y130.565
G0 Z2.2
G1 F3000
G1 X246.306 Y130.470
G1 X245.709 Y130.436
G1 X245.021 Y130.485
; Path 40
G0 Z0
G0 X244.031 Y132.478
G0 Z2.2
G1 F3000
G1 X244.184 Y132.548
G1 X244.330 Y132.678
G1 X244.460 Y132.782
G1 X244.630 Y132.871
G1 X244.789 Y132.971
G1 X244.929 Y133.060
G1 X245.105 Y133.148
G1 X245.229 Y133.248
G1 X245.385 Y133.361
G1 X245.529 Y133.438
G1 X245.695 Y133.506
G1 X245.828 Y133.633
G1 X245.960 Y133.710
G1 X246.128 Y133.836
G1 X246.254 Y133.965
G1 X246.427 Y134.049
G1 X246.574 Y134.182
G1 X246.725 Y134.275
G1 X246.879 Y134.376
G1 X247.024 Y134.518
G1 X247.186 Y134.621
G1 X247.321 Y134.779
G1 X247.442 Y134.906
G1 X247.618 Y135.056
G1 X247.783 Y135.199
G1 X247.915 Y135.347
G1 X248.046 Y135.495
G1 X248.212 Y135.648
G1 X248.346 Y135.799
G1 X248.508 Y135.957
G1 X248.681 Y136.092
G1 X248.805 Y136.271
G1 X248.942 Y136.423
G1 X249.101 Y136.587
G1 X249.265 Y136.732
G1 X249.397 Y136.901
G1 X249.549 Y137.042
G1 X249.693 Y137.212
G1 X249.820 Y137.367
G1 X249.990 Y137.516
; Path 41
G0 Z0
G0 X251.026 Y137.489
G0 Z2.2
G1 F3000
G1 X251.003 Y137.403
G1 X250.923 Y137.291
G1 X250.884 Y137.171
G1 X250.819 Y137.099
G1 X250.754 Y137.012
G1 X250.715 Y136.911
G1 X250.643 Y136.821
G1 X250.611 Y136.725
G1 X250.568 Y136.629
G1 X250.507 Y136.536
G1 X250.449 Y136.453
G1 X250.404 Y136.343
G1 X250.338 Y136.261
G1 X250.301 Y136.142
G1 X250.248 Y136.050
G1 X250.199 Y135.931
G1 X250.126 Y135.831
G1 X250.097 Y135.706
G1 X250.056 Y135.570
G1 X249.997 Y135.466
G1 X249.925 Y135.361
G1 X249.898 Y135.208
G1 X249.828 Y135.072
G1 X249.800 Y134.935
G1 X249.745 Y134.788
G1 X249.703 Y134.648
G1 X249.647 Y134.490
G1 X249.607 Y134.351
G1 X249.567 Y134.198
G1 X249.511 Y134.046
G1 X249.470 Y133.901
G1 X249.416 Y133.737
G1 X249.378 Y133.569
G1 X249.321 Y133.426
G1 X249.253 Y133.271
G1 X249.226 Y133.116
G1 X249.151 Y132.939
G1 X249.130 Y132.809
G1 X249.078 Y132.635
G1 X249.034 Y132.509
; Path 42
G0 Z0
G0 X247.032 Y132.564
G0 Z2.2
G1 F3000
G1 X247.115 Y132.261
G1 X247.079 Y131.743
G1 X247.082 Y131.423
; Path 43
G0 Z0
G0 X246.497 Y131.507
G0 Z2.2
G1 F3000
G1 X245.997 Y131.007
G1 X245.497 Y131.507
G1 X245.997 Y132.007
G1 X246.497 Y131.507
; Path 44
G0 Z0
G0 X247.989 Y130.471
G0 Z2.2
G1 F3000
G1 X246.678 Y129.442
G1 X245.349 Y128.483
G1 X244.034 Y127.467
; Path 45
G0 Z0
G0 X243.004 Y127.484
G0 Z2.2
G1 F3000
G1 X241.994 Y126.522
G1 X241.023 Y125.534
G1 X240.027 Y124.515
; Path 46
G0 Z0
G0 X239.981 Y124.486
G0 Z2.2
G1 F3000
G1 X239.018 Y123.501
G1 X238.004 Y122.522
; Path 47
G0 Z0
G0 X238.020 Y121.515
G0 Z2.2
G1 F3000
G1 X238.128 Y121.618
G1 X238.217 Y121.715
G1 X238.328 Y121.790
G1 X238.415 Y121.914
G1 X238.526 Y121.987
G1 X238.612 Y122.114
G1 X238.686 Y122.198
G1 X238.809 Y122.314
G1 X238.898 Y122.435
G1 X239.006 Y122.514
G1 X239.098 Y122.615
G1 X239.204 Y122.714
G1 X239.306 Y122.807
G1 X239.402 Y122.913
G1 X239.478 Y122.992
G1 X239.600 Y123.113
G1 X239.696 Y123.190
G1 X239.798 Y123.313
G1 X239.883 Y123.437
G1 X239.997 Y123.512
G1 X240.122 Y123.622
G1 X240.197 Y123.711
G1 X240.270 Y123.833
G1 X240.397 Y123.911
G1 X240.513 Y123.999
G1 X240.598 Y124.110
G1 X240.725 Y124.207
G1 X240.799 Y124.309
G1 X240.899 Y124.425
G1 X241.000 Y124.508
G1 X241.120 Y124.589
G1 X241.201 Y124.707
G1 X241.325 Y124.812
G1 X241.403 Y124.906
G1 X241.501 Y125.034
G1 X241.604 Y125.105
G1 X241.706 Y125.210
G1 X241.805 Y125.304
G1 X241.918 Y125.391
G1 X242.006 Y125.503
; Path 48
G0 Z0
G0 X242.016 Y125.508
G0 Z2.2
G1 F3000
G1 X243.538 Y126.485
G1 X245.016 Y127.474
G1 X246.505 Y128.487
G1 X248.018 Y129.493
; Path 49
G0 Z0
G0 X248.000 Y129.514
G0 Z2.2
G1 F3000
G1 X248.208 Y129.762
G1 X248.413 Y130.014
G1 X248.608 Y130.289
G1 X248.839 Y130.515
G1 X249.029 Y130.738
G1 X249.274 Y131.016
G1 X249.506 Y131.250
G1 X249.710 Y131.516
G1 X249.944 Y131.754
G1 X250.143 Y132.017
G1 X250.335 Y132.262
G1 X250.565 Y132.517
G1 X250.776 Y132.777
G1 X250.972 Y133.017
G1 X251.162 Y133.251
G1 X251.355 Y133.516
G1 X251.526 Y133.782
G1 X251.710 Y134.015
G1 X251.843 Y134.235
G1 X252.030 Y134.513
G1 X252.162 Y134.771
G1 X252.316 Y135.010
G1 X252.440 Y135.228
G1 X252.575 Y135.506
G1 X252.686 Y135.738
G1 X252.809 Y136.000
G1 X252.943 Y136.230
G1 X253.021 Y136.494
G1 X253.115 Y136.746
G1 X253.215 Y136.988
G1 X253.312 Y137.261
G1 X253.394 Y137.482
G1 X253.477 Y137.736
G1 X253.560 Y137.976
G1 X253.633 Y138.198
G1 X253.718 Y138.471
G1 X253.813 Y138.712
G1 X253.869 Y138.967
G1 X253.958 Y139.237
G1 X254.017 Y139.465
G1 X254.109 Y139.685
G1 X254.155 Y139.964
G1 X254.233 Y140.191
G1 X254.276 Y140.464
G1 X254.307 Y140.707
G1 X254.383 Y140.965
G1 X254.413 Y141.237
G1 X254.478 Y141.467
G1 X254.512 Y141.692
G1 X254.566 Y141.969
G1 X254.603 Y142.207
G1 X254.648 Y142.472
G1 X254.689 Y142.733
G1 X254.728 Y142.975
G1 X254.781 Y143.245
G1 X254.809 Y143.477
G1 X254.844 Y143.727
G1 X254.895 Y143.980
G1 X254.967 Y144.234
G1 X254.987 Y144.482
; Path 50
G0 Z0
G0 X254.988 Y144.499
G0 Z2.2
G1 F3000
G1 X255.015 Y144.481
G1 X255.009 Y144.481
; Path 51
G0 Z0
G0 X255.000 Y144.507
G0 Z2.2
G1 F3000
G1 X255.259 Y144.996
G1 X255.507 Y145.482
G1 X255.755 Y145.933
G1 X256.022 Y146.423
G1 X256.267 Y146.879
G1 X256.542 Y147.343
G1 X256.779 Y147.825
G1 X257.062 Y148.259
G1 X257.311 Y148.741
G1 X257.580 Y149.184
G1 X257.864 Y149.656
G1 X258.093 Y150.135
G1 X258.316 Y150.627
G1 X258.598 Y151.126
G1 X258.866 Y151.645
G1 X259.091 Y152.172
G1 X259.303 Y152.708
G1 X259.569 Y153.289
G1 X259.807 Y153.911
G1 X260.030 Y154.491
G1 X260.240 Y155.127
G1 X260.498 Y155.811
G1 X260.724 Y156.537
G1 X260.989 Y157.253
G1 X261.242 Y157.998
G1 X261.490 Y158.785
G1 X261.729 Y159.586
G1 X261.986 Y160.377
G1 X262.207 Y161.182
G1 X262.461 Y162.000
G1 X262.698 Y162.827
G1 X262.901 Y163.623
G1 X263.097 Y164.390
G1 X263.292 Y165.215
G1 X263.460 Y165.984
G1 X263.617 Y166.747
G1 X263.765 Y167.445
G1 X263.863 Y168.188
G1 X263.927 Y168.846
G1 X264.015 Y169.509
G1 X264.021 Y170.098
G1 X264.044 Y170.688
G1 X264.009 Y171.240
G1 X263.952 Y171.746
G1 X263.872 Y172.208
G1 X263.763 Y172.714
G1 X263.620 Y173.186
G1 X263.507 Y173.621
G1 X263.382 Y174.077
G1 X263.208 Y174.498
G1 X263.068 Y174.930
G1 X262.894 Y175.375
G1 X262.733 Y175.820
G1 X262.592 Y176.282
G1 X262.431 Y176.740
G1 X262.328 Y177.250
G1 X262.201 Y177.756
G1 X262.129 Y178.308
G1 X262.088 Y178.903
G1 X262.023 Y179.487
G1 X261.998 Y180.119
G1 X262.012 Y180.793
G1 X262.047 Y181.512
G1 X262.072 Y182.200
G1 X262.123 Y182.946
G1 X262.185 Y183.684
G1 X262.271 Y184.460
G1 X262.334 Y185.226
G1 X262.409 Y185.999
G1 X262.500 Y186.805
G1 X262.567 Y187.598
G1 X262.666 Y188.398
G1 X262.751 Y189.194
G1 X262.815 Y189.985
G1 X262.883 Y190.767
G1 X262.929 Y191.545
G1 X262.981 Y192.274
G1 X262.991 Y193.056
G1 X262.994 Y193.752
G1 X262.982 Y194.497
G1 X262.957 Y195.205
G1 X262.910 Y195.904
G1 X262.860 Y196.601
G1 X262.795 Y197.318
G1 X262.739 Y198.039
G1 X262.644 Y198.727
G1 X262.571 Y199.436
G1 X262.463 Y200.120
G1 X262.339 Y200.807
G1 X262.255 Y201.485
G1 X262.145 Y202.176
G1 X262.028 Y202.809
G1 X261.927 Y203.447
G1 X261.786 Y204.082
G1 X261.655 Y204.665
G1 X261.536 Y205.292
G1 X261.391 Y205.830
G1 X261.281 Y206.426
G1 X261.151 Y206.977
G1 X261.029 Y207.473
G1 X260.908 Y207.958
G1 X260.769 Y208.416
G1 X260.603 Y208.861
G1 X260.490 Y209.257
G1 X260.364 Y209.662
G1 X260.196 Y210.016
G1 X260.023 Y210.369
G1 X259.891 Y210.709
G1 X259.719 Y211.038
G1 X259.576 Y211.354
G1 X259.392 Y211.664
G1 X259.256 Y211.969
G1 X259.082 Y212.262
G1 X258.934 Y212.572
G1 X258.778 Y212.862
G1 X258.613 Y213.182
G1 X258.447 Y213.511
G1 X258.297 Y213.815
G1 X258.156 Y214.146
G1 X257.988 Y214.490
; Path 52
G0 Z0
G0 X259.034 Y213.503
G0 Z2.2
G1 F3000
G1 X258.042 Y212.456
G1 X257.039 Y211.465
; Path 53
G0 Z0
G0 X257.016 Y209.482
G0 Z2.2
G1 F3000
G1 X257.183 Y209.258
G1 X257.323 Y209.031
G1 X257.468 Y208.851
G1 X257.637 Y208.650
G1 X257.783 Y208.491
G1 X257.955 Y208.310
G1 X258.127 Y208.150
G1 X258.275 Y207.980
G1 X258.461 Y207.832
G1 X258.592 Y207.630
G1 X258.753 Y207.452
G1 X258.904 Y207.229
G1 X259.035 Y207.008
G1 X259.208 Y206.748
G1 X259.355 Y206.478
G1 X259.500 Y206.156
G1 X259.617 Y205.785
G1 X259.777 Y205.424
G1 X259.906 Y204.983
G1 X260.037 Y204.520
G1 X260.134 Y203.995
G1 X260.281 Y203.425
G1 X260.407 Y202.781
G1 X260.515 Y202.159
G1 X260.605 Y201.459
G1 X260.737 Y200.751
G1 X260.816 Y199.975
G1 X260.950 Y199.233
G1 X261.021 Y198.425
G1 X261.152 Y197.635
G1 X261.228 Y196.793
G1 X261.343 Y195.986
G1 X261.446 Y195.165
G1 X261.525 Y194.318
G1 X261.612 Y193.478
G1 X261.696 Y192.660
G1 X261.795 Y191.822
G1 X261.858 Y191.043
G1 X261.959 Y190.244
G1 X262.010 Y189.498
G1 X262.098 Y188.741
G1 X262.165 Y187.998
G1 X262.225 Y187.227
G1 X262.331 Y186.500
G1 X262.399 Y185.776
G1 X262.499 Y185.003
G1 X262.567 Y184.277
G1 X262.660 Y183.507
G1 X262.761 Y182.744
G1 X262.804 Y182.011
G1 X262.836 Y181.272
G1 X262.924 Y180.514
G1 X262.951 Y179.769
G1 X263.011 Y179.017
G1 X263.032 Y178.277
G1 X263.055 Y177.520
G1 X263.052 Y176.765
G1 X263.048 Y176.021
G1 X263.039 Y175.249
G1 X262.981 Y174.520
G1 X262.900 Y173.789
G1 X262.843 Y173.019
G1 X262.752 Y172.264
G1 X262.639 Y171.516
G1 X262.503 Y170.743
G1 X262.380 Y170.012
G1 X262.233 Y169.281
G1 X262.077 Y168.507
G1 X261.889 Y167.728
G1 X261.743 Y167.002
G1 X261.557 Y166.231
G1 X261.389 Y165.496
G1 X261.185 Y164.755
G1 X261.027 Y163.990
G1 X260.835 Y163.252
G1 X260.669 Y162.484
G1 X260.485 Y161.725
G1 X260.327 Y160.979
G1 X260.198 Y160.252
G1 X260.012 Y159.474
; Path 54
G0 Z0
G0 X260.890 Y160.480
G0 Z2.2
G1 F3000
G1 X261.139 Y162.474
; Path 55
G0 Z0
G0 X261.982 Y159.505
G0 Z2.2
G1 F3000
G1 X262.056 Y160.532
G1 X262.300 Y161.538
G1 X262.285 Y162.479
G1 X262.540 Y163.434
G1 X262.611 Y164.420
G1 X262.676 Y165.380
G1 X262.836 Y166.508
G1 X262.991 Y167.425
; Path 56
G0 Z0
G0 X262.996 Y167.500
G0 Z2.2
G1 F3000
G1 X263.025 Y167.802
G1 X263.003 Y168.099
G1 X263.002 Y168.376
G1 X263.018 Y168.697
G1 X263.045 Y168.993
G1 X263.036 Y169.295
G1 X263.068 Y169.613
G1 X263.055 Y169.894
G1 X263.059 Y170.174
G1 X263.073 Y170.492
G1 X263.076 Y170.793
G1 X263.085 Y171.091
G1 X263.114 Y171.379
G1 X263.089 Y171.689
G1 X263.088 Y171.959
G1 X263.081 Y172.288
G1 X263.073 Y172.586
G1 X263.059 Y172.886
G1 X263.052 Y173.158
G1 X263.020 Y173.485
G1 X262.984 Y173.784
G1 X262.961 Y174.084
G1 X262.930 Y174.368
G1 X262.884 Y174.682
G1 X262.831 Y174.991
G1 X262.792 Y175.281
G1 X262.737 Y175.552
G1 X262.690 Y175.880
G1 X262.620 Y176.184
G1 X262.578 Y176.479
G1 X262.521 Y176.753
G1 X262.462 Y177.078
G1 X262.394 Y177.381
G1 X262.344 Y177.677
G1 X262.265 Y177.957
G1 X262.227 Y178.276
G1 X262.195 Y178.554
G1 X262.114 Y178.875
G1 X262.035 Y179.155
G1 X262.008 Y179.474
; Path 57
G0 Z0
G0 X265.068 Y176.452
G0 Z2.2
G1 F3000
G1 X264.953 Y174.466
; Path 58
G0 Z0
G0 X260.113 Y172.450
G0 Z2.2
G1 F3000
G1 X259.922 Y170.507
; Path 59
G0 Z0
G0 X258.998 Y169.517
G0 Z2.2
G1 F3000
G1 X259.654 Y167.866
G1 X260.339 Y166.167
G1 X261.015 Y164.476
; Path 60
G0 Z0
G0 X260.989 Y164.500
G0 Z2.2
G1 F3000
G1 X261.697 Y162.843
G1 X262.357 Y161.135
G1 X263.034 Y159.485
; Path 61
G0 Z0
G0 X264.036 Y157.469
G0 Z2.2
G1 F3000
G1 X264.203 Y158.080
G1 X264.330 Y158.669
G1 X264.497 Y159.273
G1 X264.624 Y159.869
G1 X264.786 Y160.477
G1 X264.918 Y161.068
G1 X265.064 Y161.650
G1 X265.211 Y162.268
G1 X265.335 Y162.872
G1 X265.505 Y163.468
G1 X265.671 Y164.056
G1 X265.799 Y164.667
G1 X265.939 Y165.278
G1 X266.094 Y165.867
G1 X266.235 Y166.448
G1 X266.390 Y167.068
G1 X266.531 Y167.672
G1 X266.687 Y168.269
G1 X266.808 Y168.873
G1 X266.986 Y169.470
G1 X267.116 Y170.068
G1 X267.300 Y170.700
G1 X267.466 Y171.352
G1 X267.637 Y171.972
G1 X267.819 Y172.635
G1 X267.988 Y173.269
G1 X268.166 Y173.910
G1 X268.343 Y174.573
G1 X268.539 Y175.214
G1 X268.693 Y175.864
G1 X268.838 Y176.513
G1 X269.027 Y177.126
G1 X269.198 Y177.719
G1 X269.337 Y178.339
G1 X269.476 Y178.886
G1 X269.614 Y179.486
G1 X269.750 Y179.998
G1 X269.847 Y180.547
G1 X269.936 Y181.017
G1 X270.027 Y181.505
G1 X270.084 Y181.935
G1 X270.149 Y182.348
G1 X270.162 Y182.740
G1 X270.218 Y183.088
G1 X270.213 Y183.401
G1 X270.245 Y183.743
G1 X270.232 Y184.033
G1 X270.237 Y184.332
G1 X270.228 Y184.583
G1 X270.205 Y184.872
G1 X270.184 Y185.140
G1 X270.158 Y185.381
G1 X270.146 Y185.635
G1 X270.105 Y185.879
G1 X270.095 Y186.157
G1 X270.054 Y186.382
G1 X270.046 Y186.658
G1 X270.016 Y186.910
G1 X270.033 Y187.221
G1 X270.000 Y187.480
; Path 62
G0 Z0
G0 X270.032 Y187.469
G0 Z2.2
G1 F3000
G1 X269.809 Y187.530
G1 X269.627 Y187.601
G1 X269.396 Y187.697
G1 X269.221 Y187.776
G1 X269.044 Y187.887
G1 X268.814 Y187.974
G1 X268.585 Y188.057
G1 X268.407 Y188.179
G1 X268.217 Y188.248
G1 X268.001 Y188.371
G1 X267.824 Y188.470
G1 X267.595 Y188.534
G1 X267.399 Y188.612
G1 X267.189 Y188.648
G1 X267.000 Y188.651
G1 X266.785 Y188.695
G1 X266.571 Y188.702
G1 X266.382 Y188.658
G1 X266.163 Y188.566
G1 X265.979 Y188.518
G1 X265.805 Y188.396
G1 X265.579 Y188.263
G1 X265.367 Y188.067
G1 X265.180 Y187.905
G1 X265.004 Y187.686
G1 X264.782 Y187.463
G1 X264.570 Y187.233
G1 X264.384 Y186.954
G1 X264.182 Y186.694
G1 X263.988 Y186.397
G1 X263.779 Y186.115
G1 X263.592 Y185.809
G1 X263.366 Y185.539
G1 X263.196 Y185.210
G1 X263.007 Y184.889
G1 X262.800 Y184.616
G1 X262.616 Y184.309
G1 X262.403 Y184.047
G1 X262.186 Y183.755
G1 X262.006 Y183.520
; Path 63
G0 Z0
G0 X261.998 Y181.518
G0 Z2.2
G1 F3000
G1 X261.528 Y182.995
G1 X261.023 Y184.503
G1 X260.491 Y186.026
G1 X259.998 Y187.495
; Path 64
G0 Z0
G0 X260.889 Y188.487
G0 Z2.2
G1 F3000
G1 X261.072 Y186.495
; Path 65
G0 Z0
G0 X258.020 Y184.473
G0 Z2.2
G1 F3000
G1 X258.070 Y184.835
G1 X258.125 Y185.181
G1 X258.187 Y185.557
G1 X258.238 Y185.896
G1 X258.326 Y186.251
G1 X258.354 Y186.616
G1 X258.384 Y186.970
G1 X258.472 Y187.336
G1 X258.510 Y187.677
G1 X258.587 Y188.055
G1 X258.615 Y188.393
G1 X258.698 Y188.768
G1 X258.755 Y189.092
G1 X258.800 Y189.473
G1 X258.851 Y189.814
G1 X258.891 Y190.166
G1 X258.927 Y190.499
G1 X258.967 Y190.844
G1 X259.009 Y191.183
G1 X259.026 Y191.504
G1 X259.068 Y191.853
G1 X259.065 Y192.145
G1 X259.086 Y192.443
G1 X259.087 Y192.767
G1 X259.118 Y193.078
G1 X259.094 Y193.375
G1 X259.110 Y193.701
G1 X259.090 Y193.971
G1 X259.090 Y194.236
G1 X259.078 Y194.559
G1 X259.058 Y194.831
G1 X259.061 Y195.141
G1 X259.070 Y195.421
G1 X259.041 Y195.722
G1 X259.002 Y195.999
G1 X259.023 Y196.303
G1 X259.030 Y196.619
G1 X259.009 Y196.889
G1 X258.997 Y197.164
G1 X259.001 Y197.481
; Path 66
G0 Z0
G0 X259.014 Y202.495
G0 Z2.2
G1 F3000
G1 X259.535 Y201.005
G1 X260.041 Y199.463
G1 X260.543 Y197.976
G1 X261.017 Y196.490
; Path 67
G0 Z0
G0 X275.009 Y201.493
G0 Z2.2
G1 F3000
G1 X276.269 Y201.577
G1 X277.544 Y201.660
G1 X278.829 Y201.743
G1 X280.120 Y201.827
G1 X281.411 Y201.910
G1 X282.696 Y201.993
G1 X283.972 Y202.077
G1 X285.231 Y202.160
G1 X286.470 Y202.243
G1 X287.683 Y202.327
G1 X288.864 Y202.410
G1 X290.009 Y202.493
G1 X291.127 Y202.577
G1 X292.229 Y202.660
G1 X293.314 Y202.743
G1 X294.379 Y202.827
G1 X295.424 Y202.910
G1 X296.446 Y202.993
G1 X297.444 Y203.077
G1 X298.416 Y203.160
G1 X299.361 Y203.243
G1 X300.275 Y203.327
G1 X301.159 Y203.410
G1 X302.009 Y203.493
G1 X302.816 Y203.577
G1 X303.574 Y203.660
G1 X304.290 Y203.743
G1 X304.972 Y203.827
G1 X305.626 Y203.910
G1 X306.259 Y203.993
G1 X306.878 Y204.077
G1 X307.490 Y204.160
G1 X308.103 Y204.243
G1 X308.722 Y204.327
G1 X309.355 Y204.410
G1 X310.009 Y204.493
; Path 68
G0 Z0
G0 X300.987 Y207.643
G0 Z2.2
G1 F3000
G1 X299.011 Y207.370
; Path 69
G0 Z0
G0 X285.017 Y225.488
G0 Z2.2
G1 F3000
G1 X284.675 Y225.416
G1 X284.322 Y225.393
G1 X283.974 Y225.369
G1 X283.635 Y225.306
G1 X283.274 Y225.278
G1 X282.953 Y225.223
G1 X282.627 Y225.175
G1 X282.271 Y225.140
G1 X281.932 Y225.098
G1 X281.587 Y225.056
G1 X281.236 Y225.011
G1 X280.898 Y224.967
G1 X280.538 Y224.934
G1 X280.201 Y224.869
G1 X279.819 Y224.799
G1 X279.492 Y224.761
G1 X279.108 Y224.718
G1 X278.768 Y224.638
G1 X278.424 Y224.597
G1 X278.027 Y224.499
G1 X277.620 Y224.404
G1 X277.265 Y224.340
G1 X276.883 Y224.233
G1 X276.486 Y224.164
G1 X276.114 Y224.093
G1 X275.693 Y223.975
G1 X275.264 Y223.858
G1 X274.887 Y223.774
G1 X274.457 Y223.660
G1 X274.074 Y223.565
G1 X273.656 Y223.460
G1 X273.255 Y223.351
G1 X272.849 Y223.239
G1 X272.434 Y223.135
G1 X271.998 Y223.047
G1 X271.614 Y222.920
G1 X271.192 Y222.841
G1 X270.798 Y222.709
G1 X270.415 Y222.589
G1 X269.990 Y222.506
; Path 70
G0 Z0
G0 X270.009 Y221.493
G0 Z2.2
G1 F3000
G1 X274.009 Y223.493
; Path 71
G0 Z0
G0 X279.990 Y229.469
G0 Z2.2
G1 F3000
G1 X280.596 Y229.574
G1 X281.188 Y229.698
G1 X281.796 Y229.854
G1 X282.378 Y229.969
G1 X282.998 Y230.120
G1 X283.565 Y230.264
G1 X284.167 Y230.401
G1 X284.751 Y230.565
G1 X285.315 Y230.685
G1 X285.939 Y230.854
G1 X286.555 Y230.984
G1 X287.131 Y231.113
G1 X287.728 Y231.235
G1 X288.332 Y231.324
G1 X288.934 Y231.414
G1 X289.544 Y231.470
G1 X290.162 Y231.512
G1 X290.769 Y231.531
G1 X291.412 Y231.499
G1 X292.012 Y231.490
G1 X292.652 Y231.436
G1 X293.274 Y231.336
G1 X293.937 Y231.209
G1 X294.553 Y231.079
G1 X295.219 Y230.916
G1 X295.846 Y230.739
G1 X296.484 Y230.508
G1 X297.150 Y230.332
G1 X297.821 Y230.083
G1 X298.461 Y229.878
G1 X299.094 Y229.659
G1 X299.778 Y229.393
G1 X300.461 Y229.139
G1 X301.097 Y228.897
G1 X301.758 Y228.622
G1 X302.415 Y228.407
G1 X303.101 Y228.170
G1 X303.729 Y227.940
G1 X304.409 Y227.706
G1 X305.036 Y227.516
; Path 72
G0 Z0
G0 X309.980 Y232.483
G0 Z2.2
G1 F3000
G1 X309.384 Y232.656
G1 X308.786 Y232.804
G1 X308.174 Y232.970
G1 X307.598 Y233.153
G1 X307.024 Y233.356
G1 X306.414 Y233.517
G1 X305.828 Y233.707
G1 X305.232 Y233.886
G1 X304.627 Y234.081
G1 X304.047 Y234.247
G1 X303.444 Y234.416
G1 X302.857 Y234.588
G1 X302.249 Y234.764
G1 X301.659 Y234.896
G1 X301.061 Y235.031
G1 X300.451 Y235.160
G1 X299.821 Y235.245
G1 X299.228 Y235.367
G1 X298.609 Y235.424
G1 X297.988 Y235.506
G1 X297.379 Y235.519
G1 X296.728 Y235.568
G1 X296.062 Y235.582
G1 X295.452 Y235.562
G1 X294.832 Y235.508
G1 X294.162 Y235.499
G1 X293.484 Y235.432
G1 X292.861 Y235.391
G1 X292.228 Y235.292
G1 X291.551 Y235.251
G1 X290.872 Y235.182
G1 X290.237 Y235.091
G1 X289.584 Y235.029
G1 X288.920 Y234.923
G1 X288.246 Y234.823
G1 X287.605 Y234.759
G1 X286.948 Y234.701
G1 X286.293 Y234.611
G1 X285.644 Y234.534
G1 X284.989 Y234.491
; Path 73
G0 Z0
G0 X271.009 Y228.493
G0 Z2.2
G1 F3000
G1 X267.009 Y224.493
; Path 74
G0 Z0
G0 X267.008 Y225.511
G0 Z2.2
G1 F3000
G1 X266.026 Y224.518
G1 X265.009 Y223.527
G1 X263.985 Y222.501
; Path 75
G0 Z0
G0 X262.346 Y222.970
G0 Z2.2
G1 F3000
G1 X263.951 Y224.084
; Path 76
G0 Z0
G0 X263.933 Y224.479
G0 Z2.2
G1 F3000
G1 X263.117 Y224.685
G1 X262.401 Y224.869
G1 X261.536 Y225.056
G1 X260.704 Y225.216
G1 X259.988 Y225.483
; Path 77
G0 Z0
G0 X257.663 Y225.409
G0 Z2.2
G1 F3000
G1 X258.407 Y223.535
; Path 78
G0 Z0
G0 X262.017 Y226.497
G0 Z2.2
G1 F3000
G1 X261.659 Y224.839
G1 X261.344 Y223.128
G1 X261.031 Y221.475
; Path 79
G0 Z0
G0 X261.225 Y221.870
G0 Z2.2
G1 F3000
G1 X262.747 Y223.188
; Path 80
G0 Z0
G0 X264.129 Y223.007
G0 Z2.2
G1 F3000
G1 X265.893 Y222.040
; Path 81
G0 Z0
G0 X264.607 Y222.324
G0 Z2.2
G1 F3000
G1 X265.528 Y220.487
; Path 82
G0 Z0
G0 X265.955 Y220.422
G0 Z2.2
G1 F3000
G1 X266.425 Y220.984
G1 X266.994 Y221.477
G1 X267.548 Y222.036
G1 X268.068 Y222.570
; Path 83
G0 Z0
G0 X266.027 Y219.507
G0 Z2.2
G1 F3000
G1 X265.853 Y219.327
G1 X265.636 Y219.093
G1 X265.467 Y218.878
G1 X265.266 Y218.657
G1 X265.104 Y218.424
G1 X264.907 Y218.209
G1 X264.716 Y217.981
G1 X264.551 Y217.759
G1 X264.381 Y217.519
G1 X264.189 Y217.314
G1 X264.006 Y217.110
G1 X263.813 Y216.885
G1 X263.587 Y216.665
G1 X263.413 Y216.479
G1 X263.203 Y216.277
G1 X262.980 Y216.107
G1 X262.757 Y215.958
G1 X262.507 Y215.777
G1 X262.251 Y215.652
G1 X261.984 Y215.498
G1 X261.677 Y215.388
G1 X261.404 Y215.276
G1 X261.069 Y215.168
G1 X260.775 Y215.105
G1 X260.424 Y215.036
G1 X260.104 Y214.976
G1 X259.773 Y214.923
G1 X259.402 Y214.881
G1 X259.026 Y214.857
G1 X258.675 Y214.809
G1 X258.311 Y214.802
G1 X257.934 Y214.753
G1 X257.537 Y214.731
G1 X257.187 Y214.702
G1 X256.813 Y214.689
G1 X256.443 Y214.649
G1 X256.070 Y214.595
G1 X255.711 Y214.583
G1 X255.348 Y214.545
G1 X255.000 Y214.497
; Path 84
G0 Z0
G0 X254.996 Y214.488
G0 Z2.2
G1 F3000
G1 X255.137 Y214.738
G1 X255.293 Y215.000
G1 X255.454 Y215.267
G1 X255.584 Y215.532
G1 X255.725 Y215.793
G1 X255.870 Y216.077
G1 X256.022 Y216.348
G1 X256.155 Y216.624
G1 X256.289 Y216.898
G1 X256.443 Y217.165
G1 X256.581 Y217.399
G1 X256.735 Y217.691
G1 X256.889 Y217.968
G1 X257.035 Y218.194
G1 X257.179 Y218.456
G1 X257.345 Y218.664
G1 X257.514 Y218.876
G1 X257.669 Y219.093
G1 X257.829 Y219.301
G1 X258.009 Y219.472
G1 X258.181 Y219.654
G1 X258.367 Y219.794
G1 X258.576 Y219.947
G1 X258.742 Y220.066
G1 X258.917 Y220.184
G1 X259.130 Y220.297
G1 X259.308 Y220.423
G1 X259.528 Y220.495
G1 X259.757 Y220.600
G1 X259.935 Y220.669
G1 X260.162 Y220.776
G1 X260.346 Y220.829
G1 X260.549 Y220.896
G1 X260.759 Y220.983
G1 X260.937 Y221.067
G1 X261.171 Y221.140
G1 X261.368 Y221.251
G1 X261.579 Y221.308
G1 X261.784 Y221.424
G1 X261.980 Y221.497
; Path 85
G0 Z0
G0 X261.995 Y221.508
G0 Z2.2
G1 F3000
G1 X263.333 Y220.834
G1 X264.684 Y220.128
G1 X266.008 Y219.470
; Path 86
G0 Z0
G0 X266.018 Y219.506
G0 Z2.2
G1 F3000
G1 X265.353 Y220.801
G1 X264.644 Y222.115
G1 X263.998 Y223.464
; Path 87
G0 Z0
G0 X264.007 Y223.504
G0 Z2.2
G1 F3000
G1 X263.024 Y222.501
G1 X262.029 Y221.489
; Path 88
G0 Z0
G0 X263.117 Y220.980
G0 Z2.2
G1 F3000
G1 X264.891 Y220.085
; Path 89
G0 Z0
G0 X263.987 Y218.485
G0 Z2.2
G1 F3000
G1 X262.015 Y218.456
; Path 90
G0 Z0
G0 X261.999 Y219.490
G0 Z2.2
G1 F3000
G1 X263.832 Y219.216
G1 X265.710 Y218.906
G1 X267.579 Y218.647
G1 X269.422 Y218.355
G1 X271.292 Y218.056
G1 X273.135 Y217.748
G1 X275.004 Y217.466
; Path 91
G0 Z0
G0 X275.002 Y219.503
G0 Z2.2
G1 F3000
G1 X275.777 Y219.475
G1 X276.502 Y219.404
G1 X277.248 Y219.332
G1 X278.002 Y219.312
G1 X278.780 Y219.251
G1 X279.502 Y219.224
G1 X280.224 Y219.168
G1 X281.001 Y219.137
G1 X281.760 Y219.088
G1 X282.501 Y219.048
G1 X283.229 Y219.004
G1 X284.001 Y218.954
G1 X284.756 Y218.912
G1 X285.501 Y218.852
G1 X286.226 Y218.791
G1 X287.001 Y218.740
G1 X287.780 Y218.657
G1 X288.500 Y218.614
G1 X289.224 Y218.526
G1 X290.000 Y218.471
G1 X290.789 Y218.370
G1 X291.544 Y218.305
G1 X292.333 Y218.229
G1 X293.159 Y218.116
G1 X293.985 Y218.017
G1 X294.813 Y217.909
G1 X295.641 Y217.817
G1 X296.477 Y217.690
G1 X297.271 Y217.573
G1 X298.121 Y217.466
G1 X298.943 Y217.361
G1 X299.716 Y217.241
G1 X300.487 Y217.119
G1 X301.230 Y217.023
G1 X301.920 Y216.947
G1 X302.634 Y216.817
G1 X303.288 Y216.733
G1 X303.899 Y216.629
G1 X304.474 Y216.552
G1 X304.994 Y216.465
G1 X305.472 Y216.365
G1 X305.899 Y216.324
G1 X306.282 Y216.245
G1 X306.634 Y216.200
G1 X306.903 Y216.134
G1 X307.230 Y216.091
G1 X307.490 Y216.031
G1 X307.715 Y215.993
G1 X307.913 Y215.930
G1 X308.121 Y215.902
G1 X308.303 Y215.880
G1 X308.476 Y215.817
G1 X308.636 Y215.769
G1 X308.812 Y215.734
G1 X309.013 Y215.691
G1 X309.158 Y215.650
G1 X309.341 Y215.576
G1 X309.543 Y215.561
G1 X309.788 Y215.513
G1 X309.999 Y215.466
; Path 92
G0 Z0
G0 X310.009 Y211.493
G0 Z2.2
G1 F3000
G1 X309.012 Y211.410
G1 X308.021 Y211.327
G1 X307.032 Y211.243
G1 X306.046 Y211.160
G1 X305.060 Y211.077
G1 X304.071 Y210.993
G1 X303.080 Y210.910
G1 X302.083 Y210.827
G1 X301.079 Y210.743
G1 X300.067 Y210.660
G1 X299.044 Y210.577
G1 X298.009 Y210.493
G1 X296.961 Y210.410
G1 X295.900 Y210.327
G1 X294.829 Y210.243
G1 X293.750 Y210.160
G1 X292.663 Y210.077
G1 X291.571 Y209.993
G1 X290.476 Y209.910
G1 X289.379 Y209.827
G1 X288.282 Y209.743
G1 X287.187 Y209.660
G1 X286.095 Y209.577
G1 X285.009 Y209.493
; Path 93
G0 Z0
G0 X288.855 Y198.028
G0 Z2.2
G1 F3000
G1 X287.150 Y197.015
; Path 94
G0 Z0
G0 X292.509 Y187.493
G0 Z2.2
G1 F3000
G1 X292.009 Y187.993
G1 X291.509 Y187.493
G1 X292.009 Y186.993
G1 X292.509 Y187.493
; Path 95
G0 Z0
G0 X300.009 Y179.493
G0 Z2.2
G1 F3000
G1 X280.009 Y177.493
; Path 96
G0 Z0
G0 X268.983 Y179.490
G0 Z2.2
G1 F3000
G1 X268.508 Y177.750
G1 X268.007 Y175.997
G1 X267.457 Y174.259
G1 X266.985 Y172.520
; Path 97
G0 Z0
G0 X266.235 Y172.507
G0 Z2.2
G1 F3000
G1 X265.741 Y170.539
; Path 98
G0 Z0
G0 X266.034 Y169.512
G0 Z2.2
G1 F3000
G1 X266.113 Y169.840
G1 X266.235 Y170.110
G1 X266.330 Y170.434
G1 X266.443 Y170.708
G1 X266.534 Y171.025
G1 X266.655 Y171.305
G1 X266.760 Y171.593
G1 X266.868 Y171.903
G1 X266.997 Y172.219
G1 X267.079 Y172.501
G1 X267.177 Y172.797
G1 X267.285 Y173.098
G1 X267.403 Y173.401
G1 X267.484 Y173.696
G1 X267.550 Y173.977
G1 X267.671 Y174.294
G1 X267.776 Y174.568
G1 X267.845 Y174.892
G1 X267.907 Y175.187
G1 X268.003 Y175.490
G1 X268.083 Y175.818
G1 X268.142 Y176.089
G1 X268.193 Y176.389
G1 X268.264 Y176.688
G1 X268.300 Y176.976
G1 X268.373 Y177.286
G1 X268.444 Y177.583
G1 X268.471 Y177.885
G1 X268.500 Y178.187
G1 X268.562 Y178.484
G1 X268.577 Y178.769
G1 X268.647 Y179.083
G1 X268.685 Y179.389
G1 X268.731 Y179.682
G1 X268.779 Y179.964
G1 X268.815 Y180.282
G1 X268.873 Y180.574
G1 X268.903 Y180.881
G1 X268.924 Y181.156
G1 X268.999 Y181.480
; Path 99
G0 Z0
G0 X268.132 Y182.473
G0 Z2.2
G1 F3000
G1 X267.900 Y180.485
; Path 100
G0 Z0
G0 X266.987 Y182.454
G0 Z2.2
G1 F3000
G1 X267.062 Y184.500
; Path 101
G0 Z0
G0 X267.980 Y186.481
G0 Z2.2
G1 F3000
G1 X267.005 Y186.971
G1 X266.018 Y187.485
; Path 102
G0 Z0
G0 X269.984 Y187.496
G0 Z2.2
G1 F3000
G1 X269.486 Y185.999
G1 X268.999 Y184.522
; Path 103
G0 Z0
G0 X269.038 Y184.516
G0 Z2.2
G1 F3000
G1 X268.752 Y182.746
G1 X268.531 Y180.995
G1 X268.263 Y179.257
G1 X267.997 Y177.477
; Path 104
G0 Z0
G0 X266.811 Y175.499
G0 Z2.2
G1 F3000
G1 X267.212 Y177.478
; Path 105
G0 Z0
G0 X268.022 Y177.466
G0 Z2.2
G1 F3000
G1 X267.961 Y177.186
G1 X267.925 Y176.873
G1 X267.871 Y176.551
G1 X267.835 Y176.288
G1 X267.788 Y175.975
G1 X267.749 Y175.707
G1 X267.715 Y175.409
G1 X267.665 Y175.127
G1 X267.592 Y174.826
G1 X267.578 Y174.545
G1 X267.508 Y174.281
G1 X267.486 Y173.957
G1 X267.426 Y173.680
G1 X267.386 Y173.361
G1 X267.319 Y173.087
G1 X267.275 Y172.754
G1 X267.191 Y172.442
G1 X267.150 Y172.132
G1 X267.064 Y171.821
G1 X267.008 Y171.492
G1 X266.926 Y171.141
G1 X266.846 Y170.832
G1 X266.785 Y170.517
G1 X266.668 Y170.155
G1 X266.589 Y169.803
G1 X266.475 Y169.463
G1 X266.394 Y169.126
G1 X266.271 Y168.759
G1 X266.155 Y168.422
G1 X266.059 Y168.047
G1 X265.979 Y167.711
G1 X265.842 Y167.329
G1 X265.744 Y166.984
G1 X265.623 Y166.610
G1 X265.524 Y166.277
G1 X265.405 Y165.892
G1 X265.286 Y165.543
G1 X265.191 Y165.177
G1 X265.084 Y164.831
G1 X264.985 Y164.470
; Path 106
G0 Z0
G0 X261.935 Y164.539
G0 Z2.2
G1 F3000
G1 X262.061 Y166.539
; Path 107
G0 Z0
G0 X255.009 Y167.493
G0 Z2.2
G1 F3000
G1 X256.676 Y167.574
G1 X258.342 Y167.649
G1 X260.009 Y167.720
G1 X261.676 Y167.790
G1 X263.342 Y167.860
G1 X265.009 Y167.931
G1 X266.676 Y168.006
G1 X268.342 Y168.086
G1 X270.009 Y168.173
G1 X271.676 Y168.269
G1 X273.342 Y168.375
G1 X275.009 Y168.493
G1 X276.692 Y168.628
G1 X278.400 Y168.781
G1 X280.126 Y168.947
G1 X281.861 Y169.123
G1 X283.595 Y169.307
G1 X285.321 Y169.493
G1 X287.030 Y169.680
G1 X288.713 Y169.864
G1 X290.361 Y170.040
G1 X291.965 Y170.206
G1 X293.517 Y170.359
G1 X295.009 Y170.493
G1 X296.434 Y170.612
G1 X297.798 Y170.718
G1 X299.111 Y170.814
G1 X300.379 Y170.901
G1 X301.613 Y170.981
G1 X302.821 Y171.056
G1 X304.012 Y171.127
G1 X305.194 Y171.197
G1 X306.376 Y171.267
G1 X307.567 Y171.338
G1 X308.775 Y171.413
G1 X310.009 Y171.493
; Path 108
G0 Z0
G0 X298.563 Y155.312
G0 Z2.2
G1 F3000
G1 X297.456 Y153.711
; Path 109
G0 Z0
G0 X310.009 Y114.493
G0 Z2.2
G1 F3000
G1 X308.342 Y114.410
G1 X306.676 Y114.327
G1 X305.009 Y114.243
G1 X303.342 Y114.160
G1 X301.676 Y114.077
G1 X300.009 Y113.993
G1 X298.342 Y113.910
G1 X296.676 Y113.827
G1 X295.009 Y113.743
G1 X293.342 Y113.660
G1 X291.676 Y113.577
G1 X290.009 Y113.493
G1 X288.342 Y113.410
G1 X286.676 Y113.327
G1 X285.009 Y113.243
G1 X283.342 Y113.160
G1 X281.676 Y113.077
G1 X280.009 Y112.993
G1 X278.342 Y112.910
G1 X276.676 Y112.827
G1 X275.009 Y112.743
G1 X273.342 Y112.660
G1 X271.676 Y112.577
G1 X270.009 Y112.493
G1 X268.342 Y112.410
G1 X266.676 Y112.327
G1 X265.009 Y112.243
G1 X263.342 Y112.160
G1 X261.676 Y112.077
G1 X260.009 Y111.993
G1 X258.342 Y111.910
G1 X256.676 Y111.827
G1 X255.009 Y111.743
G1 X253.342 Y111.660
G1 X251.676 Y111.577
G1 X250.009 Y111.493
; Path 110
G0 Z0
G0 X234.009 Y97.493
G0 Z2.2
G1 F3000
G1 X236.009 Y104.493
; Path 111
G0 Z0
G0 X235.009 Y109.493
G0 Z2.2
G1 F3000
G1 X238.009 Y119.493
; Path 112
G0 Z0
G0 X238.019 Y121.494
G0 Z2.2
G1 F3000
G1 X237.586 Y121.795
G1 X237.184 Y122.106
G1 X236.761 Y122.427
G1 X236.300 Y122.733
G1 X235.828 Y123.063
G1 X235.388 Y123.368
G1 X234.912 Y123.678
G1 X234.469 Y124.005
G1 X234.044 Y124.323
G1 X233.564 Y124.637
G1 X233.133 Y124.925
G1 X232.694 Y125.260
G1 X232.288 Y125.592
G1 X231.880 Y125.866
G1 X231.502 Y126.136
G1 X231.143 Y126.449
G1 X230.853 Y126.721
G1 X230.505 Y127.003
G1 X230.220 Y127.242
G1 X229.987 Y127.521
G1 X229.819 Y127.742
G1 X229.606 Y127.991
G1 X229.492 Y128.196
G1 X229.352 Y128.411
G1 X229.252 Y128.584
G1 X229.200 Y128.794
G1 X229.177 Y128.990
G1 X229.126 Y129.152
G1 X229.091 Y129.328
G1 X229.107 Y129.498
G1 X229.124 Y129.659
G1 X229.118 Y129.844
G1 X229.112 Y130.006
G1 X229.135 Y130.202
G1 X229.125 Y130.394
G1 X229.135 Y130.584
G1 X229.108 Y130.817
G1 X229.093 Y131.004
G1 X229.056 Y131.222
G1 X228.985 Y131.473
G1 X228.897 Y131.714
G1 X228.827 Y131.987
G1 X228.726 Y132.281
G1 X228.654 Y132.528
G1 X228.568 Y132.840
G1 X228.467 Y133.094
G1 X228.371 Y133.384
G1 X228.269 Y133.682
G1 X228.165 Y133.977
G1 X228.064 Y134.289
G1 X227.950 Y134.603
G1 X227.853 Y134.911
G1 X227.726 Y135.198
G1 X227.640 Y135.545
G1 X227.536 Y135.836
G1 X227.427 Y136.188
G1 X227.305 Y136.520
G1 X227.217 Y136.836
G1 X227.111 Y137.144
G1 X227.013 Y137.487
G1 X226.893 Y137.798
G1 X226.813 Y138.148
G1 X226.717 Y138.493
G1 X226.611 Y138.826
G1 X226.490 Y139.182
G1 X226.408 Y139.518
G1 X226.304 Y139.898
G1 X226.205 Y140.221
G1 X226.119 Y140.576
G1 X226.001 Y140.932
G1 X225.912 Y141.283
G1 X225.797 Y141.648
G1 X225.683 Y141.980
G1 X225.592 Y142.366
G1 X225.471 Y142.737
G1 X225.388 Y143.083
G1 X225.275 Y143.454
G1 X225.184 Y143.795
G1 X225.095 Y144.160
G1 X224.981 Y144.501
; Path 113
G0 Z0
G0 X224.998 Y144.495
G0 Z2.2
G1 F3000
G1 X225.024 Y144.513
G1 X225.027 Y144.515
; Path 114
G0 Z0
G0 X224.986 Y144.481
G0 Z2.2
G1 F3000
G1 X224.724 Y144.949
G1 X224.486 Y145.459
G1 X224.222 Y145.956
G1 X223.979 Y146.402
G1 X223.738 Y146.893
G1 X223.468 Y147.325
G1 X223.215 Y147.785
G1 X222.956 Y148.243
G1 X222.703 Y148.708
G1 X222.447 Y149.172
G1 X222.199 Y149.645
G1 X221.942 Y150.125
G1 X221.723 Y150.648
G1 X221.444 Y151.118
G1 X221.209 Y151.640
G1 X220.956 Y152.166
G1 X220.689 Y152.751
G1 X220.482 Y153.285
G1 X220.229 Y153.866
G1 X220.023 Y154.488
G1 X219.771 Y155.172
G1 X219.554 Y155.810
G1 X219.336 Y156.519
G1 X219.059 Y157.252
G1 X218.816 Y158.019
G1 X218.552 Y158.784
G1 X218.312 Y159.603
G1 X218.050 Y160.376
G1 X217.823 Y161.180
G1 X217.567 Y161.998
G1 X217.317 Y162.833
G1 X217.119 Y163.621
G1 X216.909 Y164.391
G1 X216.721 Y165.212
G1 X216.582 Y165.997
G1 X216.389 Y166.744
G1 X216.262 Y167.435
G1 X216.138 Y168.185
G1 X216.082 Y168.831
G1 X215.983 Y169.505
G1 X215.957 Y170.085
G1 X215.953 Y170.684
G1 X216.009 Y171.240
G1 X216.047 Y171.742
G1 X216.131 Y172.225
G1 X216.238 Y172.710
G1 X216.351 Y173.153
G1 X216.498 Y173.617
G1 X216.657 Y174.064
G1 X216.801 Y174.494
G1 X216.931 Y174.954
G1 X217.119 Y175.370
G1 X217.267 Y175.837
G1 X217.425 Y176.277
G1 X217.558 Y176.758
G1 X217.691 Y177.244
G1 X217.798 Y177.745
G1 X217.892 Y178.302
G1 X217.952 Y178.918
G1 X217.998 Y179.480
G1 X218.001 Y180.121
G1 X218.007 Y180.786
G1 X217.966 Y181.465
G1 X217.943 Y182.191
G1 X217.892 Y182.953
G1 X217.825 Y183.674
G1 X217.771 Y184.418
G1 X217.671 Y185.214
G1 X217.591 Y186.029
G1 X217.499 Y186.791
G1 X217.403 Y187.590
G1 X217.326 Y188.383
G1 X217.235 Y189.157
G1 X217.172 Y189.968
G1 X217.085 Y190.730
G1 X217.055 Y191.527
G1 X217.040 Y192.280
G1 X216.991 Y193.037
G1 X216.988 Y193.738
G1 X217.001 Y194.478
G1 X217.058 Y195.190
G1 X217.077 Y195.885
G1 X217.149 Y196.617
G1 X217.197 Y197.300
G1 X217.260 Y198.025
G1 X217.357 Y198.711
G1 X217.465 Y199.436
G1 X217.549 Y200.105
G1 X217.658 Y200.810
G1 X217.766 Y201.472
G1 X217.861 Y202.138
G1 X218.004 Y202.799
G1 X218.117 Y203.421
G1 X218.256 Y204.073
G1 X218.361 Y204.659
G1 X218.515 Y205.284
G1 X218.660 Y205.823
G1 X218.775 Y206.420
G1 X218.930 Y206.926
G1 X219.030 Y207.468
G1 X219.176 Y207.934
G1 X219.290 Y208.411
G1 X219.453 Y208.841
G1 X219.565 Y209.252
G1 X219.739 Y209.631
G1 X219.855 Y210.010
G1 X220.029 Y210.333
G1 X220.154 Y210.702
G1 X220.287 Y210.998
G1 X220.461 Y211.346
G1 X220.630 Y211.651
G1 X220.773 Y211.961
G1 X220.951 Y212.273
G1 X221.087 Y212.563
G1 X221.240 Y212.840
G1 X221.400 Y213.172
G1 X221.541 Y213.463
G1 X221.710 Y213.804
G1 X221.860 Y214.162
G1 X222.012 Y214.478
; Path 115
G0 Z0
G0 X222.701 Y218.722
G0 Z2.2
G1 F3000
G1 X221.363 Y220.189
; Path 116
G0 Z0
G0 X221.012 Y220.506
G0 Z2.2
G1 F3000
G1 X221.683 Y221.826
G1 X222.313 Y223.188
G1 X222.981 Y224.510
; Path 117
G0 Z0
G0 X219.869 Y224.507
G0 Z2.2
G1 F3000
G1 X220.189 Y222.481
; Path 118
G0 Z0
G0 X218.990 Y221.502
G0 Z2.2
G1 F3000
G1 X218.676 Y223.157
G1 X218.307 Y224.801
G1 X217.989 Y226.489
; Path 119
G0 Z0
G0 X219.942 Y225.423
G0 Z2.2
G1 F3000
G1 X219.229 Y225.298
G1 X218.313 Y225.003
G1 X217.601 Y224.854
G1 X216.745 Y224.623
G1 X216.037 Y224.464
; Path 120
G0 Z0
G0 X216.193 Y224.069
G0 Z2.2
G1 F3000
G1 X217.786 Y222.790
; Path 121
G0 Z0
G0 X217.195 Y223.137
G0 Z2.2
G1 F3000
G1 X218.757 Y221.843
; Path 122
G0 Z0
G0 X218.017 Y221.477
G0 Z2.2
G1 F3000
G1 X217.014 Y222.473
G1 X215.982 Y223.472
; Path 123
G0 Z0
G0 X215.990 Y223.486
G0 Z2.2
G1 F3000
G1 X215.350 Y222.154
G1 X214.685 Y220.813
G1 X214.038 Y219.476
; Path 124
G0 Z0
G0 X214.006 Y219.506
G0 Z2.2
G1 F3000
G1 X214.188 Y219.315
G1 X214.391 Y219.093
G1 X214.592 Y218.900
G1 X214.755 Y218.660
G1 X214.915 Y218.427
G1 X215.107 Y218.215
G1 X215.296 Y217.987
G1 X215.455 Y217.767
G1 X215.640 Y217.549
G1 X215.810 Y217.325
G1 X216.000 Y217.105
G1 X216.180 Y216.897
G1 X216.384 Y216.709
G1 X216.574 Y216.494
G1 X216.780 Y216.299
G1 X217.001 Y216.123
G1 X217.207 Y215.943
G1 X217.472 Y215.793
G1 X217.757 Y215.628
G1 X217.993 Y215.514
G1 X218.291 Y215.405
G1 X218.573 Y215.291
G1 X218.904 Y215.188
G1 X219.204 Y215.118
G1 X219.527 Y215.060
G1 X219.877 Y214.987
G1 X220.205 Y214.918
G1 X220.584 Y214.888
G1 X220.939 Y214.871
G1 X221.315 Y214.813
G1 X221.674 Y214.798
G1 X222.062 Y214.753
G1 X222.412 Y214.703
G1 X222.814 Y214.699
G1 X223.192 Y214.661
G1 X223.564 Y214.642
G1 X223.916 Y214.590
G1 X224.301 Y214.573
G1 X224.643 Y214.538
G1 X225.017 Y214.483
; Path 125
G0 Z0
G0 X225.026 Y214.492
G0 Z2.2
G1 F3000
G1 X224.870 Y214.744
G1 X224.730 Y215.007
G1 X224.590 Y215.273
G1 X224.441 Y215.544
G1 X224.313 Y215.821
G1 X224.157 Y216.093
G1 X224.027 Y216.397
G1 X223.873 Y216.645
G1 X223.715 Y216.904
G1 X223.588 Y217.191
G1 X223.455 Y217.442
G1 X223.297 Y217.722
G1 X223.124 Y217.955
G1 X222.998 Y218.229
G1 X222.872 Y218.472
G1 X222.688 Y218.702
G1 X222.538 Y218.942
G1 X222.364 Y219.133
G1 X222.176 Y219.332
G1 X222.022 Y219.512
G1 X221.838 Y219.670
G1 X221.660 Y219.834
G1 X221.480 Y219.987
G1 X221.281 Y220.104
G1 X221.112 Y220.209
G1 X220.888 Y220.332
G1 X220.709 Y220.408
G1 X220.483 Y220.526
G1 X220.273 Y220.618
G1 X220.070 Y220.696
G1 X219.875 Y220.767
G1 X219.652 Y220.851
G1 X219.417 Y220.908
G1 X219.232 Y221.000
G1 X219.023 Y221.095
G1 X218.813 Y221.152
G1 X218.632 Y221.222
G1 X218.398 Y221.316
G1 X218.223 Y221.403
G1 X217.990 Y221.502
; Path 126
G0 Z0
G0 X218.024 Y221.498
G0 Z2.2
G1 F3000
G1 X216.686 Y220.867
G1 X215.339 Y220.176
G1 X214.003 Y219.519
; Path 127
G0 Z0
G0 X213.932 Y220.519
G0 Z2.2
G1 F3000
G1 X213.349 Y221.140
G1 X212.701 Y221.917
G1 X212.025 Y222.569
; Path 128
G0 Z0
G0 X215.380 Y222.349
G0 Z2.2
G1 F3000
G1 X214.478 Y220.618
; Path 129
G0 Z0
G0 X214.120 Y222.013
G0 Z2.2
G1 F3000
G1 X215.848 Y223.037
; Path 130
G0 Z0
G0 X216.021 Y222.502
G0 Z2.2
G1 F3000
G1 X215.006 Y223.481
G1 X214.043 Y224.482
G1 X213.015 Y225.511
; Path 131
G0 Z0
G0 X213.009 Y224.493
G0 Z2.2
G1 F3000
G1 X209.009 Y228.493
; Path 132
G0 Z0
G0 X206.009 Y223.493
G0 Z2.2
G1 F3000
G1 X210.009 Y221.493
; Path 133
G0 Z0
G0 X209.990 Y222.520
G0 Z2.2
G1 F3000
G1 X209.598 Y222.569
G1 X209.188 Y222.619
G1 X208.811 Y222.651
G1 X208.379 Y222.718
G1 X207.990 Y222.745
G1 X207.566 Y222.816
G1 X207.176 Y222.874
G1 X206.753 Y222.915
G1 X206.350 Y222.937
G1 X205.941 Y223.014
G1 X205.554 Y223.062
G1 X205.134 Y223.113
G1 X204.715 Y223.188
G1 X204.335 Y223.212
G1 X203.970 Y223.247
G1 X203.546 Y223.311
G1 X203.178 Y223.341
G1 X202.771 Y223.410
G1 X202.401 Y223.436
G1 X202.012 Y223.509
G1 X201.626 Y223.566
G1 X201.272 Y223.609
G1 X200.895 Y223.678
G1 X200.548 Y223.709
G1 X200.218 Y223.731
G1 X199.838 Y223.808
G1 X199.462 Y223.834
G1 X199.138 Y223.908
G1 X198.817 Y223.949
G1 X198.446 Y224.009
G1 X198.094 Y224.034
G1 X197.759 Y224.109
G1 X197.401 Y224.174
G1 X197.073 Y224.209
G1 X196.720 Y224.251
G1 X196.387 Y224.309
G1 X196.041 Y224.378
G1 X195.697 Y224.409
G1 X195.359 Y224.447
G1 X195.000 Y224.509
; Path 134
G0 Z0
G0 X180.021 Y237.518
G0 Z2.2
G1 F3000
G1 X179.420 Y237.483
G1 X178.821 Y237.401
G1 X178.234 Y237.331
G1 X177.628 Y237.262
G1 X177.032 Y237.161
G1 X176.439 Y237.110
G1 X175.845 Y237.033
G1 X175.251 Y236.956
G1 X174.633 Y236.868
G1 X174.061 Y236.808
G1 X173.467 Y236.761
G1 X172.866 Y236.675
G1 X172.253 Y236.626
G1 X171.664 Y236.567
G1 X171.060 Y236.535
G1 X170.451 Y236.492
G1 X169.853 Y236.456
G1 X169.225 Y236.460
G1 X168.605 Y236.474
G1 X167.982 Y236.480
G1 X167.342 Y236.515
G1 X166.731 Y236.563
G1 X166.083 Y236.625
G1 X165.477 Y236.705
G1 X164.829 Y236.786
G1 X164.218 Y236.894
G1 X163.612 Y237.032
G1 X162.950 Y237.118
G1 X162.336 Y237.223
G1 X161.671 Y237.364
G1 X161.033 Y237.499
G1 X160.377 Y237.620
G1 X159.718 Y237.722
G1 X159.065 Y237.875
G1 X158.378 Y237.988
G1 X157.732 Y238.115
G1 X157.033 Y238.213
G1 X156.375 Y238.328
G1 X155.655 Y238.414
G1 X154.991 Y238.503
G1 X154.264 Y238.562
G1 X153.573 Y238.644
G1 X152.869 Y238.703
G1 X152.122 Y238.768
G1 X151.362 Y238.816
G1 X150.642 Y238.878
G1 X149.917 Y238.931
G1 X149.141 Y238.976
G1 X148.404 Y239.021
G1 X147.623 Y239.067
G1 X146.846 Y239.121
G1 X146.096 Y239.152
G1 X145.307 Y239.167
G1 X144.564 Y239.235
G1 X143.806 Y239.296
G1 X143.035 Y239.319
G1 X142.267 Y239.351
G1 X141.514 Y239.408
G1 X140.732 Y239.461
G1 X140.006 Y239.503
; Path 135
G0 Z0
G0 X144.987 Y234.492
G0 Z2.2
G1 F3000
G1 X144.516 Y234.367
G1 X144.001 Y234.278
G1 X143.522 Y234.179
G1 X143.036 Y234.042
G1 X142.550 Y233.942
G1 X142.082 Y233.795
G1 X141.590 Y233.660
G1 X141.131 Y233.544
G1 X140.628 Y233.406
G1 X140.175 Y233.300
G1 X139.687 Y233.165
G1 X139.203 Y233.070
G1 X138.686 Y232.961
G1 X138.208 Y232.865
G1 X137.685 Y232.771
G1 X137.180 Y232.692
G1 X136.637 Y232.614
G1 X136.110 Y232.562
G1 X135.524 Y232.513
G1 X134.990 Y232.482
G1 X134.379 Y232.488
G1 X133.808 Y232.473
G1 X133.209 Y232.501
G1 X132.569 Y232.536
G1 X131.932 Y232.612
G1 X131.284 Y232.652
G1 X130.608 Y232.755
G1 X129.966 Y232.804
G1 X129.317 Y232.901
G1 X128.625 Y232.975
G1 X127.940 Y233.040
G1 X127.275 Y233.146
G1 X126.619 Y233.204
G1 X125.927 Y233.299
G1 X125.280 Y233.356
G1 X124.592 Y233.417
G1 X123.950 Y233.433
G1 X123.283 Y233.481
G1 X122.633 Y233.506
G1 X122.012 Y233.474
G1 X121.396 Y233.416
G1 X120.773 Y233.398
G1 X120.187 Y233.345
G1 X119.551 Y233.272
G1 X118.958 Y233.183
G1 X118.342 Y233.105
G1 X117.744 Y232.984
G1 X117.145 Y232.905
G1 X116.545 Y232.763
G1 X115.955 Y232.681
G1 X115.373 Y232.585
G1 X114.771 Y232.443
G1 X114.182 Y232.323
G1 X113.588 Y232.199
G1 X113.017 Y232.059
G1 X112.404 Y231.958
G1 X111.802 Y231.855
G1 X111.216 Y231.729
G1 X110.627 Y231.614
G1 X110.022 Y231.520
; Path 136
G0 Z0
G0 X109.982 Y217.479
G0 Z2.2
G1 F3000
G1 X111.499 Y217.560
G1 X112.983 Y217.695
G1 X114.508 Y217.805
G1 X115.984 Y217.932
G1 X117.478 Y218.029
G1 X118.985 Y218.182
G1 X120.497 Y218.315
G1 X121.985 Y218.434
G1 X123.512 Y218.542
G1 X124.986 Y218.680
G1 X126.504 Y218.775
G1 X127.987 Y218.911
G1 X129.502 Y219.007
G1 X130.988 Y219.118
G1 X132.486 Y219.185
G1 X133.989 Y219.291
G1 X135.475 Y219.375
G1 X136.990 Y219.422
G1 X138.504 Y219.487
G1 X139.992 Y219.501
G1 X141.495 Y219.487
G1 X143.039 Y219.508
G1 X144.576 Y219.477
G1 X146.156 Y219.441
G1 X147.750 Y219.363
G1 X149.314 Y219.320
G1 X150.928 Y219.219
G1 X152.482 Y219.162
G1 X154.062 Y219.091
G1 X155.630 Y218.986
G1 X157.165 Y218.882
G1 X158.729 Y218.810
G1 X160.252 Y218.727
G1 X161.746 Y218.653
G1 X163.206 Y218.575
G1 X164.653 Y218.532
G1 X166.029 Y218.495
G1 X167.420 Y218.466
G1 X168.707 Y218.490
G1 X170.015 Y218.474
G1 X171.254 Y218.520
G1 X172.442 Y218.558
G1 X173.613 Y218.651
G1 X174.733 Y218.702
G1 X175.804 Y218.826
G1 X176.903 Y218.892
G1 X177.960 Y219.002
G1 X178.967 Y219.117
G1 X179.929 Y219.263
G1 X180.941 Y219.365
G1 X181.875 Y219.471
G1 X182.840 Y219.623
G1 X183.786 Y219.765
G1 X184.679 Y219.878
G1 X185.554 Y220.016
G1 X186.474 Y220.120
G1 X187.354 Y220.248
G1 X188.240 Y220.334
G1 X189.106 Y220.422
G1 X189.993 Y220.510
G1 X190.872 Y220.596
G1 X191.697 Y220.653
G1 X192.497 Y220.696
G1 X193.317 Y220.778
G1 X194.093 Y220.828
G1 X194.868 Y220.889
G1 X195.618 Y220.921
G1 X196.364 Y220.989
G1 X197.119 Y221.011
G1 X197.821 Y221.080
G1 X198.545 Y221.125
G1 X199.254 Y221.166
G1 X199.959 Y221.181
G1 X200.676 Y221.250
G1 X201.387 Y221.310
G1 X202.104 Y221.336
G1 X202.832 Y221.391
G1 X203.551 Y221.425
G1 X204.263 Y221.470
G1 X205.033 Y221.522
; Path 137
G0 Z0
G0 X199.983 Y217.504
G0 Z2.2
G1 F3000
G1 X201.784 Y217.675
G1 X203.566 Y217.880
G1 X205.371 Y218.125
G1 X207.202 Y218.322
G1 X208.979 Y218.536
G1 X210.773 Y218.681
G1 X212.621 Y218.930
G1 X214.378 Y219.133
G1 X216.180 Y219.285
G1 X218.013 Y219.510
; Path 138
G0 Z0
G0 X216.907 Y220.982
G0 Z2.2
G1 F3000
G1 X215.129 Y220.080
; Path 139
G0 Z0
G0 X216.046 Y218.558
G0 Z2.2
G1 F3000
G1 X217.996 Y218.460
; Path 140
G0 Z0
G0 X219.789 Y218.457
G0 Z2.2
G1 F3000
G1 X220.253 Y216.489
; Path 141
G0 Z0
G0 X221.000 Y216.515
G0 Z2.2
G1 F3000
G1 X222.008 Y214.982
G1 X222.990 Y213.466
; Path 142
G0 Z0
G0 X223.006 Y211.511
G0 Z2.2
G1 F3000
G1 X221.994 Y212.481
G1 X220.985 Y213.478
; Path 143
G0 Z0
G0 X222.988 Y209.490
G0 Z2.2
G1 F3000
G1 X222.831 Y209.249
G1 X222.684 Y209.034
G1 X222.558 Y208.865
G1 X222.372 Y208.649
G1 X222.235 Y208.495
G1 X222.056 Y208.303
G1 X221.890 Y208.152
G1 X221.739 Y207.968
G1 X221.590 Y207.785
G1 X221.425 Y207.613
G1 X221.291 Y207.416
G1 X221.115 Y207.207
G1 X220.959 Y206.973
G1 X220.814 Y206.722
G1 X220.669 Y206.405
G1 X220.523 Y206.126
G1 X220.386 Y205.771
G1 X220.247 Y205.391
G1 X220.132 Y204.911
G1 X219.988 Y204.485
G1 X219.868 Y203.966
G1 X219.744 Y203.389
G1 X219.604 Y202.757
G1 X219.511 Y202.123
G1 X219.380 Y201.394
G1 X219.288 Y200.717
G1 X219.175 Y199.978
G1 X219.075 Y199.201
G1 X218.962 Y198.430
G1 X218.872 Y197.605
G1 X218.750 Y196.755
G1 X218.680 Y195.958
G1 X218.571 Y195.149
G1 X218.496 Y194.293
G1 X218.437 Y193.475
G1 X218.323 Y192.637
G1 X218.232 Y191.833
G1 X218.159 Y191.022
G1 X218.073 Y190.275
G1 X218.004 Y189.478
G1 X217.939 Y188.744
G1 X217.844 Y187.979
G1 X217.743 Y187.215
G1 X217.672 Y186.481
G1 X217.567 Y185.750
G1 X217.498 Y184.984
G1 X217.391 Y184.225
G1 X217.330 Y183.487
G1 X217.281 Y182.763
G1 X217.177 Y181.990
G1 X217.090 Y181.261
G1 X217.050 Y180.493
G1 X216.990 Y179.752
G1 X216.958 Y178.996
G1 X216.952 Y178.246
G1 X216.909 Y177.499
G1 X216.914 Y176.779
G1 X216.913 Y176.001
G1 X216.955 Y175.253
G1 X216.980 Y174.503
G1 X217.063 Y173.780
G1 X217.120 Y173.004
G1 X217.201 Y172.233
G1 X217.329 Y171.504
G1 X217.492 Y170.726
G1 X217.595 Y170.004
G1 X217.758 Y169.240
G1 X217.906 Y168.504
G1 X218.053 Y167.769
G1 X218.250 Y167.004
G1 X218.402 Y166.274
G1 X218.614 Y165.503
G1 X218.777 Y164.755
G1 X218.986 Y164.003
G1 X219.195 Y163.236
G1 X219.353 Y162.502
G1 X219.509 Y161.739
G1 X219.705 Y161.002
G1 X219.885 Y160.225
G1 X220.028 Y159.501
; Path 144
G0 Z0
G0 X219.125 Y160.509
G0 Z2.2
G1 F3000
G1 X218.909 Y162.483
; Path 145
G0 Z0
G0 X218.038 Y159.488
G0 Z2.2
G1 F3000
G1 X217.859 Y160.306
G1 X217.884 Y161.324
G1 X217.652 Y162.117
G1 X217.506 Y163.058
G1 X217.413 Y164.002
G1 X217.372 Y164.808
G1 X217.171 Y165.659
G1 X217.059 Y166.587
G1 X216.997 Y167.486
; Path 146
G0 Z0
G0 X216.037 Y167.497
G0 Z2.2
G1 F3000
G1 X215.942 Y167.828
G1 X215.831 Y168.199
G1 X215.727 Y168.527
G1 X215.617 Y168.902
G1 X215.532 Y169.259
G1 X215.399 Y169.605
G1 X215.267 Y169.958
G1 X215.181 Y170.308
G1 X215.071 Y170.632
G1 X214.964 Y171.011
G1 X214.836 Y171.378
G1 X214.753 Y171.714
G1 X214.662 Y172.071
G1 X214.549 Y172.416
G1 X214.470 Y172.780
G1 X214.357 Y173.118
G1 X214.288 Y173.472
G1 X214.180 Y173.819
G1 X214.090 Y174.141
G1 X214.019 Y174.519
G1 X213.947 Y174.856
G1 X213.878 Y175.218
G1 X213.805 Y175.595
G1 X213.755 Y175.916
G1 X213.716 Y176.252
G1 X213.645 Y176.614
G1 X213.598 Y176.984
G1 X213.547 Y177.311
G1 X213.487 Y177.647
G1 X213.458 Y178.008
G1 X213.442 Y178.361
G1 X213.373 Y178.705
G1 X213.308 Y179.029
G1 X213.290 Y179.401
G1 X213.242 Y179.766
G1 X213.206 Y180.098
G1 X213.184 Y180.468
G1 X213.119 Y180.794
G1 X213.066 Y181.122
G1 X213.024 Y181.491
; Path 147
G0 Z0
G0 X212.859 Y180.462
G0 Z2.2
G1 F3000
G1 X213.169 Y178.467
; Path 148
G0 Z0
G0 X212.013 Y177.473
G0 Z2.2
G1 F3000
G1 X212.065 Y177.203
G1 X212.107 Y176.881
G1 X212.174 Y176.614
G1 X212.195 Y176.298
G1 X212.218 Y175.993
G1 X212.278 Y175.718
G1 X212.295 Y175.428
G1 X212.361 Y175.139
G1 X212.423 Y174.846
G1 X212.445 Y174.559
G1 X212.511 Y174.292
G1 X212.535 Y173.973
G1 X212.573 Y173.667
G1 X212.633 Y173.378
G1 X212.682 Y173.087
G1 X212.742 Y172.773
G1 X212.798 Y172.478
G1 X212.865 Y172.152
G1 X212.913 Y171.841
G1 X213.006 Y171.514
G1 X213.106 Y171.189
G1 X213.167 Y170.856
G1 X213.272 Y170.533
G1 X213.345 Y170.180
G1 X213.447 Y169.822
G1 X213.538 Y169.489
G1 X213.649 Y169.132
G1 X213.741 Y168.787
G1 X213.844 Y168.451
G1 X213.954 Y168.077
G1 X214.034 Y167.712
G1 X214.171 Y167.361
G1 X214.277 Y167.011
G1 X214.390 Y166.643
G1 X214.476 Y166.297
G1 X214.608 Y165.926
G1 X214.693 Y165.569
G1 X214.822 Y165.214
G1 X214.954 Y164.848
G1 X215.029 Y164.508
; Path 149
G0 Z0
G0 X218.097 Y164.525
G0 Z2.2
G1 F3000
G1 X217.932 Y166.483
; Path 150
G0 Z0
G0 X220.128 Y166.532
G0 Z2.2
G1 F3000
G1 X219.924 Y168.534
; Path 151
G0 Z0
G0 X222.003 Y165.481
G0 Z2.2
G1 F3000
G1 X221.970 Y163.481
; Path 152
G0 Z0
G0 X224.997 Y161.467
G0 Z2.2
G1 F3000
G1 X225.049 Y161.711
G1 X225.091 Y161.973
G1 X225.141 Y162.211
G1 X225.178 Y162.479
G1 X225.197 Y162.712
G1 X225.260 Y162.985
G1 X225.324 Y163.230
G1 X225.342 Y163.492
G1 X225.370 Y163.737
G1 X225.426 Y163.999
G1 X225.460 Y164.242
G1 X225.515 Y164.505
G1 X225.544 Y164.787
G1 X225.612 Y165.010
G1 X225.681 Y165.275
G1 X225.721 Y165.515
G1 X225.768 Y165.768
G1 X225.844 Y166.018
G1 X225.893 Y166.271
G1 X225.984 Y166.521
G1 X226.075 Y166.774
G1 X226.145 Y167.021
G1 X226.249 Y167.286
G1 X226.322 Y167.521
G1 X226.427 Y167.762
G1 X226.515 Y168.019
G1 X226.601 Y168.252
G1 X226.719 Y168.516
G1 X226.841 Y168.775
G1 X226.931 Y169.013
G1 X227.020 Y169.246
G1 X227.148 Y169.509
G1 X227.256 Y169.737
G1 X227.367 Y170.006
G1 X227.504 Y170.239
G1 X227.585 Y170.502
G1 X227.707 Y170.774
G1 X227.799 Y170.998
G1 X227.886 Y171.230
G1 X228.006 Y171.496
; Path 153
G0 Z0
G0 X228.024 Y174.515
G0 Z2.2
G1 F3000
G1 X229.538 Y175.282
G1 X230.999 Y175.980
G1 X232.507 Y176.729
G1 X234.025 Y177.493
; Path 154
G0 Z0
G0 X234.015 Y169.497
G0 Z2.2
G1 F3000
G1 X233.689 Y167.850
G1 X233.338 Y166.130
G1 X233.011 Y164.492
G1 X232.674 Y162.783
G1 X232.341 Y161.118
G1 X231.990 Y159.471
; Path 155
G0 Z0
G0 X222.023 Y151.499
G0 Z2.2
G1 F3000
G1 X223.290 Y153.011
G1 X224.476 Y154.512
G1 X225.729 Y156.013
G1 X226.988 Y157.492
; Path 156
G0 Z0
G0 X229.993 Y157.488
G0 Z2.2
G1 F3000
G1 X229.572 Y155.883
G1 X229.216 Y154.278
G1 X228.831 Y152.686
G1 X228.390 Y151.130
G1 X228.007 Y149.510
; Path 157
G0 Z0
G0 X226.991 Y148.523
G0 Z2.2
G1 F3000
G1 X228.003 Y146.880
G1 X228.961 Y145.205
G1 X229.982 Y143.517
; Path 158
G0 Z0
G0 X231.937 Y146.487
G0 Z2.2
G1 F3000
G1 X232.112 Y144.481
; Path 159
G0 Z0
G0 X234.988 Y143.454
G0 Z2.2
G1 F3000
G1 X235.076 Y145.480
; Path 160
G0 Z0
G0 X235.003 Y147.471
G0 Z2.2
G1 F3000
G1 X235.222 Y149.262
G1 X235.437 Y151.080
G1 X235.615 Y152.870
G1 X235.790 Y154.701
G1 X236.020 Y156.499
; Path 161
G0 Z0
G0 X238.034 Y154.465
G0 Z2.2
G1 F3000
G1 X238.176 Y156.110
G1 X238.343 Y157.831
G1 X238.545 Y159.486
G1 X238.709 Y161.127
G1 X238.873 Y162.827
G1 X239.017 Y164.490
; Path 162
G0 Z0
G0 X239.022 Y157.507
G0 Z2.2
G1 F3000
G1 X239.192 Y159.165
G1 X239.343 Y160.813
G1 X239.479 Y162.517
G1 X239.681 Y164.193
G1 X239.808 Y165.831
G1 X239.984 Y167.503
; Path 163
G0 Z0
G0 X239.980 Y167.508
G0 Z2.2
G1 F3000
G1 X239.961 Y169.516
G1 X239.967 Y171.522
G1 X239.974 Y173.495
G1 X240.005 Y175.482
G1 X240.001 Y177.484
G1 X240.004 Y179.507
; Path 164
G0 Z0
G0 X236.990 Y179.514
G0 Z2.2
G1 F3000
G1 X237.095 Y181.417
G1 X237.262 Y183.263
G1 X237.386 Y185.171
G1 X237.495 Y186.989
G1 X237.595 Y188.892
G1 X237.744 Y190.791
G1 X237.859 Y192.662
G1 X237.983 Y194.519
; Path 165
G0 Z0
G0 X245.009 Y197.467
G0 Z2.2
G1 F3000
G1 X245.167 Y199.163
G1 X245.285 Y200.902
G1 X245.463 Y202.606
G1 X245.599 Y204.328
G1 X245.690 Y206.076
G1 X245.836 Y207.804
G1 X245.998 Y209.499
; Path 166
G0 Z0
G0 X236.028 Y209.508
G0 Z2.2
G1 F3000
G1 X235.858 Y207.789
G1 X235.741 Y206.087
G1 X235.611 Y204.378
G1 X235.453 Y202.643
G1 X235.297 Y200.937
G1 X235.171 Y199.252
G1 X235.039 Y197.514
; Path 167
G0 Z0
G0 X225.982 Y199.466
G0 Z2.2
G1 F3000
G1 X226.292 Y201.212
G1 X226.542 Y202.890
G1 X226.828 Y204.631
G1 X227.106 Y206.348
G1 X227.419 Y208.093
G1 X227.698 Y209.790
G1 X227.998 Y211.503
; Path 168
G0 Z0
G0 X227.029 Y213.522
G0 Z2.2
G1 F3000
G1 X226.039 Y213.026
G1 X225.036 Y212.512
; Path 169
G0 Z0
G0 X224.010 Y212.498
G0 Z2.2
G1 F3000
G1 X225.023 Y214.006
G1 X226.026 Y215.496
; Path 170
G0 Z0
G0 X224.404 Y216.591
G0 Z2.2
G1 F3000
G1 X223.669 Y218.433
; Path 171
G0 Z0
G0 X227.926 Y224.498
G0 Z2.2
G1 F3000
G1 X228.139 Y226.477
; Path 172
G0 Z0
G0 X235.163 Y225.478
G0 Z2.2
G1 F3000
G1 X234.808 Y223.512
; Path 173
G0 Z0
G0 X241.866 Y224.520
G0 Z2.2
G1 F3000
G1 X242.125 Y226.506
; Path 174
G0 Z0
G0 X250.064 Y224.474
G0 Z2.2
G1 F3000
G1 X249.893 Y222.504
; Path 175
G0 Z0
G0 X256.985 Y224.512
G0 Z2.2
G1 F3000
G1 X257.655 Y223.152
G1 X258.340 Y221.826
G1 X258.997 Y220.500
; Path 176
G0 Z0
G0 X258.758 Y220.178
G0 Z2.2
G1 F3000
G1 X257.274 Y218.837
; Path 177
G0 Z0
G0 X256.436 Y218.370
G0 Z2.2
G1 F3000
G1 X255.573 Y216.559
; Path 178
G0 Z0
G0 X260.300 Y218.496
G0 Z2.2
G1 F3000
G1 X259.704 Y216.533
; Path 179
G0 Z0
G0 X259.009 Y216.510
G0 Z2.2
G1 F3000
G1 X257.997 Y215.038
G1 X257.020 Y213.521
; Path 180
G0 Z0
G0 X256.011 Y212.506
G0 Z2.2
G1 F3000
G1 X255.031 Y213.997
G1 X254.034 Y215.520
; Path 181
G0 Z0
G0 X253.031 Y213.468
G0 Z2.2
G1 F3000
G1 X254.020 Y212.965
G1 X255.001 Y212.468
; Path 182
G0 Z0
G0 X255.025 Y211.479
G0 Z2.2
G1 F3000
G1 X254.847 Y209.509
G1 X254.673 Y207.516
G1 X254.523 Y205.479
G1 X254.314 Y203.529
G1 X254.159 Y201.493
G1 X254.003 Y199.523
; Path 183
G0 Z0
G0 X253.000 Y191.496
G0 Z2.2
G1 F3000
G1 X252.759 Y189.772
G1 X252.494 Y188.000
G1 X252.262 Y186.256
G1 X252.034 Y184.523
G1 X251.772 Y182.783
G1 X251.500 Y180.998
G1 X251.245 Y179.237
G1 X251.011 Y177.516
; Path 184
G0 Z0
G0 X252.001 Y177.490
G0 Z2.2
G1 F3000
G1 X250.491 Y176.711
G1 X248.979 Y175.956
G1 X247.471 Y175.256
G1 X245.979 Y174.479
; Path 185
G0 Z0
G0 X247.031 Y168.465
G0 Z2.2
G1 F3000
G1 X246.883 Y166.623
G1 X246.662 Y164.822
G1 X246.499 Y162.966
G1 X246.326 Y161.178
G1 X246.139 Y159.312
G1 X245.982 Y157.505
; Path 186
G0 Z0
G0 X242.989 Y155.507
G0 Z2.2
G1 F3000
G1 X242.820 Y153.895
G1 X242.573 Y152.328
G1 X242.378 Y150.708
G1 X242.213 Y149.141
G1 X242.000 Y147.516
; Path 187
G0 Z0
G0 X245.315 Y145.478
G0 Z2.2
G1 F3000
G1 X244.755 Y143.589
; Path 188
G0 Z0
G0 X247.699 Y144.551
G0 Z2.2
G1 F3000
G1 X248.359 Y146.402
; Path 189
G0 Z0
G0 X250.033 Y149.518
G0 Z2.2
G1 F3000
G1 X250.263 Y151.114
G1 X250.417 Y152.723
G1 X250.608 Y154.296
G1 X250.836 Y155.893
G1 X251.039 Y157.500
; Path 190
G0 Z0
G0 X253.011 Y148.482
G0 Z2.2
G1 F3000
G1 X252.353 Y146.841
G1 X251.647 Y145.163
G1 X251.008 Y143.518
; Path 191
G0 Z0
G0 X253.026 Y142.507
G0 Z2.2
G1 F3000
G1 X253.355 Y143.857
G1 X253.672 Y145.172
G1 X254.028 Y146.522
; Path 192
G0 Z0
G0 X284.591 Y140.638
G0 Z2.2
G1 F3000
G1 X285.467 Y142.387
; Path 193
G0 Z0
G0 X257.980 Y151.503
G0 Z2.2
G1 F3000
G1 X256.769 Y152.981
G1 X255.475 Y154.488
G1 X254.287 Y156.004
G1 X253.019 Y157.523
; Path 194
G0 Z0
G0 X253.013 Y159.519
G0 Z2.2
G1 F3000
G1 X253.039 Y159.788
G1 X253.118 Y160.009
G1 X253.192 Y160.277
G1 X253.230 Y160.492
G1 X253.272 Y160.754
G1 X253.346 Y160.970
G1 X253.378 Y161.198
G1 X253.463 Y161.447
G1 X253.509 Y161.661
G1 X253.578 Y161.927
G1 X253.614 Y162.148
G1 X253.688 Y162.412
G1 X253.711 Y162.665
G1 X253.790 Y162.905
G1 X253.828 Y163.187
G1 X253.881 Y163.411
G1 X253.916 Y163.678
G1 X253.957 Y163.932
G1 X253.973 Y164.214
G1 X254.016 Y164.471
G1 X254.018 Y164.741
G1 X254.056 Y165.032
G1 X254.073 Y165.348
G1 X254.079 Y165.611
G1 X254.069 Y165.897
G1 X254.087 Y166.205
G1 X254.061 Y166.504
G1 X254.084 Y166.812
G1 X254.083 Y167.131
G1 X254.073 Y167.427
G1 X254.082 Y167.766
G1 X254.057 Y168.048
G1 X254.024 Y168.382
G1 X254.039 Y168.671
G1 X254.043 Y169.005
G1 X254.022 Y169.292
G1 X254.012 Y169.592
G1 X254.009 Y169.910
G1 X254.034 Y170.233
G1 X254.004 Y170.520
; Path 195
G0 Z0
G0 X243.995 Y179.508
G0 Z2.2
G1 F3000
G1 X244.124 Y181.254
G1 X244.257 Y182.993
G1 X244.357 Y184.751
G1 X244.510 Y186.507
G1 X244.599 Y188.220
G1 X244.768 Y190.017
G1 X244.863 Y191.771
G1 X245.000 Y193.489
; Path 196
G0 Z0
G0 X250.018 Y191.482
G0 Z2.2
G1 F3000
G1 X248.505 Y190.979
G1 X247.047 Y190.445
G1 X245.529 Y189.992
G1 X244.016 Y189.465
; Path 197
G0 Z0
G0 X238.984 Y181.477
G0 Z2.2
G1 F3000
G1 X239.152 Y183.321
G1 X239.287 Y185.179
G1 X239.457 Y187.080
G1 X239.566 Y188.914
G1 X239.740 Y190.775
G1 X239.911 Y192.653
G1 X240.037 Y194.516
; Path 198
G0 Z0
G0 X236.023 Y191.494
G0 Z2.2
G1 F3000
G1 X234.518 Y190.990
G1 X233.037 Y190.486
G1 X231.521 Y189.997
G1 X230.020 Y189.497
; Path 199
G0 Z0
G0 X232.000 Y191.509
G0 Z2.2
G1 F3000
G1 X231.746 Y189.752
G1 X231.509 Y188.005
G1 X231.275 Y186.245
G1 X231.003 Y184.519
G1 X230.772 Y182.773
G1 X230.513 Y180.991
G1 X230.302 Y179.257
G1 X230.034 Y177.488
; Path 200
G0 Z0
G0 X222.024 Y184.520
G0 Z2.2
G1 F3000
G1 X222.063 Y184.876
G1 X222.116 Y185.224
G1 X222.182 Y185.573
G1 X222.201 Y185.936
G1 X222.238 Y186.273
G1 X222.282 Y186.651
G1 X222.310 Y186.997
G1 X222.362 Y187.368
G1 X222.418 Y187.731
G1 X222.444 Y188.082
G1 X222.490 Y188.421
G1 X222.531 Y188.792
G1 X222.587 Y189.154
G1 X222.626 Y189.493
G1 X222.669 Y189.865
G1 X222.732 Y190.184
G1 X222.808 Y190.537
G1 X222.853 Y190.860
G1 X222.952 Y191.194
G1 X222.992 Y191.520
G1 X223.047 Y191.811
G1 X223.150 Y192.160
G1 X223.253 Y192.453
G1 X223.326 Y192.783
G1 X223.394 Y193.079
G1 X223.516 Y193.392
G1 X223.630 Y193.703
G1 X223.718 Y193.991
G1 X223.802 Y194.309
G1 X223.928 Y194.581
G1 X224.039 Y194.892
G1 X224.143 Y195.166
G1 X224.264 Y195.470
G1 X224.360 Y195.749
G1 X224.491 Y196.044
G1 X224.576 Y196.333
G1 X224.671 Y196.629
G1 X224.788 Y196.921
G1 X224.863 Y197.209
G1 X224.993 Y197.517
; Path 201
G0 Z0
G0 X220.814 Y196.453
G0 Z2.2
G1 F3000
G1 X221.177 Y198.477
; Path 202
G0 Z0
G0 X221.029 Y201.472
G0 Z2.2
G1 F3000
G1 X220.513 Y199.739
G1 X220.005 Y197.983
G1 X219.525 Y196.238
G1 X218.993 Y194.488
; Path 203
G0 Z0
G0 X220.206 Y188.481
G0 Z2.2
G1 F3000
G1 X219.808 Y186.550
; Path 204
G0 Z0
G0 X214.016 Y188.510
G0 Z2.2
G1 F3000
G1 X213.021 Y187.981
G1 X212.021 Y187.480
; Path 205
G0 Z0
G0 X210.017 Y189.492
G0 Z2.2
G1 F3000
G1 X210.247 Y189.529
G1 X210.417 Y189.512
G1 X210.644 Y189.555
G1 X210.817 Y189.567
G1 X211.006 Y189.606
G1 X211.217 Y189.642
G1 X211.409 Y189.703
G1 X211.617 Y189.722
G1 X211.824 Y189.728
G1 X212.016 Y189.793
G1 X212.223 Y189.794
G1 X212.416 Y189.838
G1 X212.636 Y189.828
G1 X212.816 Y189.843
G1 X212.997 Y189.815
G1 X213.216 Y189.794
G1 X213.433 Y189.748
G1 X213.616 Y189.674
G1 X213.822 Y189.554
G1 X214.017 Y189.471
G1 X214.213 Y189.319
G1 X214.418 Y189.172
G1 X214.641 Y188.996
G1 X214.818 Y188.789
G1 X215.034 Y188.541
G1 X215.219 Y188.336
G1 X215.429 Y188.095
G1 X215.621 Y187.828
G1 X215.834 Y187.553
G1 X216.022 Y187.280
G1 X216.223 Y187.014
G1 X216.423 Y186.708
G1 X216.623 Y186.427
G1 X216.825 Y186.125
G1 X217.050 Y185.852
G1 X217.226 Y185.548
G1 X217.426 Y185.282
G1 X217.627 Y184.990
G1 X217.851 Y184.728
G1 X218.028 Y184.467
; Path 206
G0 Z0
G0 X217.961 Y183.492
G0 Z2.2
G1 F3000
G1 X218.085 Y181.493
; Path 207
G0 Z0
G0 X220.004 Y184.490
G0 Z2.2
G1 F3000
G1 X219.351 Y182.826
G1 X218.688 Y181.163
G1 X218.022 Y179.522
; Path 208
G0 Z0
G0 X219.097 Y178.480
G0 Z2.2
G1 F3000
G1 X218.919 Y176.518
; Path 209
G0 Z0
G0 X219.036 Y175.523
G0 Z2.2
G1 F3000
G1 X218.994 Y173.502
; Path 210
G0 Z0
G0 X220.996 Y169.506
G0 Z2.2
G1 F3000
G1 X220.333 Y167.815
G1 X219.649 Y166.162
G1 X219.018 Y164.511
; Path 211
G0 Z0
G0 X219.039 Y164.495
G0 Z2.2
G1 F3000
G1 X218.374 Y162.799
G1 X217.684 Y161.144
G1 X217.019 Y159.474
; Path 212
G0 Z0
G0 X216.019 Y157.519
G0 Z2.2
G1 F3000
G1 X215.852 Y158.111
G1 X215.718 Y158.717
G1 X215.596 Y159.333
G1 X215.417 Y159.915
G1 X215.266 Y160.511
G1 X215.117 Y161.113
G1 X214.951 Y161.699
G1 X214.816 Y162.311
G1 X214.692 Y162.883
G1 X214.515 Y163.509
G1 X214.354 Y164.083
G1 X214.214 Y164.707
G1 X214.094 Y165.309
G1 X213.914 Y165.905
G1 X213.775 Y166.516
G1 X213.614 Y167.103
G1 X213.449 Y167.714
G1 X213.314 Y168.301
G1 X213.148 Y168.902
G1 X213.014 Y169.498
G1 X212.829 Y170.104
G1 X212.702 Y170.713
G1 X212.514 Y171.359
G1 X212.369 Y171.956
G1 X212.196 Y172.585
G1 X212.025 Y173.214
G1 X211.845 Y173.859
G1 X211.679 Y174.476
G1 X211.482 Y175.092
G1 X211.338 Y175.731
G1 X211.158 Y176.359
G1 X211.012 Y176.965
G1 X210.870 Y177.558
G1 X210.710 Y178.168
G1 X210.569 Y178.740
G1 X210.440 Y179.327
G1 X210.316 Y179.897
G1 X210.211 Y180.431
G1 X210.118 Y180.958
G1 X210.032 Y181.468
G1 X209.941 Y181.974
G1 X209.909 Y182.429
G1 X209.872 Y182.869
G1 X209.836 Y183.324
G1 X209.794 Y183.748
G1 X209.803 Y184.163
G1 X209.806 Y184.590
G1 X209.804 Y184.958
G1 X209.836 Y185.343
G1 X209.827 Y185.722
G1 X209.844 Y186.105
G1 X209.866 Y186.466
G1 X209.892 Y186.859
G1 X209.910 Y187.203
G1 X209.954 Y187.545
G1 X209.951 Y187.943
G1 X209.966 Y188.301
G1 X209.981 Y188.699
G1 X209.985 Y189.085
G1 X209.990 Y189.482
; Path 213
G0 Z0
G0 X209.980 Y189.466
G0 Z2.2
G1 F3000
G1 X210.489 Y187.988
G1 X211.004 Y186.492
; Path 214
G0 Z0
G0 X212.150 Y182.460
G0 Z2.2
G1 F3000
G1 X211.856 Y184.441
; Path 215
G0 Z0
G0 X211.036 Y184.471
G0 Z2.2
G1 F3000
G1 X211.438 Y182.655
G1 X211.786 Y180.910
G1 X212.204 Y179.109
G1 X212.609 Y177.272
G1 X212.982 Y175.504
; Path 216
G0 Z0
G0 X214.234 Y173.511
G0 Z2.2
G1 F3000
G1 X213.795 Y175.467
; Path 217
G0 Z0
G0 X215.087 Y176.476
G0 Z2.2
G1 F3000
G1 X214.934 Y178.480
; Path 218
G0 Z0
G0 X214.112 Y180.488
G0 Z2.2
G1 F3000
G1 X213.947 Y182.488
; Path 219
G0 Z0
G0 X215.981 Y182.504
G0 Z2.2
G1 F3000
G1 X216.021 Y182.216
G1 X216.088 Y181.910
G1 X216.115 Y181.637
G1 X216.201 Y181.323
G1 X216.277 Y181.022
G1 X216.319 Y180.741
G1 X216.367 Y180.443
G1 X216.438 Y180.159
G1 X216.518 Y179.879
G1 X216.554 Y179.576
G1 X216.606 Y179.253
G1 X216.666 Y178.987
G1 X216.692 Y178.662
G1 X216.769 Y178.390
G1 X216.837 Y178.079
G1 X216.862 Y177.781
G1 X216.872 Y177.493
G1 X216.940 Y177.157
G1 X216.970 Y176.825
G1 X217.001 Y176.515
G1 X217.031 Y176.195
G1 X217.043 Y175.854
G1 X217.044 Y175.522
G1 X217.068 Y175.174
G1 X217.082 Y174.854
G1 X217.078 Y174.480
G1 X217.070 Y174.114
G1 X217.078 Y173.774
G1 X217.067 Y173.418
G1 X217.069 Y173.059
G1 X217.055 Y172.699
G1 X217.056 Y172.339
G1 X217.040 Y171.964
G1 X217.040 Y171.617
G1 X217.023 Y171.238
G1 X217.025 Y170.896
G1 X217.001 Y170.567
G1 X217.015 Y170.180
G1 X217.008 Y169.855
G1 X217.011 Y169.471
; Path 220
G0 Z0
G0 X215.273 Y168.541
G0 Z2.2
G1 F3000
G1 X214.830 Y170.523
; Path 221
G0 Z0
G0 X214.014 Y171.506
G0 Z2.2
G1 F3000
G1 X213.637 Y173.124
G1 X213.197 Y174.715
G1 X212.834 Y176.280
G1 X212.458 Y177.910
G1 X212.037 Y179.476
; Path 222
G0 Z0
G0 X190.009 Y181.493
G0 Z2.2
G1 F3000
G1 X170.009 Y179.493
; Path 223
G0 Z0
G0 X160.009 Y199.493
G0 Z2.2
G1 F3000
G1 X161.243 Y199.577
G1 X162.451 Y199.660
G1 X163.642 Y199.743
G1 X164.824 Y199.827
G1 X166.006 Y199.910
G1 X167.196 Y199.993
G1 X168.405 Y200.077
G1 X169.639 Y200.160
G1 X170.907 Y200.243
G1 X172.220 Y200.327
G1 X173.584 Y200.410
G1 X175.009 Y200.493
G1 X176.501 Y200.577
G1 X178.053 Y200.660
G1 X179.657 Y200.743
G1 X181.305 Y200.827
G1 X182.988 Y200.910
G1 X184.696 Y200.993
G1 X186.422 Y201.077
G1 X188.157 Y201.160
G1 X189.892 Y201.243
G1 X191.618 Y201.327
G1 X193.326 Y201.410
G1 X195.009 Y201.493
; Path 224
G0 Z0
G0 X188.509 Y191.493
G0 Z2.2
G1 F3000
G1 X188.009 Y191.993
G1 X187.509 Y191.493
G1 X188.009 Y190.993
G1 X188.509 Y191.493
; Path 225
G0 Z0
G0 X181.160 Y207.000
G0 Z2.2
G1 F3000
G1 X182.892 Y208.019
; Path 226
G0 Z0
G0 X165.954 Y209.803
G0 Z2.2
G1 F3000
G1 X164.052 Y209.156
; Path 227
G0 Z0
G0 X155.031 Y227.500
G0 Z2.2
G1 F3000
G1 X154.359 Y227.263
G1 X153.724 Y227.076
G1 X153.037 Y226.818
G1 X152.409 Y226.616
G1 X151.736 Y226.386
G1 X151.090 Y226.135
G1 X150.428 Y225.899
G1 X149.771 Y225.650
G1 X149.108 Y225.402
G1 X148.453 Y225.175
G1 X147.824 Y224.974
G1 X147.141 Y224.725
G1 X146.481 Y224.493
G1 X145.836 Y224.316
G1 X145.179 Y224.115
G1 X144.543 Y223.962
G1 X143.924 Y223.835
G1 X143.265 Y223.679
G1 X142.626 Y223.558
G1 X142.004 Y223.481
G1 X141.390 Y223.438
G1 X140.762 Y223.380
G1 X140.144 Y223.399
G1 X139.538 Y223.364
G1 X138.950 Y223.398
G1 X138.328 Y223.419
G1 X137.758 Y223.488
G1 X137.130 Y223.530
G1 X136.557 Y223.616
G1 X135.940 Y223.681
G1 X135.353 Y223.742
G1 X134.755 Y223.857
G1 X134.140 Y223.938
G1 X133.572 Y224.044
G1 X132.951 Y224.117
G1 X132.388 Y224.225
G1 X131.783 Y224.320
G1 X131.200 Y224.386
G1 X130.622 Y224.464
G1 X130.004 Y224.512
; Path 228
G0 Z0
G0 X136.990 Y214.436
G0 Z2.2
G1 F3000
G1 X138.998 Y214.615
; Path 229
G0 Z0
G0 X150.009 Y207.493
G0 Z2.2
G1 F3000
G1 X149.182 Y207.410
G1 X148.365 Y207.327
G1 X147.556 Y207.243
G1 X146.750 Y207.160
G1 X145.944 Y207.077
G1 X145.134 Y206.993
G1 X144.317 Y206.910
G1 X143.490 Y206.827
G1 X142.650 Y206.743
G1 X141.791 Y206.660
G1 X140.912 Y206.577
G1 X140.009 Y206.493
G1 X139.082 Y206.410
G1 X138.136 Y206.327
G1 X137.173 Y206.243
G1 X136.194 Y206.160
G1 X135.201 Y206.077
G1 X134.196 Y205.993
G1 X133.181 Y205.910
G1 X132.157 Y205.827
G1 X131.126 Y205.743
G1 X130.090 Y205.660
G1 X129.050 Y205.577
G1 X128.009 Y205.493
G1 X126.961 Y205.410
G1 X125.900 Y205.327
G1 X124.829 Y205.243
G1 X123.750 Y205.160
G1 X122.663 Y205.077
G1 X121.571 Y204.993
G1 X120.476 Y204.910
G1 X119.379 Y204.827
G1 X118.282 Y204.743
G1 X117.187 Y204.660
G1 X116.095 Y204.577
G1 X115.009 Y204.493
; Path 230
G0 Z0
G0 X125.978 Y211.645
G0 Z2.2
G1 F3000
G1 X123.990 Y211.356
; Path 231
G0 Z0
G0 X132.509 Y194.493
G0 Z2.2
G1 F3000
G1 X132.009 Y193.993
G1 X131.509 Y194.493
G1 X132.009 Y194.993
G1 X132.509 Y194.493
; Path 232
G0 Z0
G0 X135.009 Y186.493
G0 Z2.2
G1 F3000
G1 X120.009 Y184.493
; Path 233
G0 Z0
G0 X110.009 Y169.493
G0 Z2.2
G1 F3000
G1 X111.676 Y169.660
G1 X113.342 Y169.827
G1 X115.009 Y169.993
G1 X116.676 Y170.160
G1 X118.342 Y170.327
G1 X120.009 Y170.493
G1 X121.676 Y170.660
G1 X123.342 Y170.827
G1 X125.009 Y170.993
G1 X126.676 Y171.160
G1 X128.342 Y171.327
G1 X130.009 Y171.493
G1 X131.692 Y171.663
G1 X133.400 Y171.838
G1 X135.126 Y172.017
G1 X136.861 Y172.197
G1 X138.595 Y172.377
G1 X140.321 Y172.556
G1 X142.030 Y172.731
G1 X143.713 Y172.901
G1 X145.361 Y173.064
G1 X146.965 Y173.218
G1 X148.517 Y173.362
G1 X150.009 Y173.493
G1 X151.434 Y173.612
G1 X152.798 Y173.718
G1 X154.111 Y173.814
G1 X155.379 Y173.901
G1 X156.613 Y173.981
G1 X157.821 Y174.056
G1 X159.012 Y174.127
G1 X160.194 Y174.197
G1 X161.376 Y174.267
G1 X162.567 Y174.338
G1 X163.775 Y174.413
G1 X165.009 Y174.493
; Path 234
G0 Z0
G0 X145.852 Y150.099
G0 Z2.2
G1 F3000
G1 X144.203 Y148.927
; Path 235
G0 Z0
G0 X177.477 Y143.682
G0 Z2.2
G1 F3000
G1 X178.558 Y145.353
G0 Z0
M5
G4 P0.3
G0 X0 Y0
; End