; Generated by Sketch DSL for Machine
; Work area: 420mm x 297mm (A3)
G21
G90
M5
G4 P0.5
G0 F11000
; 47 paths
; Path 1
G0 X133.969 Y95.243
G0 Z2.2
G1 F3000
G1 X135.096 Y96.956
; Path 2
G0 Z0
G0 X144.531 Y86.082
G0 Z2.2
G1 F3000
G1 X143.697 Y87.749
G1 X142.864 Y89.416
G1 X142.031 Y91.082
G1 X141.197 Y92.749
G1 X140.364 Y94.416
G1 X139.531 Y96.082
G1 X138.697 Y97.749
G1 X137.864 Y99.416
G1 X137.031 Y101.082
G1 X136.197 Y102.749
G1 X135.364 Y104.416
G1 X134.531 Y106.082
G1 X133.697 Y107.749
G1 X132.864 Y109.416
G1 X132.031 Y111.082
G1 X131.197 Y112.749
G1 X130.364 Y114.416
G1 X129.531 Y116.082
G1 X128.697 Y117.749
G1 X127.864 Y119.416
G1 X127.031 Y121.082
G1 X126.197 Y122.749
G1 X125.364 Y124.416
G1 X124.531 Y126.082
; Path 3
G0 Z0
G0 X135.857 Y116.822
G0 Z2.2
G1 F3000
G1 X137.204 Y115.343
; Path 4
G0 Z0
G0 X138.723 Y111.672
G0 Z2.2
G1 F3000
G1 X140.338 Y110.493
; Path 5
G0 Z0
G0 X141.661 Y113.588
G0 Z2.2
G1 F3000
G1 X143.400 Y114.577
; Path 6
G0 Z0
G0 X164.531 Y126.082
G0 Z2.2
G1 F3000
G1 X163.249 Y124.864
G1 X161.915 Y123.698
G1 X160.546 Y122.567
G1 X159.160 Y121.453
G1 X157.774 Y120.339
G1 X156.406 Y119.207
G1 X155.072 Y118.041
G1 X153.790 Y116.823
G1 X152.577 Y115.536
G1 X151.452 Y114.161
G1 X150.430 Y112.683
G1 X149.531 Y111.082
G1 X148.764 Y109.349
G1 X148.119 Y107.494
G1 X147.577 Y105.536
G1 X147.123 Y103.490
G1 X146.738 Y101.375
G1 X146.406 Y99.207
G1 X146.108 Y97.005
G1 X145.827 Y94.786
G1 X145.546 Y92.567
G1 X145.248 Y90.365
G1 X144.915 Y88.198
G1 X144.531 Y86.082
; Path 7
G0 Z0
G0 X207.508 Y107.873
G0 Z2.2
G1 F3000
G1 X205.553 Y108.292
; Path 8
G0 Z0
G0 X208.533 Y101.150
G0 Z2.2
G1 F3000
G1 X210.528 Y101.015
; Path 9
G0 Z0
G0 X211.552 Y105.878
G0 Z2.2
G1 F3000
G1 X213.509 Y106.287
; Path 10
G0 Z0
G0 X253.544 Y90.964
G0 Z2.2
G1 F3000
G1 X255.512 Y91.264
; Path 11
G0 Z0
G0 X263.658 Y118.571
G0 Z2.2
G1 F3000
G1 X265.403 Y117.594
; Path 12
G0 Z0
G0 X268.531 Y121.076
G0 Z2.2
G1 F3000
G1 X270.531 Y121.089
; Path 13
G0 Z0
G0 X288.691 Y105.549
G0 Z2.2
G1 F3000
G1 X290.342 Y106.571
; Path 14
G0 Z0
G0 X299.531 Y126.082
G0 Z2.2
G1 F3000
G1 X298.265 Y125.265
G1 X296.973 Y124.474
G1 X295.663 Y123.700
G1 X294.345 Y122.934
G1 X293.027 Y122.169
G1 X291.718 Y121.395
G1 X290.426 Y120.604
G1 X289.160 Y119.786
G1 X287.929 Y118.934
G1 X286.741 Y118.038
G1 X285.605 Y117.091
G1 X284.531 Y116.082
G1 X283.522 Y115.007
G1 X282.575 Y113.872
G1 X281.679 Y112.684
G1 X280.827 Y111.453
G1 X280.009 Y110.187
G1 X279.218 Y108.895
G1 X278.444 Y107.586
G1 X277.679 Y106.268
G1 X276.913 Y104.950
G1 X276.139 Y103.640
G1 X275.348 Y102.348
G1 X274.531 Y101.082
; Path 15
G1 X273.265 Y101.900
G1 X271.973 Y102.691
G1 X270.663 Y103.465
G1 X269.345 Y104.231
G1 X268.027 Y104.996
G1 X266.718 Y105.770
G1 X265.426 Y106.561
G1 X264.160 Y107.379
G1 X262.929 Y108.231
G1 X261.741 Y109.126
G1 X260.605 Y110.074
G1 X259.531 Y111.082
G1 X258.522 Y112.157
G1 X257.575 Y113.293
G1 X256.679 Y114.481
G1 X255.827 Y115.712
G1 X255.009 Y116.978
G1 X254.218 Y118.270
G1 X253.444 Y119.579
G1 X252.679 Y120.897
G1 X251.913 Y122.215
G1 X251.139 Y123.525
G1 X250.348 Y124.817
G1 X249.531 Y126.082
; Path 16
G0 Z0
G0 X244.531 Y126.082
G0 Z2.2
G1 F3000
G1 X243.281 Y123.551
G1 X242.031 Y120.967
G1 X240.781 Y118.348
G1 X239.531 Y115.712
G1 X238.281 Y113.076
G1 X237.031 Y110.457
G1 X235.781 Y107.874
G1 X234.531 Y105.342
G1 X233.281 Y102.879
G1 X232.031 Y100.504
G1 X230.781 Y98.232
G1 X229.531 Y96.082
G1 X228.281 Y94.066
G1 X227.031 Y92.170
G1 X225.781 Y90.379
G1 X224.531 Y88.675
G1 X223.281 Y87.040
G1 X222.031 Y85.457
G1 X220.781 Y83.909
G1 X219.531 Y82.379
G1 X218.281 Y80.848
G1 X217.031 Y79.300
G1 X215.781 Y77.717
G1 X214.531 Y76.082
; Path 17
G1 X212.864 Y77.269
G1 X211.197 Y78.351
G1 X209.531 Y79.364
G1 X207.864 Y80.342
G1 X206.197 Y81.320
G1 X204.531 Y82.332
G1 X202.864 Y83.415
G1 X201.197 Y84.601
G1 X199.531 Y85.926
G1 X197.864 Y87.425
G1 X196.197 Y89.132
G1 X194.531 Y91.082
G1 X192.864 Y93.299
G1 X191.197 Y95.758
G1 X189.531 Y98.426
G1 X187.864 Y101.268
G1 X186.197 Y104.248
G1 X184.531 Y107.332
G1 X182.864 Y110.486
G1 X181.197 Y113.675
G1 X179.531 Y116.864
G1 X177.864 Y120.018
G1 X176.197 Y123.102
G1 X174.531 Y126.082
; Path 18
G0 Z0
G0 X185.522 Y171.095
G0 Z2.2
G1 F3000
G1 X183.506 Y171.099
; Path 19
G0 Z0
G0 X197.466 Y188.015
G0 Z2.2
G1 F3000
G1 X198.328 Y187.767
G1 X199.086 Y187.416
G1 X200.019 Y187.025
G1 X200.801 Y186.832
G1 X201.621 Y186.481
G1 X202.511 Y186.162
; Path 20
G0 Z0
G0 X202.544 Y186.122
G0 Z2.2
G1 F3000
G1 X201.801 Y186.734
G1 X201.177 Y187.325
G1 X200.410 Y187.817
G1 X199.726 Y188.496
G1 X198.961 Y189.063
G1 X198.368 Y189.605
G1 X197.594 Y190.137
; Path 21
G0 Z0
G0 X199.499 Y191.013
G0 Z2.2
G1 F3000
G1 X198.878 Y190.214
G1 X198.380 Y189.362
G1 X197.850 Y188.563
G1 X197.213 Y187.772
G1 X196.744 Y186.923
G1 X196.074 Y186.166
G1 X195.502 Y185.363
G1 X195.026 Y184.555
G1 X194.346 Y183.726
G1 X193.892 Y182.878
G1 X193.302 Y182.088
G1 X192.721 Y181.392
G1 X192.100 Y180.593
G1 X191.549 Y179.659
G1 X191.076 Y178.841
G1 X190.483 Y178.159
G1 X189.972 Y177.291
G1 X189.363 Y176.515
G1 X188.722 Y175.714
G1 X188.220 Y174.808
G1 X187.684 Y174.147
G1 X187.030 Y173.335
G1 X186.517 Y172.469
G1 X186.008 Y171.609
G1 X185.449 Y170.908
G1 X184.829 Y169.953
G1 X184.272 Y169.264
G1 X183.755 Y168.305
G1 X183.081 Y167.488
G1 X182.577 Y166.662
G1 X181.971 Y165.990
G1 X181.426 Y165.091
G1 X180.877 Y164.282
G1 X180.302 Y163.389
G1 X179.705 Y162.684
G1 X179.092 Y161.765
G1 X178.645 Y160.935
G1 X178.036 Y160.185
G1 X177.511 Y159.337
G1 X176.834 Y158.561
G1 X176.385 Y157.771
G1 X175.736 Y156.903
G1 X175.193 Y156.028
G1 X174.641 Y155.337
G1 X174.072 Y154.395
G1 X173.439 Y153.572
G1 X172.942 Y152.774
G1 X172.277 Y152.026
G1 X171.776 Y151.180
G1 X171.177 Y150.313
G1 X170.595 Y149.659
G1 X170.069 Y148.794
G1 X169.495 Y147.930
G1 X169.003 Y147.175
G1 X168.395 Y146.439
G1 X167.838 Y145.660
G1 X167.428 Y144.790
G1 X166.875 Y143.977
G1 X166.266 Y143.209
G1 X165.773 Y142.328
G1 X165.101 Y141.547
G1 X164.654 Y140.842
G1 X163.974 Y139.997
G1 X163.542 Y139.230
G1 X163.020 Y138.354
G1 X162.472 Y137.524
G1 X161.800 Y136.821
G1 X161.347 Y135.983
G1 X160.711 Y135.174
G1 X160.260 Y134.383
G1 X159.567 Y133.571
G1 X159.077 Y132.869
G1 X158.596 Y131.965
G1 X158.002 Y131.184
G1 X157.391 Y130.374
G1 X156.948 Y129.594
G1 X156.332 Y128.794
G1 X155.765 Y128.044
G1 X155.187 Y127.144
G1 X154.681 Y126.349
G1 X154.140 Y125.602
G1 X153.568 Y124.730
G1 X152.955 Y124.016
G1 X152.495 Y123.166
G1 X151.826 Y122.348
G1 X151.280 Y121.593
G1 X150.813 Y120.735
G1 X150.162 Y119.878
G1 X149.555 Y119.132
G1 X149.043 Y118.203
G1 X148.485 Y117.466
G1 X147.924 Y116.657
G1 X147.312 Y115.799
G1 X146.822 Y115.022
G1 X146.238 Y114.239
G1 X145.791 Y113.350
G1 X145.187 Y112.678
G1 X144.617 Y111.780
G1 X144.053 Y110.925
G1 X143.462 Y110.181
G1 X142.957 Y109.359
G1 X142.357 Y108.576
G1 X141.837 Y107.766
G1 X141.239 Y106.957
G1 X140.698 Y106.148
G1 X140.085 Y105.250
G1 X139.500 Y104.424
G1 X138.921 Y103.746
G1 X138.367 Y102.856
G1 X137.739 Y102.008
G1 X137.200 Y101.177
G1 X136.610 Y100.347
G1 X136.144 Y99.651
G1 X135.579 Y98.770
G1 X135.007 Y98.011
G1 X134.470 Y97.098
G1 X133.762 Y96.249
G1 X133.334 Y95.427
G1 X132.714 Y94.760
G1 X132.038 Y93.888
G1 X131.498 Y93.096
G1 X130.897 Y92.269
G1 X130.473 Y91.445
G1 X129.780 Y90.584
G1 X129.300 Y89.784
G1 X128.747 Y88.981
G1 X128.192 Y88.055
G1 X127.553 Y87.315
G1 X127.063 Y86.483
G1 X126.445 Y85.739
G1 X125.890 Y84.937
G1 X125.290 Y84.222
G1 X124.812 Y83.354
G1 X124.265 Y82.529
G1 X123.596 Y81.790
G1 X123.034 Y81.059
G1 X122.459 Y80.284
G1 X121.932 Y79.443
G1 X121.351 Y78.687
G1 X120.833 Y77.789
G1 X120.238 Y77.080
G1 X119.680 Y76.263
G1 X119.195 Y75.474
G1 X118.627 Y74.617
G1 X117.970 Y73.871
G1 X117.472 Y73.073
G1 X116.904 Y72.264
G1 X116.328 Y71.515
G1 X115.721 Y70.713
G1 X115.177 Y70.005
G1 X114.538 Y69.067
G1 X113.880 Y68.305
G1 X113.330 Y67.582
G1 X112.794 Y66.803
G1 X112.112 Y65.972
G1 X111.641 Y65.187
G1 X110.919 Y64.355
G1 X110.404 Y63.520
G1 X109.779 Y62.855
G1 X109.244 Y61.956
G1 X108.619 Y61.203
G1 X107.932 Y60.583
G1 X107.440 Y59.947
G1 X106.764 Y59.279
G1 X106.112 Y58.671
G1 X105.480 Y58.027
G1 X105.862 Y58.878
G1 X106.115 Y59.670
G1 X106.560 Y60.614
G1 X106.954 Y61.400
G1 X107.241 Y62.261
G1 X107.614 Y63.083
G1 X108.104 Y64.034
G1 X108.603 Y64.750
G1 X108.993 Y65.618
G1 X109.510 Y66.525
G1 X109.959 Y67.479
G1 X110.517 Y68.367
G1 X110.908 Y69.168
G1 X111.445 Y70.115
G1 X111.950 Y70.909
G1 X112.455 Y71.861
G1 X112.935 Y72.699
G1 X113.354 Y73.586
G1 X113.819 Y74.464
G1 X114.319 Y75.275
G1 X114.774 Y76.176
G1 X115.316 Y76.900
G1 X115.700 Y77.856
G1 X116.228 Y78.581
G1 X116.795 Y79.445
G1 X117.223 Y80.406
G1 X117.669 Y81.231
G1 X118.143 Y82.049
G1 X118.765 Y82.814
G1 X119.264 Y83.646
G1 X119.655 Y84.530
G1 X120.203 Y85.316
G1 X120.617 Y86.235
G1 X121.132 Y86.992
G1 X121.543 Y87.891
G1 X122.093 Y88.762
G1 X122.610 Y89.615
G1 X123.053 Y90.400
G1 X123.500 Y91.260
G1 X124.028 Y92.178
G1 X124.539 Y92.955
G1 X125.097 Y93.854
G1 X125.632 Y94.732
G1 X126.028 Y95.556
G1 X126.558 Y96.476
G1 X126.999 Y97.268
G1 X127.533 Y98.137
G1 X128.046 Y98.940
G1 X128.655 Y99.912
G1 X129.076 Y100.728
G1 X129.541 Y101.492
G1 X130.097 Y102.370
G1 X130.664 Y103.347
G1 X131.054 Y104.111
G1 X131.692 Y104.980
G1 X132.118 Y105.818
G1 X132.672 Y106.653
G1 X133.211 Y107.664
G1 X133.742 Y108.469
G1 X134.203 Y109.276
G1 X134.743 Y110.248
G1 X135.225 Y111.057
G1 X135.693 Y111.880
G1 X136.222 Y112.743
G1 X136.731 Y113.541
G1 X137.220 Y114.477
G1 X137.651 Y115.276
G1 X138.174 Y116.122
G1 X138.653 Y117.001
G1 X139.312 Y117.851
G1 X139.750 Y118.762
G1 X140.231 Y119.580
G1 X140.787 Y120.436
G1 X141.225 Y121.222
G1 X141.778 Y122.047
G1 X142.270 Y123.009
G1 X142.730 Y123.792
G1 X143.279 Y124.647
G1 X143.835 Y125.534
G1 X144.303 Y126.400
G1 X144.746 Y127.147
G1 X145.232 Y127.958
G1 X145.751 Y128.885
G1 X146.282 Y129.786
G1 X146.749 Y130.651
G1 X147.333 Y131.480
G1 X147.723 Y132.195
G1 X148.322 Y133.136
G1 X148.752 Y133.960
G1 X149.323 Y134.780
G1 X149.809 Y135.650
G1 X150.278 Y136.488
G1 X150.766 Y137.387
G1 X151.308 Y138.195
G1 X151.805 Y139.080
G1 X152.327 Y139.931
G1 X152.759 Y140.706
G1 X153.321 Y141.470
G1 X153.861 Y142.459
G1 X154.360 Y143.210
G1 X154.742 Y144.124
G1 X155.223 Y144.957
G1 X155.737 Y145.781
G1 X156.265 Y146.550
G1 X156.786 Y147.401
G1 X157.316 Y148.221
G1 X157.744 Y149.127
G1 X158.282 Y149.982
G1 X158.744 Y150.740
G1 X159.334 Y151.628
G1 X159.748 Y152.462
G1 X160.336 Y153.242
G1 X160.694 Y154.066
G1 X161.237 Y154.934
G1 X161.825 Y155.773
G1 X162.296 Y156.638
G1 X162.768 Y157.489
G1 X163.201 Y158.339
G1 X163.789 Y159.145
G1 X164.181 Y159.927
G1 X164.790 Y160.739
G1 X165.183 Y161.548
G1 X165.747 Y162.461
G1 X166.334 Y163.331
G1 X166.804 Y164.216
G1 X167.246 Y165.105
G1 X167.806 Y165.925
G1 X168.297 Y166.709
G1 X168.839 Y167.626
G1 X169.276 Y168.435
G1 X169.807 Y169.271
G1 X170.388 Y170.165
G1 X170.814 Y171.053
G1 X171.298 Y171.970
G1 X171.808 Y172.820
G1 X172.401 Y173.687
G1 X172.934 Y174.474
G1 X173.389 Y175.291
G1 X173.835 Y176.155
G1 X174.455 Y177.088
G1 X174.912 Y177.845
G1 X175.461 Y178.716
G1 X175.996 Y179.683
G1 X176.363 Y180.437
G1 X176.943 Y181.278
G1 X177.473 Y182.131
G1 X177.910 Y183.023
G1 X178.409 Y183.954
G1 X178.913 Y184.796
G1 X179.483 Y185.630
G1 X179.968 Y186.518
G1 X180.403 Y187.369
G1 X181.035 Y188.202
G1 X181.531 Y188.977
G1 X182.030 Y189.907
G1 X182.428 Y190.802
G1 X182.918 Y191.518
G1 X183.496 Y192.430
G1 X184.041 Y193.212
G1 X184.546 Y194.189
G1 X184.961 Y194.968
G1 X185.503 Y195.904
G1 X185.905 Y196.755
G1 X186.516 Y197.622
G1 X186.981 Y198.426
G1 X187.402 Y199.235
G1 X187.930 Y200.068
G1 X188.480 Y201.019
G1 X188.918 Y201.772
G1 X189.427 Y202.683
G1 X189.955 Y203.520
G1 X190.444 Y204.430
G1 X190.889 Y205.222
G1 X191.461 Y206.054
; Path 22
G0 Z0
G0 X191.452 Y206.147
G0 Z2.2
G1 F3000
G1 X190.877 Y205.384
G1 X190.437 Y204.568
G1 X189.786 Y203.737
G1 X189.344 Y202.790
G1 X188.779 Y202.094
G1 X188.272 Y201.268
G1 X187.799 Y200.334
G1 X187.144 Y199.578
G1 X186.646 Y198.675
G1 X186.118 Y197.955
G1 X185.554 Y197.025
G1 X185.129 Y196.177
G1 X184.467 Y195.457
G1 X183.965 Y194.587
G1 X183.522 Y193.838
G1 X182.879 Y192.987
G1 X182.412 Y192.059
G1 X181.905 Y191.283
G1 X181.279 Y190.505
G1 X180.851 Y189.691
G1 X180.313 Y188.896
G1 X179.752 Y188.006
G1 X179.209 Y187.107
G1 X178.701 Y186.363
G1 X178.167 Y185.429
G1 X177.640 Y184.611
G1 X177.084 Y183.850
G1 X176.480 Y182.947
G1 X175.949 Y182.130
G1 X175.497 Y181.404
G1 X174.996 Y180.469
G1 X174.380 Y179.622
G1 X173.797 Y178.801
G1 X173.355 Y178.037
G1 X172.732 Y177.134
G1 X172.260 Y176.322
G1 X171.741 Y175.549
G1 X171.191 Y174.685
G1 X170.572 Y173.848
G1 X170.053 Y173.013
G1 X169.592 Y172.210
G1 X168.964 Y171.422
G1 X168.453 Y170.486
G1 X167.905 Y169.657
G1 X167.467 Y168.822
G1 X166.810 Y167.957
G1 X166.332 Y167.179
G1 X165.828 Y166.328
G1 X165.302 Y165.533
G1 X164.699 Y164.817
G1 X164.236 Y163.939
G1 X163.687 Y163.051
G1 X163.194 Y162.283
G1 X162.599 Y161.471
G1 X162.104 Y160.723
G1 X161.709 Y159.877
G1 X161.187 Y159.083
G1 X160.648 Y158.320
G1 X160.139 Y157.408
G1 X159.485 Y156.680
G1 X158.970 Y155.810
G1 X158.537 Y155.083
G1 X157.920 Y154.235
G1 X157.426 Y153.447
G1 X156.858 Y152.596
G1 X156.410 Y151.718
G1 X155.955 Y150.949
G1 X155.400 Y150.104
G1 X154.867 Y149.347
G1 X154.301 Y148.462
G1 X153.730 Y147.684
G1 X153.318 Y146.849
G1 X152.826 Y146.045
G1 X152.226 Y145.276
G1 X151.658 Y144.520
G1 X151.123 Y143.619
G1 X150.633 Y142.855
G1 X150.180 Y141.929
G1 X149.656 Y141.157
G1 X149.056 Y140.266
G1 X148.582 Y139.506
G1 X147.921 Y138.764
G1 X147.502 Y137.822
G1 X146.895 Y136.985
G1 X146.456 Y136.256
G1 X145.935 Y135.419
G1 X145.368 Y134.655
G1 X144.871 Y133.742
G1 X144.300 Y132.982
G1 X143.746 Y132.173
G1 X143.218 Y131.351
G1 X142.750 Y130.486
G1 X142.089 Y129.598
G1 X141.662 Y128.806
G1 X141.180 Y128.030
G1 X140.613 Y127.252
G1 X140.069 Y126.351
G1 X139.530 Y125.545
G1 X139.063 Y124.792
G1 X138.462 Y123.911
G1 X137.873 Y123.009
G1 X137.336 Y122.173
G1 X136.769 Y121.330
G1 X136.270 Y120.595
G1 X135.762 Y119.750
G1 X135.220 Y118.871
G1 X134.765 Y118.125
G1 X134.135 Y117.153
G1 X133.588 Y116.329
G1 X133.131 Y115.596
G1 X132.515 Y114.662
G1 X132.020 Y113.904
G1 X131.443 Y113.121
G1 X130.966 Y112.232
G1 X130.461 Y111.414
G1 X129.904 Y110.571
G1 X129.321 Y109.635
G1 X128.705 Y108.839
G1 X128.153 Y107.991
G1 X127.662 Y107.240
G1 X127.206 Y106.405
G1 X126.599 Y105.498
G1 X126.075 Y104.695
G1 X125.608 Y103.900
G1 X125.011 Y103.119
G1 X124.543 Y102.255
G1 X123.949 Y101.363
G1 X123.523 Y100.626
G1 X122.900 Y99.798
G1 X122.409 Y99.056
G1 X121.859 Y98.142
G1 X121.393 Y97.346
G1 X120.746 Y96.530
G1 X120.336 Y95.703
G1 X119.838 Y94.856
G1 X119.320 Y94.135
G1 X118.778 Y93.335
G1 X118.163 Y92.566
G1 X117.706 Y91.646
G1 X117.208 Y90.888
G1 X116.543 Y90.041
G1 X116.093 Y89.242
G1 X115.578 Y88.512
G1 X115.085 Y87.702
G1 X114.533 Y86.965
G1 X114.124 Y86.093
G1 X113.508 Y85.321
G1 X113.153 Y84.538
G1 X112.503 Y83.799
G1 X112.080 Y83.063
G1 X111.505 Y82.271
G1 X111.083 Y81.476
G1 X110.483 Y80.680
G1 X110.128 Y79.891
G1 X109.550 Y79.162
G1 X109.021 Y78.319
G1 X108.581 Y77.671
G1 X107.954 Y76.766
G1 X107.476 Y76.069
G1 X107.965 Y76.838
G1 X108.477 Y77.652
G1 X108.999 Y78.580
G1 X109.453 Y79.374
G1 X110.058 Y80.237
G1 X110.559 Y81.038
G1 X111.055 Y81.880
G1 X111.550 Y82.558
G1 X112.089 Y83.433
G1 X112.642 Y84.165
G1 X113.083 Y84.975
G1 X113.581 Y85.804
G1 X114.057 Y86.565
G1 X114.659 Y87.451
G1 X115.063 Y88.210
G1 X115.586 Y89.063
G1 X116.038 Y89.851
G1 X116.673 Y90.642
G1 X117.064 Y91.339
G1 X117.542 Y92.255
G1 X118.111 Y92.993
G1 X118.701 Y93.812
G1 X119.122 Y94.721
G1 X119.748 Y95.526
G1 X120.271 Y96.305
G1 X120.699 Y97.172
G1 X121.231 Y97.933
G1 X121.790 Y98.723
G1 X122.336 Y99.582
G1 X122.782 Y100.375
G1 X123.360 Y101.290
G1 X123.946 Y102.012
G1 X124.430 Y102.847
G1 X124.858 Y103.727
G1 X125.384 Y104.501
G1 X125.997 Y105.439
G1 X126.445 Y106.246
G1 X127.003 Y106.968
G1 X127.572 Y107.826
G1 X128.102 Y108.617
G1 X128.649 Y109.455
G1 X129.101 Y110.322
G1 X129.669 Y111.185
G1 X130.157 Y111.935
G1 X130.774 Y112.829
G1 X131.288 Y113.626
G1 X131.737 Y114.585
G1 X132.334 Y115.332
G1 X132.806 Y116.246
G1 X133.451 Y117.146
G1 X133.853 Y117.877
G1 X134.439 Y118.771
G1 X134.977 Y119.547
G1 X135.526 Y120.481
G1 X136.005 Y121.299
G1 X136.620 Y122.190
G1 X137.107 Y123.010
G1 X137.729 Y123.807
G1 X138.169 Y124.651
G1 X138.691 Y125.448
G1 X139.239 Y126.355
G1 X139.833 Y127.236
G1 X140.390 Y128.082
G1 X140.908 Y128.839
G1 X141.358 Y129.682
G1 X141.975 Y130.599
G1 X142.498 Y131.413
G1 X143.054 Y132.196
G1 X143.519 Y133.065
G1 X144.128 Y133.879
G1 X144.652 Y134.742
G1 X145.193 Y135.635
G1 X145.596 Y136.404
G1 X146.166 Y137.232
G1 X146.767 Y138.090
G1 X147.282 Y138.829
G1 X147.773 Y139.729
G1 X148.299 Y140.480
G1 X148.793 Y141.412
G1 X149.367 Y142.260
G1 X149.866 Y143.106
G1 X150.338 Y143.879
G1 X150.930 Y144.666
G1 X151.524 Y145.596
G1 X152.063 Y146.400
G1 X152.466 Y147.257
G1 X152.999 Y148.022
G1 X153.635 Y148.888
G1 X154.087 Y149.730
G1 X154.605 Y150.554
G1 X155.177 Y151.326
G1 X155.658 Y152.236
G1 X156.226 Y153.063
G1 X156.722 Y153.746
G1 X157.270 Y154.654
G1 X157.763 Y155.484
G1 X158.336 Y156.289
G1 X158.829 Y157.084
G1 X159.396 Y157.937
G1 X159.856 Y158.738
G1 X160.397 Y159.516
G1 X160.842 Y160.404
G1 X161.406 Y161.200
G1 X161.918 Y162.062
G1 X162.438 Y162.809
G1 X163.011 Y163.649
G1 X163.454 Y164.431
G1 X164.006 Y165.354
G1 X164.538 Y166.188
G1 X165.019 Y166.900
G1 X165.573 Y167.793
G1 X166.172 Y168.549
G1 X166.675 Y169.421
G1 X167.240 Y170.165
G1 X167.617 Y171.014
G1 X168.196 Y171.849
G1 X168.757 Y172.729
G1 X169.271 Y173.498
G1 X169.799 Y174.341
G1 X170.340 Y175.143
G1 X170.780 Y175.945
G1 X171.393 Y176.856
G1 X171.837 Y177.654
G1 X172.386 Y178.432
G1 X172.878 Y179.327
G1 X173.477 Y180.086
G1 X173.982 Y180.987
G1 X174.511 Y181.788
G1 X175.064 Y182.713
G1 X175.577 Y183.545
G1 X176.166 Y184.331
G1 X176.739 Y185.144
G1 X177.266 Y185.968
G1 X177.730 Y186.890
G1 X178.197 Y187.635
G1 X178.836 Y188.503
G1 X179.322 Y189.381
G1 X179.929 Y190.148
G1 X180.475 Y191.020
G1 X180.961 Y191.934
G1 X181.461 Y192.719
G1 X181.959 Y193.592
G1 X182.570 Y194.473
G1 X183.149 Y195.268
G1 X183.544 Y196.035
G1 X184.175 Y196.892
G1 X184.635 Y197.734
G1 X185.243 Y198.686
G1 X185.782 Y199.459
G1 X186.291 Y200.286
G1 X186.814 Y201.136
G1 X187.323 Y201.955
G1 X187.907 Y202.854
G1 X188.352 Y203.660
G1 X188.976 Y204.467
G1 X189.412 Y205.230
G1 X190.030 Y206.080
G1 X190.545 Y206.910
G1 X190.978 Y207.886
G1 X191.551 Y208.674
G1 X192.097 Y209.526
G1 X192.604 Y210.376
G1 X193.230 Y211.150
G1 X193.666 Y211.934
G1 X194.295 Y212.828
G1 X194.710 Y213.588
G1 X195.255 Y214.547
G1 X195.850 Y215.260
G1 X196.365 Y216.205
G1 X196.944 Y217.029
G1 X197.438 Y217.745
G1 X197.865 Y218.599
G1 X198.535 Y219.515
G1 X198.920 Y220.341
G1 X199.523 Y221.152
; Path 23
G0 Z0
G0 X199.475 Y221.060
G0 Z2.2
G1 F3000
G1 X199.066 Y220.125
G1 X198.598 Y219.389
G1 X198.088 Y218.482
G1 X197.627 Y217.652
G1 X197.154 Y216.723
G1 X196.650 Y215.877
G1 X196.189 Y214.920
G1 X195.675 Y214.089
G1 X195.178 Y213.190
G1 X194.696 Y212.419
G1 X194.273 Y211.512
G1 X193.809 Y210.594
G1 X193.391 Y209.700
G1 X192.868 Y208.809
G1 X192.436 Y207.972
G1 X191.863 Y207.187
G1 X191.508 Y206.257
G1 X190.979 Y205.369
G1 X190.523 Y204.568
G1 X190.027 Y203.702
G1 X189.491 Y202.744
G1 X189.015 Y201.929
G1 X188.618 Y201.049
G1 X188.119 Y200.187
G1 X187.643 Y199.252
G1 X187.160 Y198.458
G1 X186.752 Y197.525
G1 X186.162 Y196.696
G1 X185.742 Y195.764
G1 X185.304 Y194.961
G1 X184.837 Y194.075
G1 X184.359 Y193.221
G1 X183.876 Y192.350
G1 X183.286 Y191.384
G1 X182.845 Y190.538
G1 X182.461 Y189.635
G1 X181.973 Y188.825
G1 X181.431 Y187.989
G1 X181.019 Y187.123
G1 X180.471 Y186.236
G1 X179.996 Y185.388
G1 X179.548 Y184.460
G1 X179.061 Y183.625
G1 X178.596 Y182.659
G1 X178.139 Y181.885
G1 X177.588 Y180.964
G1 X177.133 Y180.047
G1 X176.686 Y179.262
G1 X176.161 Y178.351
G1 X175.643 Y177.492
G1 X175.278 Y176.620
G1 X174.777 Y175.747
G1 X174.309 Y174.875
G1 X173.803 Y174.161
G1 X173.325 Y173.260
G1 X172.958 Y172.450
G1 X172.499 Y171.631
G1 X171.973 Y170.649
G1 X171.536 Y169.791
G1 X171.039 Y169.007
G1 X170.548 Y168.147
G1 X170.079 Y167.261
G1 X169.676 Y166.391
G1 X169.156 Y165.682
G1 X168.670 Y164.794
G1 X168.265 Y163.926
G1 X167.749 Y163.148
G1 X167.207 Y162.233
G1 X166.807 Y161.350
G1 X166.260 Y160.590
G1 X165.860 Y159.695
G1 X165.379 Y158.873
G1 X164.920 Y157.955
G1 X164.491 Y157.105
G1 X163.953 Y156.307
G1 X163.462 Y155.397
G1 X163.064 Y154.579
G1 X162.572 Y153.753
G1 X162.114 Y152.856
G1 X161.586 Y152.063
G1 X161.096 Y151.131
G1 X160.656 Y150.282
G1 X160.186 Y149.447
G1 X159.781 Y148.585
G1 X159.358 Y147.701
G1 X158.779 Y146.765
G1 X158.405 Y145.901
G1 X157.818 Y145.077
G1 X157.384 Y144.245
G1 X156.989 Y143.438
G1 X156.394 Y142.511
G1 X156.028 Y141.601
G1 X155.506 Y140.822
G1 X154.968 Y139.920
G1 X154.572 Y139.157
G1 X154.053 Y138.296
G1 X153.526 Y137.442
G1 X153.079 Y136.484
G1 X152.688 Y135.680
G1 X152.174 Y134.752
G1 X151.676 Y133.972
G1 X151.222 Y133.109
G1 X150.757 Y132.146
G1 X150.288 Y131.343
G1 X149.885 Y130.440
G1 X149.351 Y129.725
G1 X148.904 Y128.862
G1 X148.404 Y128.025
G1 X148.043 Y127.103
G1 X147.479 Y126.322
G1 X147.147 Y125.466
G1 X146.631 Y124.647
G1 X146.107 Y123.749
G1 X145.718 Y122.976
G1 X145.189 Y122.081
G1 X144.795 Y121.191
G1 X144.335 Y120.306
G1 X143.827 Y119.535
G1 X143.319 Y118.641
G1 X142.896 Y117.884
G1 X142.515 Y116.981
G1 X141.953 Y116.177
G1 X141.550 Y115.286
G1 X141.122 Y114.496
G1 X140.600 Y113.636
G1 X140.219 Y112.844
G1 X139.736 Y111.952
G1 X139.283 Y111.035
G1 X138.791 Y110.257
G1 X138.361 Y109.319
G1 X137.799 Y108.482
G1 X137.375 Y107.715
G1 X136.920 Y106.795
G1 X136.486 Y105.908
G1 X135.954 Y105.003
G1 X135.543 Y104.133
G1 X135.048 Y103.392
G1 X134.692 Y102.488
G1 X134.089 Y101.653
G1 X133.740 Y100.699
G1 X133.308 Y99.856
G1 X132.774 Y99.040
G1 X132.364 Y98.081
G1 X131.909 Y97.278
G1 X131.380 Y96.473
G1 X130.924 Y95.545
G1 X130.493 Y94.634
G1 X129.965 Y93.848
G1 X129.534 Y92.932
G1 X129.130 Y92.135
G1 X128.661 Y91.249
G1 X128.294 Y90.319
G1 X127.801 Y89.445
G1 X127.338 Y88.637
G1 X126.956 Y87.849
G1 X126.529 Y86.956
G1 X126.076 Y86.095
G1 X125.591 Y85.313
G1 X125.133 Y84.321
G1 X124.812 Y83.499
G1 X124.388 Y82.655
G1 X123.857 Y81.821
G1 X123.476 Y80.980
G1 X123.181 Y80.177
G1 X122.840 Y79.281
G1 X122.511 Y78.538
G1 X122.138 Y77.590
G1 X121.866 Y76.863
G1 X121.579 Y76.011
G1 X122.144 Y76.550
G1 X122.725 Y77.207
G1 X123.396 Y77.820
G1 X123.893 Y78.497
G1 X124.481 Y79.102
G1 X125.044 Y79.948
G1 X125.568 Y80.670
G1 X126.096 Y81.358
G1 X126.707 Y82.184
G1 X127.239 Y83.034
G1 X127.802 Y83.675
G1 X128.330 Y84.466
G1 X128.766 Y85.281
G1 X129.325 Y86.132
G1 X129.889 Y86.784
G1 X130.448 Y87.591
G1 X131.002 Y88.429
G1 X131.544 Y89.177
G1 X132.116 Y90.041
G1 X132.603 Y90.799
G1 X133.235 Y91.626
G1 X133.761 Y92.482
G1 X134.266 Y93.166
G1 X134.761 Y94.111
G1 X135.266 Y94.837
G1 X135.823 Y95.668
G1 X136.456 Y96.515
G1 X136.902 Y97.341
G1 X137.442 Y98.098
G1 X138.100 Y98.937
G1 X138.577 Y99.683
G1 X139.110 Y100.638
G1 X139.619 Y101.316
G1 X140.261 Y102.173
G1 X140.656 Y102.947
G1 X141.326 Y103.774
G1 X141.806 Y104.625
G1 X142.384 Y105.447
G1 X142.828 Y106.245
G1 X143.472 Y107.175
G1 X143.913 Y107.973
G1 X144.554 Y108.769
G1 X145.028 Y109.592
G1 X145.585 Y110.475
G1 X146.138 Y111.366
G1 X146.743 Y112.098
G1 X147.216 Y112.933
G1 X147.745 Y113.875
G1 X148.349 Y114.722
G1 X148.880 Y115.470
G1 X149.413 Y116.294
G1 X149.938 Y117.161
G1 X150.449 Y117.908
G1 X151.052 Y118.743
G1 X151.544 Y119.679
G1 X152.121 Y120.446
G1 X152.624 Y121.274
G1 X153.236 Y122.179
G1 X153.713 Y123.025
G1 X154.308 Y123.833
G1 X154.831 Y124.731
G1 X155.411 Y125.475
G1 X155.932 Y126.280
G1 X156.398 Y127.049
G1 X156.908 Y127.975
G1 X157.458 Y128.803
G1 X158.052 Y129.615
G1 X158.490 Y130.479
G1 X159.015 Y131.173
G1 X159.621 Y132.031
G1 X160.165 Y132.872
G1 X160.593 Y133.712
G1 X161.235 Y134.516
G1 X161.697 Y135.362
G1 X162.223 Y136.184
G1 X162.822 Y136.991
G1 X163.393 Y137.872
G1 X163.864 Y138.679
G1 X164.325 Y139.492
G1 X164.913 Y140.331
G1 X165.381 Y141.072
G1 X165.967 Y141.934
G1 X166.433 Y142.787
G1 X167.054 Y143.520
G1 X167.503 Y144.379
G1 X168.090 Y145.191
G1 X168.540 Y145.954
G1 X169.056 Y146.787
G1 X169.605 Y147.576
G1 X170.211 Y148.468
G1 X170.705 Y149.216
G1 X171.273 Y149.978
G1 X171.814 Y150.798
G1 X172.295 Y151.660
G1 X172.730 Y152.429
G1 X173.270 Y153.365
G1 X173.802 Y154.171
G1 X174.435 Y154.883
G1 X174.804 Y155.760
G1 X175.358 Y156.552
G1 X175.924 Y157.378
G1 X176.450 Y158.152
G1 X177.035 Y158.918
G1 X177.458 Y159.839
G1 X178.043 Y160.590
G1 X178.519 Y161.356
G1 X179.070 Y162.278
G1 X179.524 Y162.961
G1 X180.080 Y163.795
G1 X180.563 Y164.684
G1 X181.113 Y165.505
G1 X181.634 Y166.257
G1 X182.192 Y167.086
G1 X182.806 Y167.986
G1 X183.343 Y168.822
G1 X183.810 Y169.595
G1 X184.271 Y170.489
G1 X184.903 Y171.218
G1 X185.432 Y172.031
G1 X185.949 Y172.882
G1 X186.579 Y173.812
G1 X187.095 Y174.632
G1 X187.555 Y175.458
G1 X188.136 Y176.231
G1 X188.710 Y177.097
G1 X189.178 Y177.934
G1 X189.733 Y178.693
G1 X190.271 Y179.613
G1 X190.847 Y180.338
G1 X191.350 Y181.319
G1 X191.823 Y182.079
G1 X192.371 Y182.839
G1 X192.945 Y183.792
G1 X193.469 Y184.647
G1 X193.969 Y185.338
G1 X194.531 Y186.304
G1 X195.189 Y187.099
G1 X195.654 Y187.906
G1 X196.170 Y188.740
G1 X196.711 Y189.622
G1 X197.312 Y190.421
G1 X197.771 Y191.164
G1 X198.303 Y192.076
G1 X198.828 Y192.826
G1 X199.502 Y193.742
G1 X199.903 Y194.551
G1 X200.470 Y195.343
G1 X201.097 Y196.145
G1 X201.592 Y197.049
G1 X202.147 Y197.799
G1 X202.699 Y198.694
G1 X203.140 Y199.391
G1 X203.822 Y200.194
G1 X204.300 Y201.057
G1 X204.755 Y201.959
G1 X205.281 Y202.797
G1 X205.838 Y203.572
G1 X206.506 Y204.349
G1 X206.923 Y205.182
G1 X207.516 Y206.040
; Path 24
G0 Z0
G0 X207.539 Y206.017
G0 Z2.2
G1 F3000
G1 X206.979 Y205.191
G1 X206.517 Y204.305
G1 X206.141 Y203.485
G1 X205.644 Y202.597
G1 X205.102 Y201.798
G1 X204.652 Y200.871
G1 X204.122 Y200.039
G1 X203.609 Y199.218
G1 X203.154 Y198.377
G1 X202.655 Y197.525
G1 X202.283 Y196.725
G1 X201.672 Y195.872
G1 X201.286 Y194.992
G1 X200.767 Y194.178
G1 X200.249 Y193.177
G1 X199.795 Y192.345
G1 X199.382 Y191.557
G1 X198.853 Y190.778
G1 X198.311 Y189.862
G1 X197.925 Y189.031
G1 X197.449 Y188.191
G1 X196.935 Y187.271
G1 X196.460 Y186.457
G1 X195.948 Y185.596
G1 X195.482 Y184.673
G1 X195.029 Y183.810
G1 X194.516 Y183.027
G1 X194.026 Y182.170
G1 X193.470 Y181.296
G1 X193.004 Y180.404
G1 X192.568 Y179.603
G1 X192.035 Y178.744
G1 X191.578 Y177.916
G1 X191.026 Y176.960
G1 X190.621 Y176.173
G1 X190.029 Y175.238
G1 X189.540 Y174.373
G1 X189.102 Y173.560
G1 X188.687 Y172.707
G1 X188.219 Y171.913
G1 X187.626 Y171.059
G1 X187.217 Y170.092
G1 X186.722 Y169.354
G1 X186.182 Y168.435
G1 X185.685 Y167.572
G1 X185.298 Y166.659
G1 X184.759 Y165.870
G1 X184.257 Y164.928
G1 X183.815 Y164.188
G1 X183.237 Y163.270
G1 X182.795 Y162.430
G1 X182.279 Y161.577
G1 X181.817 Y160.640
G1 X181.268 Y159.843
G1 X180.765 Y158.898
G1 X180.353 Y158.154
G1 X179.770 Y157.170
G1 X179.409 Y156.353
G1 X178.781 Y155.490
G1 X178.438 Y154.623
G1 X177.847 Y153.817
G1 X177.322 Y152.961
G1 X176.850 Y152.019
G1 X176.372 Y151.112
G1 X175.920 Y150.302
G1 X175.467 Y149.376
G1 X174.850 Y148.575
G1 X174.466 Y147.681
G1 X173.954 Y146.872
G1 X173.502 Y145.958
G1 X172.897 Y145.089
G1 X172.437 Y144.267
G1 X171.969 Y143.423
G1 X171.442 Y142.433
G1 X170.974 Y141.559
G1 X170.549 Y140.796
G1 X170.034 Y139.892
G1 X169.454 Y138.963
G1 X169.017 Y138.166
G1 X168.602 Y137.257
G1 X168.133 Y136.471
G1 X167.642 Y135.650
G1 X167.138 Y134.766
G1 X166.688 Y133.883
G1 X166.172 Y133.006
G1 X165.587 Y132.185
G1 X165.136 Y131.350
G1 X164.625 Y130.550
G1 X164.210 Y129.753
G1 X163.759 Y128.924
G1 X163.201 Y128.054
G1 X162.798 Y127.221
G1 X162.337 Y126.332
G1 X161.782 Y125.408
G1 X161.368 Y124.611
G1 X160.766 Y123.721
G1 X160.324 Y122.872
G1 X159.855 Y122.083
G1 X159.415 Y121.297
G1 X158.981 Y120.311
G1 X158.459 Y119.588
G1 X157.931 Y118.624
G1 X157.472 Y117.807
G1 X157.014 Y117.063
G1 X156.531 Y116.071
G1 X156.034 Y115.291
G1 X155.552 Y114.451
G1 X155.051 Y113.626
G1 X154.499 Y112.790
G1 X154.107 Y111.893
G1 X153.552 Y110.981
G1 X153.077 Y110.146
G1 X152.644 Y109.358
G1 X152.102 Y108.401
G1 X151.700 Y107.529
G1 X151.152 Y106.627
G1 X150.738 Y105.893
G1 X150.147 Y104.915
G1 X149.620 Y104.184
G1 X149.239 Y103.242
G1 X148.739 Y102.462
G1 X148.250 Y101.544
G1 X147.813 Y100.648
G1 X147.200 Y99.879
G1 X146.693 Y98.904
G1 X146.188 Y98.163
G1 X145.804 Y97.232
G1 X145.371 Y96.448
G1 X144.816 Y95.508
G1 X144.318 Y94.656
G1 X143.833 Y93.795
G1 X143.337 Y92.932
G1 X142.898 Y92.169
G1 X142.354 Y91.318
G1 X141.873 Y90.352
G1 X141.482 Y89.496
G1 X140.926 Y88.683
G1 X140.443 Y87.847
G1 X139.925 Y87.070
G1 X139.553 Y86.185
G1 X139.047 Y85.315
G1 X138.500 Y84.481
G1 X138.055 Y83.633
G1 X137.671 Y82.911
G1 X137.076 Y82.057
G1 X136.639 Y81.118
G1 X136.131 Y80.265
G1 X135.650 Y79.456
G1 X135.280 Y78.669
G1 X134.666 Y77.773
G1 X134.273 Y76.969
G1 X133.780 Y76.096
G1 X133.307 Y75.256
G1 X132.917 Y74.385
G1 X132.357 Y73.646
G1 X131.960 Y72.743
G1 X131.413 Y71.992
G1 X130.930 Y71.226
G1 X130.576 Y70.332
G1 X130.137 Y69.598
G1 X129.615 Y68.774
G1 X129.132 Y67.993
G1 X128.723 Y67.076
G1 X128.244 Y66.350
G1 X127.817 Y65.494
G1 X127.306 Y64.718
G1 X126.918 Y63.836
G1 X126.402 Y63.070
G1 X125.982 Y62.275
G1 X125.412 Y61.390
G1 X124.957 Y60.576
G1 X124.454 Y59.632
G1 X123.960 Y58.828
G1 X123.558 Y58.020
G1 X123.948 Y58.842
G1 X124.423 Y59.648
G1 X125.008 Y60.458
G1 X125.399 Y61.204
G1 X125.914 Y62.037
G1 X126.447 Y62.898
G1 X126.949 Y63.751
G1 X127.288 Y64.567
G1 X127.880 Y65.477
G1 X128.278 Y66.415
G1 X128.821 Y67.258
G1 X129.399 Y68.021
G1 X129.798 Y68.879
G1 X130.345 Y69.730
G1 X130.832 Y70.651
G1 X131.301 Y71.525
G1 X131.716 Y72.429
G1 X132.189 Y73.231
G1 X132.782 Y74.096
G1 X133.225 Y74.889
G1 X133.618 Y75.649
G1 X134.080 Y76.578
G1 X134.645 Y77.351
G1 X135.158 Y78.113
G1 X135.570 Y79.084
G1 X135.995 Y79.914
G1 X136.547 Y80.751
G1 X137.000 Y81.556
G1 X137.505 Y82.419
G1 X138.002 Y83.215
G1 X138.347 Y83.957
G1 X138.902 Y84.844
G1 X139.373 Y85.734
G1 X139.907 Y86.443
G1 X140.327 Y87.336
G1 X140.815 Y88.154
G1 X141.304 Y88.974
G1 X141.794 Y89.839
G1 X142.324 Y90.737
G1 X142.825 Y91.589
G1 X143.185 Y92.506
G1 X143.809 Y93.285
G1 X144.244 Y94.200
G1 X144.638 Y95.020
G1 X145.277 Y95.921
G1 X145.756 Y96.756
G1 X146.193 Y97.525
G1 X146.710 Y98.434
G1 X147.173 Y99.368
G1 X147.614 Y100.092
G1 X148.122 Y101.077
G1 X148.664 Y101.797
G1 X149.057 Y102.733
G1 X149.548 Y103.635
G1 X150.023 Y104.391
G1 X150.556 Y105.250
G1 X150.982 Y106.137
G1 X151.539 Y106.989
G1 X151.943 Y107.795
G1 X152.509 Y108.718
G1 X152.964 Y109.532
G1 X153.487 Y110.330
G1 X153.968 Y111.198
G1 X154.405 Y112.109
G1 X154.948 Y112.813
G1 X155.306 Y113.741
G1 X155.856 Y114.603
G1 X156.298 Y115.334
G1 X156.821 Y116.175
G1 X157.321 Y117.044
G1 X157.742 Y117.881
G1 X158.177 Y118.768
G1 X158.780 Y119.604
G1 X159.272 Y120.385
G1 X159.704 Y121.261
G1 X160.113 Y122.195
G1 X160.574 Y122.981
G1 X161.145 Y123.799
G1 X161.638 Y124.682
G1 X162.127 Y125.466
G1 X162.627 Y126.308
G1 X163.026 Y127.105
G1 X163.490 Y127.983
G1 X164.001 Y128.838
G1 X164.531 Y129.667
G1 X164.986 Y130.499
G1 X165.450 Y131.355
G1 X165.953 Y132.243
G1 X166.478 Y133.077
G1 X167.004 Y134.040
G1 X167.481 Y134.823
G1 X167.941 Y135.742
G1 X168.450 Y136.548
G1 X168.949 Y137.451
G1 X169.348 Y138.335
G1 X169.846 Y139.115
G1 X170.444 Y140.032
G1 X170.836 Y140.825
G1 X171.312 Y141.772
G1 X171.917 Y142.636
G1 X172.327 Y143.422
G1 X172.896 Y144.396
G1 X173.286 Y145.206
G1 X173.862 Y146.122
G1 X174.369 Y146.937
G1 X174.770 Y147.783
G1 X175.304 Y148.620
G1 X175.868 Y149.540
G1 X176.241 Y150.395
G1 X176.775 Y151.236
G1 X177.266 Y152.073
G1 X177.736 Y152.881
G1 X178.177 Y153.746
G1 X178.771 Y154.642
G1 X179.232 Y155.559
G1 X179.744 Y156.268
G1 X180.117 Y157.236
G1 X180.650 Y158.099
G1 X181.142 Y158.835
G1 X181.558 Y159.822
G1 X182.157 Y160.583
G1 X182.660 Y161.447
G1 X183.120 Y162.280
G1 X183.647 Y163.141
G1 X184.101 Y164.030
G1 X184.617 Y164.942
G1 X184.962 Y165.658
G1 X185.504 Y166.581
G1 X185.984 Y167.439
G1 X186.439 Y168.351
G1 X186.985 Y169.170
G1 X187.430 Y169.941
G1 X188.024 Y170.881
G1 X188.361 Y171.712
G1 X188.924 Y172.536
G1 X189.374 Y173.356
G1 X189.915 Y174.258
G1 X190.434 Y175.126
G1 X190.793 Y175.861
G1 X191.297 Y176.779
G1 X191.851 Y177.552
G1 X192.357 Y178.462
G1 X192.758 Y179.249
G1 X193.214 Y180.108
G1 X193.677 Y180.922
G1 X194.293 Y181.826
G1 X194.777 Y182.702
G1 X195.133 Y183.471
G1 X195.671 Y184.302
G1 X196.162 Y185.208
G1 X196.630 Y186.091
G1 X197.078 Y186.818
G1 X197.562 Y187.760
G1 X198.124 Y188.515
G1 X198.475 Y189.447
G1 X199.023 Y190.312
G1 X199.512 Y191.092
; Path 25
G0 Z0
G0 X202.077 Y189.070
G0 Z2.2
G1 F3000
G1 X201.577 Y189.570
G1 X201.077 Y189.070
G1 X201.577 Y188.570
G1 X202.077 Y189.070
; Path 26
G0 Z0
G0 X202.932 Y197.237
G0 Z2.2
G1 F3000
G1 X203.942 Y198.982
; Path 27
G0 Z0
G0 X203.905 Y201.230
G0 Z2.2
G1 F3000
G1 X205.019 Y202.934
; Path 28
G0 Z0
G0 X203.845 Y209.030
G0 Z2.2
G1 F3000
G1 X203.340 Y207.120
; Path 29
G0 Z0
G0 X192.888 Y213.184
G0 Z2.2
G1 F3000
G1 X192.118 Y215.025
; Path 30
G0 Z0
G0 X189.678 Y215.110
G0 Z2.2
G1 F3000
G1 X189.404 Y217.061
; Path 31
G0 Z0
G0 X184.371 Y220.074
G0 Z2.2
G1 F3000
G1 X184.646 Y222.100
; Path 32
G0 Z0
G0 X181.383 Y222.128
G0 Z2.2
G1 F3000
G1 X181.731 Y224.090
; Path 33
G0 Z0
G0 X176.249 Y227.134
G0 Z2.2
G1 F3000
G1 X176.843 Y229.039
; Path 34
G0 Z0
G0 X173.881 Y231.005
G0 Z2.2
G1 F3000
G1 X173.204 Y229.145
; Path 35
G0 Z0
G0 X168.128 Y234.185
G0 Z2.2
G1 F3000
G1 X168.915 Y236.032
; Path 36
G0 Z0
G0 X164.972 Y238.980
G0 Z2.2
G1 F3000
G1 X164.117 Y237.153
; Path 37
G0 Z0
G0 X185.520 Y211.017
G0 Z2.2
G1 F3000
G1 X186.058 Y210.380
G1 X186.659 Y209.616
G1 X187.295 Y208.907
G1 X187.890 Y208.190
G1 X188.530 Y207.512
G1 X189.123 Y206.837
G1 X189.730 Y206.079
G1 X190.249 Y205.413
G1 X190.830 Y204.649
G1 X191.499 Y204.010
; Path 38
G0 Z0
G0 X193.508 Y196.007
G0 Z2.2
G1 F3000
G1 X193.575 Y197.037
G1 X193.702 Y197.866
G1 X193.709 Y198.939
G1 X193.824 Y199.914
G1 X193.900 Y200.844
G1 X194.095 Y201.815
G1 X194.192 Y202.741
G1 X194.287 Y203.739
G1 X194.313 Y204.649
G1 X194.360 Y205.542
G1 X194.507 Y206.598
G1 X194.605 Y207.457
G1 X194.616 Y208.421
G1 X194.810 Y209.440
G1 X194.930 Y210.341
G1 X194.931 Y211.334
G1 X195.087 Y212.232
G1 X195.223 Y213.190
G1 X195.263 Y214.166
G1 X195.350 Y215.135
G1 X195.443 Y216.110
G1 X195.504 Y217.075
G1 X195.602 Y218.013
; Path 39
G0 Z0
G0 X196.461 Y221.045
G0 Z2.2
G1 F3000
G1 X196.176 Y221.859
G1 X195.879 Y222.636
G1 X195.489 Y223.565
G1 X195.224 Y224.438
G1 X194.930 Y225.154
G1 X194.575 Y226.033
; Path 40
G0 Z0
G0 X194.590 Y226.020
G0 Z2.2
G1 F3000
G1 X195.628 Y225.973
G1 X196.578 Y226.132
G1 X197.513 Y226.098
; Path 41
G0 Z0
G0 X203.585 Y227.122
G0 Z2.2
G1 F3000
G1 X204.563 Y227.145
G1 X205.630 Y227.025
G1 X206.540 Y227.027
; Path 42
G0 Z0
G0 X203.596 Y227.133
G0 Z2.2
G1 F3000
G1 X203.459 Y226.210
G1 X203.255 Y225.394
G1 X203.193 Y224.543
G1 X202.980 Y223.620
G1 X202.723 Y222.847
G1 X202.710 Y222.017
G1 X202.472 Y221.078
; Path 43
G0 Z0
G0 X212.473 Y214.116
G0 Z2.2
G1 F3000
G1 X212.016 Y213.340
G1 X211.667 Y212.382
G1 X211.241 Y211.674
G1 X210.908 Y210.792
G1 X210.457 Y209.854
G1 X209.979 Y209.094
G1 X209.549 Y208.244
G1 X209.216 Y207.394
G1 X208.766 Y206.595
G1 X208.336 Y205.768
G1 X207.959 Y204.914
G1 X207.555 Y204.038
; Path 44
G0 Z0
G0 X233.551 Y174.081
G0 Z2.2
G1 F3000
G1 X235.578 Y174.069
; Path 45
G0 Z0
G0 X278.486 Y177.984
G0 Z2.2
G1 F3000
G1 X280.531 Y178.134
; Path 46
G0 Z0
G0 X314.520 Y161.075
G0 Z2.2
G1 F3000
G1 X312.535 Y161.099
G1 X310.508 Y161.055
G1 X308.496 Y161.051
G1 X306.510 Y161.099
G1 X304.544 Y161.076
G1 X302.549 Y161.088
G1 X300.500 Y161.052
G1 X298.541 Y161.054
G1 X296.523 Y161.085
G1 X294.518 Y161.088
G1 X292.510 Y161.071
G1 X290.525 Y161.068
G1 X288.552 Y161.093
G1 X286.499 Y161.048
G1 X284.501 Y161.064
G1 X282.529 Y161.063
G1 X280.539 Y161.088
G1 X278.533 Y161.090
G1 X276.539 Y161.086
G1 X274.532 Y161.087
G1 X272.533 Y161.082
G1 X270.514 Y161.101
G1 X268.532 Y161.075
G1 X266.524 Y161.069
G1 X264.507 Y161.104
G1 X262.536 Y161.077
G1 X260.531 Y161.049
G1 X258.524 Y161.065
G1 X256.502 Y161.048
G1 X254.550 Y161.081
G1 X252.500 Y161.085
G1 X250.526 Y161.103
G1 X248.515 Y161.105
G1 X246.507 Y161.054
G1 X244.548 Y161.051
G1 X242.530 Y161.070
G1 X240.500 Y161.072
G1 X238.519 Y161.101
G1 X236.546 Y161.058
G1 X234.534 Y161.092
G1 X232.519 Y161.086
G1 X230.520 Y161.056
G1 X228.558 Y161.079
G1 X226.545 Y161.070
G1 X224.549 Y161.102
G1 X222.512 Y161.061
G1 X220.531 Y161.071
G1 X218.514 Y161.093
G1 X216.529 Y161.081
G1 X214.529 Y161.059
G1 X212.507 Y161.101
G1 X210.526 Y161.055
G1 X208.555 Y161.107
G1 X206.512 Y161.057
G1 X204.518 Y161.103
G1 X202.558 Y161.064
G1 X200.528 Y161.048
G1 X198.514 Y161.068
G1 X196.533 Y161.062
G1 X194.507 Y161.055
G1 X192.544 Y161.048
G1 X190.534 Y161.055
G1 X188.519 Y161.104
G1 X186.524 Y161.064
G1 X184.546 Y161.087
G1 X182.537 Y161.080
G1 X180.559 Y161.076
G1 X178.533 Y161.052
G1 X176.556 Y161.087
G1 X174.534 Y161.074
G1 X172.545 Y161.057
G1 X170.566 Y161.088
G1 X168.545 Y161.056
G1 X166.558 Y161.065
G1 X164.518 Y161.102
G1 X162.559 Y161.054
G1 X160.536 Y161.084
G1 X158.519 Y161.096
G1 X156.566 Y161.103
G1 X154.512 Y161.063
G1 X152.520 Y161.051
G1 X150.560 Y161.063
G1 X148.547 Y161.061
G1 X146.523 Y161.077
G1 X144.554 Y161.108
G1 X142.519 Y161.056
G1 X140.533 Y161.057
G1 X138.561 Y161.066
G1 X136.572 Y161.104
G1 X134.549 Y161.080
G1 X132.551 Y161.062
G1 X130.534 Y161.058
G1 X128.518 Y161.081
G1 X126.550 Y161.101
G1 X124.526 Y161.099
G1 X122.529 Y161.108
G1 X120.531 Y161.100
G1 X118.552 Y161.078
G1 X116.559 Y161.073
G1 X114.547 Y161.079
; Path 47
G0 Z0
G0 X158.512 Y176.105
G0 Z2.2
G1 F3000
G1 X160.530 Y176.063
G0 Z0
M5
G4 P0.3
G0 X0 Y0
; End