; Generated by Sketch DSL for Machine
; Work area: 420mm x 297mm (A3)
G21
G90
M5
G4 P0.5
G0 F11000
; 224 paths
; Path 1
G0 X119.483 Y72.269
G0 Z2.2
G1 F3000
G1 X120.556 Y72.246
G1 X121.436 Y72.067
G1 X122.402 Y72.038
G1 X123.421 Y72.012
G1 X124.490 Y71.847
G1 X125.402 Y71.728
G1 X126.401 Y71.686
G1 X127.411 Y71.673
G1 X128.509 Y71.500
G1 X129.503 Y71.378
G1 X130.426 Y71.381
G1 X131.466 Y71.350
G1 X132.431 Y71.205
; Path 2
G0 Z0
G0 X123.493 Y74.865
G0 Z2.2
G1 F3000
G1 X125.408 Y75.680
; Path 3
G0 Z0
G0 X125.476 Y75.102
G0 Z2.2
G1 F3000
G1 X123.361 Y75.400
; Path 4
G0 Z0
G0 X116.435 Y77.307
G0 Z2.2
G1 F3000
G1 X117.423 Y77.242
G1 X118.367 Y76.962
G1 X119.244 Y76.902
G1 X120.270 Y76.795
G1 X121.231 Y76.591
G1 X122.206 Y76.396
G1 X123.051 Y76.270
G1 X124.061 Y76.122
G1 X125.049 Y75.971
G1 X125.966 Y75.801
G1 X126.959 Y75.688
G1 X127.847 Y75.516
G1 X128.894 Y75.497
G1 X129.763 Y75.372
G1 X130.678 Y75.160
G1 X131.684 Y74.984
G1 X132.574 Y74.833
G1 X133.631 Y74.700
G1 X134.577 Y74.546
G1 X135.544 Y74.430
G1 X136.468 Y74.292
; Path 5
G0 Z0
G0 X158.497 Y68.132
G0 Z2.2
G1 F3000
G1 X160.388 Y68.217
; Path 6
G0 Z0
G0 X193.422 Y70.179
G0 Z2.2
G1 F3000
G1 X195.475 Y70.262
; Path 7
G0 Z0
G0 X217.495 Y92.276
G0 Z2.2
G1 F3000
G1 X209.495 Y92.276
; Path 8
G1 X201.495 Y92.276
; Path 9
G0 Z0
G0 X199.489 Y100.248
G0 Z2.2
G1 F3000
G1 X200.768 Y98.987
G1 X202.011 Y97.736
G1 X203.261 Y96.503
G1 X204.496 Y95.245
G1 X205.735 Y94.039
G1 X207.016 Y92.800
G1 X208.234 Y91.512
G1 X209.507 Y90.283
; Path 10
G0 Z0
G0 X209.507 Y90.300
G0 Z2.2
G1 F3000
G1 X210.069 Y92.183
G1 X210.647 Y94.090
G1 X211.231 Y95.950
G1 X211.792 Y97.825
G1 X212.330 Y99.739
G1 X212.914 Y101.611
G1 X213.440 Y103.488
G1 X214.031 Y105.410
G1 X214.623 Y107.266
G1 X215.191 Y109.159
G1 X215.742 Y111.056
G1 X216.287 Y112.963
G1 X216.861 Y114.853
G1 X217.419 Y116.708
G1 X217.987 Y118.609
G1 X218.563 Y120.473
G1 X219.104 Y122.390
G1 X219.675 Y124.272
G1 X220.270 Y126.167
G1 X220.801 Y128.020
G1 X221.397 Y129.913
G1 X221.955 Y131.806
G1 X222.518 Y133.684
G1 X223.086 Y135.589
G1 X223.637 Y137.454
G1 X224.180 Y139.334
G1 X224.800 Y141.210
G1 X225.349 Y143.125
G1 X225.922 Y144.992
G1 X226.458 Y146.902
G1 X227.011 Y148.762
G1 X227.592 Y150.689
G1 X228.153 Y152.570
G1 X228.707 Y154.418
G1 X229.302 Y156.318
G1 X229.848 Y158.197
G1 X230.414 Y160.111
G1 X230.983 Y161.982
G1 X231.532 Y163.877
G1 X232.126 Y165.738
G1 X232.684 Y167.641
G1 X233.273 Y169.534
G1 X233.821 Y171.408
G1 X234.398 Y173.304
G1 X234.944 Y175.196
G1 X235.512 Y177.050
G1 X236.089 Y178.991
G1 X236.640 Y180.879
G1 X237.223 Y182.736
G1 X237.772 Y184.644
G1 X238.341 Y186.533
G1 X238.934 Y188.415
G1 X239.478 Y190.285
; Path 11
G0 Z0
G0 X239.495 Y190.276
G0 Z2.2
G1 F3000
G1 X209.495 Y90.276
; Path 12
G1 X179.495 Y190.276
; Path 13
G0 Z0
G0 X179.476 Y190.279
G0 Z2.2
G1 F3000
G1 X179.867 Y188.346
G1 X180.229 Y186.405
G1 X180.570 Y184.417
G1 X180.912 Y182.482
G1 X181.298 Y180.553
G1 X181.675 Y178.596
G1 X182.023 Y176.639
G1 X182.402 Y174.650
G1 X182.768 Y172.729
G1 X183.147 Y170.752
G1 X183.518 Y168.836
G1 X183.856 Y166.875
G1 X184.206 Y164.925
G1 X184.619 Y162.997
G1 X184.979 Y161.023
G1 X185.346 Y159.060
G1 X185.682 Y157.115
G1 X186.071 Y155.150
G1 X186.431 Y153.228
G1 X186.766 Y151.250
G1 X187.164 Y149.299
G1 X187.537 Y147.381
G1 X187.895 Y145.430
G1 X188.239 Y143.465
G1 X188.600 Y141.491
G1 X188.971 Y139.558
G1 X189.373 Y137.607
G1 X189.706 Y135.674
G1 X190.091 Y133.732
G1 X190.427 Y131.764
G1 X190.814 Y129.822
G1 X191.175 Y127.838
G1 X191.540 Y125.913
G1 X191.887 Y123.943
G1 X192.303 Y122.035
G1 X192.627 Y120.063
G1 X193.017 Y118.086
G1 X193.360 Y116.172
G1 X193.759 Y114.178
G1 X194.133 Y112.245
G1 X194.474 Y110.303
; Path 14
G0 Z0
G0 X201.235 Y111.145
G0 Z2.2
G1 F3000
G1 X201.925 Y109.322
; Path 15
G0 Z0
G0 X204.337 Y106.274
G0 Z2.2
G1 F3000
G1 X204.910 Y104.267
; Path 16
G0 Z0
G0 X207.222 Y99.308
G0 Z2.2
G1 F3000
G1 X207.771 Y97.314
; Path 17
G0 Z0
G0 X208.470 Y100.053
G0 Z2.2
G1 F3000
G1 X210.571 Y100.347
; Path 18
G0 Z0
G0 X214.150 Y101.344
G0 Z2.2
G1 F3000
G1 X214.801 Y103.152
; Path 19
G0 Z0
G0 X217.176 Y107.413
G0 Z2.2
G1 F3000
G1 X217.833 Y109.224
; Path 20
G0 Z0
G0 X219.510 Y105.258
G0 Z2.2
G1 F3000
G1 X218.531 Y103.781
G1 X217.527 Y102.266
G1 X216.488 Y100.784
G1 X215.488 Y99.262
G1 X214.498 Y97.751
G1 X213.503 Y96.265
G1 X212.470 Y94.755
G1 X211.487 Y93.291
G1 X210.507 Y91.754
G1 X209.474 Y90.278
; Path 21
G0 Z0
G0 X209.492 Y90.292
G0 Z2.2
G1 F3000
G1 X208.954 Y92.185
G1 X208.335 Y94.043
G1 X207.805 Y95.936
G1 X207.211 Y97.822
G1 X206.672 Y99.750
G1 X206.107 Y101.611
G1 X205.531 Y103.492
G1 X204.953 Y105.376
G1 X204.407 Y107.286
G1 X203.809 Y109.162
G1 X203.278 Y111.038
G1 X202.676 Y112.898
G1 X202.142 Y114.790
G1 X201.571 Y116.674
G1 X200.968 Y118.614
G1 X200.418 Y120.483
G1 X199.857 Y122.376
G1 X199.282 Y124.268
G1 X198.752 Y126.131
G1 X198.150 Y127.999
G1 X197.621 Y129.907
G1 X197.012 Y131.766
G1 X196.451 Y133.699
G1 X195.909 Y135.540
G1 X195.337 Y137.467
G1 X194.789 Y139.350
G1 X194.210 Y141.192
G1 X193.605 Y143.085
G1 X193.091 Y145.002
G1 X192.470 Y146.886
G1 X191.911 Y148.758
G1 X191.335 Y150.673
G1 X190.795 Y152.562
G1 X190.255 Y154.397
G1 X189.690 Y156.334
G1 X189.109 Y158.206
G1 X188.547 Y160.107
G1 X187.980 Y161.971
G1 X187.402 Y163.866
G1 X186.840 Y165.720
G1 X186.257 Y167.621
G1 X185.681 Y169.496
G1 X185.111 Y171.419
G1 X184.563 Y173.292
G1 X184.000 Y175.160
G1 X183.454 Y177.037
G1 X182.868 Y178.915
G1 X182.316 Y180.814
G1 X181.712 Y182.732
G1 X181.189 Y184.596
G1 X180.602 Y186.475
G1 X180.041 Y188.387
G1 X179.468 Y190.259
; Path 22
G0 Z0
G0 X179.472 Y190.255
G0 Z2.2
G1 F3000
G1 X179.260 Y190.293
G1 X179.042 Y190.371
G1 X178.876 Y190.426
G1 X178.718 Y190.507
G1 X178.616 Y190.605
G1 X178.454 Y190.656
G1 X178.351 Y190.750
G1 X178.206 Y190.807
G1 X178.058 Y190.896
G1 X177.927 Y190.953
G1 X177.757 Y191.012
G1 X177.573 Y191.083
G1 X177.356 Y191.143
G1 X177.098 Y191.190
G1 X176.773 Y191.235
G1 X176.459 Y191.264
G1 X176.035 Y191.260
G1 X175.609 Y191.295
G1 X175.057 Y191.299
G1 X174.503 Y191.276
G1 X173.789 Y191.204
G1 X173.045 Y191.187
G1 X172.137 Y191.135
G1 X171.226 Y191.026
G1 X170.158 Y190.920
G1 X169.136 Y190.812
G1 X167.982 Y190.661
G1 X166.867 Y190.562
G1 X165.681 Y190.447
G1 X164.507 Y190.294
G1 X163.315 Y190.187
G1 X162.147 Y190.026
G1 X160.985 Y189.874
G1 X159.877 Y189.775
G1 X158.815 Y189.691
G1 X157.787 Y189.559
G1 X156.904 Y189.487
G1 X155.967 Y189.395
G1 X155.229 Y189.353
G1 X154.508 Y189.303
G1 X153.947 Y189.316
G1 X153.402 Y189.279
G1 X152.991 Y189.308
G1 X152.551 Y189.305
G1 X152.216 Y189.324
G1 X151.910 Y189.372
G1 X151.654 Y189.439
G1 X151.434 Y189.470
G1 X151.233 Y189.522
G1 X151.078 Y189.593
G1 X150.965 Y189.686
G1 X150.798 Y189.729
G1 X150.648 Y189.820
G1 X150.547 Y189.872
G1 X150.400 Y189.949
G1 X150.281 Y190.012
G1 X150.138 Y190.074
G1 X149.956 Y190.140
G1 X149.743 Y190.222
G1 X149.525 Y190.247
; Path 23
G0 Z0
G0 X147.308 Y175.986
G0 Z2.2
G1 F3000
G1 X145.764 Y174.633
; Path 24
G0 Z0
G0 X143.710 Y169.722
G0 Z2.2
G1 F3000
G1 X145.301 Y171.001
; Path 25
G0 Z0
G0 X145.145 Y171.046
G0 Z2.2
G1 F3000
G1 X144.015 Y169.558
; Path 26
G0 Z0
G0 X143.389 Y165.735
G0 Z2.2
G1 F3000
G1 X141.656 Y164.584
; Path 27
G0 Z0
G0 X141.418 Y162.538
G0 Z2.2
G1 F3000
G1 X139.526 Y161.999
; Path 28
G0 Z0
G0 X142.305 Y160.713
G0 Z2.2
G1 F3000
G1 X140.573 Y159.653
; Path 29
G0 Z0
G0 X149.831 Y163.325
G0 Z2.2
G1 F3000
G1 X149.165 Y161.435
; Path 30
G0 Z0
G0 X163.499 Y170.254
G0 Z2.2
G1 F3000
G1 X163.569 Y169.958
G1 X163.689 Y169.640
G1 X163.798 Y169.298
G1 X163.866 Y169.000
G1 X163.947 Y168.700
G1 X164.035 Y168.343
G1 X164.131 Y168.015
G1 X164.202 Y167.682
G1 X164.299 Y167.349
G1 X164.373 Y167.030
G1 X164.459 Y166.721
G1 X164.554 Y166.397
G1 X164.657 Y166.114
G1 X164.751 Y165.795
G1 X164.832 Y165.503
G1 X164.969 Y165.236
G1 X165.067 Y164.985
G1 X165.216 Y164.732
G1 X165.353 Y164.502
G1 X165.496 Y164.295
G1 X165.635 Y164.101
G1 X165.814 Y163.932
G1 X165.975 Y163.808
G1 X166.166 Y163.636
G1 X166.340 Y163.521
G1 X166.546 Y163.395
G1 X166.766 Y163.271
G1 X166.948 Y163.196
G1 X167.155 Y163.139
G1 X167.365 Y163.030
G1 X167.570 Y162.933
G1 X167.793 Y162.882
G1 X168.016 Y162.839
G1 X168.224 Y162.743
G1 X168.456 Y162.668
G1 X168.653 Y162.599
G1 X168.870 Y162.496
G1 X169.075 Y162.440
G1 X169.304 Y162.355
G1 X169.482 Y162.254
; Path 31
G0 Z0
G0 X169.523 Y162.291
G0 Z2.2
G1 F3000
G1 X169.753 Y162.370
G1 X169.930 Y162.473
G1 X170.116 Y162.566
G1 X170.351 Y162.626
G1 X170.588 Y162.688
G1 X170.780 Y162.764
G1 X171.014 Y162.825
G1 X171.211 Y162.898
G1 X171.427 Y162.946
G1 X171.638 Y163.039
G1 X171.848 Y163.094
G1 X172.055 Y163.201
G1 X172.256 Y163.284
G1 X172.456 Y163.394
G1 X172.666 Y163.490
G1 X172.835 Y163.632
G1 X173.009 Y163.802
G1 X173.185 Y163.925
G1 X173.344 Y164.107
G1 X173.502 Y164.286
G1 X173.611 Y164.486
G1 X173.780 Y164.723
G1 X173.921 Y164.991
G1 X174.023 Y165.228
G1 X174.142 Y165.537
G1 X174.239 Y165.789
G1 X174.335 Y166.109
G1 X174.432 Y166.394
G1 X174.529 Y166.739
G1 X174.610 Y167.030
G1 X174.673 Y167.384
G1 X174.777 Y167.687
G1 X174.856 Y168.045
G1 X174.940 Y168.352
G1 X175.045 Y168.656
G1 X175.106 Y169.012
G1 X175.199 Y169.335
G1 X175.279 Y169.657
G1 X175.346 Y169.988
G1 X175.467 Y170.273
; Path 32
G0 Z0
G0 X175.330 Y169.816
G0 Z2.2
G1 F3000
G1 X173.495 Y170.846
; Path 33
G0 Z0
G0 X173.094 Y167.990
G0 Z2.2
G1 F3000
G1 X171.830 Y166.420
; Path 34
G0 Z0
G0 X171.512 Y166.271
G0 Z2.2
G1 F3000
G1 X171.004 Y165.254
G1 X170.520 Y164.291
; Path 35
G0 Z0
G0 X168.490 Y164.266
G0 Z2.2
G1 F3000
G1 X168.977 Y165.313
G1 X169.499 Y166.306
; Path 36
G0 Z0
G0 X167.481 Y167.290
G0 Z2.2
G1 F3000
G1 X167.018 Y166.314
G1 X166.519 Y165.296
; Path 37
G0 Z0
G0 X165.915 Y165.338
G0 Z2.2
G1 F3000
G1 X164.929 Y167.023
; Path 38
G0 Z0
G0 X164.733 Y166.303
G0 Z2.2
G1 F3000
G1 X164.139 Y168.192
; Path 39
G0 Z0
G0 X164.899 Y169.038
G0 Z2.2
G1 F3000
G1 X166.177 Y167.470
; Path 40
G0 Z0
G0 X169.948 Y165.470
G0 Z2.2
G1 F3000
G1 X171.006 Y167.246
; Path 41
G0 Z0
G0 X171.995 Y167.276
G0 Z2.2
G1 F3000
G1 X171.495 Y167.776
G1 X170.995 Y167.276
G1 X171.495 Y166.776
G1 X171.995 Y167.276
; Path 42
G0 Z0
G0 X172.495 Y166.776
G0 Z2.2
G1 F3000
G1 X171.995 Y167.276
G1 X171.495 Y166.776
G1 X171.995 Y166.276
G1 X172.495 Y166.776
; Path 43
G0 Z0
G0 X174.482 Y168.282
G0 Z2.2
G1 F3000
G1 X175.523 Y168.280
G1 X176.507 Y168.252
; Path 44
G0 Z0
G0 X175.995 Y167.276
G0 Z2.2
G1 F3000
G1 X175.495 Y167.776
G1 X174.995 Y167.276
G1 X175.495 Y166.776
G1 X175.995 Y167.276
; Path 45
G0 Z0
G0 X174.473 Y166.262
G0 Z2.2
G1 F3000
G1 X175.838 Y166.966
G1 X177.137 Y167.629
G1 X178.504 Y168.289
; Path 46
G0 Z0
G0 X178.473 Y168.303
G0 Z2.2
G1 F3000
G1 X177.160 Y168.931
G1 X175.816 Y169.590
G1 X174.504 Y170.270
; Path 47
G0 Z0
G0 X177.474 Y180.289
G0 Z2.2
G1 F3000
G1 X177.697 Y182.151
G1 X177.953 Y184.012
G1 X178.213 Y185.925
G1 X178.455 Y187.789
G1 X178.741 Y189.680
G1 X178.991 Y191.519
G1 X179.213 Y193.420
G1 X179.469 Y195.286
; Path 48
G0 Z0
G0 X169.520 Y205.298
G0 Z2.2
G1 F3000
G1 X169.071 Y203.978
G1 X168.680 Y202.637
G1 X168.258 Y201.202
G1 X167.783 Y199.731
G1 X167.306 Y198.193
G1 X166.855 Y196.685
G1 X166.388 Y195.160
G1 X165.918 Y193.603
G1 X165.437 Y192.126
G1 X164.998 Y190.592
G1 X164.548 Y189.179
G1 X164.118 Y187.756
G1 X163.703 Y186.481
G1 X163.302 Y185.200
G1 X162.910 Y184.092
G1 X162.575 Y183.030
G1 X162.293 Y182.218
G1 X161.961 Y181.350
G1 X161.736 Y180.814
G1 X161.483 Y180.267
G1 X161.347 Y180.050
G1 X161.159 Y179.850
G1 X161.076 Y179.927
G1 X160.972 Y180.028
G1 X160.955 Y180.358
G1 X160.898 Y180.697
G1 X160.918 Y181.215
G1 X160.912 Y181.752
G1 X160.923 Y182.444
G1 X160.991 Y183.087
G1 X161.048 Y183.817
G1 X161.110 Y184.598
G1 X161.173 Y185.405
G1 X161.245 Y186.178
G1 X161.286 Y186.964
G1 X161.372 Y187.724
G1 X161.440 Y188.396
G1 X161.467 Y189.129
G1 X161.497 Y189.733
G1 X161.505 Y190.289
; Path 49
G0 Z0
G0 X161.515 Y190.275
G0 Z2.2
G1 F3000
G1 X162.395 Y188.584
G1 X163.285 Y186.932
G1 X164.152 Y185.277
G1 X165.080 Y183.611
G1 X165.938 Y181.921
G1 X166.806 Y180.261
G1 X167.724 Y178.599
G1 X168.603 Y176.948
G1 X169.474 Y175.259
; Path 50
G0 Z0
G0 X169.476 Y175.276
G0 Z2.2
G1 F3000
G1 X170.360 Y176.922
G1 X171.283 Y178.619
G1 X172.134 Y180.287
G1 X173.033 Y181.924
G1 X173.963 Y183.618
G1 X174.816 Y185.266
G1 X175.707 Y186.965
G1 X176.634 Y188.626
G1 X177.514 Y190.295
; Path 51
G0 Z0
G0 X177.505 Y191.314
G0 Z2.2
G1 F3000
G1 X177.470 Y193.406
; Path 52
G0 Z0
G0 X176.500 Y193.302
G0 Z2.2
G1 F3000
G1 X176.340 Y191.445
G1 X176.181 Y189.615
G1 X176.019 Y187.827
G1 X175.860 Y185.965
G1 X175.709 Y184.137
G1 X175.518 Y182.300
; Path 53
G0 Z0
G0 X176.258 Y183.325
G0 Z2.2
G1 F3000
G1 X176.796 Y185.188
; Path 54
G0 Z0
G0 X177.187 Y185.375
G0 Z2.2
G1 F3000
G1 X177.755 Y187.315
; Path 55
G0 Z0
G0 X179.543 Y190.265
G0 Z2.2
G1 F3000
G1 X177.522 Y190.204
; Path 56
G0 Z0
G0 X177.505 Y190.260
G0 Z2.2
G1 F3000
G1 X177.544 Y190.783
G1 X177.542 Y191.282
G1 X177.596 Y191.785
G1 X177.635 Y192.339
G1 X177.692 Y192.862
G1 X177.759 Y193.416
G1 X177.817 Y193.932
G1 X177.892 Y194.498
G1 X177.951 Y195.011
G1 X178.009 Y195.570
G1 X178.062 Y196.082
G1 X178.086 Y196.617
G1 X178.080 Y197.116
G1 X178.098 Y197.625
G1 X178.054 Y198.082
G1 X178.023 Y198.577
G1 X177.953 Y199.016
G1 X177.835 Y199.460
G1 X177.689 Y199.856
G1 X177.511 Y200.259
G1 X177.285 Y200.628
G1 X177.034 Y200.962
G1 X176.735 Y201.273
G1 X176.421 Y201.582
G1 X176.032 Y201.866
G1 X175.696 Y202.131
G1 X175.269 Y202.408
G1 X174.883 Y202.626
G1 X174.451 Y202.848
G1 X174.006 Y203.081
G1 X173.571 Y203.277
G1 X173.088 Y203.511
G1 X172.641 Y203.724
G1 X172.155 Y203.931
G1 X171.665 Y204.148
G1 X171.229 Y204.356
G1 X170.772 Y204.566
G1 X170.336 Y204.801
G1 X169.929 Y205.029
G1 X169.499 Y205.280
; Path 57
G0 Z0
G0 X169.492 Y205.291
G0 Z2.2
G1 F3000
G1 X168.173 Y206.277
G1 X166.837 Y207.259
G1 X165.503 Y208.248
; Path 58
G0 Z0
G0 X166.501 Y210.161
G0 Z2.2
G1 F3000
G1 X164.522 Y210.371
; Path 59
G0 Z0
G0 X167.516 Y211.298
G0 Z2.2
G1 F3000
G1 X166.497 Y211.774
G1 X165.489 Y212.292
; Path 60
G0 Z0
G0 X165.522 Y212.281
G0 Z2.2
G1 F3000
G1 X164.477 Y211.748
G1 X163.479 Y211.263
; Path 61
G0 Z0
G0 X162.585 Y210.813
G0 Z2.2
G1 F3000
G1 X164.374 Y211.710
; Path 62
G0 Z0
G0 X164.496 Y212.255
G0 Z2.2
G1 F3000
G1 X166.475 Y212.306
; Path 63
G0 Z0
G0 X166.500 Y213.304
G0 Z2.2
G1 F3000
G1 X164.620 Y213.274
; Path 64
G0 Z0
G0 X162.505 Y214.265
G0 Z2.2
G1 F3000
G1 X164.139 Y214.083
G1 X165.828 Y213.928
G1 X167.462 Y213.743
G1 X169.174 Y213.613
G1 X170.790 Y213.391
G1 X172.470 Y213.249
; Path 65
G0 Z0
G0 X173.578 Y215.276
G0 Z2.2
G1 F3000
G1 X175.438 Y215.335
; Path 66
G0 Z0
G0 X180.488 Y212.135
G0 Z2.2
G1 F3000
G1 X178.466 Y212.264
; Path 67
G0 Z0
G0 X177.366 Y211.862
G0 Z2.2
G1 F3000
G1 X175.558 Y212.752
; Path 68
G0 Z0
G0 X175.533 Y213.242
G0 Z2.2
G1 F3000
G1 X173.506 Y213.315
; Path 69
G0 Z0
G0 X173.726 Y212.936
G0 Z2.2
G1 F3000
G1 X175.255 Y211.670
; Path 70
G0 Z0
G0 X176.475 Y212.304
G0 Z2.2
G1 F3000
G1 X175.473 Y212.786
G1 X174.490 Y213.305
; Path 71
G0 Z0
G0 X174.467 Y213.286
G0 Z2.2
G1 F3000
G1 X173.474 Y212.792
G1 X172.497 Y212.253
; Path 72
G0 Z0
G0 X173.407 Y212.689
G0 Z2.2
G1 F3000
G1 X171.596 Y211.796
; Path 73
G0 Z0
G0 X171.480 Y209.303
G0 Z2.2
G1 F3000
G1 X173.196 Y208.450
G1 X174.928 Y207.603
G1 X176.598 Y206.741
G1 X178.319 Y205.869
G1 X180.050 Y205.018
G1 X181.787 Y204.172
G1 X183.476 Y203.286
; Path 74
G0 Z0
G0 X183.529 Y203.648
G0 Z2.2
G1 F3000
G1 X185.393 Y202.886
; Path 75
G0 Z0
G0 X183.465 Y206.027
G0 Z2.2
G1 F3000
G1 X181.544 Y206.511
; Path 76
G0 Z0
G0 X182.499 Y208.147
G0 Z2.2
G1 F3000
G1 X180.507 Y208.464
; Path 77
G0 Z0
G0 X179.503 Y205.296
G0 Z2.2
G1 F3000
G1 X177.805 Y206.105
G1 X176.150 Y206.930
G1 X174.485 Y207.778
G1 X172.830 Y208.627
G1 X171.178 Y209.401
G1 X169.485 Y210.252
; Path 78
G0 Z0
G0 X168.370 Y210.863
G0 Z2.2
G1 F3000
G1 X166.609 Y211.722
; Path 79
G0 Z0
G0 X166.471 Y212.294
G0 Z2.2
G1 F3000
G1 X168.078 Y211.466
G1 X169.703 Y210.709
G1 X171.280 Y209.888
G1 X172.871 Y209.081
G1 X174.509 Y208.264
; Path 80
G0 Z0
G0 X173.506 Y208.247
G0 Z2.2
G1 F3000
G1 X172.195 Y207.239
G1 X170.817 Y206.258
G1 X169.491 Y205.303
; Path 81
G0 Z0
G0 X173.506 Y209.303
G0 Z2.2
G1 F3000
G1 X171.806 Y209.594
G1 X170.096 Y209.839
G1 X168.368 Y210.170
G1 X166.618 Y210.431
G1 X164.916 Y210.724
G1 X163.218 Y210.997
G1 X161.503 Y211.260
; Path 82
G0 Z0
G0 X159.800 Y211.321
G0 Z2.2
G1 F3000
G1 X159.123 Y213.148
; Path 83
G0 Z0
G0 X157.595 Y213.219
G0 Z2.2
G1 F3000
G1 X157.502 Y215.136
; Path 84
G0 Z0
G0 X149.805 Y214.187
G0 Z2.2
G1 F3000
G1 X149.112 Y212.382
; Path 85
G0 Z0
G0 X144.500 Y213.298
G0 Z2.2
G1 F3000
G1 X142.632 Y212.924
G1 X140.716 Y212.555
G1 X138.879 Y212.173
G1 X136.976 Y211.807
G1 X135.096 Y211.432
G1 X133.243 Y211.051
G1 X131.380 Y210.698
G1 X129.475 Y210.295
; Path 86
G0 Z0
G0 X125.490 Y210.439
G0 Z2.2
G1 F3000
G1 X123.440 Y210.152
; Path 87
G0 Z0
G0 X116.514 Y218.224
G0 Z2.2
G1 F3000
G1 X118.578 Y218.397
; Path 88
G0 Z0
G0 X118.507 Y216.409
G0 Z2.2
G1 F3000
G1 X120.475 Y216.360
; Path 89
G0 Z0
G0 X126.569 Y216.882
G0 Z2.2
G1 F3000
G1 X128.401 Y217.464
; Path 90
G0 Z0
G0 X128.510 Y214.991
G0 Z2.2
G1 F3000
G1 X130.458 Y215.528
; Path 91
G0 Z0
G0 X133.470 Y215.155
G0 Z2.2
G1 F3000
G1 X135.422 Y215.477
; Path 92
G0 Z0
G0 X136.633 Y215.566
G0 Z2.2
G1 F3000
G1 X138.247 Y216.829
; Path 93
G0 Z0
G0 X140.287 Y214.999
G0 Z2.2
G1 F3000
G1 X138.693 Y213.638
; Path 94
G0 Z0
G0 X147.967 Y216.172
G0 Z2.2
G1 F3000
G1 X147.061 Y214.421
; Path 95
G0 Z0
G0 X160.530 Y208.536
G0 Z2.2
G1 F3000
G1 X158.488 Y208.005
; Path 96
G0 Z0
G0 X164.358 Y198.841
G0 Z2.2
G1 F3000
G1 X162.827 Y197.646
; Path 97
G0 Z0
G0 X165.492 Y195.273
G0 Z2.2
G1 F3000
G1 X165.044 Y193.390
G1 X164.662 Y191.526
G1 X164.219 Y189.691
G1 X163.808 Y187.820
G1 X163.339 Y185.976
G1 X162.956 Y184.127
G1 X162.501 Y182.251
; Path 98
G0 Z0
G0 X162.184 Y183.436
G0 Z2.2
G1 F3000
G1 X162.917 Y185.193
; Path 99
G0 Z0
G0 X162.841 Y186.236
G0 Z2.2
G1 F3000
G1 X162.253 Y184.359
; Path 100
G0 Z0
G0 X161.512 Y185.240
G0 Z2.2
G1 F3000
G1 X161.510 Y187.275
; Path 101
G0 Z0
G0 X164.484 Y190.247
G0 Z2.2
G1 F3000
G1 X164.460 Y189.793
G1 X164.462 Y189.321
G1 X164.426 Y188.789
G1 X164.405 Y188.198
G1 X164.394 Y187.592
G1 X164.329 Y186.964
G1 X164.280 Y186.326
G1 X164.247 Y185.702
G1 X164.185 Y185.115
G1 X164.175 Y184.495
G1 X164.144 Y183.933
G1 X164.129 Y183.429
G1 X164.117 Y183.006
G1 X164.122 Y182.587
G1 X164.137 Y182.319
G1 X164.170 Y182.054
G1 X164.200 Y181.963
G1 X164.287 Y181.913
G1 X164.386 Y182.073
G1 X164.490 Y182.250
G1 X164.626 Y182.685
G1 X164.787 Y183.119
G1 X165.008 Y183.763
G1 X165.169 Y184.464
G1 X165.408 Y185.356
G1 X165.621 Y186.203
G1 X165.883 Y187.215
G1 X166.127 Y188.250
G1 X166.407 Y189.358
G1 X166.674 Y190.521
G1 X166.955 Y191.723
G1 X167.245 Y192.933
G1 X167.551 Y194.158
G1 X167.826 Y195.401
G1 X168.115 Y196.621
G1 X168.403 Y197.841
G1 X168.695 Y199.005
G1 X168.959 Y200.168
G1 X169.231 Y201.237
G1 X169.481 Y202.299
; Path 102
G0 Z0
G0 X169.522 Y202.251
G0 Z2.2
G1 F3000
G1 X169.795 Y202.084
G1 X170.045 Y201.870
G1 X170.334 Y201.671
G1 X170.603 Y201.517
G1 X170.877 Y201.325
G1 X171.181 Y201.180
G1 X171.484 Y200.997
G1 X171.764 Y200.847
G1 X172.025 Y200.687
G1 X172.337 Y200.506
G1 X172.593 Y200.300
G1 X172.885 Y200.145
G1 X173.109 Y199.978
G1 X173.392 Y199.753
G1 X173.598 Y199.539
G1 X173.844 Y199.316
G1 X174.007 Y199.050
G1 X174.225 Y198.823
G1 X174.368 Y198.540
G1 X174.521 Y198.263
G1 X174.594 Y197.966
G1 X174.721 Y197.627
G1 X174.749 Y197.304
G1 X174.835 Y196.923
G1 X174.881 Y196.545
G1 X174.879 Y196.163
G1 X174.896 Y195.759
G1 X174.867 Y195.360
G1 X174.843 Y194.951
G1 X174.814 Y194.525
G1 X174.800 Y194.075
G1 X174.737 Y193.669
G1 X174.672 Y193.223
G1 X174.649 Y192.806
G1 X174.626 Y192.397
G1 X174.567 Y191.947
G1 X174.506 Y191.528
G1 X174.504 Y191.103
G1 X174.506 Y190.711
G1 X174.477 Y190.288
; Path 103
G0 Z0
G0 X174.501 Y190.273
G0 Z2.2
G1 F3000
G1 X173.803 Y188.555
G1 X173.053 Y186.837
G1 X172.374 Y185.125
G1 X171.603 Y183.406
G1 X170.909 Y181.727
G1 X170.218 Y179.973
G1 X169.478 Y178.268
; Path 104
G0 Z0
G0 X169.486 Y178.304
G0 Z2.2
G1 F3000
G1 X168.802 Y180.016
G1 X168.066 Y181.750
G1 X167.349 Y183.428
G1 X166.660 Y185.145
G1 X165.958 Y186.880
G1 X165.244 Y188.569
G1 X164.524 Y190.288
; Path 105
G0 Z0
G0 X163.468 Y192.555
G0 Z2.2
G1 F3000
G1 X161.513 Y191.872
; Path 106
G0 Z0
G0 X159.487 Y195.288
G0 Z2.2
G1 F3000
G1 X159.768 Y193.427
G1 X160.004 Y191.519
G1 X160.274 Y189.640
G1 X160.531 Y187.757
G1 X160.728 Y185.861
G1 X161.020 Y184.001
G1 X161.239 Y182.150
G1 X161.520 Y180.252
; Path 107
G0 Z0
G0 X163.463 Y179.289
G0 Z2.2
G1 F3000
G1 X163.653 Y181.421
; Path 108
G0 Z0
G0 X163.520 Y182.295
G0 Z2.2
G1 F3000
G1 X163.327 Y184.144
G1 X163.198 Y185.944
G1 X163.051 Y187.801
G1 X162.848 Y189.630
G1 X162.699 Y191.447
G1 X162.524 Y193.304
; Path 109
G0 Z0
G0 X161.953 Y193.219
G0 Z2.2
G1 F3000
G1 X161.143 Y191.305
; Path 110
G0 Z0
G0 X161.475 Y190.366
G0 Z2.2
G1 F3000
G1 X159.410 Y190.265
; Path 111
G0 Z0
G0 X159.492 Y190.286
G0 Z2.2
G1 F3000
G1 X159.210 Y188.327
G1 X158.906 Y186.358
G1 X158.562 Y184.353
G1 X158.274 Y182.393
G1 X158.007 Y180.412
G1 X157.702 Y178.466
G1 X157.376 Y176.510
G1 X157.099 Y174.543
G1 X156.771 Y172.568
G1 X156.470 Y170.607
G1 X156.179 Y168.616
G1 X155.874 Y166.661
G1 X155.577 Y164.656
G1 X155.283 Y162.723
G1 X154.954 Y160.735
G1 X154.660 Y158.749
G1 X154.370 Y156.812
G1 X154.032 Y154.824
G1 X153.768 Y152.845
G1 X153.453 Y150.867
G1 X153.151 Y148.888
G1 X152.834 Y146.969
G1 X152.528 Y144.979
G1 X152.263 Y143.024
G1 X151.964 Y141.065
G1 X151.640 Y139.045
G1 X151.349 Y137.072
G1 X151.036 Y135.127
G1 X150.725 Y133.153
G1 X150.422 Y131.169
G1 X150.144 Y129.191
G1 X149.822 Y127.274
G1 X149.516 Y125.279
; Path 112
G0 Z0
G0 X144.184 Y121.274
G0 Z2.2
G1 F3000
G1 X144.676 Y123.197
; Path 113
G0 Z0
G0 X144.495 Y112.276
G0 Z2.2
G1 F3000
G1 X139.495 Y113.276
; Path 114
G0 Z0
G0 X134.495 Y112.276
G0 Z2.2
G1 F3000
G1 X139.495 Y113.276
; Path 115
G0 Z0
G0 X140.400 Y120.151
G0 Z2.2
G1 F3000
G1 X138.498 Y120.422
; Path 116
G0 Z0
G0 X134.799 Y124.271
G0 Z2.2
G1 F3000
G1 X134.333 Y126.276
; Path 117
G0 Z0
G0 X137.011 Y144.340
G0 Z2.2
G1 F3000
G1 X136.008 Y146.116
; Path 118
G0 Z0
G0 X138.295 Y149.625
G0 Z2.2
G1 F3000
G1 X136.868 Y150.947
; Path 119
G0 Z0
G0 X140.465 Y155.219
G0 Z2.2
G1 F3000
G1 X138.524 Y155.301
; Path 120
G0 Z0
G0 X138.469 Y155.151
G0 Z2.2
G1 F3000
G1 X140.357 Y155.173
; Path 121
G0 Z0
G0 X135.097 Y149.283
G0 Z2.2
G1 F3000
G1 X135.906 Y147.397
; Path 122
G0 Z0
G0 X134.228 Y141.344
G0 Z2.2
G1 F3000
G1 X134.825 Y139.396
; Path 123
G0 Z0
G0 X134.739 Y139.413
G0 Z2.2
G1 F3000
G1 X134.178 Y141.226
; Path 124
G0 Z0
G0 X129.477 Y130.267
G0 Z2.2
G1 F3000
G1 X129.158 Y132.233
G1 X128.809 Y134.144
G1 X128.512 Y136.068
G1 X128.161 Y138.038
G1 X127.865 Y139.956
G1 X127.538 Y141.903
G1 X127.220 Y143.813
G1 X126.913 Y145.749
G1 X126.565 Y147.704
G1 X126.235 Y149.617
G1 X125.932 Y151.578
G1 X125.616 Y153.501
G1 X125.275 Y155.462
G1 X124.946 Y157.372
G1 X124.638 Y159.312
G1 X124.317 Y161.258
G1 X124.021 Y163.194
G1 X123.718 Y165.121
G1 X123.357 Y167.029
G1 X123.072 Y168.964
G1 X122.708 Y170.914
G1 X122.402 Y172.860
G1 X122.109 Y174.816
G1 X121.742 Y176.728
G1 X121.461 Y178.646
G1 X121.121 Y180.612
G1 X120.775 Y182.533
G1 X120.482 Y184.506
G1 X120.144 Y186.442
G1 X119.802 Y188.380
G1 X119.508 Y190.288
; Path 125
G0 Z0
G0 X119.495 Y190.276
G0 Z2.2
G1 F3000
G1 X139.495 Y110.276
; Path 126
G1 X159.495 Y190.276
; Path 127
G0 Z0
G0 X159.515 Y190.258
G0 Z2.2
G1 F3000
G1 X159.036 Y188.341
G1 X158.551 Y186.467
G1 X158.082 Y184.562
G1 X157.609 Y182.619
G1 X157.156 Y180.714
G1 X156.652 Y178.858
G1 X156.180 Y176.947
G1 X155.689 Y175.045
G1 X155.250 Y173.111
G1 X154.735 Y171.230
G1 X154.307 Y169.322
G1 X153.810 Y167.426
G1 X153.310 Y165.502
G1 X152.860 Y163.624
G1 X152.358 Y161.700
G1 X151.907 Y159.779
G1 X151.430 Y157.859
G1 X150.937 Y155.982
G1 X150.442 Y154.059
G1 X149.980 Y152.187
G1 X149.533 Y150.260
G1 X149.019 Y148.371
G1 X148.564 Y146.449
G1 X148.100 Y144.565
G1 X147.601 Y142.654
G1 X147.154 Y140.769
G1 X146.669 Y138.847
G1 X146.196 Y136.915
G1 X145.720 Y135.009
G1 X145.207 Y133.115
G1 X144.745 Y131.249
G1 X144.272 Y129.324
G1 X143.806 Y127.412
G1 X143.305 Y125.493
G1 X142.848 Y123.588
G1 X142.360 Y121.731
G1 X141.924 Y119.812
G1 X141.395 Y117.920
G1 X140.961 Y115.983
G1 X140.497 Y114.087
G1 X139.994 Y112.202
G1 X139.518 Y110.281
; Path 128
G0 Z0
G0 X139.516 Y110.296
G0 Z2.2
G1 F3000
G1 X139.038 Y112.228
G1 X138.564 Y114.108
G1 X138.099 Y115.995
G1 X137.599 Y117.929
G1 X137.145 Y119.835
G1 X136.655 Y121.726
G1 X136.203 Y123.601
G1 X135.704 Y125.497
G1 X135.216 Y127.418
G1 X134.758 Y129.346
G1 X134.284 Y131.235
G1 X133.800 Y133.136
G1 X133.304 Y135.067
G1 X132.818 Y136.918
G1 X132.383 Y138.834
G1 X131.910 Y140.741
G1 X131.396 Y142.652
G1 X130.947 Y144.570
G1 X130.461 Y146.448
G1 X129.980 Y148.384
G1 X129.482 Y150.242
G1 X129.022 Y152.184
G1 X128.551 Y154.049
G1 X128.075 Y155.967
G1 X127.632 Y157.868
G1 X127.124 Y159.794
G1 X126.658 Y161.719
G1 X126.174 Y163.603
G1 X125.692 Y165.474
G1 X125.241 Y167.397
G1 X124.760 Y169.329
G1 X124.291 Y171.182
G1 X123.809 Y173.092
G1 X123.292 Y175.010
G1 X122.821 Y176.942
G1 X122.353 Y178.800
G1 X121.882 Y180.715
G1 X121.410 Y182.643
G1 X120.945 Y184.555
G1 X120.449 Y186.438
G1 X120.006 Y188.347
G1 X119.503 Y190.247
; Path 129
G0 Z0
G0 X109.511 Y190.272
G0 Z2.2
G1 F3000
G1 X111.523 Y190.266
G1 X113.516 Y190.271
G1 X115.495 Y190.293
G1 X117.494 Y190.301
G1 X119.490 Y190.293
G1 X121.514 Y190.294
G1 X123.482 Y190.274
G1 X125.499 Y190.252
G1 X127.516 Y190.255
G1 X129.513 Y190.273
G1 X131.536 Y190.297
G1 X133.525 Y190.260
G1 X135.497 Y190.251
G1 X137.483 Y190.249
G1 X139.519 Y190.302
G1 X141.487 Y190.270
G1 X143.511 Y190.254
G1 X145.524 Y190.256
G1 X147.485 Y190.244
G1 X149.476 Y190.256
G1 X151.530 Y190.296
G1 X153.483 Y190.289
G1 X155.500 Y190.277
G1 X157.523 Y190.247
G1 X159.482 Y190.295
G1 X161.522 Y190.259
G1 X163.509 Y190.249
G1 X165.530 Y190.281
G1 X167.509 Y190.250
G1 X169.498 Y190.268
G1 X171.521 Y190.280
G1 X173.498 Y190.245
G1 X175.524 Y190.269
G1 X177.501 Y190.274
G1 X179.510 Y190.280
G1 X181.488 Y190.258
G1 X183.484 Y190.297
G1 X185.498 Y190.249
G1 X187.508 Y190.241
G1 X189.472 Y190.249
G1 X191.497 Y190.255
G1 X193.478 Y190.261
G1 X195.493 Y190.241
G1 X197.523 Y190.257
G1 X199.482 Y190.296
G1 X201.476 Y190.251
G1 X203.520 Y190.300
G1 X205.490 Y190.249
G1 X207.471 Y190.294
G1 X209.493 Y190.252
G1 X211.494 Y190.275
G1 X213.478 Y190.286
G1 X215.496 Y190.264
G1 X217.477 Y190.254
G1 X219.513 Y190.296
G1 X221.509 Y190.263
G1 X223.522 Y190.272
G1 X225.485 Y190.249
G1 X227.483 Y190.279
G1 X229.498 Y190.285
G1 X231.511 Y190.251
G1 X233.483 Y190.294
G1 X235.465 Y190.265
G1 X237.494 Y190.263
G1 X239.513 Y190.244
G1 X241.471 Y190.247
G1 X243.479 Y190.298
G1 X245.490 Y190.296
G1 X247.465 Y190.278
G1 X249.514 Y190.274
G1 X251.467 Y190.241
G1 X253.489 Y190.258
G1 X255.496 Y190.242
G1 X257.500 Y190.270
G1 X259.471 Y190.297
G1 X261.488 Y190.262
G1 X263.496 Y190.268
G1 X265.479 Y190.294
G1 X267.498 Y190.276
G1 X269.496 Y190.280
G1 X271.503 Y190.279
G1 X273.498 Y190.283
G1 X275.503 Y190.281
G1 X277.493 Y190.256
G1 X279.465 Y190.258
G1 X281.464 Y190.241
G1 X283.517 Y190.286
G1 X285.489 Y190.262
G1 X287.475 Y190.264
G1 X289.482 Y190.281
G1 X291.487 Y190.278
G1 X293.505 Y190.247
G1 X295.464 Y190.245
G1 X297.513 Y190.281
G1 X299.509 Y190.269
G1 X301.474 Y190.292
G1 X303.460 Y190.245
G1 X305.472 Y190.249
G1 X307.499 Y190.292
G1 X309.485 Y190.268
; Path 130
G0 Z0
G0 X295.424 Y216.426
G0 Z2.2
G1 F3000
G1 X293.400 Y216.123
; Path 131
G0 Z0
G0 X270.411 Y232.291
G0 Z2.2
G1 F3000
G1 X268.436 Y232.155
; Path 132
G0 Z0
G0 X268.630 Y231.763
G0 Z2.2
G1 F3000
G1 X270.468 Y232.764
; Path 133
G0 Z0
G0 X271.596 Y235.155
G0 Z2.2
G1 F3000
G1 X273.495 Y235.300
; Path 134
G0 Z0
G0 X275.545 Y234.285
G0 Z2.2
G1 F3000
G1 X274.565 Y234.143
G1 X273.688 Y234.088
G1 X272.883 Y233.972
G1 X271.870 Y233.848
G1 X270.986 Y233.780
G1 X270.134 Y233.751
G1 X269.153 Y233.563
G1 X268.341 Y233.404
G1 X267.313 Y233.321
G1 X266.480 Y233.269
; Path 135
G0 Z0
G0 X265.416 Y230.073
G0 Z2.2
G1 F3000
G1 X263.393 Y230.318
; Path 136
G0 Z0
G0 X262.440 Y233.223
G0 Z2.2
G1 F3000
G1 X261.635 Y233.558
G1 X260.885 Y233.703
G1 X260.279 Y233.962
G1 X259.469 Y234.285
; Path 137
G0 Z0
G0 X255.483 Y230.215
G0 Z2.2
G1 F3000
G1 X253.536 Y230.254
; Path 138
G0 Z0
G0 X247.518 Y232.368
G0 Z2.2
G1 F3000
G1 X245.506 Y232.149
; Path 139
G0 Z0
G0 X245.545 Y235.340
G0 Z2.2
G1 F3000
G1 X243.505 Y235.243
; Path 140
G0 Z0
G0 X243.737 Y234.657
G0 Z2.2
G1 F3000
G1 X245.262 Y235.730
; Path 141
G0 Z0
G0 X248.485 Y235.216
G0 Z2.2
G1 F3000
G1 X247.641 Y235.175
G1 X246.666 Y235.011
G1 X245.726 Y235.003
G1 X244.834 Y234.933
G1 X243.896 Y234.858
G1 X243.031 Y234.684
G1 X242.114 Y234.567
G1 X241.302 Y234.567
G1 X240.295 Y234.472
G1 X239.399 Y234.264
G1 X238.516 Y234.255
; Path 142
G0 Z0
G0 X235.487 Y233.328
G0 Z2.2
G1 F3000
G1 X233.566 Y233.128
; Path 143
G0 Z0
G0 X225.499 Y227.611
G0 Z2.2
G1 F3000
G1 X223.600 Y227.034
; Path 144
G0 Z0
G0 X218.890 Y227.576
G0 Z2.2
G1 F3000
G1 X220.125 Y229.140
; Path 145
G0 Z0
G0 X220.541 Y228.483
G0 Z2.2
G1 F3000
G1 X218.600 Y228.071
; Path 146
G0 Z0
G0 X216.480 Y230.573
G0 Z2.2
G1 F3000
G1 X214.558 Y230.105
; Path 147
G0 Z0
G0 X210.503 Y226.443
G0 Z2.2
G1 F3000
G1 X208.627 Y226.089
; Path 148
G0 Z0
G0 X203.565 Y228.650
G0 Z2.2
G1 F3000
G1 X201.580 Y228.140
; Path 149
G0 Z0
G0 X200.451 Y230.718
G0 Z2.2
G1 F3000
G1 X198.499 Y229.987
; Path 150
G0 Z0
G0 X199.049 Y229.427
G0 Z2.2
G1 F3000
G1 X199.955 Y231.219
; Path 151
G0 Z0
G0 X200.463 Y232.353
G0 Z2.2
G1 F3000
G1 X199.629 Y232.056
G1 X198.885 Y231.892
G1 X198.167 Y231.597
G1 X197.438 Y231.272
; Path 152
G0 Z0
G0 X195.451 Y227.168
G0 Z2.2
G1 F3000
G1 X193.489 Y227.418
; Path 153
G0 Z0
G0 X192.477 Y226.299
G0 Z2.2
G1 F3000
G1 X191.739 Y226.465
G1 X190.959 Y226.780
G1 X190.246 Y226.925
G1 X189.516 Y227.237
; Path 154
G0 Z0
G0 X189.598 Y226.201
G0 Z2.2
G1 F3000
G1 X187.501 Y226.293
; Path 155
G0 Z0
G0 X187.482 Y227.271
G0 Z2.2
G1 F3000
G1 X186.658 Y227.071
G1 X185.838 Y226.990
G1 X185.019 Y226.746
G1 X184.149 Y226.645
G1 X183.248 Y226.384
G1 X182.494 Y226.294
; Path 156
G0 Z0
G0 X183.628 Y224.964
G0 Z2.2
G1 F3000
G1 X185.550 Y225.451
; Path 157
G0 Z0
G0 X184.694 Y226.188
G0 Z2.2
G1 F3000
G1 X184.201 Y224.367
; Path 158
G0 Z0
G0 X181.555 Y225.391
G0 Z2.2
G1 F3000
G1 X179.527 Y225.075
; Path 159
G0 Z0
G0 X181.541 Y223.203
G0 Z2.2
G1 F3000
G1 X182.388 Y223.391
G1 X183.211 Y223.466
G1 X184.027 Y223.658
G1 X184.947 Y223.853
G1 X185.685 Y224.041
G1 X186.548 Y224.211
; Path 160
G0 Z0
G0 X204.471 Y215.256
G0 Z2.2
G1 F3000
G1 X202.615 Y215.507
G1 X200.741 Y215.752
G1 X198.845 Y215.985
G1 X196.966 Y216.275
G1 X195.102 Y216.530
G1 X193.255 Y216.778
G1 X191.349 Y217.046
G1 X189.499 Y217.270
; Path 161
G0 Z0
G0 X218.504 Y218.133
G0 Z2.2
G1 F3000
G1 X220.396 Y218.245
; Path 162
G0 Z0
G0 X238.515 Y214.196
G0 Z2.2
G1 F3000
G1 X240.569 Y214.452
; Path 163
G0 Z0
G0 X259.492 Y212.304
G0 Z2.2
G1 F3000
G1 X261.314 Y212.218
G1 X263.105 Y212.099
G1 X264.938 Y212.009
G1 X266.741 Y211.942
G1 X268.578 Y211.812
G1 X270.372 Y211.719
G1 X272.201 Y211.660
G1 X274.024 Y211.555
G1 X275.845 Y211.466
G1 X277.667 Y211.407
G1 X279.476 Y211.286
; Path 164
G0 Z0
G0 X275.501 Y209.228
G0 Z2.2
G1 F3000
G1 X273.409 Y209.333
; Path 165
G0 Z0
G0 X274.467 Y190.303
G0 Z2.2
G1 F3000
G1 X274.027 Y190.357
G1 X273.585 Y190.360
G1 X273.210 Y190.389
G1 X272.879 Y190.427
G1 X272.576 Y190.475
G1 X272.274 Y190.501
G1 X271.958 Y190.561
G1 X271.693 Y190.576
G1 X271.387 Y190.601
G1 X271.062 Y190.648
G1 X270.663 Y190.683
G1 X270.306 Y190.712
G1 X269.801 Y190.720
G1 X269.350 Y190.764
G1 X268.704 Y190.773
G1 X268.117 Y190.800
G1 X267.305 Y190.789
G1 X266.533 Y190.814
G1 X265.540 Y190.821
G1 X264.523 Y190.802
G1 X263.213 Y190.768
G1 X261.901 Y190.755
G1 X260.290 Y190.684
G1 X258.642 Y190.671
G1 X256.803 Y190.590
G1 X254.912 Y190.560
G1 X253.577 Y190.510
G1 X252.199 Y190.451
G1 X250.876 Y190.431
G1 X249.468 Y190.409
G1 X248.080 Y190.361
G1 X246.700 Y190.292
G1 X245.345 Y190.231
G1 X243.904 Y190.210
G1 X242.548 Y190.153
G1 X240.551 Y190.092
G1 X238.587 Y190.024
G1 X236.783 Y189.977
G1 X234.980 Y189.912
G1 X233.439 Y189.865
G1 X231.895 Y189.828
G1 X230.720 Y189.782
G1 X229.496 Y189.780
G1 X228.626 Y189.793
G1 X227.780 Y189.767
G1 X227.189 Y189.771
G1 X226.575 Y189.780
G1 X226.176 Y189.777
G1 X225.790 Y189.814
G1 X225.567 Y189.862
G1 X225.336 Y189.865
G1 X225.208 Y189.870
G1 X225.122 Y189.928
G1 X225.081 Y189.945
G1 X225.058 Y189.998
G1 X225.033 Y190.046
G1 X225.054 Y190.071
G1 X225.024 Y190.122
G1 X225.020 Y190.143
G1 X224.930 Y190.169
G1 X224.866 Y190.209
G1 X224.712 Y190.262
G1 X224.502 Y190.264
; Path 166
G0 Z0
G0 X220.465 Y178.580
G0 Z2.2
G1 F3000
G1 X218.532 Y177.996
; Path 167
G0 Z0
G0 X212.502 Y180.538
G0 Z2.2
G1 F3000
G1 X210.515 Y180.232
; Path 168
G0 Z0
G0 X210.420 Y175.496
G0 Z2.2
G1 F3000
G1 X208.417 Y175.260
; Path 169
G0 Z0
G0 X208.370 Y175.180
G0 Z2.2
G1 F3000
G1 X210.500 Y175.246
; Path 170
G0 Z0
G0 X200.542 Y175.233
G0 Z2.2
G1 F3000
G1 X198.594 Y175.409
; Path 171
G0 Z0
G0 X195.297 Y169.669
G0 Z2.2
G1 F3000
G1 X193.635 Y170.766
; Path 172
G0 Z0
G0 X186.233 Y171.279
G0 Z2.2
G1 F3000
G1 X186.853 Y169.400
; Path 173
G0 Z0
G0 X184.752 Y164.341
G0 Z2.2
G1 F3000
G1 X184.349 Y166.230
; Path 174
G0 Z0
G0 X184.113 Y166.336
G0 Z2.2
G1 F3000
G1 X184.844 Y164.339
; Path 175
G0 Z0
G0 X187.245 Y161.202
G0 Z2.2
G1 F3000
G1 X187.755 Y159.315
; Path 176
G0 Z0
G0 X191.220 Y159.229
G0 Z2.2
G1 F3000
G1 X191.817 Y157.359
; Path 177
G0 Z0
G0 X196.846 Y158.982
G0 Z2.2
G1 F3000
G1 X198.169 Y157.488
; Path 178
G0 Z0
G0 X203.587 Y160.414
G0 Z2.2
G1 F3000
G1 X205.530 Y160.123
; Path 179
G0 Z0
G0 X205.406 Y159.569
G0 Z2.2
G1 F3000
G1 X203.765 Y160.943
; Path 180
G0 Z0
G0 X205.423 Y165.273
G0 Z2.2
G1 F3000
G1 X207.405 Y165.377
; Path 181
G0 Z0
G0 X215.538 Y168.559
G0 Z2.2
G1 F3000
G1 X213.602 Y167.815
; Path 182
G0 Z0
G0 X206.471 Y153.456
G0 Z2.2
G1 F3000
G1 X208.441 Y153.323
; Path 183
G0 Z0
G0 X202.151 Y149.609
G0 Z2.2
G1 F3000
G1 X200.800 Y151.037
; Path 184
G0 Z0
G0 X199.081 Y146.228
G0 Z2.2
G1 F3000
G1 X199.821 Y144.401
; Path 185
G0 Z0
G0 X199.911 Y144.290
G0 Z2.2
G1 F3000
G1 X199.102 Y146.140
; Path 186
G0 Z0
G0 X178.600 Y158.703
G0 Z2.2
G1 F3000
G1 X180.364 Y157.907
; Path 187
G0 Z0
G0 X189.192 Y151.175
G0 Z2.2
G1 F3000
G1 X189.796 Y149.266
; Path 188
G0 Z0
G0 X192.168 Y146.322
G0 Z2.2
G1 F3000
G1 X192.759 Y144.354
; Path 189
G0 Z0
G0 X196.234 Y136.271
G0 Z2.2
G1 F3000
G1 X196.846 Y134.435
; Path 190
G0 Z0
G0 X194.792 Y129.349
G0 Z2.2
G1 F3000
G1 X194.147 Y131.209
; Path 191
G0 Z0
G0 X194.208 Y131.247
G0 Z2.2
G1 F3000
G1 X194.770 Y129.225
; Path 192
G0 Z0
G0 X201.941 Y139.080
G0 Z2.2
G1 F3000
G1 X203.102 Y137.509
; Path 193
G0 Z0
G0 X224.482 Y115.305
G0 Z2.2
G1 F3000
G1 X224.843 Y117.249
G1 X225.238 Y119.127
G1 X225.665 Y121.087
G1 X226.002 Y123.011
G1 X226.407 Y124.937
G1 X226.785 Y126.838
G1 X227.208 Y128.775
G1 X227.557 Y130.664
G1 X227.953 Y132.599
G1 X228.340 Y134.510
G1 X228.749 Y136.427
G1 X229.116 Y138.374
G1 X229.489 Y140.267
G1 X229.877 Y142.234
G1 X230.271 Y144.149
G1 X230.622 Y146.058
G1 X231.030 Y147.993
G1 X231.412 Y149.878
G1 X231.799 Y151.806
G1 X232.178 Y153.722
G1 X232.605 Y155.693
G1 X232.961 Y157.569
G1 X233.378 Y159.500
G1 X233.708 Y161.427
G1 X234.130 Y163.357
G1 X234.485 Y165.287
G1 X234.898 Y167.215
G1 X235.253 Y169.123
G1 X235.694 Y171.031
G1 X236.024 Y172.957
G1 X236.452 Y174.878
G1 X236.802 Y176.836
G1 X237.206 Y178.744
G1 X237.588 Y180.679
G1 X237.949 Y182.579
G1 X238.387 Y184.514
G1 X238.763 Y186.416
G1 X239.122 Y188.378
G1 X239.520 Y190.273
; Path 194
G0 Z0
G0 X259.471 Y190.263
G0 Z2.2
G1 F3000
G1 X260.035 Y188.381
G1 X260.583 Y186.492
G1 X261.112 Y184.593
G1 X261.630 Y182.721
G1 X262.186 Y180.809
G1 X262.711 Y178.888
G1 X263.281 Y177.032
G1 X263.792 Y175.101
G1 X264.336 Y173.205
G1 X264.912 Y171.364
G1 X265.422 Y169.438
G1 X265.965 Y167.562
G1 X266.495 Y165.673
G1 X267.021 Y163.743
G1 X267.573 Y161.854
G1 X268.114 Y159.962
G1 X268.701 Y158.117
G1 X269.219 Y156.199
G1 X269.764 Y154.300
G1 X270.311 Y152.438
G1 X270.866 Y150.529
G1 X271.389 Y148.620
G1 X271.893 Y146.716
G1 X272.483 Y144.849
G1 X273.001 Y142.973
G1 X273.542 Y141.081
G1 X274.093 Y139.184
G1 X274.650 Y137.268
G1 X275.179 Y135.410
G1 X275.735 Y133.496
G1 X276.273 Y131.609
G1 X276.780 Y129.682
G1 X277.350 Y127.796
G1 X277.850 Y125.949
G1 X278.441 Y124.027
G1 X278.962 Y122.111
G1 X279.501 Y120.249
; Path 195
G0 Z0
G0 X279.524 Y120.272
G0 Z2.2
G1 F3000
G1 X280.063 Y122.180
G1 X280.589 Y124.050
G1 X281.131 Y125.971
G1 X281.715 Y127.822
G1 X282.244 Y129.710
G1 X282.743 Y131.611
G1 X283.302 Y133.490
G1 X283.859 Y135.408
G1 X284.403 Y137.280
G1 X284.956 Y139.184
G1 X285.471 Y141.059
G1 X285.983 Y142.976
G1 X286.541 Y144.882
G1 X287.071 Y146.765
G1 X287.647 Y148.670
G1 X288.154 Y150.530
G1 X288.692 Y152.443
G1 X289.281 Y154.303
G1 X289.817 Y156.232
G1 X290.363 Y158.106
G1 X290.904 Y159.991
G1 X291.397 Y161.895
G1 X291.927 Y163.763
G1 X292.494 Y165.655
G1 X293.024 Y167.530
G1 X293.574 Y169.450
G1 X294.092 Y171.366
G1 X294.663 Y173.222
G1 X295.205 Y175.107
G1 X295.716 Y176.993
G1 X296.302 Y178.896
G1 X296.805 Y180.788
G1 X297.350 Y182.678
G1 X297.881 Y184.608
G1 X298.456 Y186.483
G1 X298.968 Y188.363
G1 X299.522 Y190.253
; Path 196
G0 Z0
G0 X282.394 Y170.685
G0 Z2.2
G1 F3000
G1 X280.485 Y169.817
; Path 197
G0 Z0
G0 X280.474 Y165.263
G0 Z2.2
G1 F3000
G1 X278.503 Y165.176
; Path 198
G0 Z0
G0 X276.577 Y160.816
G0 Z2.2
G1 F3000
G1 X278.200 Y159.678
; Path 199
G0 Z0
G0 X275.920 Y157.429
G0 Z2.2
G1 F3000
G1 X274.890 Y159.041
; Path 200
G0 Z0
G0 X269.296 Y159.294
G0 Z2.2
G1 F3000
G1 X269.824 Y157.450
; Path 201
G0 Z0
G0 X275.869 Y156.112
G0 Z2.2
G1 F3000
G1 X276.979 Y154.374
; Path 202
G0 Z0
G0 X274.241 Y151.253
G0 Z2.2
G1 F3000
G1 X274.851 Y149.376
; Path 203
G0 Z0
G0 X274.839 Y149.332
G0 Z2.2
G1 F3000
G1 X274.116 Y151.169
; Path 204
G0 Z0
G0 X272.177 Y146.333
G0 Z2.2
G1 F3000
G1 X272.839 Y144.447
; Path 205
G0 Z0
G0 X269.505 Y135.279
G0 Z2.2
G1 F3000
G1 X269.141 Y137.263
G1 X268.771 Y139.188
G1 X268.453 Y141.143
G1 X268.046 Y143.147
G1 X267.699 Y145.094
G1 X267.374 Y147.087
G1 X266.974 Y149.041
G1 X266.640 Y150.967
G1 X266.291 Y152.949
G1 X265.897 Y154.931
G1 X265.578 Y156.899
G1 X265.218 Y158.874
G1 X264.846 Y160.789
G1 X264.499 Y162.787
G1 X264.141 Y164.713
G1 X263.787 Y166.683
G1 X263.421 Y168.674
G1 X263.038 Y170.612
G1 X262.681 Y172.583
G1 X262.355 Y174.587
G1 X262.010 Y176.513
G1 X261.622 Y178.472
G1 X261.247 Y180.441
G1 X260.924 Y182.431
G1 X260.533 Y184.369
G1 X260.199 Y186.341
G1 X259.848 Y188.328
G1 X259.474 Y190.278
; Path 206
G0 Z0
G0 X259.495 Y190.276
G0 Z2.2
G1 F3000
G1 X279.495 Y120.276
; Path 207
G1 X299.495 Y190.276
; Path 208
G0 Z0
G0 X299.475 Y190.286
G0 Z2.2
G1 F3000
G1 X299.162 Y188.360
G1 X298.791 Y186.442
G1 X298.454 Y184.457
G1 X298.151 Y182.546
G1 X297.835 Y180.586
G1 X297.505 Y178.699
G1 X297.140 Y176.737
G1 X296.824 Y174.835
G1 X296.454 Y172.900
G1 X296.163 Y170.972
G1 X295.818 Y169.020
G1 X295.455 Y167.070
G1 X295.133 Y165.129
G1 X294.819 Y163.232
G1 X294.464 Y161.261
G1 X294.134 Y159.349
G1 X293.812 Y157.410
G1 X293.476 Y155.498
G1 X293.122 Y153.541
G1 X292.798 Y151.579
G1 X292.472 Y149.640
G1 X292.125 Y147.721
G1 X291.802 Y145.820
G1 X291.503 Y143.889
G1 X291.126 Y141.952
G1 X290.826 Y139.972
G1 X290.481 Y138.086
G1 X290.157 Y136.151
G1 X289.847 Y134.176
G1 X289.487 Y132.257
; Path 209
G0 Z0
G0 X284.781 Y130.125
G0 Z2.2
G1 F3000
G1 X284.145 Y128.231
; Path 210
G0 Z0
G0 X280.425 Y128.324
G0 Z2.2
G1 F3000
G1 X278.420 Y128.365
; Path 211
G0 Z0
G0 X274.283 Y131.186
G0 Z2.2
G1 F3000
G1 X274.788 Y129.308
; Path 212
G0 Z0
G0 X273.495 Y122.276
G0 Z2.2
G1 F3000
G1 X279.495 Y123.276
; Path 213
G1 X285.495 Y122.276
; Path 214
G0 Z0
G0 X306.462 Y83.113
G0 Z2.2
G1 F3000
G1 X308.480 Y83.528
; Path 215
G0 Z0
G0 X310.489 Y75.480
G0 Z2.2
G1 F3000
G1 X308.475 Y75.008
; Path 216
G0 Z0
G0 X300.344 Y72.534
G0 Z2.2
G1 F3000
G1 X298.533 Y72.150
; Path 217
G0 Z0
G0 X288.548 Y80.038
G0 Z2.2
G1 F3000
G1 X290.616 Y80.546
; Path 218
G0 Z0
G0 X290.375 Y80.626
G0 Z2.2
G1 F3000
G1 X288.452 Y80.072
; Path 219
G0 Z0
G0 X275.482 Y85.373
G0 Z2.2
G1 F3000
G1 X273.512 Y85.058
; Path 220
G0 Z0
G0 X270.462 Y77.393
G0 Z2.2
G1 F3000
G1 X268.570 Y76.996
; Path 221
G0 Z0
G0 X255.525 Y72.552
G0 Z2.2
G1 F3000
G1 X253.583 Y72.016
; Path 222
G0 Z0
G0 X244.461 Y67.331
G0 Z2.2
G1 F3000
G1 X243.935 Y67.082
G1 X243.426 Y66.792
G1 X242.841 Y66.514
G1 X242.301 Y66.220
G1 X241.696 Y65.948
G1 X241.213 Y65.599
G1 X240.627 Y65.340
G1 X240.109 Y64.996
G1 X239.581 Y64.646
G1 X238.961 Y64.286
G1 X238.510 Y63.967
G1 X237.951 Y63.712
G1 X237.353 Y63.470
G1 X236.865 Y63.161
G1 X236.329 Y62.855
G1 X235.756 Y62.655
G1 X235.300 Y62.444
G1 X234.718 Y62.135
G1 X234.155 Y61.992
G1 X233.696 Y61.744
G1 X233.125 Y61.608
G1 X232.527 Y61.561
G1 X232.086 Y61.459
G1 X231.554 Y61.333
G1 X230.998 Y61.270
G1 X230.578 Y61.325
G1 X230.010 Y61.349
G1 X229.449 Y61.426
G1 X228.946 Y61.552
G1 X228.488 Y61.618
G1 X228.056 Y61.703
G1 X227.449 Y61.861
G1 X226.984 Y62.080
G1 X226.502 Y62.326
G1 X226.023 Y62.502
G1 X225.493 Y62.678
G1 X224.988 Y62.904
G1 X224.531 Y63.139
G1 X224.008 Y63.353
G1 X223.592 Y63.539
G1 X222.968 Y63.798
G1 X222.525 Y64.048
G1 X222.071 Y64.264
G1 X221.461 Y64.428
G1 X221.038 Y64.704
G1 X220.560 Y64.845
G1 X219.992 Y65.152
G1 X219.543 Y65.263
; Path 223
G0 Z0
G0 X228.549 Y65.385
G0 Z2.2
G1 F3000
G1 X230.443 Y65.239
; Path 224
G0 Z0
G0 X230.469 Y65.443
G0 Z2.2
G1 F3000
G1 X228.569 Y64.999
G0 Z0
M5
G4 P0.3
G0 X0 Y0
; End