; Generated by Sketch DSL for Machine
; Work area: 420mm x 297mm (A3)
G21
G90
M5
G4 P0.5
G0 F11000
; 157 paths
; Path 1
G0 X123.994 Y73.001
G0 Z2.2
G1 F3000
G1 X125.909 Y73.816
; Path 2
G0 Z0
G0 X134.996 Y110.412
G0 Z2.2
G1 F3000
G1 X139.996 Y111.412
; Path 3
G0 Z0
G0 X140.017 Y108.431
G0 Z2.2
G1 F3000
G1 X139.539 Y110.363
G1 X139.065 Y112.244
G1 X138.600 Y114.131
G1 X138.099 Y116.064
G1 X137.646 Y117.971
G1 X137.156 Y119.862
G1 X136.704 Y121.737
G1 X136.205 Y123.633
G1 X135.717 Y125.554
G1 X135.259 Y127.482
G1 X134.785 Y129.371
G1 X134.301 Y131.272
G1 X133.805 Y133.202
G1 X133.318 Y135.054
G1 X132.884 Y136.970
G1 X132.411 Y138.877
G1 X131.897 Y140.788
G1 X131.448 Y142.706
G1 X130.962 Y144.584
G1 X130.481 Y146.519
G1 X129.983 Y148.378
G1 X129.523 Y150.320
G1 X129.052 Y152.184
G1 X128.576 Y154.103
G1 X128.133 Y156.004
G1 X127.625 Y157.930
G1 X127.159 Y159.855
G1 X126.675 Y161.739
G1 X126.193 Y163.610
G1 X125.742 Y165.533
G1 X125.261 Y167.465
G1 X124.792 Y169.318
G1 X124.310 Y171.227
G1 X123.793 Y173.146
G1 X123.322 Y175.078
G1 X122.854 Y176.935
G1 X122.383 Y178.851
G1 X121.911 Y180.779
G1 X121.446 Y182.691
G1 X120.950 Y184.574
G1 X120.507 Y186.483
G1 X120.004 Y188.383
; Path 4
G0 Z0
G0 X120.009 Y188.424
G0 Z2.2
G1 F3000
G1 X120.303 Y186.516
G1 X120.645 Y184.578
G1 X120.983 Y182.641
G1 X121.276 Y180.669
G1 X121.622 Y178.748
G1 X121.962 Y176.781
G1 X122.243 Y174.864
G1 X122.610 Y172.952
G1 X122.903 Y170.996
G1 X123.209 Y169.049
G1 X123.573 Y167.099
G1 X123.858 Y165.165
G1 X124.219 Y163.257
G1 X124.522 Y161.329
G1 X124.818 Y159.394
G1 X125.139 Y157.448
G1 X125.447 Y155.507
G1 X125.775 Y153.598
G1 X126.117 Y151.637
G1 X126.433 Y149.714
G1 X126.736 Y147.753
G1 X127.066 Y145.840
G1 X127.414 Y143.884
G1 X127.721 Y141.949
G1 X128.039 Y140.039
G1 X128.366 Y138.092
G1 X128.662 Y136.173
G1 X129.013 Y134.204
G1 X129.310 Y132.280
G1 X129.659 Y130.369
G1 X129.978 Y128.403
; Path 5
G0 Z0
G0 X134.834 Y124.412
G0 Z2.2
G1 F3000
G1 X135.300 Y122.407
; Path 6
G0 Z0
G0 X138.999 Y118.558
G0 Z2.2
G1 F3000
G1 X140.901 Y118.287
; Path 7
G0 Z0
G0 X144.685 Y119.410
G0 Z2.2
G1 F3000
G1 X145.177 Y121.332
; Path 8
G0 Z0
G0 X150.017 Y123.415
G0 Z2.2
G1 F3000
G1 X150.323 Y125.409
G1 X150.645 Y127.327
G1 X150.923 Y129.305
G1 X151.226 Y131.289
G1 X151.537 Y133.263
G1 X151.850 Y135.208
G1 X152.141 Y137.181
G1 X152.465 Y139.201
G1 X152.764 Y141.160
G1 X153.029 Y143.115
G1 X153.335 Y145.105
G1 X153.652 Y147.024
G1 X153.954 Y149.002
G1 X154.269 Y150.981
G1 X154.533 Y152.960
G1 X154.871 Y154.948
G1 X155.161 Y156.885
G1 X155.455 Y158.871
G1 X155.784 Y160.859
G1 X156.078 Y162.791
G1 X156.375 Y164.796
G1 X156.680 Y166.752
G1 X156.971 Y168.743
G1 X157.272 Y170.703
G1 X157.600 Y172.679
G1 X157.877 Y174.646
G1 X158.203 Y176.602
G1 X158.508 Y178.548
G1 X158.775 Y180.529
G1 X159.063 Y182.489
G1 X159.407 Y184.494
G1 X159.711 Y186.463
G1 X159.993 Y188.422
; Path 9
G0 Z0
G0 X159.996 Y188.412
G0 Z2.2
G1 F3000
G1 X139.996 Y108.412
; Path 10
G1 X119.996 Y188.412
; Path 11
G0 Z0
G0 X110.012 Y188.408
G0 Z2.2
G1 F3000
G1 X112.024 Y188.402
G1 X114.017 Y188.407
G1 X115.996 Y188.429
G1 X117.995 Y188.437
G1 X119.991 Y188.429
G1 X122.015 Y188.430
G1 X123.983 Y188.410
G1 X126.000 Y188.387
G1 X128.017 Y188.391
G1 X130.014 Y188.409
G1 X132.037 Y188.433
G1 X134.026 Y188.395
G1 X135.998 Y188.387
G1 X137.984 Y188.385
G1 X140.020 Y188.437
G1 X141.988 Y188.406
G1 X144.012 Y188.390
G1 X146.025 Y188.392
G1 X147.986 Y188.380
G1 X149.977 Y188.392
G1 X152.031 Y188.432
G1 X153.984 Y188.425
G1 X156.001 Y188.413
G1 X158.024 Y188.383
G1 X159.983 Y188.431
G1 X162.023 Y188.394
G1 X164.010 Y188.385
G1 X166.031 Y188.417
G1 X168.010 Y188.386
G1 X169.999 Y188.403
G1 X172.022 Y188.416
G1 X173.999 Y188.381
G1 X176.025 Y188.405
G1 X178.002 Y188.409
G1 X180.011 Y188.416
G1 X181.989 Y188.394
G1 X183.985 Y188.433
G1 X185.999 Y188.384
G1 X188.009 Y188.377
G1 X189.973 Y188.384
G1 X191.998 Y188.391
G1 X193.979 Y188.397
G1 X195.994 Y188.377
G1 X198.024 Y188.393
G1 X199.983 Y188.432
G1 X201.977 Y188.386
G1 X204.021 Y188.436
G1 X205.991 Y188.384
G1 X207.972 Y188.430
G1 X209.994 Y188.388
G1 X211.995 Y188.410
G1 X213.979 Y188.422
G1 X215.997 Y188.400
G1 X217.978 Y188.390
G1 X220.014 Y188.432
G1 X222.010 Y188.399
G1 X224.023 Y188.408
G1 X225.986 Y188.385
G1 X227.984 Y188.415
G1 X229.999 Y188.421
G1 X232.012 Y188.387
G1 X233.984 Y188.430
G1 X235.966 Y188.401
G1 X237.995 Y188.399
G1 X240.014 Y188.380
G1 X241.972 Y188.383
G1 X243.980 Y188.434
G1 X245.991 Y188.432
G1 X247.966 Y188.414
G1 X250.015 Y188.410
G1 X251.968 Y188.377
G1 X253.990 Y188.394
G1 X255.997 Y188.378
G1 X258.001 Y188.406
G1 X259.972 Y188.433
G1 X261.989 Y188.398
G1 X263.997 Y188.404
G1 X265.980 Y188.430
G1 X267.999 Y188.411
G1 X269.997 Y188.416
G1 X272.004 Y188.415
G1 X273.999 Y188.419
G1 X276.004 Y188.417
G1 X277.994 Y188.392
G1 X279.966 Y188.394
G1 X281.965 Y188.377
G1 X284.018 Y188.422
G1 X285.990 Y188.397
G1 X287.976 Y188.400
G1 X289.983 Y188.417
G1 X291.988 Y188.414
G1 X294.006 Y188.383
G1 X295.965 Y188.381
G1 X298.014 Y188.417
G1 X300.010 Y188.405
G1 X301.975 Y188.428
G1 X303.961 Y188.380
G1 X305.973 Y188.385
G1 X308.000 Y188.428
G1 X309.986 Y188.404
; Path 12
G0 Z0
G0 X300.023 Y188.389
G0 Z2.2
G1 F3000
G1 X299.469 Y186.499
G1 X298.957 Y184.618
G1 X298.382 Y182.744
G1 X297.851 Y180.814
G1 X297.306 Y178.924
G1 X296.803 Y177.032
G1 X296.217 Y175.129
G1 X295.706 Y173.243
G1 X295.164 Y171.358
G1 X294.593 Y169.502
G1 X294.075 Y167.586
G1 X293.525 Y165.666
G1 X292.995 Y163.790
G1 X292.428 Y161.899
G1 X291.898 Y160.031
G1 X291.405 Y158.126
G1 X290.864 Y156.242
G1 X290.318 Y154.368
G1 X289.782 Y152.439
G1 X289.193 Y150.579
G1 X288.655 Y148.666
G1 X288.148 Y146.806
G1 X287.572 Y144.900
G1 X287.042 Y143.018
G1 X286.484 Y141.112
G1 X285.972 Y139.195
G1 X285.457 Y137.319
G1 X284.904 Y135.416
G1 X284.360 Y133.544
G1 X283.803 Y131.625
G1 X283.244 Y129.746
G1 X282.745 Y127.846
G1 X282.216 Y125.957
G1 X281.632 Y124.106
G1 X281.090 Y122.185
G1 X280.564 Y120.316
G1 X280.025 Y118.408
; Path 13
G0 Z0
G0 X280.002 Y118.384
G0 Z2.2
G1 F3000
G1 X279.463 Y120.247
G1 X278.942 Y122.162
G1 X278.351 Y124.085
G1 X277.851 Y125.931
G1 X277.281 Y127.818
G1 X276.774 Y129.745
G1 X276.236 Y131.632
G1 X275.680 Y133.546
G1 X275.151 Y135.404
G1 X274.594 Y137.319
G1 X274.043 Y139.216
G1 X273.502 Y141.108
G1 X272.984 Y142.985
G1 X272.393 Y144.852
G1 X271.890 Y146.755
G1 X271.367 Y148.665
G1 X270.812 Y150.573
G1 X270.265 Y152.436
G1 X269.720 Y154.334
G1 X269.202 Y156.252
G1 X268.615 Y158.098
G1 X268.074 Y159.990
G1 X267.522 Y161.879
G1 X266.996 Y163.809
G1 X266.466 Y165.698
G1 X265.923 Y167.574
G1 X265.413 Y169.500
G1 X264.837 Y171.341
G1 X264.293 Y173.237
G1 X263.782 Y175.168
G1 X263.212 Y177.023
G1 X262.687 Y178.944
G1 X262.131 Y180.856
G1 X261.613 Y182.729
G1 X261.084 Y184.628
G1 X260.536 Y186.517
G1 X259.972 Y188.399
; Path 14
G0 Z0
G0 X259.975 Y188.413
G0 Z2.2
G1 F3000
G1 X260.349 Y186.464
G1 X260.700 Y184.477
G1 X261.034 Y182.505
G1 X261.425 Y180.567
G1 X261.748 Y178.577
G1 X262.123 Y176.608
G1 X262.511 Y174.649
G1 X262.856 Y172.723
G1 X263.182 Y170.718
G1 X263.539 Y168.748
G1 X263.922 Y166.810
G1 X264.287 Y164.819
G1 X264.642 Y162.849
G1 X264.999 Y160.923
G1 X265.347 Y158.925
G1 X265.719 Y157.010
G1 X266.079 Y155.035
G1 X266.398 Y153.066
G1 X266.792 Y151.085
G1 X267.141 Y149.102
G1 X267.475 Y147.177
G1 X267.875 Y145.222
G1 X268.199 Y143.230
G1 X268.547 Y141.283
G1 X268.954 Y139.279
G1 X269.272 Y137.324
G1 X269.642 Y135.399
G1 X270.006 Y133.415
; Path 15
G0 Z0
G0 X272.678 Y144.469
G0 Z2.2
G1 F3000
G1 X273.340 Y142.583
; Path 16
G0 Z0
G0 X274.617 Y149.305
G0 Z2.2
G1 F3000
G1 X275.340 Y147.467
; Path 17
G0 Z0
G0 X275.352 Y147.512
G0 Z2.2
G1 F3000
G1 X274.742 Y149.389
; Path 18
G0 Z0
G0 X276.370 Y154.248
G0 Z2.2
G1 F3000
G1 X277.480 Y152.510
; Path 19
G0 Z0
G0 X270.325 Y155.585
G0 Z2.2
G1 F3000
G1 X269.797 Y157.430
; Path 20
G0 Z0
G0 X275.391 Y157.177
G0 Z2.2
G1 F3000
G1 X276.421 Y155.565
; Path 21
G0 Z0
G0 X278.701 Y157.814
G0 Z2.2
G1 F3000
G1 X277.078 Y158.952
; Path 22
G0 Z0
G0 X279.004 Y163.312
G0 Z2.2
G1 F3000
G1 X280.975 Y163.399
; Path 23
G0 Z0
G0 X282.895 Y168.821
G0 Z2.2
G1 F3000
G1 X280.986 Y167.953
; Path 24
G0 Z0
G0 X274.968 Y188.438
G0 Z2.2
G1 F3000
G1 X274.528 Y188.493
G1 X274.086 Y188.495
G1 X273.711 Y188.525
G1 X273.380 Y188.563
G1 X273.077 Y188.610
G1 X272.775 Y188.636
G1 X272.459 Y188.697
G1 X272.194 Y188.711
G1 X271.888 Y188.737
G1 X271.563 Y188.783
G1 X271.164 Y188.819
G1 X270.807 Y188.848
G1 X270.302 Y188.856
G1 X269.851 Y188.900
G1 X269.205 Y188.908
G1 X268.618 Y188.936
G1 X267.806 Y188.925
G1 X267.034 Y188.950
G1 X266.041 Y188.956
G1 X265.024 Y188.938
G1 X263.714 Y188.903
G1 X262.402 Y188.891
G1 X260.791 Y188.819
G1 X259.143 Y188.807
G1 X257.304 Y188.725
G1 X255.413 Y188.696
G1 X254.078 Y188.646
G1 X252.700 Y188.587
G1 X251.377 Y188.566
G1 X249.969 Y188.544
G1 X248.581 Y188.496
G1 X247.201 Y188.428
G1 X245.846 Y188.367
G1 X244.405 Y188.345
G1 X243.049 Y188.289
G1 X241.052 Y188.227
G1 X239.088 Y188.160
G1 X237.284 Y188.113
G1 X235.481 Y188.048
G1 X233.940 Y188.001
G1 X232.396 Y187.964
G1 X231.221 Y187.918
G1 X229.997 Y187.916
G1 X229.127 Y187.929
G1 X228.281 Y187.903
G1 X227.690 Y187.906
G1 X227.076 Y187.916
G1 X226.677 Y187.913
G1 X226.291 Y187.950
G1 X226.068 Y187.997
G1 X225.837 Y188.001
G1 X225.709 Y188.006
G1 X225.623 Y188.064
G1 X225.582 Y188.081
G1 X225.559 Y188.134
G1 X225.534 Y188.182
G1 X225.555 Y188.207
G1 X225.525 Y188.258
G1 X225.521 Y188.279
G1 X225.431 Y188.305
G1 X225.367 Y188.344
G1 X225.213 Y188.397
G1 X225.003 Y188.400
; Path 25
G0 Z0
G0 X239.979 Y188.421
G0 Z2.2
G1 F3000
G1 X239.435 Y186.551
G1 X238.842 Y184.668
G1 X238.273 Y182.780
G1 X237.724 Y180.872
G1 X237.141 Y179.015
G1 X236.590 Y177.127
G1 X236.013 Y175.186
G1 X235.445 Y173.332
G1 X234.899 Y171.440
G1 X234.322 Y169.544
G1 X233.774 Y167.670
G1 X233.185 Y165.777
G1 X232.627 Y163.874
G1 X232.033 Y162.013
G1 X231.484 Y160.118
G1 X230.915 Y158.247
G1 X230.349 Y156.333
G1 X229.803 Y154.454
G1 X229.208 Y152.553
G1 X228.654 Y150.705
G1 X228.093 Y148.824
G1 X227.512 Y146.897
G1 X226.959 Y145.038
G1 X226.423 Y143.128
G1 X225.850 Y141.261
G1 X225.301 Y139.346
G1 X224.681 Y137.470
G1 X224.138 Y135.589
G1 X223.587 Y133.725
G1 X223.019 Y131.820
G1 X222.456 Y129.942
G1 X221.898 Y128.049
G1 X221.302 Y126.155
G1 X220.771 Y124.303
G1 X220.176 Y122.408
G1 X219.605 Y120.526
G1 X219.064 Y118.609
G1 X218.488 Y116.745
G1 X217.920 Y114.844
G1 X217.362 Y112.989
G1 X216.788 Y111.099
G1 X216.243 Y109.192
G1 X215.692 Y107.295
G1 X215.124 Y105.402
G1 X214.532 Y103.546
G1 X213.941 Y101.623
G1 X213.415 Y99.747
G1 X212.831 Y97.875
G1 X212.293 Y95.960
G1 X211.732 Y94.086
G1 X211.148 Y92.226
G1 X210.570 Y90.319
G1 X210.008 Y88.435
; Path 26
G0 Z0
G0 X210.008 Y88.419
G0 Z2.2
G1 F3000
G1 X208.735 Y89.648
G1 X207.517 Y90.935
G1 X206.236 Y92.174
G1 X204.997 Y93.381
G1 X203.762 Y94.639
G1 X202.512 Y95.872
G1 X201.269 Y97.122
G1 X199.990 Y98.383
; Path 27
G0 Z0
G0 X201.996 Y90.412
G0 Z2.2
G1 F3000
G1 X209.996 Y90.412
; Path 28
G0 Z0
G0 X217.996 Y90.412
G0 Z2.2
G1 F3000
G1 X209.996 Y90.412
; Path 29
G0 Z0
G0 X229.070 Y63.134
G0 Z2.2
G1 F3000
G1 X230.970 Y63.579
; Path 30
G0 Z0
G0 X288.953 Y78.208
G0 Z2.2
G1 F3000
G1 X290.876 Y78.762
; Path 31
G0 Z0
G0 X285.996 Y120.412
G0 Z2.2
G1 F3000
G1 X279.996 Y121.412
; Path 32
G1 X273.996 Y120.412
; Path 33
G0 Z0
G0 X274.784 Y129.321
G0 Z2.2
G1 F3000
G1 X275.289 Y127.444
; Path 34
G0 Z0
G0 X278.921 Y126.501
G0 Z2.2
G1 F3000
G1 X280.926 Y126.459
; Path 35
G0 Z0
G0 X284.646 Y126.367
G0 Z2.2
G1 F3000
G1 X285.282 Y128.261
; Path 36
G0 Z0
G0 X289.988 Y130.393
G0 Z2.2
G1 F3000
G1 X290.348 Y132.311
G1 X290.658 Y134.287
G1 X290.982 Y136.222
G1 X291.327 Y138.108
G1 X291.627 Y140.088
G1 X292.004 Y142.025
G1 X292.303 Y143.956
G1 X292.626 Y145.857
G1 X292.973 Y147.775
G1 X293.299 Y149.715
G1 X293.623 Y151.677
G1 X293.977 Y153.633
G1 X294.313 Y155.546
G1 X294.635 Y157.485
G1 X294.965 Y159.397
G1 X295.320 Y161.368
G1 X295.634 Y163.265
G1 X295.956 Y165.206
G1 X296.318 Y167.156
G1 X296.664 Y169.108
G1 X296.955 Y171.036
G1 X297.325 Y172.971
G1 X297.641 Y174.873
G1 X298.006 Y176.834
G1 X298.336 Y178.722
G1 X298.652 Y180.682
G1 X298.955 Y182.593
G1 X299.292 Y184.578
G1 X299.663 Y186.496
G1 X299.976 Y188.422
; Path 37
G0 Z0
G0 X299.996 Y188.412
G0 Z2.2
G1 F3000
G1 X279.996 Y118.412
; Path 38
G1 X259.996 Y188.412
; Path 39
G0 Z0
G0 X276.002 Y207.363
G0 Z2.2
G1 F3000
G1 X273.910 Y207.469
; Path 40
G0 Z0
G0 X259.993 Y210.440
G0 Z2.2
G1 F3000
G1 X261.815 Y210.353
G1 X263.606 Y210.235
G1 X265.439 Y210.145
G1 X267.242 Y210.078
G1 X269.079 Y209.947
G1 X270.873 Y209.855
G1 X272.702 Y209.795
G1 X274.525 Y209.691
G1 X276.346 Y209.602
G1 X278.168 Y209.542
G1 X279.977 Y209.421
; Path 41
G0 Z0
G0 X293.901 Y214.259
G0 Z2.2
G1 F3000
G1 X295.925 Y214.561
; Path 42
G0 Z0
G0 X270.969 Y230.900
G0 Z2.2
G1 F3000
G1 X269.131 Y229.898
; Path 43
G0 Z0
G0 X245.763 Y233.866
G0 Z2.2
G1 F3000
G1 X244.238 Y232.793
; Path 44
G0 Z0
G0 X241.070 Y212.588
G0 Z2.2
G1 F3000
G1 X239.016 Y212.332
; Path 45
G0 Z0
G0 X220.897 Y216.381
G0 Z2.2
G1 F3000
G1 X219.004 Y216.269
; Path 46
G0 Z0
G0 X220.626 Y227.276
G0 Z2.2
G1 F3000
G1 X219.391 Y225.712
; Path 47
G0 Z0
G0 X200.456 Y229.354
G0 Z2.2
G1 F3000
G1 X199.550 Y227.563
; Path 48
G0 Z0
G0 X204.972 Y213.391
G0 Z2.2
G1 F3000
G1 X203.116 Y213.642
G1 X201.242 Y213.888
G1 X199.346 Y214.120
G1 X197.467 Y214.411
G1 X195.603 Y214.666
G1 X193.756 Y214.914
G1 X191.850 Y215.181
G1 X190.000 Y215.405
; Path 49
G0 Z0
G0 X184.702 Y222.502
G0 Z2.2
G1 F3000
G1 X185.195 Y224.324
; Path 50
G0 Z0
G0 X178.967 Y210.400
G0 Z2.2
G1 F3000
G1 X180.989 Y210.271
; Path 51
G0 Z0
G0 X175.756 Y209.806
G0 Z2.2
G1 F3000
G1 X174.227 Y211.072
; Path 52
G0 Z0
G0 X174.007 Y206.383
G0 Z2.2
G1 F3000
G1 X172.696 Y205.375
G1 X171.318 Y204.394
G1 X169.992 Y203.438
; Path 53
G0 Z0
G0 X169.993 Y203.427
G0 Z2.2
G1 F3000
G1 X168.674 Y204.413
G1 X167.338 Y205.395
G1 X166.004 Y206.384
; Path 54
G0 Z0
G0 X161.031 Y206.671
G0 Z2.2
G1 F3000
G1 X158.989 Y206.141
; Path 55
G0 Z0
G0 X147.562 Y212.557
G0 Z2.2
G1 F3000
G1 X148.468 Y214.308
; Path 56
G0 Z0
G0 X139.194 Y211.774
G0 Z2.2
G1 F3000
G1 X140.788 Y213.135
; Path 57
G0 Z0
G0 X137.134 Y213.701
G0 Z2.2
G1 F3000
G1 X138.748 Y214.964
; Path 58
G0 Z0
G0 X133.971 Y213.290
G0 Z2.2
G1 F3000
G1 X135.923 Y213.613
; Path 59
G0 Z0
G0 X130.959 Y213.664
G0 Z2.2
G1 F3000
G1 X129.011 Y213.127
; Path 60
G0 Z0
G0 X128.902 Y215.599
G0 Z2.2
G1 F3000
G1 X127.070 Y215.018
; Path 61
G0 Z0
G0 X120.976 Y214.495
G0 Z2.2
G1 F3000
G1 X119.008 Y214.544
; Path 62
G0 Z0
G0 X119.079 Y216.533
G0 Z2.2
G1 F3000
G1 X117.015 Y216.360
; Path 63
G0 Z0
G0 X123.941 Y208.287
G0 Z2.2
G1 F3000
G1 X125.991 Y208.575
; Path 64
G0 Z0
G0 X129.976 Y208.431
G0 Z2.2
G1 F3000
G1 X131.881 Y208.834
G1 X133.744 Y209.187
G1 X135.597 Y209.568
G1 X137.477 Y209.943
G1 X139.380 Y210.309
G1 X141.216 Y210.691
G1 X143.133 Y211.059
G1 X145.001 Y211.434
; Path 65
G0 Z0
G0 X149.613 Y210.518
G0 Z2.2
G1 F3000
G1 X150.306 Y212.323
; Path 66
G0 Z0
G0 X158.003 Y213.272
G0 Z2.2
G1 F3000
G1 X158.096 Y211.355
; Path 67
G0 Z0
G0 X160.301 Y209.457
G0 Z2.2
G1 F3000
G1 X159.624 Y211.284
; Path 68
G0 Z0
G0 X165.023 Y208.507
G0 Z2.2
G1 F3000
G1 X167.002 Y208.297
; Path 69
G0 Z0
G0 X169.986 Y208.388
G0 Z2.2
G1 F3000
G1 X171.679 Y207.537
G1 X173.331 Y206.763
G1 X174.986 Y205.913
G1 X176.651 Y205.066
G1 X178.306 Y204.241
G1 X180.004 Y203.432
; Path 70
G0 Z0
G0 X179.970 Y193.421
G0 Z2.2
G1 F3000
G1 X179.714 Y191.556
G1 X179.492 Y189.655
G1 X179.242 Y187.816
G1 X178.956 Y185.925
G1 X178.714 Y184.060
G1 X178.454 Y182.148
G1 X178.198 Y180.287
G1 X177.975 Y178.425
; Path 71
G0 Z0
G0 X177.008 Y166.388
G0 Z2.2
G1 F3000
G1 X176.024 Y166.416
G1 X174.983 Y166.418
; Path 72
G0 Z0
G0 X173.595 Y166.126
G0 Z2.2
G1 F3000
G1 X172.331 Y164.556
; Path 73
G0 Z0
G0 X172.996 Y164.912
G0 Z2.2
G1 F3000
G1 X172.496 Y164.412
G1 X171.996 Y164.912
G1 X172.496 Y165.412
G1 X172.996 Y164.912
; Path 74
G0 Z0
G0 X172.496 Y165.412
G0 Z2.2
G1 F3000
G1 X171.996 Y164.912
G1 X171.496 Y165.412
G1 X171.996 Y165.912
G1 X172.496 Y165.412
; Path 75
G0 Z0
G0 X172.013 Y164.407
G0 Z2.2
G1 F3000
G1 X171.505 Y163.390
G1 X171.021 Y162.427
; Path 76
G0 Z0
G0 X170.449 Y163.606
G0 Z2.2
G1 F3000
G1 X171.507 Y165.381
; Path 77
G0 Z0
G0 X170.000 Y164.441
G0 Z2.2
G1 F3000
G1 X169.478 Y163.449
G1 X168.991 Y162.402
; Path 78
G0 Z0
G0 X167.020 Y163.432
G0 Z2.2
G1 F3000
G1 X167.519 Y164.450
G1 X167.982 Y165.426
; Path 79
G0 Z0
G0 X166.678 Y165.606
G0 Z2.2
G1 F3000
G1 X165.400 Y167.174
; Path 80
G0 Z0
G0 X164.640 Y166.327
G0 Z2.2
G1 F3000
G1 X165.234 Y164.438
; Path 81
G0 Z0
G0 X165.430 Y165.159
G0 Z2.2
G1 F3000
G1 X166.416 Y163.474
; Path 82
G0 Z0
G0 X150.332 Y161.460
G0 Z2.2
G1 F3000
G1 X149.666 Y159.571
; Path 83
G0 Z0
G0 X140.966 Y153.355
G0 Z2.2
G1 F3000
G1 X139.025 Y153.437
; Path 84
G0 Z0
G0 X138.969 Y153.287
G0 Z2.2
G1 F3000
G1 X140.858 Y153.309
; Path 85
G0 Z0
G0 X137.369 Y149.083
G0 Z2.2
G1 F3000
G1 X138.796 Y147.761
; Path 86
G0 Z0
G0 X136.509 Y144.251
G0 Z2.2
G1 F3000
G1 X137.512 Y142.476
; Path 87
G0 Z0
G0 X134.679 Y139.362
G0 Z2.2
G1 F3000
G1 X135.240 Y137.549
; Path 88
G0 Z0
G0 X135.326 Y137.532
G0 Z2.2
G1 F3000
G1 X134.729 Y139.480
; Path 89
G0 Z0
G0 X136.407 Y145.533
G0 Z2.2
G1 F3000
G1 X135.598 Y147.419
; Path 90
G0 Z0
G0 X142.806 Y158.849
G0 Z2.2
G1 F3000
G1 X141.074 Y157.788
; Path 91
G0 Z0
G0 X140.026 Y160.135
G0 Z2.2
G1 F3000
G1 X141.919 Y160.673
; Path 92
G0 Z0
G0 X142.157 Y162.720
G0 Z2.2
G1 F3000
G1 X143.890 Y163.871
; Path 93
G0 Z0
G0 X145.802 Y169.136
G0 Z2.2
G1 F3000
G1 X144.211 Y167.858
; Path 94
G0 Z0
G0 X144.516 Y167.694
G0 Z2.2
G1 F3000
G1 X145.646 Y169.182
; Path 95
G0 Z0
G0 X146.265 Y172.769
G0 Z2.2
G1 F3000
G1 X147.809 Y174.122
; Path 96
G0 Z0
G0 X150.026 Y188.383
G0 Z2.2
G1 F3000
G1 X150.244 Y188.358
G1 X150.457 Y188.275
G1 X150.639 Y188.210
G1 X150.782 Y188.147
G1 X150.901 Y188.084
G1 X151.048 Y188.008
G1 X151.149 Y187.956
G1 X151.299 Y187.865
G1 X151.466 Y187.822
G1 X151.579 Y187.728
G1 X151.734 Y187.658
G1 X151.935 Y187.606
G1 X152.155 Y187.575
G1 X152.411 Y187.507
G1 X152.717 Y187.459
G1 X153.052 Y187.441
G1 X153.492 Y187.443
G1 X153.903 Y187.415
G1 X154.448 Y187.452
G1 X155.009 Y187.439
G1 X155.730 Y187.488
G1 X156.468 Y187.531
G1 X157.405 Y187.623
G1 X158.288 Y187.694
G1 X159.316 Y187.826
G1 X160.378 Y187.910
G1 X161.486 Y188.010
G1 X162.648 Y188.162
G1 X163.816 Y188.323
G1 X165.008 Y188.430
G1 X166.182 Y188.583
G1 X167.368 Y188.698
G1 X168.483 Y188.797
G1 X169.637 Y188.948
G1 X170.659 Y189.056
G1 X171.727 Y189.162
G1 X172.638 Y189.271
G1 X173.546 Y189.323
G1 X174.290 Y189.340
G1 X175.004 Y189.412
G1 X175.558 Y189.434
G1 X176.110 Y189.431
G1 X176.535 Y189.396
G1 X176.960 Y189.399
G1 X177.274 Y189.371
G1 X177.599 Y189.326
G1 X177.857 Y189.279
G1 X178.074 Y189.219
G1 X178.258 Y189.148
G1 X178.428 Y189.089
G1 X178.559 Y189.032
G1 X178.707 Y188.943
G1 X178.852 Y188.886
G1 X178.955 Y188.791
G1 X179.117 Y188.741
G1 X179.219 Y188.643
G1 X179.377 Y188.562
G1 X179.543 Y188.506
G1 X179.761 Y188.429
G1 X179.972 Y188.391
; Path 97
G0 Z0
G0 X179.969 Y188.395
G0 Z2.2
G1 F3000
G1 X180.542 Y186.523
G1 X181.103 Y184.611
G1 X181.690 Y182.732
G1 X182.213 Y180.868
G1 X182.817 Y178.950
G1 X183.369 Y177.051
G1 X183.954 Y175.173
G1 X184.501 Y173.296
G1 X185.064 Y171.427
G1 X185.612 Y169.555
G1 X186.182 Y167.632
G1 X186.758 Y165.757
G1 X187.341 Y163.856
G1 X187.903 Y162.002
G1 X188.481 Y160.107
G1 X189.048 Y158.243
G1 X189.610 Y156.342
G1 X190.191 Y154.469
G1 X190.756 Y152.533
G1 X191.296 Y150.697
G1 X191.836 Y148.809
G1 X192.412 Y146.894
G1 X192.971 Y145.021
G1 X193.592 Y143.138
G1 X194.106 Y141.221
G1 X194.711 Y139.328
G1 X195.290 Y137.486
G1 X195.838 Y135.603
G1 X196.410 Y133.675
G1 X196.952 Y131.835
G1 X197.513 Y129.902
G1 X198.122 Y128.043
G1 X198.651 Y126.134
G1 X199.253 Y124.267
G1 X199.783 Y122.403
G1 X200.358 Y120.511
G1 X200.919 Y118.618
G1 X201.469 Y116.749
G1 X202.072 Y114.810
G1 X202.643 Y112.925
G1 X203.177 Y111.033
G1 X203.779 Y109.174
G1 X204.310 Y107.298
G1 X204.908 Y105.422
G1 X205.454 Y103.512
G1 X206.032 Y101.628
G1 X206.608 Y99.746
G1 X207.173 Y97.886
G1 X207.712 Y95.958
G1 X208.306 Y94.071
G1 X208.836 Y92.179
G1 X209.455 Y90.321
G1 X209.993 Y88.428
; Path 98
G0 Z0
G0 X209.975 Y88.414
G0 Z2.2
G1 F3000
G1 X211.008 Y89.890
G1 X211.988 Y91.427
G1 X212.971 Y92.891
G1 X214.003 Y94.401
G1 X214.998 Y95.886
G1 X215.989 Y97.397
G1 X216.989 Y98.920
G1 X218.028 Y100.402
G1 X219.032 Y101.917
G1 X220.011 Y103.393
; Path 99
G0 Z0
G0 X217.677 Y105.549
G0 Z2.2
G1 F3000
G1 X218.334 Y107.360
; Path 100
G0 Z0
G0 X215.302 Y101.288
G0 Z2.2
G1 F3000
G1 X214.651 Y99.480
; Path 101
G0 Z0
G0 X211.072 Y98.482
G0 Z2.2
G1 F3000
G1 X208.971 Y98.189
; Path 102
G0 Z0
G0 X208.272 Y95.450
G0 Z2.2
G1 F3000
G1 X207.723 Y97.443
; Path 103
G0 Z0
G0 X205.411 Y102.403
G0 Z2.2
G1 F3000
G1 X204.838 Y104.409
; Path 104
G0 Z0
G0 X202.426 Y107.458
G0 Z2.2
G1 F3000
G1 X201.736 Y109.281
; Path 105
G0 Z0
G0 X194.975 Y108.439
G0 Z2.2
G1 F3000
G1 X194.633 Y110.381
G1 X194.260 Y112.313
G1 X193.861 Y114.308
G1 X193.518 Y116.222
G1 X193.128 Y118.199
G1 X192.804 Y120.171
G1 X192.388 Y122.079
G1 X192.041 Y124.048
G1 X191.676 Y125.974
G1 X191.315 Y127.958
G1 X190.928 Y129.899
G1 X190.592 Y131.868
G1 X190.207 Y133.809
G1 X189.874 Y135.743
G1 X189.472 Y137.693
G1 X189.101 Y139.627
G1 X188.740 Y141.601
G1 X188.396 Y143.566
G1 X188.038 Y145.517
G1 X187.665 Y147.435
G1 X187.267 Y149.386
G1 X186.932 Y151.364
G1 X186.572 Y153.286
G1 X186.183 Y155.251
G1 X185.847 Y157.195
G1 X185.480 Y159.159
G1 X185.120 Y161.133
G1 X184.707 Y163.060
G1 X184.357 Y165.010
G1 X184.019 Y166.971
G1 X183.648 Y168.888
G1 X183.269 Y170.865
G1 X182.903 Y172.786
G1 X182.524 Y174.774
G1 X182.176 Y176.732
G1 X181.799 Y178.689
G1 X181.413 Y180.618
G1 X181.071 Y182.552
G1 X180.730 Y184.540
G1 X180.368 Y186.481
G1 X179.977 Y188.415
; Path 106
G0 Z0
G0 X179.996 Y188.412
G0 Z2.2
G1 F3000
G1 X209.996 Y88.412
; Path 107
G1 X239.996 Y188.412
; Path 108
G0 Z0
G0 X240.021 Y188.409
G0 Z2.2
G1 F3000
G1 X239.623 Y186.514
G1 X239.264 Y184.551
G1 X238.888 Y182.650
G1 X238.450 Y180.715
G1 X238.089 Y178.815
G1 X237.707 Y176.880
G1 X237.303 Y174.972
G1 X236.953 Y173.013
G1 X236.525 Y171.092
G1 X236.195 Y169.167
G1 X235.754 Y167.259
G1 X235.399 Y165.351
G1 X234.986 Y163.423
G1 X234.631 Y161.493
G1 X234.209 Y159.563
G1 X233.879 Y157.635
G1 X233.462 Y155.704
G1 X233.105 Y153.829
G1 X232.679 Y151.857
G1 X232.300 Y149.942
G1 X231.913 Y148.014
G1 X231.531 Y146.129
G1 X231.123 Y144.194
G1 X230.771 Y142.285
G1 X230.378 Y140.369
G1 X229.990 Y138.402
G1 X229.617 Y136.509
G1 X229.250 Y134.563
G1 X228.841 Y132.646
G1 X228.454 Y130.735
G1 X228.058 Y128.800
G1 X227.709 Y126.911
G1 X227.286 Y124.974
G1 X226.908 Y123.073
G1 X226.503 Y121.147
G1 X226.166 Y119.223
G1 X225.739 Y117.263
G1 X225.344 Y115.385
G1 X224.983 Y113.441
; Path 109
G0 Z0
G0 X194.648 Y129.345
G0 Z2.2
G1 F3000
G1 X195.293 Y127.485
; Path 110
G0 Z0
G0 X195.271 Y127.361
G0 Z2.2
G1 F3000
G1 X194.709 Y129.383
; Path 111
G0 Z0
G0 X196.735 Y134.407
G0 Z2.2
G1 F3000
G1 X197.347 Y132.571
; Path 112
G0 Z0
G0 X203.603 Y135.644
G0 Z2.2
G1 F3000
G1 X202.442 Y137.216
; Path 113
G0 Z0
G0 X208.942 Y151.459
G0 Z2.2
G1 F3000
G1 X206.972 Y151.592
; Path 114
G0 Z0
G0 X201.301 Y149.173
G0 Z2.2
G1 F3000
G1 X202.652 Y147.745
; Path 115
G0 Z0
G0 X199.582 Y144.364
G0 Z2.2
G1 F3000
G1 X200.322 Y142.537
; Path 116
G0 Z0
G0 X200.412 Y142.426
G0 Z2.2
G1 F3000
G1 X199.603 Y144.276
; Path 117
G0 Z0
G0 X193.260 Y142.490
G0 Z2.2
G1 F3000
G1 X192.669 Y144.457
; Path 118
G0 Z0
G0 X190.297 Y147.402
G0 Z2.2
G1 F3000
G1 X189.693 Y149.311
; Path 119
G0 Z0
G0 X191.721 Y157.365
G0 Z2.2
G1 F3000
G1 X192.318 Y155.494
; Path 120
G0 Z0
G0 X197.347 Y157.118
G0 Z2.2
G1 F3000
G1 X198.670 Y155.624
; Path 121
G0 Z0
G0 X204.088 Y158.550
G0 Z2.2
G1 F3000
G1 X206.031 Y158.259
; Path 122
G0 Z0
G0 X205.907 Y157.704
G0 Z2.2
G1 F3000
G1 X204.266 Y159.079
; Path 123
G0 Z0
G0 X205.924 Y163.409
G0 Z2.2
G1 F3000
G1 X207.906 Y163.513
; Path 124
G0 Z0
G0 X214.103 Y165.950
G0 Z2.2
G1 F3000
G1 X216.038 Y166.694
; Path 125
G0 Z0
G0 X220.966 Y176.715
G0 Z2.2
G1 F3000
G1 X219.033 Y176.132
; Path 126
G0 Z0
G0 X213.003 Y178.673
G0 Z2.2
G1 F3000
G1 X211.016 Y178.368
; Path 127
G0 Z0
G0 X208.918 Y173.395
G0 Z2.2
G1 F3000
G1 X210.921 Y173.632
; Path 128
G0 Z0
G0 X211.001 Y173.382
G0 Z2.2
G1 F3000
G1 X208.871 Y173.316
; Path 129
G0 Z0
G0 X201.043 Y173.369
G0 Z2.2
G1 F3000
G1 X199.095 Y173.545
; Path 130
G0 Z0
G0 X195.798 Y167.804
G0 Z2.2
G1 F3000
G1 X194.136 Y168.902
; Path 131
G0 Z0
G0 X186.734 Y169.415
G0 Z2.2
G1 F3000
G1 X187.354 Y167.536
; Path 132
G0 Z0
G0 X185.253 Y162.477
G0 Z2.2
G1 F3000
G1 X184.850 Y164.366
; Path 133
G0 Z0
G0 X184.614 Y164.472
G0 Z2.2
G1 F3000
G1 X185.345 Y162.475
; Path 134
G0 Z0
G0 X187.746 Y159.338
G0 Z2.2
G1 F3000
G1 X188.256 Y157.451
; Path 135
G0 Z0
G0 X180.865 Y156.043
G0 Z2.2
G1 F3000
G1 X179.101 Y156.839
; Path 136
G0 Z0
G0 X176.496 Y165.412
G0 Z2.2
G1 F3000
G1 X175.996 Y164.912
G1 X175.496 Y165.412
G1 X175.996 Y165.912
G1 X176.496 Y165.412
; Path 137
G0 Z0
G0 X174.974 Y164.398
G0 Z2.2
G1 F3000
G1 X176.339 Y165.102
G1 X177.638 Y165.765
G1 X179.005 Y166.425
; Path 138
G0 Z0
G0 X178.974 Y166.439
G0 Z2.2
G1 F3000
G1 X177.661 Y167.066
G1 X176.317 Y167.726
G1 X175.005 Y168.406
; Path 139
G0 Z0
G0 X173.996 Y168.982
G0 Z2.2
G1 F3000
G1 X175.831 Y167.952
; Path 140
G0 Z0
G0 X175.968 Y168.409
G0 Z2.2
G1 F3000
G1 X175.847 Y168.124
G1 X175.780 Y167.793
G1 X175.700 Y167.471
G1 X175.607 Y167.148
G1 X175.546 Y166.792
G1 X175.441 Y166.487
G1 X175.357 Y166.181
G1 X175.278 Y165.823
G1 X175.174 Y165.520
G1 X175.111 Y165.166
G1 X175.030 Y164.875
G1 X174.933 Y164.530
G1 X174.836 Y164.244
G1 X174.740 Y163.925
G1 X174.643 Y163.673
G1 X174.524 Y163.364
G1 X174.422 Y163.127
G1 X174.281 Y162.859
G1 X174.112 Y162.622
G1 X174.002 Y162.422
G1 X173.845 Y162.243
G1 X173.686 Y162.061
G1 X173.510 Y161.938
G1 X173.336 Y161.768
G1 X173.167 Y161.626
G1 X172.957 Y161.530
G1 X172.757 Y161.420
G1 X172.556 Y161.337
G1 X172.349 Y161.229
G1 X172.139 Y161.175
G1 X171.927 Y161.082
G1 X171.712 Y161.033
G1 X171.515 Y160.960
G1 X171.281 Y160.900
G1 X171.089 Y160.824
G1 X170.852 Y160.762
G1 X170.617 Y160.702
G1 X170.431 Y160.608
G1 X170.254 Y160.506
G1 X170.024 Y160.427
; Path 141
G0 Z0
G0 X169.983 Y160.390
G0 Z2.2
G1 F3000
G1 X169.805 Y160.491
G1 X169.576 Y160.576
G1 X169.371 Y160.632
G1 X169.154 Y160.735
G1 X168.957 Y160.803
G1 X168.725 Y160.879
G1 X168.517 Y160.974
G1 X168.293 Y161.018
G1 X168.071 Y161.069
G1 X167.866 Y161.165
G1 X167.656 Y161.275
G1 X167.449 Y161.332
G1 X167.267 Y161.407
G1 X167.047 Y161.530
G1 X166.841 Y161.657
G1 X166.667 Y161.772
G1 X166.476 Y161.944
G1 X166.315 Y162.068
G1 X166.136 Y162.237
G1 X165.997 Y162.431
G1 X165.854 Y162.638
G1 X165.717 Y162.868
G1 X165.568 Y163.121
G1 X165.470 Y163.372
G1 X165.333 Y163.638
G1 X165.252 Y163.930
G1 X165.158 Y164.250
G1 X165.055 Y164.532
G1 X164.960 Y164.857
G1 X164.874 Y165.165
G1 X164.800 Y165.484
G1 X164.703 Y165.818
G1 X164.632 Y166.151
G1 X164.536 Y166.479
G1 X164.448 Y166.836
G1 X164.367 Y167.135
G1 X164.299 Y167.434
G1 X164.190 Y167.776
G1 X164.070 Y168.094
G1 X163.999 Y168.390
; Path 142
G0 Z0
G0 X164.154 Y179.556
G0 Z2.2
G1 F3000
G1 X163.964 Y177.424
; Path 143
G0 Z0
G0 X162.020 Y178.388
G0 Z2.2
G1 F3000
G1 X161.740 Y180.286
G1 X161.521 Y182.137
G1 X161.229 Y183.997
G1 X161.032 Y185.893
G1 X160.774 Y187.776
G1 X160.505 Y189.655
G1 X160.269 Y191.563
G1 X159.988 Y193.424
; Path 144
G0 Z0
G0 X164.859 Y196.977
G0 Z2.2
G1 F3000
G1 X163.328 Y195.782
; Path 145
G0 Z0
G0 X165.993 Y193.408
G0 Z2.2
G1 F3000
G1 X165.545 Y191.526
G1 X165.163 Y189.661
G1 X164.720 Y187.827
G1 X164.308 Y185.956
G1 X163.840 Y184.112
G1 X163.457 Y182.262
G1 X163.002 Y180.387
; Path 146
G0 Z0
G0 X162.754 Y182.495
G0 Z2.2
G1 F3000
G1 X163.342 Y184.372
; Path 147
G0 Z0
G0 X164.985 Y188.382
G0 Z2.2
G1 F3000
G1 X164.961 Y187.929
G1 X164.963 Y187.456
G1 X164.927 Y186.925
G1 X164.906 Y186.334
G1 X164.895 Y185.728
G1 X164.830 Y185.100
G1 X164.781 Y184.461
G1 X164.748 Y183.837
G1 X164.686 Y183.250
G1 X164.676 Y182.631
G1 X164.645 Y182.069
G1 X164.630 Y181.565
G1 X164.618 Y181.142
G1 X164.623 Y180.723
G1 X164.638 Y180.454
G1 X164.671 Y180.190
G1 X164.701 Y180.099
G1 X164.788 Y180.049
G1 X164.887 Y180.209
G1 X164.991 Y180.385
G1 X165.127 Y180.821
G1 X165.288 Y181.254
G1 X165.509 Y181.899
G1 X165.670 Y182.600
G1 X165.909 Y183.492
G1 X166.122 Y184.339
G1 X166.384 Y185.351
G1 X166.628 Y186.386
G1 X166.908 Y187.493
G1 X167.175 Y188.657
G1 X167.456 Y189.859
G1 X167.746 Y191.069
G1 X168.052 Y192.294
G1 X168.327 Y193.537
G1 X168.616 Y194.757
G1 X168.904 Y195.976
G1 X169.196 Y197.140
G1 X169.460 Y198.304
G1 X169.732 Y199.373
G1 X169.982 Y200.435
; Path 148
G0 Z0
G0 X170.023 Y200.387
G0 Z2.2
G1 F3000
G1 X170.296 Y200.220
G1 X170.546 Y200.006
G1 X170.835 Y199.807
G1 X171.104 Y199.653
G1 X171.378 Y199.460
G1 X171.682 Y199.316
G1 X171.985 Y199.133
G1 X172.265 Y198.983
G1 X172.526 Y198.823
G1 X172.838 Y198.642
G1 X173.094 Y198.436
G1 X173.386 Y198.281
G1 X173.610 Y198.114
G1 X173.893 Y197.888
G1 X174.099 Y197.674
G1 X174.345 Y197.452
G1 X174.508 Y197.186
G1 X174.726 Y196.959
G1 X174.869 Y196.676
G1 X175.022 Y196.399
G1 X175.095 Y196.102
G1 X175.222 Y195.763
G1 X175.250 Y195.439
G1 X175.336 Y195.059
G1 X175.382 Y194.681
G1 X175.379 Y194.299
G1 X175.397 Y193.895
G1 X175.368 Y193.496
G1 X175.344 Y193.087
G1 X175.315 Y192.660
G1 X175.301 Y192.211
G1 X175.238 Y191.805
G1 X175.173 Y191.358
G1 X175.150 Y190.942
G1 X175.127 Y190.533
G1 X175.068 Y190.082
G1 X175.007 Y189.664
G1 X175.005 Y189.239
G1 X175.007 Y188.847
G1 X174.978 Y188.423
; Path 149
G0 Z0
G0 X175.002 Y188.408
G0 Z2.2
G1 F3000
G1 X174.304 Y186.691
G1 X173.554 Y184.972
G1 X172.875 Y183.261
G1 X172.104 Y181.541
G1 X171.410 Y179.863
G1 X170.719 Y178.109
G1 X169.979 Y176.404
; Path 150
G0 Z0
G0 X169.987 Y176.440
G0 Z2.2
G1 F3000
G1 X169.303 Y178.152
G1 X168.566 Y179.886
G1 X167.850 Y181.564
G1 X167.161 Y183.281
G1 X166.459 Y185.016
G1 X165.745 Y186.704
G1 X165.025 Y188.424
; Path 151
G0 Z0
G0 X163.969 Y190.691
G0 Z2.2
G1 F3000
G1 X162.014 Y190.008
; Path 152
G0 Z0
G0 X162.006 Y188.425
G0 Z2.2
G1 F3000
G1 X161.997 Y187.868
G1 X161.968 Y187.265
G1 X161.941 Y186.532
G1 X161.873 Y185.859
G1 X161.787 Y185.100
G1 X161.746 Y184.314
G1 X161.674 Y183.541
G1 X161.611 Y182.733
G1 X161.549 Y181.952
G1 X161.492 Y181.223
G1 X161.424 Y180.580
G1 X161.413 Y179.888
G1 X161.419 Y179.351
G1 X161.399 Y178.833
G1 X161.456 Y178.493
G1 X161.473 Y178.164
G1 X161.577 Y178.062
G1 X161.660 Y177.985
G1 X161.848 Y178.185
G1 X161.984 Y178.403
G1 X162.237 Y178.950
G1 X162.461 Y179.486
G1 X162.794 Y180.354
G1 X163.076 Y181.166
G1 X163.411 Y182.227
G1 X163.803 Y183.336
G1 X164.204 Y184.617
G1 X164.619 Y185.891
G1 X165.049 Y187.315
G1 X165.499 Y188.728
G1 X165.938 Y190.261
G1 X166.419 Y191.739
G1 X166.889 Y193.295
G1 X167.356 Y194.820
G1 X167.807 Y196.329
G1 X168.284 Y197.867
G1 X168.759 Y199.338
G1 X169.181 Y200.773
G1 X169.571 Y202.114
G1 X170.021 Y203.434
; Path 153
G0 Z0
G0 X170.000 Y203.416
G0 Z2.2
G1 F3000
G1 X170.430 Y203.165
G1 X170.837 Y202.936
G1 X171.273 Y202.702
G1 X171.730 Y202.491
G1 X172.166 Y202.284
G1 X172.656 Y202.066
G1 X173.142 Y201.860
G1 X173.589 Y201.646
G1 X174.072 Y201.413
G1 X174.507 Y201.216
G1 X174.952 Y200.984
G1 X175.384 Y200.761
G1 X175.770 Y200.544
G1 X176.197 Y200.267
G1 X176.533 Y200.001
G1 X176.922 Y199.717
G1 X177.236 Y199.409
G1 X177.535 Y199.098
G1 X177.786 Y198.764
G1 X178.011 Y198.394
G1 X178.190 Y197.991
G1 X178.336 Y197.596
G1 X178.454 Y197.151
G1 X178.524 Y196.713
G1 X178.555 Y196.217
G1 X178.599 Y195.761
G1 X178.581 Y195.252
G1 X178.587 Y194.753
G1 X178.563 Y194.217
G1 X178.510 Y193.706
G1 X178.452 Y193.147
G1 X178.393 Y192.634
G1 X178.318 Y192.068
G1 X178.260 Y191.552
G1 X178.193 Y190.998
G1 X178.136 Y190.475
G1 X178.097 Y189.921
G1 X178.043 Y189.418
G1 X178.045 Y188.919
G1 X178.006 Y188.395
; Path 154
G0 Z0
G0 X178.015 Y188.431
G0 Z2.2
G1 F3000
G1 X177.135 Y186.761
G1 X176.208 Y185.101
G1 X175.317 Y183.402
G1 X174.464 Y181.754
G1 X173.534 Y180.059
G1 X172.635 Y178.423
G1 X171.784 Y176.755
G1 X170.861 Y175.058
G1 X169.977 Y173.411
; Path 155
G0 Z0
G0 X169.975 Y173.394
G0 Z2.2
G1 F3000
G1 X169.104 Y175.083
G1 X168.225 Y176.734
G1 X167.307 Y178.397
G1 X166.438 Y180.056
G1 X165.581 Y181.747
G1 X164.653 Y183.413
G1 X163.786 Y185.068
G1 X162.896 Y186.720
G1 X162.016 Y188.411
; Path 156
G0 Z0
G0 X160.016 Y188.393
G0 Z2.2
G1 F3000
G1 X159.537 Y186.477
G1 X159.052 Y184.603
G1 X158.583 Y182.698
G1 X158.110 Y180.755
G1 X157.657 Y178.850
G1 X157.153 Y176.994
G1 X156.681 Y175.082
G1 X156.190 Y173.181
G1 X155.751 Y171.247
G1 X155.236 Y169.366
G1 X154.808 Y167.457
G1 X154.311 Y165.562
G1 X153.811 Y163.637
G1 X153.361 Y161.760
G1 X152.859 Y159.836
G1 X152.408 Y157.914
G1 X151.931 Y155.995
G1 X151.438 Y154.118
G1 X150.943 Y152.195
G1 X150.481 Y150.323
G1 X150.034 Y148.396
G1 X149.520 Y146.507
G1 X149.065 Y144.585
G1 X148.601 Y142.701
G1 X148.102 Y140.790
G1 X147.655 Y138.905
G1 X147.170 Y136.983
G1 X146.697 Y135.051
G1 X146.221 Y133.145
G1 X145.708 Y131.251
G1 X145.246 Y129.384
G1 X144.773 Y127.460
G1 X144.307 Y125.548
G1 X143.806 Y123.629
G1 X143.349 Y121.724
G1 X142.861 Y119.866
G1 X142.425 Y117.948
G1 X141.896 Y116.056
G1 X141.462 Y114.118
G1 X140.998 Y112.223
G1 X140.495 Y110.337
G1 X140.019 Y108.417
; Path 157
G0 Z0
G0 X139.996 Y111.412
G0 Z2.2
G1 F3000
G1 X144.996 Y110.412
G0 Z0
M5
G4 P0.3
G0 X0 Y0
; End