; Generated by Sketch DSL for Machine
; Work area: 420mm x 297mm (A3)
G21
G90
M5
G4 P0.5
G0 F11000
; 261 paths
; Path 1
G0 X119.974 Y84.353
G0 Z2.2
G1 F3000
G1 X121.950 Y84.354
G1 X123.905 Y84.381
G1 X125.891 Y84.410
G1 X127.877 Y84.464
G1 X129.867 Y84.482
G1 X131.863 Y84.467
G1 X133.816 Y84.516
G1 X135.809 Y84.553
G1 X137.757 Y84.560
G1 X139.726 Y84.559
G1 X141.703 Y84.600
G1 X143.702 Y84.604
G1 X145.693 Y84.657
G1 X147.641 Y84.634
G1 X149.629 Y84.694
G1 X151.643 Y84.704
G1 X153.624 Y84.730
G1 X155.556 Y84.742
G1 X157.575 Y84.767
G1 X159.514 Y84.782
G1 X161.482 Y84.813
G1 X163.467 Y84.828
G1 X165.446 Y84.852
G1 X167.441 Y84.855
G1 X169.430 Y84.909
G1 X171.425 Y84.907
G1 X173.405 Y84.973
G1 X175.337 Y84.954
G1 X177.312 Y84.982
G1 X179.296 Y85.006
G1 X181.290 Y85.038
G1 X183.282 Y85.036
G1 X185.247 Y85.084
G1 X187.211 Y85.106
G1 X189.204 Y85.142
G1 X191.155 Y85.130
G1 X193.157 Y85.166
G1 X195.132 Y85.163
G1 X197.122 Y85.210
G1 X199.089 Y85.255
G1 X201.059 Y85.270
G1 X203.027 Y85.303
G1 X205.027 Y85.314
G1 X207.012 Y85.308
G1 X208.979 Y85.361
G1 X210.948 Y85.356
G1 X212.920 Y85.402
G1 X214.906 Y85.384
G1 X216.916 Y85.421
G1 X218.844 Y85.427
G1 X220.873 Y85.446
G1 X222.810 Y85.516
G1 X224.787 Y85.525
G1 X226.791 Y85.516
G1 X228.779 Y85.543
G1 X230.766 Y85.570
G1 X232.696 Y85.632
G1 X234.709 Y85.626
G1 X236.674 Y85.622
G1 X238.665 Y85.680
G1 X240.644 Y85.672
G1 X242.632 Y85.699
G1 X244.591 Y85.737
G1 X246.587 Y85.766
G1 X248.549 Y85.753
G1 X250.492 Y85.822
G1 X252.519 Y85.835
G1 X254.481 Y85.837
G1 X256.437 Y85.852
G1 X258.401 Y85.871
G1 X260.386 Y85.942
G1 X262.410 Y85.954
G1 X264.355 Y85.954
G1 X266.344 Y86.000
G1 X268.297 Y86.028
G1 X270.276 Y86.009
G1 X272.264 Y86.067
G1 X274.238 Y86.067
G1 X276.227 Y86.077
G1 X278.236 Y86.096
G1 X280.212 Y86.133
G1 X282.144 Y86.168
G1 X284.148 Y86.172
G1 X286.136 Y86.205
G1 X288.117 Y86.203
G1 X290.060 Y86.269
G1 X292.027 Y86.284
G1 X294.035 Y86.284
G1 X295.999 Y86.312
G1 X297.962 Y86.322
G1 X299.964 Y86.354
; Path 2
G0 Z0
G0 X299.973 Y86.352
G0 Z2.2
G1 F3000
G1 X297.960 Y86.326
G1 X295.974 Y86.301
G1 X294.002 Y86.303
G1 X291.949 Y86.236
G1 X289.951 Y86.231
G1 X287.979 Y86.206
G1 X285.989 Y86.210
G1 X283.983 Y86.189
G1 X281.989 Y86.163
G1 X279.982 Y86.142
G1 X277.983 Y86.115
G1 X275.965 Y86.112
G1 X273.982 Y86.063
G1 X271.974 Y86.035
G1 X269.957 Y86.048
G1 X267.986 Y85.998
G1 X265.982 Y85.949
G1 X263.975 Y85.942
G1 X261.953 Y85.903
G1 X260.000 Y85.914
G1 X257.951 Y85.895
G1 X255.976 Y85.891
G1 X253.965 Y85.871
G1 X251.958 Y85.798
G1 X249.999 Y85.772
G1 X247.980 Y85.769
G1 X245.951 Y85.749
G1 X243.969 Y85.756
G1 X241.997 Y85.690
G1 X239.984 Y85.702
G1 X237.969 Y85.674
G1 X235.971 Y85.622
G1 X234.008 Y85.623
G1 X231.996 Y85.592
G1 X229.999 Y85.602
G1 X227.963 Y85.538
G1 X225.982 Y85.526
G1 X223.965 Y85.526
G1 X221.980 Y85.492
G1 X219.980 Y85.447
G1 X217.958 Y85.467
G1 X215.977 Y85.399
G1 X214.006 Y85.429
G1 X211.963 Y85.357
G1 X209.969 Y85.380
G1 X208.010 Y85.319
G1 X205.979 Y85.281
G1 X203.965 Y85.278
G1 X201.984 Y85.250
G1 X199.958 Y85.221
G1 X197.995 Y85.192
G1 X195.985 Y85.177
G1 X193.971 Y85.203
G1 X191.975 Y85.142
G1 X189.997 Y85.142
G1 X187.988 Y85.113
G1 X186.011 Y85.087
G1 X183.985 Y85.040
G1 X182.008 Y85.053
G1 X179.986 Y85.018
G1 X177.996 Y84.979
G1 X176.017 Y84.988
G1 X173.996 Y84.933
G1 X172.010 Y84.921
G1 X169.969 Y84.935
G1 X168.011 Y84.864
G1 X165.988 Y84.872
G1 X163.971 Y84.862
G1 X162.017 Y84.847
G1 X159.964 Y84.784
G1 X157.972 Y84.751
G1 X156.012 Y84.740
G1 X153.999 Y84.716
G1 X151.975 Y84.710
G1 X150.006 Y84.719
G1 X147.971 Y84.644
G1 X145.985 Y84.624
G1 X144.013 Y84.610
G1 X142.024 Y84.626
G1 X140.001 Y84.580
G1 X138.004 Y84.539
G1 X135.987 Y84.514
G1 X133.970 Y84.514
G1 X132.002 Y84.512
G1 X129.978 Y84.488
G1 X127.982 Y84.474
G1 X125.983 Y84.444
G1 X124.004 Y84.400
G1 X122.011 Y84.373
G1 X120.000 Y84.357
; Path 3
G0 Z0
G0 X114.977 Y92.380
G0 Z2.2
G1 F3000
G1 X116.775 Y92.480
G1 X118.647 Y92.532
G1 X120.453 Y92.633
G1 X122.266 Y92.732
G1 X124.106 Y92.821
G1 X125.918 Y92.902
G1 X127.726 Y93.008
G1 X129.568 Y93.096
G1 X131.347 Y93.205
G1 X133.191 Y93.266
G1 X134.998 Y93.360
; Path 4
G0 Z0
G0 X139.019 Y85.090
G0 Z2.2
G1 F3000
G1 X140.974 Y85.587
; Path 5
G0 Z0
G0 X149.989 Y79.359
G0 Z2.2
G1 F3000
G1 X150.573 Y79.254
G1 X151.187 Y79.136
G1 X151.769 Y78.993
G1 X152.378 Y78.878
G1 X152.981 Y78.747
G1 X153.566 Y78.601
G1 X154.148 Y78.444
G1 X154.753 Y78.318
G1 X155.367 Y78.165
G1 X155.942 Y78.045
G1 X156.530 Y77.931
G1 X157.135 Y77.798
G1 X157.738 Y77.700
G1 X158.336 Y77.590
G1 X158.952 Y77.540
G1 X159.547 Y77.437
G1 X160.134 Y77.410
G1 X160.771 Y77.354
G1 X161.397 Y77.357
G1 X162.011 Y77.356
G1 X162.628 Y77.404
G1 X163.268 Y77.453
G1 X163.903 Y77.550
G1 X164.542 Y77.635
G1 X165.197 Y77.788
G1 X165.828 Y77.886
G1 X166.482 Y78.023
G1 X167.124 Y78.193
G1 X167.776 Y78.374
G1 X168.427 Y78.539
G1 X169.073 Y78.733
G1 X169.736 Y78.910
G1 X170.418 Y79.075
G1 X171.046 Y79.292
G1 X171.689 Y79.462
G1 X172.355 Y79.668
G1 X173.031 Y79.852
G1 X173.660 Y80.024
G1 X174.317 Y80.175
G1 X174.959 Y80.346
; Path 6
G0 Z0
G0 X174.982 Y82.371
G0 Z2.2
G1 F3000
G1 X175.401 Y84.054
G1 X175.850 Y85.810
G1 X176.243 Y87.482
G1 X176.707 Y89.200
G1 X177.105 Y90.945
G1 X177.558 Y92.669
G1 X177.989 Y94.364
; Path 7
G0 Z0
G0 X179.968 Y91.378
G0 Z2.2
G1 F3000
G1 X180.557 Y91.250
G1 X181.168 Y91.151
G1 X181.766 Y91.019
G1 X182.361 Y90.888
G1 X182.960 Y90.742
G1 X183.550 Y90.606
G1 X184.143 Y90.488
G1 X184.738 Y90.318
G1 X185.344 Y90.192
G1 X185.929 Y90.041
G1 X186.532 Y89.943
G1 X187.124 Y89.788
G1 X187.709 Y89.665
G1 X188.326 Y89.577
G1 X188.931 Y89.488
G1 X189.539 Y89.421
G1 X190.154 Y89.377
G1 X190.765 Y89.336
G1 X191.389 Y89.332
G1 X192.007 Y89.337
G1 X192.635 Y89.409
G1 X193.268 Y89.434
G1 X193.924 Y89.542
G1 X194.544 Y89.618
G1 X195.209 Y89.766
G1 X195.833 Y89.872
G1 X196.461 Y90.006
G1 X197.133 Y90.183
G1 X197.787 Y90.361
G1 X198.441 Y90.533
G1 X199.105 Y90.719
G1 X199.753 Y90.910
G1 X200.428 Y91.076
G1 X201.067 Y91.296
G1 X201.748 Y91.508
G1 X202.380 Y91.677
G1 X203.006 Y91.852
G1 X203.689 Y92.038
G1 X204.370 Y92.186
G1 X204.992 Y92.364
; Path 8
G0 Z0
G0 X211.312 Y89.579
G0 Z2.2
G1 F3000
G1 X212.594 Y91.134
; Path 9
G0 Z0
G0 X215.431 Y93.529
G0 Z2.2
G1 F3000
G1 X216.495 Y95.175
; Path 10
G0 Z0
G0 X215.008 Y109.370
G0 Z2.2
G1 F3000
G1 X213.358 Y108.850
G1 X211.690 Y108.363
G1 X210.014 Y107.847
G1 X208.317 Y107.388
G1 X206.667 Y106.837
G1 X204.994 Y106.355
; Path 11
G0 Z0
G0 X209.971 Y106.370
G0 Z2.2
G1 F3000
G1 X211.843 Y106.231
G1 X213.748 Y106.104
G1 X215.606 Y106.018
G1 X217.449 Y105.868
G1 X219.315 Y105.735
G1 X221.200 Y105.631
G1 X223.089 Y105.491
G1 X224.967 Y105.357
; Path 12
G0 Z0
G0 X218.954 Y99.118
G0 Z2.2
G1 F3000
G1 X220.917 Y99.533
; Path 13
G0 Z0
G0 X220.730 Y98.971
G0 Z2.2
G1 F3000
G1 X219.198 Y97.731
; Path 14
G0 Z0
G0 X217.983 Y96.338
G0 Z2.2
G1 F3000
G1 X217.631 Y94.609
G1 X217.239 Y92.847
G1 X216.844 Y91.102
G1 X216.475 Y89.371
G1 X216.087 Y87.605
G1 X215.730 Y85.858
G1 X215.387 Y84.124
G1 X214.997 Y82.349
; Path 15
G0 Z0
G0 X208.922 Y86.676
G0 Z2.2
G1 F3000
G1 X207.030 Y85.995
; Path 16
G0 Z0
G0 X195.964 Y85.393
G0 Z2.2
G1 F3000
G1 X193.998 Y85.358
; Path 17
G0 Z0
G0 X193.008 Y86.371
G0 Z2.2
G1 F3000
G1 X192.554 Y84.676
G1 X192.136 Y82.952
G1 X191.689 Y81.249
G1 X191.273 Y79.500
G1 X190.868 Y77.812
G1 X190.451 Y76.077
G1 X190.000 Y74.383
; Path 18
G0 Z0
G0 X187.961 Y72.376
G0 Z2.2
G1 F3000
G1 X188.604 Y74.019
G1 X189.298 Y75.709
G1 X189.959 Y77.380
G1 X190.624 Y79.035
G1 X191.319 Y80.683
G1 X191.989 Y82.339
; Path 19
G0 Z0
G0 X181.675 Y83.418
G0 Z2.2
G1 F3000
G1 X182.232 Y85.352
; Path 20
G0 Z0
G0 X183.550 Y86.486
G0 Z2.2
G1 F3000
G1 X184.485 Y88.298
; Path 21
G0 Z0
G0 X185.484 Y89.523
G0 Z2.2
G1 F3000
G1 X186.436 Y91.262
; Path 22
G0 Z0
G0 X187.401 Y91.571
G0 Z2.2
G1 F3000
G1 X188.612 Y93.194
; Path 23
G0 Z0
G0 X186.344 Y95.541
G0 Z2.2
G1 F3000
G1 X187.590 Y97.118
; Path 24
G0 Z0
G0 X185.005 Y99.381
G0 Z2.2
G1 F3000
G1 X184.570 Y97.447
G1 X184.194 Y95.562
G1 X183.722 Y93.593
G1 X183.322 Y91.696
G1 X182.918 Y89.777
G1 X182.494 Y87.846
G1 X182.077 Y85.929
G1 X181.619 Y84.004
G1 X181.223 Y82.087
G1 X180.784 Y80.178
G1 X180.379 Y78.283
G1 X179.970 Y76.335
; Path 25
G0 Z0
G0 X179.983 Y76.360
G0 Z2.2
G1 F3000
G1 X184.983 Y99.360
; Path 26
G0 Z0
G0 X184.742 Y98.372
G0 Z2.2
G1 F3000
G1 X185.226 Y100.364
; Path 27
G0 Z0
G0 X184.999 Y104.366
G0 Z2.2
G1 F3000
G1 X183.145 Y104.344
G1 X181.225 Y104.379
G1 X179.408 Y104.339
G1 X177.527 Y104.387
G1 X175.633 Y104.364
G1 X173.749 Y104.388
G1 X171.870 Y104.377
G1 X170.013 Y104.364
; Path 28
G0 Z0
G0 X168.004 Y106.340
G0 Z2.2
G1 F3000
G1 X166.399 Y105.526
G1 X164.787 Y104.723
G1 X163.196 Y103.981
G1 X161.583 Y103.167
G1 X159.974 Y102.371
; Path 29
G0 Z0
G0 X160.983 Y100.305
G0 Z2.2
G1 F3000
G1 X158.948 Y100.382
; Path 30
G0 Z0
G0 X143.459 Y97.281
G0 Z2.2
G1 F3000
G1 X142.525 Y95.514
; Path 31
G0 Z0
G0 X140.507 Y95.214
G0 Z2.2
G1 F3000
G1 X139.406 Y93.536
; Path 32
G0 Z0
G0 X141.993 Y92.364
G0 Z2.2
G1 F3000
G1 X141.184 Y90.735
G1 X140.407 Y89.173
G1 X139.617 Y87.560
G1 X138.805 Y85.947
G1 X138.012 Y84.343
; Path 33
G0 Z0
G0 X135.003 Y79.357
G0 Z2.2
G1 F3000
G1 X135.523 Y80.392
G1 X135.999 Y81.378
G1 X136.502 Y82.432
G1 X136.995 Y83.434
G1 X137.520 Y84.475
G1 X137.990 Y85.510
G1 X138.503 Y86.548
G1 X138.986 Y87.591
G1 X139.494 Y88.652
G1 X139.982 Y89.662
G1 X140.487 Y90.665
G1 X140.978 Y91.708
G1 X141.479 Y92.688
G1 X141.974 Y93.715
G1 X142.496 Y94.696
G1 X142.970 Y95.666
G1 X143.446 Y96.609
G1 X143.967 Y97.548
G1 X144.464 Y98.420
G1 X144.965 Y99.346
G1 X145.441 Y100.213
G1 X145.963 Y101.049
G1 X146.473 Y101.864
G1 X146.961 Y102.667
G1 X147.478 Y103.454
G1 X147.961 Y104.215
G1 X148.480 Y104.967
G1 X148.960 Y105.709
G1 X149.450 Y106.409
G1 X149.960 Y107.164
G1 X150.458 Y107.866
G1 X150.959 Y108.593
G1 X151.448 Y109.330
G1 X151.959 Y110.012
G1 X152.475 Y110.711
G1 X152.959 Y111.436
G1 X153.461 Y112.179
G1 X153.959 Y112.880
G1 X154.443 Y113.607
G1 X154.959 Y114.359
; Path 34
G0 Z0
G0 X154.983 Y114.360
G0 Z2.2
G1 F3000
G1 X154.150 Y113.126
G1 X153.316 Y111.918
G1 X152.483 Y110.727
G1 X151.650 Y109.545
G1 X150.816 Y108.363
G1 X149.983 Y107.172
G1 X149.150 Y105.964
G1 X148.316 Y104.730
G1 X147.483 Y103.462
G1 X146.650 Y102.149
G1 X145.816 Y100.785
G1 X144.983 Y99.360
G1 X144.150 Y97.868
G1 X143.316 Y96.316
G1 X142.483 Y94.712
G1 X141.650 Y93.064
G1 X140.816 Y91.381
G1 X139.983 Y89.672
G1 X139.150 Y87.946
G1 X138.316 Y86.212
G1 X137.483 Y84.477
G1 X136.650 Y82.751
G1 X135.816 Y81.043
G1 X134.983 Y79.360
; Path 35
G1 X134.166 Y80.594
G1 X133.374 Y81.802
G1 X132.600 Y82.993
G1 X131.835 Y84.175
G1 X131.070 Y85.357
G1 X130.296 Y86.547
G1 X129.504 Y87.756
G1 X128.687 Y88.990
G1 X127.835 Y90.258
G1 X126.939 Y91.571
G1 X125.991 Y92.935
G1 X124.983 Y94.360
G1 X123.908 Y95.852
G1 X122.772 Y97.404
G1 X121.585 Y99.008
G1 X120.353 Y100.656
G1 X119.087 Y102.339
G1 X117.796 Y104.047
G1 X116.486 Y105.773
G1 X115.168 Y107.508
G1 X113.850 Y109.243
G1 X112.541 Y110.969
G1 X111.249 Y112.677
G1 X109.983 Y114.360
; Path 36
G0 Z0
G0 X109.957 Y114.375
G0 Z2.2
G1 F3000
G1 X110.713 Y113.359
G1 X111.485 Y112.351
G1 X112.276 Y111.300
G1 X113.049 Y110.292
G1 X113.861 Y109.268
G1 X114.633 Y108.213
G1 X115.431 Y107.151
G1 X116.223 Y106.130
G1 X117.010 Y105.113
G1 X117.802 Y104.056
G1 X118.607 Y103.019
G1 X119.356 Y102.007
G1 X120.090 Y101.002
G1 X120.869 Y99.999
G1 X121.575 Y99.034
G1 X122.326 Y98.045
G1 X123.016 Y97.112
G1 X123.713 Y96.161
G1 X124.334 Y95.255
G1 X125.013 Y94.362
G1 X125.611 Y93.528
G1 X126.216 Y92.657
G1 X126.784 Y91.841
G1 X127.334 Y91.038
G1 X127.862 Y90.251
G1 X128.380 Y89.488
G1 X128.891 Y88.756
G1 X129.370 Y87.994
G1 X129.865 Y87.271
G1 X130.320 Y86.539
G1 X130.760 Y85.832
G1 X131.244 Y85.109
G1 X131.697 Y84.415
G1 X132.159 Y83.689
G1 X132.614 Y82.988
G1 X133.078 Y82.264
G1 X133.538 Y81.534
G1 X134.018 Y80.820
G1 X134.527 Y80.107
G1 X134.993 Y79.340
; Path 37
G0 Z0
G0 X131.956 Y82.338
G0 Z2.2
G1 F3000
G1 X130.615 Y83.666
G1 X129.328 Y85.007
G1 X127.991 Y86.343
; Path 38
G0 Z0
G0 X129.520 Y90.226
G0 Z2.2
G1 F3000
G1 X130.459 Y88.447
; Path 39
G0 Z0
G0 X131.840 Y91.379
G0 Z2.2
G1 F3000
G1 X132.154 Y93.313
; Path 40
G0 Z0
G0 X129.978 Y99.373
G0 Z2.2
G1 F3000
G1 X131.971 Y99.339
G1 X133.906 Y99.325
G1 X135.931 Y99.348
G1 X137.902 Y99.324
G1 X139.843 Y99.335
G1 X141.805 Y99.275
G1 X143.793 Y99.266
G1 X145.795 Y99.297
G1 X147.760 Y99.282
G1 X149.709 Y99.219
G1 X151.703 Y99.225
G1 X153.680 Y99.243
G1 X155.636 Y99.198
G1 X157.627 Y99.203
G1 X159.635 Y99.179
G1 X161.578 Y99.199
G1 X163.581 Y99.137
G1 X165.507 Y99.137
G1 X167.491 Y99.114
G1 X169.515 Y99.128
G1 X171.454 Y99.116
G1 X173.439 Y99.075
G1 X175.422 Y99.064
G1 X177.384 Y99.099
G1 X179.334 Y99.079
G1 X181.359 Y99.033
G1 X183.304 Y99.054
G1 X185.278 Y99.005
G1 X187.266 Y99.036
G1 X189.246 Y99.009
G1 X191.218 Y98.973
G1 X193.172 Y98.965
G1 X195.194 Y98.981
G1 X197.169 Y98.956
G1 X199.094 Y98.921
G1 X201.076 Y98.920
G1 X203.061 Y98.901
G1 X205.066 Y98.910
G1 X207.032 Y98.873
G1 X208.980 Y98.887
G1 X210.947 Y98.846
G1 X212.968 Y98.875
G1 X214.930 Y98.853
G1 X216.883 Y98.819
G1 X218.841 Y98.825
G1 X220.872 Y98.821
G1 X222.807 Y98.776
G1 X224.797 Y98.794
G1 X226.750 Y98.794
G1 X228.737 Y98.759
G1 X230.715 Y98.744
G1 X232.669 Y98.705
G1 X234.698 Y98.744
G1 X236.662 Y98.709
G1 X238.649 Y98.683
G1 X240.609 Y98.667
G1 X242.594 Y98.662
G1 X244.563 Y98.645
G1 X246.496 Y98.666
G1 X248.498 Y98.604
G1 X250.471 Y98.635
G1 X252.429 Y98.618
G1 X254.446 Y98.562
G1 X256.412 Y98.603
G1 X258.397 Y98.567
G1 X260.331 Y98.538
G1 X262.324 Y98.521
G1 X264.305 Y98.525
G1 X266.263 Y98.526
G1 X268.282 Y98.516
G1 X270.230 Y98.481
G1 X272.190 Y98.478
G1 X274.199 Y98.472
G1 X276.169 Y98.477
G1 X278.112 Y98.444
G1 X280.126 Y98.451
G1 X282.072 Y98.396
G1 X284.078 Y98.412
G1 X286.010 Y98.399
G1 X287.992 Y98.354
G1 X289.983 Y98.369
; Path 41
G0 Z0
G0 X289.960 Y94.386
G0 Z2.2
G1 F3000
G1 X290.482 Y94.986
G1 X290.959 Y95.601
G1 X291.483 Y96.225
G1 X291.959 Y96.844
G1 X292.446 Y97.457
G1 X292.958 Y98.102
G1 X293.486 Y98.756
G1 X293.957 Y99.365
G1 X294.463 Y100.012
G1 X294.957 Y100.620
G1 X295.470 Y101.235
G1 X295.956 Y101.854
G1 X296.431 Y102.445
G1 X296.956 Y103.057
G1 X297.433 Y103.649
G1 X297.955 Y104.217
G1 X298.445 Y104.775
G1 X298.955 Y105.321
G1 X299.468 Y105.868
G1 X299.955 Y106.357
G1 X300.464 Y106.816
G1 X300.955 Y107.318
G1 X301.435 Y107.774
G1 X301.955 Y108.211
G1 X302.462 Y108.653
G1 X302.955 Y109.048
G1 X303.465 Y109.446
G1 X303.955 Y109.842
G1 X304.473 Y110.205
G1 X304.956 Y110.605
G1 X305.432 Y110.964
G1 X305.956 Y111.347
G1 X306.454 Y111.701
G1 X306.956 Y112.081
G1 X307.467 Y112.434
G1 X307.956 Y112.820
G1 X308.453 Y113.171
G1 X308.957 Y113.574
G1 X309.468 Y113.950
G1 X309.957 Y114.356
; Path 42
G0 Z0
G0 X309.983 Y114.360
G0 Z2.2
G1 F3000
G1 X309.150 Y113.706
G1 X308.316 Y113.073
G1 X307.483 Y112.454
G1 X306.650 Y111.841
G1 X305.816 Y111.229
G1 X304.983 Y110.610
G1 X304.150 Y109.977
G1 X303.316 Y109.323
G1 X302.483 Y108.641
G1 X301.650 Y107.925
G1 X300.816 Y107.167
G1 X299.983 Y106.360
G1 X299.150 Y105.500
G1 X298.316 Y104.591
G1 X297.483 Y103.641
G1 X296.650 Y102.656
G1 X295.816 Y101.644
G1 X294.983 Y100.610
G1 X294.150 Y99.563
G1 X293.316 Y98.508
G1 X292.483 Y97.454
G1 X291.650 Y96.406
G1 X290.816 Y95.373
G1 X289.983 Y94.360
; Path 43
G1 X289.150 Y95.193
G1 X288.316 Y96.027
G1 X287.483 Y96.860
G1 X286.650 Y97.693
G1 X285.816 Y98.527
G1 X284.983 Y99.360
G1 X284.150 Y100.193
G1 X283.316 Y101.027
G1 X282.483 Y101.860
G1 X281.650 Y102.693
G1 X280.816 Y103.527
G1 X279.983 Y104.360
G1 X279.150 Y105.193
G1 X278.316 Y106.027
G1 X277.483 Y106.860
G1 X276.650 Y107.693
G1 X275.816 Y108.527
G1 X274.983 Y109.360
G1 X274.150 Y110.193
G1 X273.316 Y111.027
G1 X272.483 Y111.860
G1 X271.650 Y112.693
G1 X270.816 Y113.527
G1 X269.983 Y114.360
; Path 44
G0 Z0
G0 X269.970 Y114.367
G0 Z2.2
G1 F3000
G1 X270.497 Y113.869
G1 X270.973 Y113.365
G1 X271.466 Y112.843
G1 X271.976 Y112.364
G1 X272.495 Y111.859
G1 X272.978 Y111.362
G1 X273.502 Y110.880
G1 X273.981 Y110.360
G1 X274.478 Y109.841
G1 X274.984 Y109.359
G1 X275.483 Y108.860
G1 X275.987 Y108.357
G1 X276.515 Y107.846
G1 X276.989 Y107.356
G1 X277.493 Y106.826
G1 X277.991 Y106.354
G1 X278.495 Y105.852
G1 X278.993 Y105.353
G1 X279.506 Y104.825
G1 X279.994 Y104.351
G1 X280.487 Y103.850
G1 X280.994 Y103.350
G1 X281.502 Y102.835
G1 X281.994 Y102.349
G1 X282.487 Y101.857
G1 X282.993 Y101.348
G1 X283.488 Y100.818
G1 X283.992 Y100.347
G1 X284.477 Y99.851
G1 X284.990 Y99.346
G1 X285.490 Y98.819
G1 X285.988 Y98.345
G1 X286.478 Y97.848
G1 X286.987 Y97.344
G1 X287.465 Y96.823
G1 X287.985 Y96.342
G1 X288.509 Y95.820
G1 X288.983 Y95.341
G1 X289.456 Y94.822
G1 X289.982 Y94.340
; Path 45
G0 Z0
G0 X284.993 Y93.385
G0 Z2.2
G1 F3000
G1 X283.197 Y93.457
G1 X281.371 Y93.557
G1 X279.512 Y93.641
G1 X277.738 Y93.741
G1 X275.887 Y93.794
G1 X274.090 Y93.896
G1 X272.264 Y93.986
G1 X270.431 Y94.059
G1 X268.600 Y94.146
G1 X266.819 Y94.232
G1 X264.979 Y94.336
; Path 46
G0 Z0
G0 X255.008 Y90.370
G0 Z2.2
G1 F3000
G1 X254.276 Y88.644
G1 X253.465 Y86.854
G1 X252.711 Y85.132
G1 X251.960 Y83.365
; Path 47
G0 Z0
G0 X248.942 Y85.322
G0 Z2.2
G1 F3000
G1 X250.925 Y85.408
; Path 48
G0 Z0
G0 X248.984 Y89.347
G0 Z2.2
G1 F3000
G1 X247.998 Y87.684
G1 X247.012 Y85.992
G1 X245.995 Y84.336
; Path 49
G0 Z0
G0 X244.983 Y89.360
G0 Z2.2
G1 F3000
G1 X247.983 Y109.360
; Path 50
G0 Z0
G0 X247.955 Y109.361
G0 Z2.2
G1 F3000
G1 X247.668 Y107.573
G1 X247.441 Y105.750
G1 X247.138 Y103.933
G1 X246.901 Y102.091
G1 X246.629 Y100.265
G1 X246.337 Y98.455
G1 X246.068 Y96.673
G1 X245.788 Y94.805
G1 X245.543 Y93.000
G1 X245.296 Y91.185
G1 X245.008 Y89.380
; Path 51
G0 Z0
G0 X239.975 Y92.356
G0 Z2.2
G1 F3000
G1 X240.492 Y94.019
G1 X240.963 Y95.682
G1 X241.446 Y97.334
G1 X241.997 Y99.043
G1 X242.501 Y100.706
G1 X242.973 Y102.362
; Path 52
G0 Z0
G0 X242.312 Y101.276
G0 Z2.2
G1 F3000
G1 X241.637 Y99.399
; Path 53
G0 Z0
G0 X238.662 Y95.631
G0 Z2.2
G1 F3000
G1 X237.319 Y97.116
; Path 54
G0 Z0
G0 X230.003 Y82.347
G0 Z2.2
G1 F3000
G1 X230.774 Y82.164
G1 X231.501 Y82.029
G1 X232.234 Y81.854
G1 X232.998 Y81.675
G1 X233.754 Y81.491
G1 X234.495 Y81.303
G1 X235.225 Y81.137
G1 X235.993 Y80.925
G1 X236.746 Y80.726
G1 X237.490 Y80.557
G1 X238.233 Y80.381
G1 X238.987 Y80.213
G1 X239.708 Y80.058
G1 X240.485 Y79.910
G1 X241.209 Y79.807
G1 X241.983 Y79.661
G1 X242.704 Y79.570
G1 X243.481 Y79.481
G1 X244.227 Y79.429
G1 X244.980 Y79.385
G1 X245.726 Y79.396
G1 X246.478 Y79.384
G1 X247.203 Y79.444
G1 X247.978 Y79.467
G1 X248.714 Y79.523
G1 X249.477 Y79.619
G1 X250.244 Y79.733
G1 X250.977 Y79.826
G1 X251.702 Y79.950
G1 X252.477 Y80.072
G1 X253.255 Y80.228
G1 X253.977 Y80.343
G1 X254.719 Y80.474
G1 X255.477 Y80.624
G1 X256.199 Y80.748
G1 X256.977 Y80.901
G1 X257.735 Y81.040
G1 X258.476 Y81.157
G1 X259.233 Y81.262
G1 X259.976 Y81.378
; Path 55
G0 Z0
G0 X255.012 Y86.341
G0 Z2.2
G1 F3000
G1 X255.515 Y87.998
G1 X256.021 Y89.647
G1 X256.528 Y91.338
G1 X256.981 Y92.984
G1 X257.494 Y94.678
G1 X257.996 Y96.347
; Path 56
G0 Z0
G0 X258.957 Y98.345
G0 Z2.2
G1 F3000
G1 X260.979 Y98.381
; Path 57
G0 Z0
G0 X262.380 Y100.647
G0 Z2.2
G1 F3000
G1 X263.666 Y102.148
; Path 58
G0 Z0
G0 X268.977 Y99.332
G0 Z2.2
G1 F3000
G1 X271.004 Y99.407
; Path 59
G0 Z0
G0 X268.005 Y108.372
G0 Z2.2
G1 F3000
G1 X266.135 Y107.783
G1 X264.256 Y107.211
G1 X262.400 Y106.653
G1 X260.578 Y106.064
G1 X258.702 Y105.510
G1 X256.818 Y104.942
G1 X254.973 Y104.339
; Path 60
G0 Z0
G0 X235.845 Y112.870
G0 Z2.2
G1 F3000
G1 X234.133 Y111.825
; Path 61
G0 Z0
G0 X235.010 Y114.338
G0 Z2.2
G1 F3000
G1 X234.546 Y113.877
G1 X234.029 Y113.387
G1 X233.562 Y112.925
G1 X233.084 Y112.507
G1 X232.601 Y112.094
G1 X232.158 Y111.668
G1 X231.722 Y111.245
G1 X231.237 Y110.838
G1 X230.775 Y110.399
G1 X230.306 Y109.988
G1 X229.836 Y109.555
G1 X229.351 Y109.088
G1 X228.865 Y108.584
G1 X228.356 Y108.107
G1 X227.828 Y107.571
G1 X227.306 Y107.016
G1 X226.717 Y106.372
G1 X226.187 Y105.783
G1 X225.580 Y105.079
G1 X224.983 Y104.378
G1 X224.334 Y103.576
G1 X223.686 Y102.760
G1 X222.985 Y101.846
G1 X222.305 Y100.934
G1 X221.605 Y99.932
G1 X220.854 Y98.946
G1 X220.095 Y97.876
G1 X219.350 Y96.843
G1 X218.578 Y95.729
G1 X217.805 Y94.669
G1 X217.025 Y93.577
G1 X216.235 Y92.471
G1 X215.465 Y91.357
G1 X214.655 Y90.292
G1 X213.885 Y89.209
G1 X213.079 Y88.180
G1 X212.276 Y87.162
G1 X211.523 Y86.179
G1 X210.742 Y85.261
G1 X210.000 Y84.335
G1 X209.243 Y83.470
G1 X208.498 Y82.633
G1 X207.763 Y81.801
G1 X206.995 Y81.017
G1 X206.242 Y80.259
G1 X205.491 Y79.472
G1 X204.742 Y78.739
G1 X203.987 Y77.983
G1 X203.239 Y77.242
G1 X202.482 Y76.535
G1 X201.730 Y75.847
G1 X200.976 Y75.112
G1 X200.249 Y74.403
G1 X199.471 Y73.700
G1 X198.747 Y73.020
G1 X197.966 Y72.282
G1 X197.226 Y71.541
G1 X196.461 Y70.844
G1 X195.680 Y70.133
G1 X194.956 Y69.371
; Path 62
G0 Z0
G0 X194.960 Y69.336
G0 Z2.2
G1 F3000
G1 X194.226 Y69.702
G1 X193.442 Y70.014
G1 X192.672 Y70.324
G1 X191.890 Y70.650
G1 X191.078 Y70.977
G1 X190.318 Y71.263
G1 X189.548 Y71.590
G1 X188.741 Y71.869
G1 X187.986 Y72.161
G1 X187.174 Y72.487
G1 X186.408 Y72.824
G1 X185.632 Y73.136
G1 X184.867 Y73.493
G1 X184.129 Y73.831
G1 X183.375 Y74.232
G1 X182.680 Y74.592
G1 X182.007 Y75.004
G1 X181.301 Y75.437
G1 X180.642 Y75.903
G1 X180.005 Y76.382
G1 X179.436 Y76.896
G1 X178.824 Y77.387
G1 X178.289 Y77.870
G1 X177.763 Y78.409
G1 X177.251 Y78.910
G1 X176.790 Y79.466
G1 X176.354 Y80.015
G1 X175.876 Y80.576
G1 X175.405 Y81.191
G1 X174.991 Y81.758
G1 X174.549 Y82.383
G1 X174.107 Y83.030
G1 X173.659 Y83.730
G1 X173.193 Y84.409
G1 X172.694 Y85.170
G1 X172.220 Y85.915
G1 X171.697 Y86.766
G1 X171.157 Y87.565
G1 X170.559 Y88.458
G1 X169.977 Y89.376
G1 X169.322 Y90.385
G1 X168.680 Y91.390
G1 X167.983 Y92.498
G1 X167.300 Y93.607
G1 X166.567 Y94.784
G1 X165.850 Y95.991
G1 X165.088 Y97.231
G1 X164.346 Y98.508
G1 X163.554 Y99.843
G1 X162.802 Y101.121
G1 X162.013 Y102.487
G1 X161.234 Y103.794
G1 X160.437 Y105.164
G1 X159.656 Y106.491
G1 X158.841 Y107.843
G1 X158.083 Y109.175
G1 X157.308 Y110.471
G1 X156.529 Y111.812
G1 X155.764 Y113.068
G1 X155.010 Y114.365
; Path 63
G0 Z0
G0 X154.983 Y114.360
G0 Z2.2
G1 F3000
G1 X156.249 Y112.238
G1 X157.541 Y110.054
G1 X158.850 Y107.829
G1 X160.168 Y105.582
G1 X161.486 Y103.336
G1 X162.796 Y101.110
G1 X164.087 Y98.926
G1 X165.353 Y96.804
G1 X166.585 Y94.766
G1 X167.772 Y92.832
G1 X168.908 Y91.023
G1 X169.983 Y89.360
G1 X170.976 Y87.837
G1 X171.881 Y86.429
G1 X172.717 Y85.126
G1 X173.502 Y83.916
G1 X174.251 Y82.789
G1 X174.983 Y81.735
G1 X175.715 Y80.744
G1 X176.465 Y79.804
G1 X177.249 Y78.907
G1 X178.085 Y78.041
G1 X178.991 Y77.195
G1 X179.983 Y76.360
G1 X181.058 Y75.567
G1 X182.194 Y74.846
G1 X183.381 Y74.188
G1 X184.613 Y73.582
G1 X185.879 Y73.018
G1 X187.171 Y72.485
G1 X188.480 Y71.973
G1 X189.798 Y71.471
G1 X191.116 Y70.969
G1 X192.425 Y70.457
G1 X193.717 Y69.924
G1 X194.983 Y69.360
; Path 64
G0 Z0
G0 X198.000 Y71.362
G0 Z2.2
G1 F3000
G1 X198.778 Y72.936
G1 X199.586 Y74.586
G1 X200.406 Y76.158
G1 X201.211 Y77.763
G1 X201.988 Y79.369
; Path 65
G0 Z0
G0 X199.983 Y79.360
G0 Z2.2
G1 F3000
G1 X204.983 Y104.360
; Path 66
G0 Z0
G0 X204.966 Y104.386
G0 Z2.2
G1 F3000
G1 X204.561 Y102.476
G1 X204.188 Y100.511
G1 X203.799 Y98.617
G1 X203.433 Y96.676
G1 X203.051 Y94.787
G1 X202.649 Y92.843
G1 X202.291 Y90.886
G1 X201.907 Y88.977
G1 X201.483 Y87.087
G1 X201.092 Y85.136
G1 X200.706 Y83.196
G1 X200.352 Y81.286
G1 X199.957 Y79.366
; Path 67
G0 Z0
G0 X194.983 Y69.360
G0 Z2.2
G1 F3000
G1 X196.233 Y70.594
G1 X197.483 Y71.802
G1 X198.733 Y72.993
G1 X199.983 Y74.175
G1 X201.233 Y75.357
G1 X202.483 Y76.547
G1 X203.733 Y77.756
G1 X204.983 Y78.990
G1 X206.233 Y80.258
G1 X207.483 Y81.571
G1 X208.733 Y82.935
G1 X209.983 Y84.360
G1 X211.249 Y85.883
G1 X212.541 Y87.520
G1 X213.850 Y89.243
G1 X215.168 Y91.027
G1 X216.486 Y92.845
G1 X217.796 Y94.672
G1 X219.087 Y96.482
G1 X220.353 Y98.249
G1 X221.585 Y99.946
G1 X222.772 Y101.547
G1 X223.908 Y103.028
G1 X224.983 Y104.360
G1 X225.991 Y105.543
G1 X226.939 Y106.605
G1 X227.835 Y107.563
G1 X228.687 Y108.434
G1 X229.504 Y109.236
G1 X230.296 Y109.985
G1 X231.070 Y110.700
G1 X231.835 Y111.397
G1 X232.600 Y112.094
G1 X233.374 Y112.809
G1 X234.166 Y113.558
G1 X234.983 Y114.360
; Path 68
G0 Z0
G0 X229.089 Y127.060
G0 Z2.2
G1 F3000
G1 X230.923 Y127.640
; Path 69
G0 Z0
G0 X230.875 Y127.613
G0 Z2.2
G1 F3000
G1 X228.972 Y127.137
; Path 70
G0 Z0
G0 X205.869 Y123.672
G0 Z2.2
G1 F3000
G1 X203.945 Y123.187
; Path 71
G0 Z0
G0 X190.953 Y111.399
G0 Z2.2
G1 F3000
G1 X188.976 Y111.359
; Path 72
G0 Z0
G0 X189.042 Y126.075
G0 Z2.2
G1 F3000
G1 X191.010 Y126.725
; Path 73
G0 Z0
G0 X191.042 Y126.555
G0 Z2.2
G1 F3000
G1 X189.017 Y126.229
; Path 74
G0 Z0
G0 X176.026 Y128.537
G0 Z2.2
G1 F3000
G1 X174.041 Y128.078
; Path 75
G0 Z0
G0 X155.992 Y112.206
G0 Z2.2
G1 F3000
G1 X153.996 Y112.521
; Path 76
G0 Z0
G0 X154.598 Y128.445
G0 Z2.2
G1 F3000
G1 X155.468 Y130.242
; Path 77
G0 Z0
G0 X156.025 Y129.482
G0 Z2.2
G1 F3000
G1 X153.892 Y129.299
; Path 78
G0 Z0
G0 X139.034 Y124.297
G0 Z2.2
G1 F3000
G1 X140.964 Y124.391
; Path 79
G0 Z0
G0 X140.898 Y124.358
G0 Z2.2
G1 F3000
G1 X138.883 Y124.296
; Path 80
G0 Z0
G0 X126.006 Y111.388
G0 Z2.2
G1 F3000
G1 X123.997 Y111.396
; Path 81
G0 Z0
G0 X110.004 Y109.358
G0 Z2.2
G1 F3000
G1 X111.982 Y109.376
G1 X114.016 Y109.377
G1 X116.013 Y109.371
G1 X118.006 Y109.402
G1 X120.018 Y109.390
G1 X122.022 Y109.429
G1 X124.009 Y109.401
G1 X125.996 Y109.421
G1 X127.991 Y109.421
G1 X130.001 Y109.433
G1 X132.014 Y109.453
G1 X133.988 Y109.470
G1 X135.993 Y109.466
G1 X138.023 Y109.492
G1 X140.014 Y109.501
G1 X142.011 Y109.532
G1 X144.005 Y109.526
G1 X145.970 Y109.544
G1 X147.976 Y109.574
G1 X150.003 Y109.549
G1 X152.020 Y109.545
G1 X154.015 Y109.577
G1 X155.968 Y109.588
G1 X157.984 Y109.581
G1 X160.006 Y109.592
G1 X161.997 Y109.591
G1 X163.981 Y109.601
G1 X165.994 Y109.651
G1 X167.967 Y109.653
G1 X170.012 Y109.630
G1 X171.988 Y109.691
G1 X174.003 Y109.674
G1 X176.002 Y109.674
G1 X177.986 Y109.699
G1 X179.994 Y109.719
G1 X181.961 Y109.698
G1 X183.963 Y109.721
G1 X185.986 Y109.719
G1 X187.968 Y109.727
G1 X189.973 Y109.774
G1 X191.971 Y109.766
G1 X194.006 Y109.745
G1 X195.985 Y109.805
G1 X197.977 Y109.766
G1 X199.994 Y109.825
G1 X202.003 Y109.805
G1 X203.992 Y109.794
G1 X206.010 Y109.836
G1 X208.013 Y109.853
G1 X209.956 Y109.845
G1 X211.990 Y109.868
G1 X214.009 Y109.855
G1 X215.958 Y109.894
G1 X218.005 Y109.880
G1 X220.000 Y109.891
G1 X221.984 Y109.884
G1 X223.982 Y109.890
G1 X225.981 Y109.912
G1 X228.001 Y109.913
G1 X229.979 Y109.969
G1 X231.980 Y109.957
G1 X233.950 Y109.947
G1 X235.998 Y109.990
G1 X237.989 Y110.013
G1 X239.978 Y110.012
G1 X241.986 Y110.032
G1 X243.956 Y110.040
G1 X245.974 Y110.050
G1 X247.998 Y110.008
G1 X249.983 Y110.044
G1 X251.949 Y110.076
G1 X253.954 Y110.050
G1 X255.984 Y110.086
G1 X257.995 Y110.111
G1 X259.951 Y110.108
G1 X261.951 Y110.129
G1 X263.982 Y110.107
G1 X265.983 Y110.094
G1 X267.962 Y110.107
G1 X269.997 Y110.118
G1 X271.964 Y110.164
G1 X273.944 Y110.180
G1 X275.979 Y110.161
G1 X277.941 Y110.152
G1 X279.998 Y110.178
G1 X281.994 Y110.191
G1 X283.978 Y110.200
G1 X285.995 Y110.239
G1 X287.948 Y110.243
G1 X289.942 Y110.249
G1 X291.941 Y110.237
G1 X293.948 Y110.233
G1 X295.958 Y110.281
G1 X297.951 Y110.280
G1 X299.986 Y110.306
G1 X301.986 Y110.281
G1 X303.959 Y110.317
G1 X305.978 Y110.313
G1 X307.965 Y110.339
G1 X309.964 Y110.337
; Path 82
G0 Z0
G0 X305.872 Y112.747
G0 Z2.2
G1 F3000
G1 X304.107 Y111.924
; Path 83
G0 Z0
G0 X293.803 Y102.919
G0 Z2.2
G1 F3000
G1 X292.158 Y101.741
; Path 84
G0 Z0
G0 X287.009 Y104.369
G0 Z2.2
G1 F3000
G1 X286.532 Y102.835
G1 X286.003 Y101.325
G1 X285.517 Y99.813
G1 X285.013 Y98.331
; Path 85
G0 Z0
G0 X282.827 Y99.848
G0 Z2.2
G1 F3000
G1 X281.139 Y100.891
; Path 86
G0 Z0
G0 X279.009 Y111.369
G0 Z2.2
G1 F3000
G1 X280.996 Y111.315
; Path 87
G0 Z0
G0 X274.983 Y114.360
G0 Z2.2
G1 F3000
G1 X274.166 Y113.385
G1 X273.374 Y112.453
G1 X272.600 Y111.547
G1 X271.835 Y110.656
G1 X271.070 Y109.765
G1 X270.296 Y108.860
G1 X269.504 Y107.927
G1 X268.687 Y106.953
G1 X267.835 Y105.922
G1 X266.939 Y104.823
G1 X265.991 Y103.640
G1 X264.983 Y102.360
G1 X263.908 Y100.973
G1 X262.772 Y99.490
G1 X261.585 Y97.922
G1 X260.353 Y96.286
G1 X259.087 Y94.594
G1 X257.796 Y92.860
G1 X256.486 Y91.098
G1 X255.168 Y89.323
G1 X253.850 Y87.547
G1 X252.541 Y85.786
G1 X251.249 Y84.052
G1 X249.983 Y82.360
; Path 88
G1 X248.733 Y83.783
G1 X247.483 Y85.216
G1 X246.233 Y86.657
G1 X244.983 Y88.101
G1 X243.733 Y89.545
G1 X242.483 Y90.985
G1 X241.233 Y92.418
G1 X239.983 Y93.841
G1 X238.733 Y95.251
G1 X237.483 Y96.642
G1 X236.233 Y98.013
G1 X234.983 Y99.360
G1 X233.733 Y100.680
G1 X232.483 Y101.976
G1 X231.233 Y103.251
G1 X229.983 Y104.508
G1 X228.733 Y105.752
G1 X227.483 Y106.985
G1 X226.233 Y108.211
G1 X224.983 Y109.434
G1 X223.733 Y110.657
G1 X222.483 Y111.883
G1 X221.233 Y113.116
G1 X219.983 Y114.360
; Path 89
G0 Z0
G0 X219.959 Y114.337
G0 Z2.2
G1 F3000
G1 X220.706 Y113.600
G1 X221.461 Y112.848
G1 X222.200 Y112.120
G1 X222.963 Y111.374
G1 X223.724 Y110.667
G1 X224.466 Y109.908
G1 X225.228 Y109.190
G1 X225.968 Y108.444
G1 X226.748 Y107.732
G1 X227.471 Y106.976
G1 X228.212 Y106.256
G1 X228.973 Y105.497
G1 X229.745 Y104.765
G1 X230.476 Y104.003
G1 X231.244 Y103.238
G1 X231.978 Y102.485
G1 X232.757 Y101.736
G1 X233.480 Y100.939
G1 X234.230 Y100.128
G1 X234.982 Y99.359
G1 X235.718 Y98.558
G1 X236.484 Y97.739
G1 X237.213 Y96.910
G1 X237.985 Y96.084
G1 X238.724 Y95.272
G1 X239.487 Y94.401
G1 X240.227 Y93.569
G1 X240.988 Y92.696
G1 X241.714 Y91.864
G1 X242.489 Y90.974
G1 X243.211 Y90.098
G1 X243.991 Y89.241
G1 X244.749 Y88.365
G1 X245.492 Y87.505
G1 X246.239 Y86.615
G1 X246.993 Y85.771
G1 X247.735 Y84.878
G1 X248.494 Y84.044
G1 X249.232 Y83.204
G1 X249.996 Y82.333
; Path 90
G0 Z0
G0 X250.008 Y82.379
G0 Z2.2
G1 F3000
G1 X250.746 Y83.425
G1 X251.527 Y84.412
G1 X252.295 Y85.482
G1 X253.082 Y86.502
G1 X253.853 Y87.581
G1 X254.655 Y88.624
G1 X255.443 Y89.677
G1 X256.234 Y90.753
G1 X257.042 Y91.828
G1 X257.803 Y92.867
G1 X258.570 Y93.901
G1 X259.347 Y94.941
G1 X260.118 Y95.949
G1 X260.852 Y96.951
G1 X261.549 Y97.893
G1 X262.301 Y98.873
G1 X263.009 Y99.752
G1 X263.681 Y100.683
G1 X264.312 Y101.516
G1 X264.977 Y102.357
G1 X265.588 Y103.147
G1 X266.178 Y103.879
G1 X266.726 Y104.574
G1 X267.294 Y105.266
G1 X267.799 Y105.892
G1 X268.341 Y106.541
G1 X268.859 Y107.131
G1 X269.333 Y107.728
G1 X269.793 Y108.292
G1 X270.286 Y108.851
G1 X270.722 Y109.377
G1 X271.213 Y109.934
G1 X271.669 Y110.473
G1 X272.131 Y111.001
G1 X272.598 Y111.521
G1 X273.053 Y112.076
G1 X273.538 Y112.622
G1 X273.996 Y113.183
G1 X274.457 Y113.741
G1 X274.973 Y114.346
; Path 91
G0 Z0
G0 X258.930 Y122.148
G0 Z2.2
G1 F3000
G1 X260.823 Y122.705
; Path 92
G0 Z0
G0 X260.890 Y122.467
G0 Z2.2
G1 F3000
G1 X258.927 Y122.252
; Path 93
G0 Z0
G0 X273.987 Y130.119
G0 Z2.2
G1 F3000
G1 X276.066 Y130.559
; Path 94
G0 Z0
G0 X289.041 Y125.090
G0 Z2.2
G1 F3000
G1 X290.979 Y125.638
; Path 95
G0 Z0
G0 X290.993 Y125.400
G0 Z2.2
G1 F3000
G1 X289.109 Y125.080
; Path 96
G0 Z0
G0 X278.957 Y146.133
G0 Z2.2
G1 F3000
G1 X280.887 Y146.407
; Path 97
G0 Z0
G0 X280.958 Y146.311
G0 Z2.2
G1 F3000
G1 X278.983 Y146.262
; Path 98
G0 Z0
G0 X269.128 Y157.163
G0 Z2.2
G1 F3000
G1 X270.991 Y157.580
; Path 99
G0 Z0
G0 X270.986 Y157.544
G0 Z2.2
G1 F3000
G1 X268.881 Y157.274
; Path 100
G0 Z0
G0 X258.057 Y160.284
G0 Z2.2
G1 F3000
G1 X257.328 Y159.752
G1 X256.574 Y159.130
G1 X255.842 Y158.656
G1 X255.178 Y158.086
G1 X254.324 Y157.565
G1 X253.627 Y157.105
G1 X252.972 Y156.467
G1 X252.119 Y155.905
G1 X251.472 Y155.371
G1 X250.742 Y154.839
G1 X249.943 Y154.359
; Path 101
G0 Z0
G0 X244.104 Y150.171
G0 Z2.2
G1 F3000
G1 X246.035 Y150.440
; Path 102
G0 Z0
G0 X245.938 Y150.720
G0 Z2.2
G1 F3000
G1 X244.070 Y150.069
; Path 103
G0 Z0
G0 X229.010 Y153.181
G0 Z2.2
G1 F3000
G1 X230.852 Y153.565
; Path 104
G0 Z0
G0 X233.961 Y187.289
G0 Z2.2
G1 F3000
G1 X235.980 Y187.355
; Path 105
G0 Z0
G0 X236.014 Y187.562
G0 Z2.2
G1 F3000
G1 X234.102 Y187.300
; Path 106
G0 Z0
G0 X253.996 Y201.260
G0 Z2.2
G1 F3000
G1 X255.847 Y201.334
; Path 107
G0 Z0
G0 X255.953 Y201.562
G0 Z2.2
G1 F3000
G1 X254.027 Y201.309
; Path 108
G0 Z0
G0 X256.005 Y212.294
G0 Z2.2
G1 F3000
G1 X255.876 Y213.170
G1 X255.652 Y213.929
G1 X255.450 Y214.918
G1 X255.307 Y215.683
G1 X255.062 Y216.516
G1 X254.955 Y217.426
; Path 109
G0 Z0
G0 X257.975 Y212.321
G0 Z2.2
G1 F3000
G1 X257.062 Y212.589
G1 X256.252 Y212.833
G1 X255.356 Y212.950
G1 X254.392 Y213.283
G1 X253.637 Y213.467
G1 X252.749 Y213.671
G1 X251.776 Y213.935
G1 X250.983 Y214.107
G1 X250.058 Y214.415
; Path 110
G0 Z0
G0 X252.003 Y215.112
G0 Z2.2
G1 F3000
G1 X253.944 Y215.550
; Path 111
G0 Z0
G0 X240.893 Y221.313
G0 Z2.2
G1 F3000
G1 X238.954 Y221.269
; Path 112
G0 Z0
G0 X238.953 Y221.272
G0 Z2.2
G1 F3000
G1 X240.988 Y221.618
; Path 113
G0 Z0
G0 X243.911 Y240.022
G0 Z2.2
G1 F3000
G1 X245.818 Y240.824
; Path 114
G0 Z0
G0 X264.089 Y236.139
G0 Z2.2
G1 F3000
G1 X265.972 Y236.729
; Path 115
G0 Z0
G0 X266.073 Y236.396
G0 Z2.2
G1 F3000
G1 X264.060 Y236.242
; Path 116
G0 Z0
G0 X269.069 Y245.938
G0 Z2.2
G1 F3000
G1 X270.923 Y246.645
; Path 117
G0 Z0
G0 X288.969 Y243.122
G0 Z2.2
G1 F3000
G1 X290.919 Y243.604
; Path 118
G0 Z0
G0 X304.071 Y249.081
G0 Z2.2
G1 F3000
G1 X305.980 Y249.663
; Path 119
G0 Z0
G0 X300.907 Y231.606
G0 Z2.2
G1 F3000
G1 X298.952 Y231.208
; Path 120
G0 Z0
G0 X299.012 Y231.387
G0 Z2.2
G1 F3000
G1 X301.046 Y231.457
; Path 121
G0 Z0
G0 X310.063 Y211.367
G0 Z2.2
G1 F3000
G1 X309.115 Y211.398
G1 X308.174 Y211.391
G1 X307.194 Y211.295
G1 X306.146 Y211.285
G1 X305.265 Y211.349
G1 X304.319 Y211.263
G1 X303.295 Y211.293
G1 X302.414 Y211.268
G1 X301.449 Y211.292
G1 X300.500 Y211.345
G1 X299.413 Y211.275
G1 X298.494 Y211.264
G1 X297.557 Y211.246
G1 X296.643 Y211.273
G1 X295.668 Y211.172
G1 X294.670 Y211.234
G1 X293.707 Y211.145
G1 X292.710 Y211.237
G1 X291.796 Y211.246
G1 X290.805 Y211.254
G1 X289.787 Y211.187
G1 X288.890 Y211.135
G1 X287.994 Y211.225
G1 X287.043 Y211.190
G1 X285.956 Y211.208
G1 X285.050 Y211.126
G1 X284.038 Y211.124
G1 X283.184 Y211.152
G1 X282.147 Y211.154
G1 X281.176 Y211.138
G1 X280.258 Y211.072
G1 X279.249 Y211.142
G1 X278.328 Y211.130
G1 X277.333 Y210.974
G1 X276.364 Y211.053
G1 X275.454 Y211.028
G1 X274.464 Y210.994
G1 X273.547 Y211.019
G1 X272.544 Y211.006
G1 X271.562 Y210.981
G1 X270.620 Y210.930
G1 X269.582 Y210.989
G1 X268.663 Y210.956
G1 X267.691 Y210.988
G1 X266.727 Y210.907
G1 X265.817 Y210.917
G1 X264.777 Y210.870
G1 X263.846 Y210.963
G1 X262.895 Y210.969
G1 X261.893 Y210.852
G1 X260.963 Y210.915
G1 X260.038 Y210.886
G1 X259.117 Y210.833
G1 X258.137 Y210.876
G1 X257.219 Y210.791
G1 X256.112 Y210.810
G1 X255.208 Y210.816
G1 X254.286 Y210.867
G1 X253.316 Y210.807
G1 X252.361 Y210.820
G1 X251.419 Y210.793
G1 X250.376 Y210.766
G1 X249.506 Y210.848
G1 X248.466 Y210.816
G1 X247.532 Y210.766
G1 X246.528 Y210.810
G1 X245.630 Y210.718
G1 X244.639 Y210.770
G1 X243.671 Y210.720
G1 X242.728 Y210.795
G1 X241.745 Y210.777
G1 X240.837 Y210.712
G1 X239.914 Y210.675
G1 X238.945 Y210.649
G1 X237.912 Y210.721
G1 X236.883 Y210.615
G1 X236.026 Y210.633
G1 X235.026 Y210.643
G1 X234.053 Y210.652
G1 X233.164 Y210.568
G1 X232.213 Y210.590
G1 X231.203 Y210.653
G1 X230.207 Y210.588
G1 X229.208 Y210.610
G1 X228.323 Y210.640
G1 X227.405 Y210.585
G1 X226.303 Y210.501
G1 X225.439 Y210.508
G1 X224.402 Y210.500
G1 X223.513 Y210.601
G1 X222.519 Y210.519
G1 X221.594 Y210.513
G1 X220.606 Y210.490
G1 X219.613 Y210.475
G1 X218.705 Y210.530
G1 X217.659 Y210.491
G1 X216.791 Y210.455
G1 X215.735 Y210.374
G1 X214.861 Y210.380
G1 X213.885 Y210.366
G1 X212.826 Y210.498
G1 X211.908 Y210.443
G1 X210.963 Y210.451
G1 X210.013 Y210.391
G1 X209.016 Y210.446
G1 X208.150 Y210.376
G1 X207.094 Y210.316
G1 X206.232 Y210.366
G1 X205.155 Y210.282
G1 X204.209 Y210.397
G1 X203.311 Y210.266
G1 X202.335 Y210.367
G1 X201.422 Y210.347
G1 X200.425 Y210.219
G1 X199.361 Y210.228
G1 X198.539 Y210.301
G1 X197.506 Y210.259
G1 X196.470 Y210.272
G1 X195.527 Y210.226
G1 X194.541 Y210.293
G1 X193.650 Y210.288
G1 X192.758 Y210.143
G1 X191.800 Y210.266
G1 X190.800 Y210.219
G1 X189.849 Y210.248
G1 X188.886 Y210.179
G1 X187.892 Y210.193
G1 X186.942 Y210.095
G1 X185.937 Y210.124
G1 X184.999 Y210.125
G1 X183.988 Y210.074
G1 X183.016 Y210.163
G1 X182.103 Y210.116
G1 X181.149 Y210.057
G1 X180.241 Y210.023
G1 X179.228 Y209.991
G1 X178.306 Y210.014
G1 X177.243 Y210.088
G1 X176.398 Y210.018
G1 X175.379 Y209.989
G1 X174.433 Y210.048
G1 X173.447 Y210.042
G1 X172.492 Y209.988
G1 X171.459 Y209.932
G1 X170.492 Y209.977
G1 X169.585 Y209.967
G1 X168.626 Y209.894
G1 X167.661 Y209.963
G1 X166.769 Y209.892
G1 X165.696 Y209.925
G1 X164.794 Y209.855
G1 X163.872 Y209.914
G1 X162.923 Y209.891
G1 X161.962 Y209.900
G1 X160.995 Y209.891
G1 X159.985 Y209.849
G1 X158.961 Y209.776
G1 X158.037 Y209.793
G1 X157.169 Y209.752
G1 X156.199 Y209.804
G1 X155.174 Y209.830
G1 X154.279 Y209.827
G1 X153.248 Y209.802
G1 X152.289 Y209.816
G1 X151.359 Y209.750
G1 X150.388 Y209.777
G1 X149.441 Y209.673
G1 X148.501 Y209.763
G1 X147.478 Y209.709
G1 X146.505 Y209.693
G1 X145.567 Y209.638
G1 X144.637 Y209.715
G1 X143.579 Y209.656
G1 X142.719 Y209.622
G1 X141.724 Y209.588
G1 X140.762 Y209.554
G1 X139.761 Y209.679
G1 X138.788 Y209.616
G1 X137.927 Y209.643
G1 X136.974 Y209.663
G1 X135.953 Y209.519
G1 X134.970 Y209.569
G1 X134.060 Y209.489
G1 X133.069 Y209.543
G1 X132.083 Y209.522
G1 X131.121 Y209.474
G1 X130.223 Y209.442
G1 X129.209 Y209.571
G1 X128.229 Y209.522
G1 X127.329 Y209.492
G1 X126.318 Y209.553
G1 X125.283 Y209.475
G1 X124.388 Y209.430
G1 X123.347 Y209.509
G1 X122.463 Y209.430
G1 X121.490 Y209.442
G1 X120.514 Y209.458
G1 X119.561 Y209.379
G1 X118.638 Y209.366
G1 X117.606 Y209.407
G1 X116.621 Y209.336
G1 X115.709 Y209.391
G1 X114.762 Y209.344
G1 X113.746 Y209.400
G1 X112.767 Y209.318
G1 X111.838 Y209.319
G1 X110.879 Y209.334
G1 X109.956 Y209.292
; Path 122
G0 Z0
G0 X110.046 Y209.349
G0 Z2.2
G1 F3000
G1 X111.083 Y209.308
G1 X111.930 Y209.413
G1 X112.853 Y209.356
G1 X113.815 Y209.423
G1 X114.841 Y209.469
G1 X115.784 Y209.375
G1 X116.830 Y209.482
G1 X117.758 Y209.443
G1 X118.719 Y209.468
G1 X119.709 Y209.506
G1 X120.616 Y209.518
G1 X121.648 Y209.548
G1 X122.536 Y209.482
G1 X123.559 Y209.493
G1 X124.500 Y209.562
G1 X125.345 Y209.463
G1 X126.404 Y209.462
G1 X127.326 Y209.576
G1 X128.324 Y209.606
G1 X129.274 Y209.532
G1 X130.191 Y209.635
G1 X131.176 Y209.593
G1 X132.194 Y209.541
G1 X133.074 Y209.547
G1 X134.086 Y209.542
G1 X135.025 Y209.616
G1 X135.984 Y209.695
G1 X136.869 Y209.584
G1 X137.879 Y209.617
G1 X138.809 Y209.679
G1 X139.782 Y209.666
G1 X140.862 Y209.632
G1 X141.727 Y209.634
G1 X142.635 Y209.691
G1 X143.595 Y209.654
G1 X144.672 Y209.738
G1 X145.632 Y209.732
G1 X146.511 Y209.780
G1 X147.513 Y209.751
G1 X148.527 Y209.789
G1 X149.436 Y209.823
G1 X150.467 Y209.826
G1 X151.303 Y209.802
G1 X152.260 Y209.853
G1 X153.208 Y209.871
G1 X154.169 Y209.901
G1 X155.267 Y209.909
G1 X156.214 Y209.777
G1 X157.166 Y209.907
G1 X158.117 Y209.932
G1 X159.002 Y209.837
G1 X160.001 Y209.885
G1 X160.992 Y209.967
G1 X161.853 Y209.876
G1 X162.951 Y209.927
G1 X163.794 Y209.983
G1 X164.860 Y209.858
G1 X165.693 Y209.891
G1 X166.752 Y209.949
G1 X167.684 Y210.007
G1 X168.695 Y209.993
G1 X169.567 Y209.971
G1 X170.541 Y210.024
G1 X171.556 Y210.001
G1 X172.490 Y210.019
G1 X173.479 Y210.035
G1 X174.474 Y209.975
G1 X175.360 Y209.990
G1 X176.409 Y209.994
G1 X177.281 Y210.063
G1 X178.224 Y210.021
G1 X179.181 Y210.117
G1 X180.114 Y210.148
G1 X181.103 Y210.099
G1 X182.127 Y210.041
G1 X183.004 Y210.183
G1 X183.946 Y210.162
G1 X184.981 Y210.150
G1 X185.911 Y210.181
G1 X186.837 Y210.186
G1 X187.942 Y210.166
G1 X188.767 Y210.161
G1 X189.827 Y210.200
G1 X190.689 Y210.237
G1 X191.781 Y210.197
G1 X192.694 Y210.293
G1 X193.641 Y210.296
G1 X194.565 Y210.251
G1 X195.629 Y210.263
G1 X196.471 Y210.263
G1 X197.473 Y210.280
G1 X198.366 Y210.302
G1 X199.323 Y210.378
G1 X200.310 Y210.367
G1 X201.350 Y210.279
G1 X202.268 Y210.408
G1 X203.177 Y210.357
G1 X204.181 Y210.397
G1 X205.177 Y210.330
G1 X206.108 Y210.393
G1 X207.036 Y210.313
G1 X208.026 Y210.421
G1 X209.054 Y210.330
G1 X209.967 Y210.406
G1 X210.893 Y210.359
G1 X211.858 Y210.468
G1 X212.801 Y210.429
G1 X213.760 Y210.365
G1 X214.842 Y210.497
G1 X215.668 Y210.454
G1 X216.746 Y210.404
G1 X217.689 Y210.404
G1 X218.695 Y210.539
G1 X219.616 Y210.523
G1 X220.469 Y210.459
G1 X221.501 Y210.523
G1 X222.463 Y210.529
G1 X223.395 Y210.481
G1 X224.369 Y210.543
G1 X225.406 Y210.527
G1 X226.374 Y210.621
G1 X227.327 Y210.553
G1 X228.269 Y210.645
G1 X229.157 Y210.603
G1 X230.108 Y210.596
G1 X231.156 Y210.542
G1 X232.101 Y210.672
G1 X232.999 Y210.598
G1 X234.030 Y210.597
G1 X234.962 Y210.649
G1 X235.952 Y210.651
G1 X236.901 Y210.677
G1 X237.803 Y210.610
G1 X238.856 Y210.654
G1 X239.704 Y210.664
G1 X240.667 Y210.669
G1 X241.645 Y210.676
G1 X242.721 Y210.694
G1 X243.607 Y210.693
G1 X244.638 Y210.735
G1 X245.563 Y210.738
G1 X246.440 Y210.739
G1 X247.462 Y210.766
G1 X248.466 Y210.721
G1 X249.436 Y210.757
G1 X250.272 Y210.765
G1 X251.334 Y210.861
G1 X252.327 Y210.871
G1 X253.215 Y210.854
G1 X254.143 Y210.896
G1 X255.116 Y210.833
G1 X256.073 Y210.880
G1 X257.137 Y210.920
G1 X258.071 Y210.910
G1 X259.049 Y210.908
G1 X259.963 Y210.882
G1 X260.868 Y210.814
G1 X261.819 Y210.908
G1 X262.848 Y210.869
G1 X263.823 Y210.966
G1 X264.756 Y210.992
G1 X265.736 Y210.961
G1 X266.649 Y210.955
G1 X267.612 Y210.891
G1 X268.593 Y210.948
G1 X269.554 Y210.960
G1 X270.467 Y210.954
G1 X271.469 Y210.947
G1 X272.465 Y210.997
G1 X273.501 Y210.983
G1 X274.381 Y211.023
G1 X275.309 Y210.988
G1 X276.387 Y211.089
G1 X277.234 Y210.973
G1 X278.261 Y211.071
G1 X279.135 Y211.023
G1 X280.190 Y211.093
G1 X281.091 Y211.118
G1 X282.136 Y211.136
G1 X283.025 Y211.018
G1 X284.010 Y211.059
G1 X284.967 Y211.111
G1 X285.865 Y211.086
G1 X286.817 Y211.055
G1 X287.925 Y211.093
G1 X288.884 Y211.186
G1 X289.744 Y211.184
G1 X290.677 Y211.138
G1 X291.638 Y211.200
G1 X292.668 Y211.165
G1 X293.607 Y211.266
G1 X294.616 Y211.174
G1 X295.489 Y211.264
G1 X296.540 Y211.166
G1 X297.469 Y211.226
G1 X298.379 Y211.165
G1 X299.414 Y211.261
G1 X300.332 Y211.290
G1 X301.267 Y211.267
G1 X302.318 Y211.233
G1 X303.251 Y211.252
G1 X304.279 Y211.252
G1 X305.139 Y211.360
G1 X306.109 Y211.265
G1 X307.094 Y211.387
G1 X308.081 Y211.387
G1 X309.010 Y211.403
G1 X309.970 Y211.343
; Path 123
G0 Z0
G0 X281.069 Y216.429
G0 Z2.2
G1 F3000
G1 X278.972 Y216.380
; Path 124
G0 Z0
G0 X278.942 Y216.331
G0 Z2.2
G1 F3000
G1 X280.904 Y216.376
; Path 125
G0 Z0
G0 X275.877 Y185.325
G0 Z2.2
G1 F3000
G1 X273.888 Y185.332
; Path 126
G0 Z0
G0 X274.132 Y185.114
G0 Z2.2
G1 F3000
G1 X276.030 Y185.376
; Path 127
G0 Z0
G0 X300.924 Y164.475
G0 Z2.2
G1 F3000
G1 X299.056 Y164.178
; Path 128
G0 Z0
G0 X309.951 Y141.409
G0 Z2.2
G1 F3000
G1 X309.010 Y141.384
G1 X308.084 Y141.406
G1 X307.052 Y141.401
G1 X306.108 Y141.318
G1 X305.145 Y141.394
G1 X304.222 Y141.277
G1 X303.225 Y141.415
G1 X302.198 Y141.333
G1 X301.247 Y141.250
G1 X300.321 Y141.360
G1 X299.345 Y141.373
G1 X298.345 Y141.221
G1 X297.454 Y141.280
G1 X296.446 Y141.334
G1 X295.604 Y141.287
G1 X294.546 Y141.260
G1 X293.587 Y141.309
G1 X292.687 Y141.273
G1 X291.646 Y141.182
G1 X290.677 Y141.260
G1 X289.702 Y141.176
G1 X288.875 Y141.258
G1 X287.776 Y141.233
G1 X286.842 Y141.190
G1 X285.969 Y141.159
G1 X284.956 Y141.152
G1 X284.002 Y141.219
G1 X283.056 Y141.134
G1 X282.108 Y141.195
G1 X281.048 Y141.057
G1 X280.229 Y141.027
G1 X279.207 Y141.055
G1 X278.161 Y141.123
G1 X277.187 Y141.128
G1 X276.244 Y141.068
G1 X275.411 Y141.012
G1 X274.327 Y141.010
G1 X273.469 Y140.963
G1 X272.459 Y141.024
G1 X271.442 Y140.992
G1 X270.522 Y140.962
G1 X269.498 Y141.020
G1 X268.558 Y140.974
G1 X267.704 Y140.996
G1 X266.728 Y140.949
G1 X265.708 Y140.990
G1 X264.779 Y140.905
G1 X263.771 Y140.914
G1 X262.780 Y140.934
G1 X261.846 Y140.934
G1 X260.869 Y140.923
G1 X259.962 Y140.896
G1 X259.057 Y140.955
G1 X257.968 Y140.942
G1 X257.103 Y140.903
G1 X256.106 Y140.930
G1 X255.110 Y140.770
G1 X254.178 Y140.779
G1 X253.286 Y140.832
G1 X252.279 Y140.894
G1 X251.258 Y140.819
G1 X250.394 Y140.829
G1 X249.439 Y140.830
G1 X248.447 Y140.751
G1 X247.464 Y140.767
G1 X246.533 Y140.768
G1 X245.563 Y140.683
G1 X244.636 Y140.668
G1 X243.649 Y140.733
G1 X242.685 Y140.724
G1 X241.654 Y140.698
G1 X240.714 Y140.655
G1 X239.804 Y140.701
G1 X238.797 Y140.690
G1 X237.866 Y140.711
G1 X236.840 Y140.602
G1 X235.961 Y140.664
G1 X234.967 Y140.638
G1 X233.933 Y140.567
G1 X232.970 Y140.549
G1 X232.058 Y140.585
G1 X231.168 Y140.579
G1 X230.227 Y140.634
G1 X229.159 Y140.628
G1 X228.276 Y140.509
G1 X227.307 Y140.619
G1 X226.292 Y140.548
G1 X225.321 Y140.533
G1 X224.460 Y140.468
G1 X223.447 Y140.526
G1 X222.470 Y140.509
G1 X221.510 Y140.422
G1 X220.594 Y140.530
G1 X219.541 Y140.461
G1 X218.601 Y140.482
G1 X217.670 Y140.402
G1 X216.652 Y140.461
G1 X215.679 Y140.373
G1 X214.799 Y140.485
G1 X213.746 Y140.358
G1 X212.915 Y140.397
G1 X211.819 Y140.390
G1 X211.007 Y140.379
G1 X209.973 Y140.378
G1 X208.985 Y140.420
G1 X207.990 Y140.420
G1 X207.049 Y140.335
G1 X206.102 Y140.285
G1 X205.181 Y140.331
G1 X204.258 Y140.261
G1 X203.173 Y140.316
G1 X202.319 Y140.279
G1 X201.337 Y140.326
G1 X200.416 Y140.269
G1 X199.342 Y140.256
G1 X198.413 Y140.290
G1 X197.477 Y140.245
G1 X196.514 Y140.293
G1 X195.518 Y140.159
G1 X194.581 Y140.141
G1 X193.687 Y140.234
G1 X192.703 Y140.187
G1 X191.653 Y140.115
G1 X190.814 Y140.111
G1 X189.864 Y140.162
G1 X188.893 Y140.178
G1 X187.908 Y140.130
G1 X186.978 Y140.085
G1 X185.982 Y140.044
G1 X184.980 Y140.112
G1 X183.954 Y140.049
G1 X183.023 Y140.051
G1 X182.032 Y140.087
G1 X181.137 Y140.127
G1 X180.205 Y140.135
G1 X179.166 Y140.102
G1 X178.284 Y140.106
G1 X177.342 Y140.053
G1 X176.307 Y139.966
G1 X175.413 Y140.005
G1 X174.330 Y139.952
G1 X173.408 Y139.940
G1 X172.484 Y139.978
G1 X171.498 Y139.976
G1 X170.577 Y140.028
G1 X169.662 Y139.878
G1 X168.660 Y139.992
G1 X167.652 Y139.864
G1 X166.712 Y139.883
G1 X165.774 Y139.977
G1 X164.810 Y139.821
G1 X163.834 Y139.877
G1 X162.858 Y139.910
G1 X161.834 Y139.924
G1 X160.969 Y139.878
G1 X159.987 Y139.843
G1 X158.981 Y139.805
G1 X158.033 Y139.821
G1 X157.128 Y139.884
G1 X156.112 Y139.777
G1 X155.238 Y139.756
G1 X154.217 Y139.703
G1 X153.331 Y139.820
G1 X152.267 Y139.692
G1 X151.268 Y139.811
G1 X150.413 Y139.720
G1 X149.441 Y139.791
G1 X148.480 Y139.723
G1 X147.491 Y139.708
G1 X146.609 Y139.667
G1 X145.523 Y139.748
G1 X144.544 Y139.623
G1 X143.566 Y139.733
G1 X142.709 Y139.652
G1 X141.803 Y139.718
G1 X140.776 Y139.628
G1 X139.806 Y139.628
G1 X138.847 Y139.616
G1 X137.918 Y139.683
G1 X136.890 Y139.663
G1 X135.926 Y139.529
G1 X134.995 Y139.573
G1 X134.089 Y139.494
G1 X133.050 Y139.512
G1 X132.083 Y139.507
G1 X131.082 Y139.561
G1 X130.226 Y139.508
G1 X129.236 Y139.470
G1 X128.205 Y139.467
G1 X127.277 Y139.449
G1 X126.409 Y139.559
G1 X125.330 Y139.536
G1 X124.410 Y139.429
G1 X123.418 Y139.407
G1 X122.499 Y139.438
G1 X121.492 Y139.420
G1 X120.639 Y139.464
G1 X119.541 Y139.399
G1 X118.664 Y139.427
G1 X117.688 Y139.385
G1 X116.801 Y139.318
G1 X115.740 Y139.381
G1 X114.842 Y139.280
G1 X113.795 Y139.330
G1 X112.810 Y139.367
G1 X111.955 Y139.275
G1 X111.015 Y139.343
G1 X110.002 Y139.304
; Path 129
G0 Z0
G0 X109.937 Y139.377
G0 Z2.2
G1 F3000
G1 X110.843 Y139.408
G1 X111.782 Y139.474
G1 X112.787 Y139.423
G1 X113.774 Y139.413
G1 X114.818 Y139.385
G1 X115.727 Y139.469
G1 X116.609 Y139.371
G1 X117.558 Y139.502
G1 X118.554 Y139.468
G1 X119.518 Y139.445
G1 X120.443 Y139.440
G1 X121.507 Y139.520
G1 X122.439 Y139.503
G1 X123.445 Y139.482
G1 X124.412 Y139.503
G1 X125.372 Y139.458
G1 X126.251 Y139.483
G1 X127.298 Y139.561
G1 X128.251 Y139.516
G1 X129.182 Y139.503
G1 X130.138 Y139.515
G1 X131.042 Y139.640
G1 X131.992 Y139.530
G1 X133.066 Y139.563
G1 X133.930 Y139.608
G1 X134.939 Y139.630
G1 X135.909 Y139.692
G1 X136.931 Y139.625
G1 X137.835 Y139.660
G1 X138.728 Y139.650
G1 X139.819 Y139.749
G1 X140.730 Y139.662
G1 X141.603 Y139.712
G1 X142.690 Y139.778
G1 X143.656 Y139.690
G1 X144.483 Y139.676
G1 X145.443 Y139.764
G1 X146.494 Y139.795
G1 X147.440 Y139.756
G1 X148.380 Y139.717
G1 X149.292 Y139.809
G1 X150.261 Y139.756
G1 X151.255 Y139.833
G1 X152.234 Y139.741
G1 X153.168 Y139.826
G1 X154.162 Y139.874
G1 X155.070 Y139.793
G1 X156.056 Y139.890
G1 X157.006 Y139.808
G1 X158.066 Y139.800
G1 X159.057 Y139.822
G1 X159.941 Y139.882
G1 X160.901 Y139.869
G1 X161.806 Y139.830
G1 X162.804 Y139.940
G1 X163.849 Y139.883
G1 X164.730 Y139.862
G1 X165.703 Y140.017
G1 X166.748 Y140.017
G1 X167.644 Y139.967
G1 X168.558 Y139.910
G1 X169.627 Y139.901
G1 X170.466 Y140.065
G1 X171.487 Y139.983
G1 X172.442 Y140.008
G1 X173.386 Y139.956
G1 X174.403 Y140.091
G1 X175.351 Y140.074
G1 X176.215 Y140.013
G1 X177.330 Y140.031
G1 X178.213 Y140.121
G1 X179.110 Y140.138
G1 X180.131 Y140.079
G1 X181.074 Y140.096
G1 X182.129 Y140.104
G1 X183.083 Y140.167
G1 X183.991 Y140.051
G1 X184.944 Y140.134
G1 X185.972 Y140.200
G1 X186.872 Y140.081
G1 X187.858 Y140.197
G1 X188.712 Y140.180
G1 X189.737 Y140.247
G1 X190.641 Y140.135
G1 X191.687 Y140.220
G1 X192.587 Y140.183
G1 X193.582 Y140.161
G1 X194.550 Y140.303
G1 X195.538 Y140.198
G1 X196.458 Y140.257
G1 X197.448 Y140.258
G1 X198.354 Y140.220
G1 X199.353 Y140.216
G1 X200.343 Y140.252
G1 X201.372 Y140.278
G1 X202.197 Y140.304
G1 X203.217 Y140.312
G1 X204.183 Y140.286
G1 X205.188 Y140.333
G1 X206.132 Y140.376
G1 X207.052 Y140.420
G1 X208.017 Y140.336
G1 X209.017 Y140.292
G1 X209.953 Y140.381
G1 X210.922 Y140.370
G1 X211.944 Y140.418
G1 X212.807 Y140.389
G1 X213.851 Y140.389
G1 X214.842 Y140.449
G1 X215.665 Y140.516
G1 X216.668 Y140.484
G1 X217.722 Y140.458
G1 X218.653 Y140.473
G1 X219.626 Y140.499
G1 X220.610 Y140.496
G1 X221.540 Y140.465
G1 X222.461 Y140.503
G1 X223.415 Y140.443
G1 X224.365 Y140.509
G1 X225.390 Y140.577
G1 X226.351 Y140.582
G1 X227.298 Y140.489
G1 X228.159 Y140.509
G1 X229.186 Y140.624
G1 X230.178 Y140.601
G1 X231.086 Y140.520
G1 X232.036 Y140.574
G1 X232.992 Y140.607
G1 X233.990 Y140.677
G1 X234.971 Y140.624
G1 X235.956 Y140.556
G1 X236.957 Y140.699
G1 X237.887 Y140.605
G1 X238.838 Y140.680
G1 X239.733 Y140.686
G1 X240.733 Y140.740
G1 X241.661 Y140.763
G1 X242.605 Y140.740
G1 X243.623 Y140.639
G1 X244.583 Y140.727
G1 X245.481 Y140.681
G1 X246.507 Y140.686
G1 X247.482 Y140.744
G1 X248.455 Y140.769
G1 X249.331 Y140.780
G1 X250.379 Y140.809
G1 X251.375 Y140.823
G1 X252.281 Y140.828
G1 X253.251 Y140.747
G1 X254.141 Y140.762
G1 X255.217 Y140.835
G1 X256.208 Y140.791
G1 X257.116 Y140.789
G1 X258.015 Y140.868
G1 X259.059 Y140.884
G1 X259.995 Y140.863
G1 X260.895 Y140.811
G1 X261.892 Y140.855
G1 X262.884 Y140.887
G1 X263.809 Y140.926
G1 X264.742 Y140.921
G1 X265.747 Y140.863
G1 X266.725 Y140.901
G1 X267.752 Y140.903
G1 X268.682 Y140.996
G1 X269.591 Y140.991
G1 X270.629 Y140.972
G1 X271.529 Y141.007
G1 X272.507 Y140.982
G1 X273.404 Y141.003
G1 X274.444 Y141.059
G1 X275.345 Y141.009
G1 X276.352 Y141.069
G1 X277.266 Y140.979
G1 X278.291 Y141.002
G1 X279.212 Y141.108
G1 X280.245 Y141.045
G1 X281.193 Y141.035
G1 X282.202 Y141.083
G1 X283.083 Y141.014
G1 X283.993 Y141.043
G1 X285.020 Y141.100
G1 X285.947 Y141.087
G1 X286.988 Y141.114
G1 X287.950 Y141.147
G1 X288.803 Y141.153
G1 X289.895 Y141.073
G1 X290.764 Y141.075
G1 X291.756 Y141.176
G1 X292.711 Y141.123
G1 X293.662 Y141.184
G1 X294.723 Y141.262
G1 X295.583 Y141.140
G1 X296.492 Y141.227
G1 X297.533 Y141.219
G1 X298.479 Y141.213
G1 X299.461 Y141.283
G1 X300.352 Y141.211
G1 X301.368 Y141.258
G1 X302.287 Y141.332
G1 X303.244 Y141.198
G1 X304.334 Y141.240
G1 X305.218 Y141.291
G1 X306.142 Y141.372
G1 X307.082 Y141.359
G1 X308.117 Y141.268
G1 X309.137 Y141.403
G1 X310.045 Y141.338
; Path 130
G0 Z0
G0 X310.013 Y172.304
G0 Z2.2
G1 F3000
G1 X309.074 Y172.383
G1 X308.118 Y172.315
G1 X307.185 Y172.394
G1 X306.175 Y172.408
G1 X305.135 Y172.341
G1 X304.316 Y172.421
G1 X303.237 Y172.409
G1 X302.259 Y172.332
G1 X301.361 Y172.380
G1 X300.403 Y172.342
G1 X299.429 Y172.395
G1 X298.546 Y172.439
G1 X297.517 Y172.428
G1 X296.485 Y172.412
G1 X295.538 Y172.471
G1 X294.649 Y172.503
G1 X293.675 Y172.495
G1 X292.783 Y172.442
G1 X291.702 Y172.413
G1 X290.853 Y172.571
G1 X289.877 Y172.435
G1 X288.893 Y172.498
G1 X287.893 Y172.547
G1 X286.959 Y172.495
G1 X285.959 Y172.612
G1 X285.021 Y172.551
G1 X284.056 Y172.592
G1 X283.040 Y172.589
G1 X282.074 Y172.609
G1 X281.227 Y172.523
G1 X280.219 Y172.652
G1 X279.332 Y172.652
G1 X278.279 Y172.684
G1 X277.288 Y172.704
G1 X276.424 Y172.666
G1 X275.390 Y172.681
G1 X274.464 Y172.602
G1 X273.528 Y172.634
G1 X272.525 Y172.673
G1 X271.580 Y172.619
G1 X270.563 Y172.739
G1 X269.568 Y172.671
G1 X268.633 Y172.770
G1 X267.715 Y172.675
G1 X266.808 Y172.745
G1 X265.735 Y172.697
G1 X264.897 Y172.778
G1 X263.819 Y172.802
G1 X262.990 Y172.764
G1 X261.884 Y172.855
G1 X261.000 Y172.824
G1 X260.029 Y172.796
G1 X259.130 Y172.814
G1 X258.139 Y172.805
G1 X257.093 Y172.764
G1 X256.196 Y172.858
G1 X255.247 Y172.891
G1 X254.236 Y172.840
G1 X253.332 Y172.900
G1 X252.294 Y172.851
G1 X251.318 Y172.867
G1 X250.379 Y172.949
G1 X249.377 Y172.972
G1 X248.572 Y172.832
G1 X247.534 Y172.919
G1 X246.506 Y172.920
G1 X245.661 Y173.013
G1 X244.626 Y172.939
G1 X243.690 Y173.013
G1 X242.770 Y172.907
G1 X241.800 Y172.953
G1 X240.853 Y173.046
G1 X239.779 Y173.016
G1 X238.927 Y173.027
G1 X237.985 Y173.082
G1 X236.992 Y173.002
G1 X236.070 Y173.030
G1 X235.037 Y173.044
G1 X234.076 Y172.993
G1 X233.160 Y173.032
G1 X232.168 Y173.003
G1 X231.127 Y173.070
G1 X230.175 Y173.161
G1 X229.219 Y173.149
G1 X228.274 Y173.145
G1 X227.404 Y173.180
G1 X226.352 Y173.165
G1 X225.354 Y173.112
G1 X224.541 Y173.201
G1 X223.438 Y173.107
G1 X222.541 Y173.171
G1 X221.644 Y173.182
G1 X220.683 Y173.182
G1 X219.608 Y173.122
G1 X218.659 Y173.204
G1 X217.738 Y173.179
G1 X216.853 Y173.225
G1 X215.776 Y173.199
G1 X214.917 Y173.214
G1 X213.861 Y173.218
G1 X212.994 Y173.339
G1 X211.972 Y173.224
G1 X211.070 Y173.309
G1 X210.044 Y173.301
G1 X209.013 Y173.307
G1 X208.170 Y173.304
G1 X207.208 Y173.356
G1 X206.263 Y173.392
G1 X205.157 Y173.409
G1 X204.236 Y173.389
G1 X203.266 Y173.450
G1 X202.402 Y173.347
G1 X201.452 Y173.438
G1 X200.397 Y173.387
G1 X199.397 Y173.435
G1 X198.556 Y173.494
G1 X197.546 Y173.433
G1 X196.550 Y173.368
G1 X195.684 Y173.419
G1 X194.632 Y173.513
G1 X193.752 Y173.507
G1 X192.799 Y173.479
G1 X191.813 Y173.557
G1 X190.788 Y173.552
G1 X189.808 Y173.452
G1 X188.841 Y173.571
G1 X187.967 Y173.548
G1 X186.925 Y173.534
G1 X185.972 Y173.502
G1 X185.048 Y173.569
G1 X184.130 Y173.657
G1 X183.068 Y173.540
G1 X182.160 Y173.668
G1 X181.233 Y173.661
G1 X180.276 Y173.679
G1 X179.266 Y173.672
G1 X178.370 Y173.650
G1 X177.396 Y173.603
G1 X176.327 Y173.602
G1 X175.378 Y173.715
G1 X174.423 Y173.655
G1 X173.546 Y173.743
G1 X172.549 Y173.706
G1 X171.563 Y173.685
G1 X170.621 Y173.752
G1 X169.706 Y173.756
G1 X168.768 Y173.799
G1 X167.695 Y173.680
G1 X166.816 Y173.730
G1 X165.782 Y173.757
G1 X164.935 Y173.831
G1 X163.953 Y173.831
G1 X162.995 Y173.860
G1 X161.912 Y173.748
G1 X160.937 Y173.905
G1 X160.051 Y173.844
G1 X159.045 Y173.875
G1 X158.056 Y173.812
G1 X157.090 Y173.852
G1 X156.125 Y173.815
G1 X155.267 Y173.970
G1 X154.345 Y173.955
G1 X153.375 Y173.934
G1 X152.357 Y173.851
G1 X151.409 Y173.974
G1 X150.405 Y173.914
G1 X149.429 Y173.965
G1 X148.521 Y173.985
G1 X147.552 Y173.984
G1 X146.629 Y174.042
G1 X145.652 Y173.974
G1 X144.672 Y174.024
G1 X143.633 Y174.014
G1 X142.751 Y174.043
G1 X141.729 Y174.057
G1 X140.754 Y174.097
G1 X139.834 Y174.010
G1 X138.943 Y174.107
G1 X137.912 Y174.088
G1 X136.918 Y174.148
G1 X135.980 Y174.094
G1 X135.053 Y174.123
G1 X134.118 Y174.104
G1 X133.066 Y174.066
G1 X132.219 Y174.121
G1 X131.245 Y174.102
G1 X130.213 Y174.193
G1 X129.238 Y174.157
G1 X128.248 Y174.210
G1 X127.366 Y174.261
G1 X126.402 Y174.291
G1 X125.413 Y174.265
G1 X124.526 Y174.241
G1 X123.439 Y174.202
G1 X122.554 Y174.263
G1 X121.562 Y174.274
G1 X120.552 Y174.232
G1 X119.689 Y174.328
G1 X118.644 Y174.350
G1 X117.728 Y174.249
G1 X116.739 Y174.406
G1 X115.799 Y174.406
G1 X114.880 Y174.379
G1 X113.952 Y174.428
G1 X112.928 Y174.385
G1 X112.010 Y174.306
G1 X110.952 Y174.365
G1 X110.055 Y174.401
; Path 131
G0 Z0
G0 X109.961 Y174.404
G0 Z2.2
G1 F3000
G1 X110.911 Y174.361
G1 X111.895 Y174.333
G1 X112.868 Y174.344
G1 X113.736 Y174.438
G1 X114.777 Y174.368
G1 X115.811 Y174.418
G1 X116.774 Y174.406
G1 X117.626 Y174.311
G1 X118.590 Y174.360
G1 X119.525 Y174.341
G1 X120.527 Y174.254
G1 X121.456 Y174.220
G1 X122.475 Y174.281
G1 X123.449 Y174.330
G1 X124.383 Y174.209
G1 X125.392 Y174.245
G1 X126.292 Y174.295
G1 X127.354 Y174.176
G1 X128.254 Y174.211
G1 X129.213 Y174.239
G1 X130.132 Y174.214
G1 X131.063 Y174.224
G1 X132.178 Y174.148
G1 X133.030 Y174.238
G1 X133.983 Y174.233
G1 X134.989 Y174.159
G1 X135.891 Y174.089
G1 X136.941 Y174.122
G1 X137.945 Y174.062
G1 X138.889 Y174.043
G1 X139.807 Y174.083
G1 X140.798 Y174.137
G1 X141.676 Y174.046
G1 X142.612 Y174.059
G1 X143.582 Y174.028
G1 X144.559 Y174.075
G1 X145.603 Y174.028
G1 X146.475 Y174.107
G1 X147.505 Y174.037
G1 X148.465 Y174.057
G1 X149.371 Y174.007
G1 X150.396 Y174.078
G1 X151.301 Y174.051
G1 X152.332 Y174.050
G1 X153.354 Y174.055
G1 X154.276 Y173.986
G1 X155.170 Y173.992
G1 X156.137 Y173.981
G1 X157.167 Y173.948
G1 X158.018 Y173.955
G1 X159.083 Y173.928
G1 X160.019 Y173.916
G1 X160.994 Y173.890
G1 X161.881 Y173.843
G1 X162.849 Y173.961
G1 X163.903 Y173.909
G1 X164.802 Y173.910
G1 X165.745 Y173.893
G1 X166.728 Y173.779
G1 X167.754 Y173.822
G1 X168.725 Y173.829
G1 X169.638 Y173.898
G1 X170.557 Y173.839
G1 X171.586 Y173.819
G1 X172.533 Y173.793
G1 X173.442 Y173.730
G1 X174.446 Y173.727
G1 X175.374 Y173.786
G1 X176.389 Y173.676
G1 X177.292 Y173.667
G1 X178.287 Y173.746
G1 X179.268 Y173.704
G1 X180.241 Y173.706
G1 X181.216 Y173.784
G1 X182.118 Y173.762
G1 X183.096 Y173.646
G1 X184.128 Y173.636
G1 X185.046 Y173.671
G1 X185.992 Y173.721
G1 X186.944 Y173.656
G1 X187.893 Y173.598
G1 X188.925 Y173.601
G1 X189.790 Y173.631
G1 X190.855 Y173.659
G1 X191.717 Y173.554
G1 X192.778 Y173.582
G1 X193.766 Y173.547
G1 X194.599 Y173.524
G1 X195.706 Y173.553
G1 X196.567 Y173.500
G1 X197.556 Y173.547
G1 X198.522 Y173.616
G1 X199.491 Y173.465
G1 X200.516 Y173.522
G1 X201.361 Y173.487
G1 X202.323 Y173.533
G1 X203.379 Y173.511
G1 X204.248 Y173.467
G1 X205.193 Y173.440
G1 X206.191 Y173.517
G1 X207.198 Y173.375
G1 X208.195 Y173.495
G1 X209.172 Y173.443
G1 X210.062 Y173.423
G1 X211.004 Y173.410
G1 X212.018 Y173.454
G1 X212.949 Y173.422
G1 X213.900 Y173.349
G1 X214.846 Y173.307
G1 X215.787 Y173.421
G1 X216.733 Y173.335
G1 X217.802 Y173.285
G1 X218.780 Y173.259
G1 X219.721 Y173.384
G1 X220.695 Y173.299
G1 X221.588 Y173.239
G1 X222.565 Y173.298
G1 X223.527 Y173.307
G1 X224.508 Y173.350
G1 X225.442 Y173.282
G1 X226.487 Y173.214
G1 X227.358 Y173.209
G1 X228.319 Y173.161
G1 X229.267 Y173.254
G1 X230.184 Y173.143
G1 X231.202 Y173.254
G1 X232.177 Y173.159
G1 X233.163 Y173.218
G1 X234.051 Y173.170
G1 X235.065 Y173.172
G1 X236.073 Y173.130
G1 X237.026 Y173.111
G1 X237.875 Y173.069
G1 X238.862 Y173.198
G1 X239.876 Y173.116
G1 X240.857 Y173.114
G1 X241.814 Y173.143
G1 X242.724 Y173.068
G1 X243.716 Y173.013
G1 X244.737 Y173.023
G1 X245.633 Y173.090
G1 X246.630 Y173.113
G1 X247.563 Y173.046
G1 X248.493 Y173.086
G1 X249.519 Y172.995
G1 X250.449 Y173.031
G1 X251.403 Y173.083
G1 X252.430 Y173.011
G1 X253.383 Y172.939
G1 X254.292 Y173.021
G1 X255.324 Y172.961
G1 X256.255 Y172.928
G1 X257.102 Y173.006
G1 X258.204 Y172.965
G1 X259.058 Y172.993
G1 X260.059 Y172.919
G1 X261.012 Y172.849
G1 X261.922 Y172.842
G1 X262.952 Y172.872
G1 X263.885 Y172.882
G1 X264.838 Y172.926
G1 X265.760 Y172.817
G1 X266.820 Y172.779
G1 X267.780 Y172.775
G1 X268.735 Y172.839
G1 X269.719 Y172.877
G1 X270.601 Y172.816
G1 X271.624 Y172.823
G1 X272.554 Y172.792
G1 X273.515 Y172.750
G1 X274.419 Y172.787
G1 X275.483 Y172.738
G1 X276.365 Y172.788
G1 X277.288 Y172.692
G1 X278.299 Y172.733
G1 X279.307 Y172.651
G1 X280.269 Y172.682
G1 X281.164 Y172.719
G1 X282.194 Y172.761
G1 X283.084 Y172.680
G1 X284.110 Y172.725
G1 X285.048 Y172.665
G1 X286.088 Y172.682
G1 X286.921 Y172.684
G1 X287.986 Y172.612
G1 X288.849 Y172.681
G1 X289.850 Y172.665
G1 X290.799 Y172.675
G1 X291.834 Y172.536
G1 X292.734 Y172.528
G1 X293.687 Y172.621
G1 X294.628 Y172.614
G1 X295.615 Y172.523
G1 X296.617 Y172.581
G1 X297.543 Y172.537
G1 X298.457 Y172.505
G1 X299.392 Y172.592
G1 X300.407 Y172.577
G1 X301.414 Y172.567
G1 X302.299 Y172.459
G1 X303.325 Y172.492
G1 X304.334 Y172.400
G1 X305.189 Y172.440
G1 X306.271 Y172.496
G1 X307.155 Y172.433
G1 X308.077 Y172.395
G1 X309.151 Y172.348
G1 X310.040 Y172.411
; Path 132
G0 Z0
G0 X296.045 Y198.511
G0 Z2.2
G1 F3000
G1 X294.031 Y198.310
; Path 133
G0 Z0
G0 X293.978 Y198.316
G0 Z2.2
G1 F3000
G1 X296.025 Y198.369
; Path 134
G0 Z0
G0 X295.028 Y194.337
G0 Z2.2
G1 F3000
G1 X294.062 Y194.371
G1 X293.089 Y194.233
G1 X292.147 Y194.192
G1 X291.195 Y194.241
G1 X290.263 Y194.205
G1 X289.251 Y194.207
G1 X288.399 Y194.096
G1 X287.448 Y194.111
G1 X286.460 Y194.111
G1 X285.489 Y194.071
G1 X284.508 Y194.099
G1 X283.615 Y194.089
G1 X282.570 Y193.966
G1 X281.615 Y193.898
G1 X280.711 Y193.937
G1 X279.748 Y193.943
G1 X278.816 Y193.903
G1 X277.858 Y193.860
G1 X276.917 Y193.855
G1 X275.935 Y193.803
G1 X274.980 Y193.780
G1 X273.954 Y193.751
G1 X273.076 Y193.748
G1 X272.067 Y193.714
G1 X271.167 Y193.671
G1 X270.238 Y193.573
G1 X269.339 Y193.599
G1 X268.236 Y193.667
G1 X267.357 Y193.593
G1 X266.413 Y193.540
G1 X265.529 Y193.438
G1 X264.529 Y193.471
G1 X263.523 Y193.395
G1 X262.651 Y193.406
G1 X261.679 Y193.412
G1 X260.705 Y193.378
G1 X259.825 Y193.337
G1 X258.790 Y193.278
G1 X257.970 Y193.253
G1 X256.971 Y193.288
G1 X255.957 Y193.253
G1 X255.058 Y193.201
G1 X254.096 Y193.177
G1 X253.151 Y193.166
G1 X252.294 Y193.168
G1 X251.411 Y193.140
G1 X250.396 Y193.165
G1 X249.434 Y193.032
G1 X248.532 Y193.071
G1 X247.643 Y193.052
G1 X246.638 Y193.096
G1 X245.787 Y193.068
G1 X244.795 Y192.907
G1 X243.881 Y192.912
G1 X243.012 Y192.939
G1 X242.129 Y192.996
G1 X241.216 Y192.942
G1 X240.208 Y192.945
G1 X239.396 Y192.834
G1 X238.396 Y192.828
G1 X237.442 Y192.835
G1 X236.475 Y192.712
G1 X235.554 Y192.792
G1 X234.736 Y192.799
G1 X233.787 Y192.719
G1 X232.933 Y192.756
G1 X231.942 Y192.738
G1 X231.061 Y192.729
G1 X230.072 Y192.559
G1 X229.181 Y192.609
G1 X228.323 Y192.610
G1 X227.260 Y192.551
G1 X226.443 Y192.569
G1 X225.429 Y192.530
G1 X224.570 Y192.499
G1 X223.659 Y192.399
G1 X222.786 Y192.510
G1 X221.757 Y192.386
G1 X220.921 Y192.381
G1 X219.950 Y192.387
; Path 135
G0 Z0
G0 X230.099 Y198.523
G0 Z2.2
G1 F3000
G1 X228.088 Y198.323
; Path 136
G0 Z0
G0 X225.879 Y196.495
G0 Z2.2
G1 F3000
G1 X223.903 Y196.242
; Path 137
G0 Z0
G0 X216.019 Y196.401
G0 Z2.2
G1 F3000
G1 X213.948 Y196.326
; Path 138
G0 Z0
G0 X214.029 Y196.205
G0 Z2.2
G1 F3000
G1 X215.915 Y196.512
; Path 139
G0 Z0
G0 X200.002 Y209.379
G0 Z2.2
G1 F3000
G1 X197.950 Y209.322
; Path 140
G0 Z0
G0 X196.905 Y209.444
G0 Z2.2
G1 F3000
G1 X194.908 Y209.323
; Path 141
G0 Z0
G0 X194.957 Y209.455
G0 Z2.2
G1 F3000
G1 X196.846 Y209.471
; Path 142
G0 Z0
G0 X196.490 Y209.845
G0 Z2.2
G1 F3000
G1 X198.586 Y209.766
; Path 143
G0 Z0
G0 X199.448 Y208.900
G0 Z2.2
G1 F3000
G1 X197.511 Y208.810
; Path 144
G0 Z0
G0 X197.396 Y208.850
G0 Z2.2
G1 F3000
G1 X195.407 Y208.766
; Path 145
G0 Z0
G0 X195.965 Y210.104
G0 Z2.2
G1 F3000
G1 X197.834 Y210.193
; Path 146
G0 Z0
G0 X196.897 Y211.317
G0 Z2.2
G1 F3000
G1 X198.896 Y211.411
; Path 147
G0 Z0
G0 X199.425 Y213.792
G0 Z2.2
G1 F3000
G1 X201.384 Y213.955
; Path 148
G0 Z0
G0 X201.414 Y213.780
G0 Z2.2
G1 F3000
G1 X203.445 Y214.098
; Path 149
G0 Z0
G0 X204.001 Y214.463
G0 Z2.2
G1 F3000
G1 X201.934 Y214.084
; Path 150
G0 Z0
G0 X202.029 Y214.239
G0 Z2.2
G1 F3000
G1 X203.967 Y214.504
; Path 151
G0 Z0
G0 X202.410 Y215.102
G0 Z2.2
G1 F3000
G1 X200.470 Y214.701
; Path 152
G0 Z0
G0 X200.922 Y214.441
G0 Z2.2
G1 F3000
G1 X198.874 Y214.123
; Path 153
G0 Z0
G0 X198.991 Y214.135
G0 Z2.2
G1 F3000
G1 X200.938 Y214.513
; Path 154
G0 Z0
G0 X201.081 Y216.061
G0 Z2.2
G1 F3000
G1 X203.007 Y216.638
; Path 155
G0 Z0
G0 X202.339 Y217.174
G0 Z2.2
G1 F3000
G1 X200.507 Y216.599
; Path 156
G0 Z0
G0 X203.920 Y217.171
G0 Z2.2
G1 F3000
G1 X205.986 Y217.460
; Path 157
G0 Z0
G0 X206.098 Y217.344
G0 Z2.2
G1 F3000
G1 X204.125 Y217.279
; Path 158
G0 Z0
G0 X204.636 Y218.650
G0 Z2.2
G1 F3000
G1 X206.564 Y219.133
; Path 159
G0 Z0
G0 X207.006 Y219.132
G0 Z2.2
G1 F3000
G1 X208.959 Y219.688
; Path 160
G0 Z0
G0 X208.989 Y219.522
G0 Z2.2
G1 F3000
G1 X207.027 Y219.035
; Path 161
G0 Z0
G0 X206.533 Y218.634
G0 Z2.2
G1 F3000
G1 X208.430 Y219.134
; Path 162
G0 Z0
G0 X206.858 Y220.106
G0 Z2.2
G1 F3000
G1 X204.906 Y219.678
; Path 163
G0 Z0
G0 X204.109 Y219.146
G0 Z2.2
G1 F3000
G1 X205.880 Y219.722
; Path 164
G0 Z0
G0 X206.018 Y219.771
G0 Z2.2
G1 F3000
G1 X203.989 Y219.224
; Path 165
G0 Z0
G0 X205.558 Y221.471
G0 Z2.2
G1 F3000
G1 X207.371 Y222.120
; Path 166
G0 Z0
G0 X207.935 Y221.601
G0 Z2.2
G1 F3000
G1 X206.163 Y221.027
; Path 167
G0 Z0
G0 X209.485 Y223.491
G0 Z2.2
G1 F3000
G1 X211.492 Y224.265
; Path 168
G0 Z0
G0 X212.102 Y224.044
G0 Z2.2
G1 F3000
G1 X214.004 Y224.702
; Path 169
G0 Z0
G0 X213.879 Y224.620
G0 Z2.2
G1 F3000
G1 X211.995 Y224.000
; Path 170
G0 Z0
G0 X211.565 Y223.626
G0 Z2.2
G1 F3000
G1 X213.406 Y224.139
; Path 171
G0 Z0
G0 X212.525 Y225.251
G0 Z2.2
G1 F3000
G1 X210.570 Y224.626
; Path 172
G0 Z0
G0 X210.943 Y224.641
G0 Z2.2
G1 F3000
G1 X209.101 Y224.075
; Path 173
G0 Z0
G0 X209.124 Y223.916
G0 Z2.2
G1 F3000
G1 X210.918 Y224.725
; Path 174
G0 Z0
G0 X209.993 Y224.800
G0 Z2.2
G1 F3000
G1 X211.862 Y225.487
; Path 175
G0 Z0
G0 X210.970 Y225.926
G0 Z2.2
G1 F3000
G1 X212.938 Y226.732
; Path 176
G0 Z0
G0 X212.464 Y227.301
G0 Z2.2
G1 F3000
G1 X210.494 Y226.557
; Path 177
G0 Z0
G0 X214.043 Y229.100
G0 Z2.2
G1 F3000
G1 X215.860 Y229.734
; Path 178
G0 Z0
G0 X215.914 Y229.852
G0 Z2.2
G1 F3000
G1 X214.121 Y228.886
; Path 179
G0 Z0
G0 X214.579 Y228.396
G0 Z2.2
G1 F3000
G1 X216.498 Y229.090
; Path 180
G0 Z0
G0 X216.096 Y229.699
G0 Z2.2
G1 F3000
G1 X217.830 Y230.555
; Path 181
G0 Z0
G0 X216.926 Y230.635
G0 Z2.2
G1 F3000
G1 X215.101 Y229.781
; Path 182
G0 Z0
G0 X215.599 Y229.500
G0 Z2.2
G1 F3000
G1 X217.359 Y230.253
; Path 183
G0 Z0
G0 X218.442 Y229.280
G0 Z2.2
G1 F3000
G1 X216.665 Y228.449
; Path 184
G0 Z0
G0 X217.075 Y229.003
G0 Z2.2
G1 F3000
G1 X218.917 Y229.833
; Path 185
G0 Z0
G0 X223.902 Y232.060
G0 Z2.2
G1 F3000
G1 X225.868 Y232.705
; Path 186
G0 Z0
G0 X225.890 Y232.413
G0 Z2.2
G1 F3000
G1 X223.879 Y232.305
; Path 187
G0 Z0
G0 X219.034 Y244.026
G0 Z2.2
G1 F3000
G1 X220.897 Y244.736
; Path 188
G0 Z0
G0 X201.011 Y242.745
G0 Z2.2
G1 F3000
G1 X199.138 Y242.065
; Path 189
G0 Z0
G0 X190.851 Y237.766
G0 Z2.2
G1 F3000
G1 X188.988 Y237.186
; Path 190
G0 Z0
G0 X189.028 Y237.295
G0 Z2.2
G1 F3000
G1 X191.095 Y237.467
; Path 191
G0 Z0
G0 X185.004 Y228.339
G0 Z2.2
G1 F3000
G1 X184.192 Y228.336
G1 X183.306 Y228.290
G1 X182.355 Y228.195
G1 X181.531 Y228.312
G1 X180.631 Y228.219
G1 X179.752 Y228.200
G1 X178.835 Y228.214
G1 X178.085 Y228.146
G1 X177.207 Y228.181
G1 X176.258 Y228.100
G1 X175.438 Y228.035
G1 X174.541 Y227.981
G1 X173.655 Y227.994
G1 X172.836 Y227.994
G1 X171.885 Y227.981
G1 X171.049 Y227.979
G1 X170.100 Y227.970
G1 X169.312 Y227.901
G1 X168.432 Y227.956
G1 X167.512 Y227.863
G1 X166.585 Y227.899
G1 X165.742 Y227.739
G1 X164.877 Y227.862
G1 X164.092 Y227.727
G1 X163.139 Y227.743
G1 X162.339 Y227.734
G1 X161.361 Y227.634
G1 X160.529 Y227.698
G1 X159.631 Y227.660
G1 X158.766 Y227.623
G1 X157.955 Y227.553
G1 X157.020 Y227.594
G1 X156.070 Y227.595
G1 X155.244 Y227.517
G1 X154.393 Y227.502
G1 X153.469 Y227.494
G1 X152.630 Y227.385
G1 X151.768 Y227.365
G1 X150.887 Y227.328
G1 X150.020 Y227.380
G1 X149.134 Y227.377
G1 X148.314 Y227.335
G1 X147.472 Y227.273
G1 X146.448 Y227.352
G1 X145.648 Y227.256
G1 X144.836 Y227.237
G1 X143.877 Y227.130
G1 X143.035 Y227.102
G1 X142.175 Y227.154
G1 X141.276 Y227.131
G1 X140.434 Y227.169
G1 X139.542 Y227.119
G1 X138.680 Y227.126
G1 X137.734 Y226.982
G1 X136.904 Y227.005
G1 X136.002 Y227.034
G1 X135.164 Y227.010
G1 X134.223 Y226.872
G1 X133.462 Y226.944
G1 X132.532 Y226.878
G1 X131.595 Y226.830
G1 X130.723 Y226.849
G1 X129.876 Y226.852
G1 X129.046 Y226.737
G1 X128.160 Y226.750
G1 X127.271 Y226.761
G1 X126.334 Y226.775
G1 X125.527 Y226.622
G1 X124.642 Y226.669
G1 X123.788 Y226.623
G1 X122.857 Y226.595
G1 X122.001 Y226.494
G1 X121.236 Y226.556
G1 X120.269 Y226.573
G1 X119.417 Y226.496
G1 X118.493 Y226.412
G1 X117.704 Y226.468
G1 X116.793 Y226.361
G1 X115.953 Y226.321
G1 X115.045 Y226.369
; Path 192
G0 Z0
G0 X118.898 Y226.348
G0 Z2.2
G1 F3000
G1 X120.895 Y226.486
; Path 193
G0 Z0
G0 X118.997 Y230.466
G0 Z2.2
G1 F3000
G1 X116.996 Y230.272
; Path 194
G0 Z0
G0 X121.083 Y232.360
G0 Z2.2
G1 F3000
G1 X123.082 Y232.575
; Path 195
G0 Z0
G0 X154.004 Y234.239
G0 Z2.2
G1 F3000
G1 X155.945 Y234.373
; Path 196
G0 Z0
G0 X155.951 Y234.500
G0 Z2.2
G1 F3000
G1 X154.049 Y234.258
; Path 197
G0 Z0
G0 X163.870 Y239.116
G0 Z2.2
G1 F3000
G1 X165.893 Y239.648
; Path 198
G0 Z0
G0 X168.989 Y222.370
G0 Z2.2
G1 F3000
G1 X171.077 Y222.378
; Path 199
G0 Z0
G0 X171.011 Y222.526
G0 Z2.2
G1 F3000
G1 X169.038 Y222.137
; Path 200
G0 Z0
G0 X143.007 Y229.368
G0 Z2.2
G1 F3000
G1 X140.967 Y229.290
; Path 201
G0 Z0
G0 X133.896 Y219.376
G0 Z2.2
G1 F3000
G1 X136.036 Y219.442
; Path 202
G0 Z0
G0 X135.920 Y219.645
G0 Z2.2
G1 F3000
G1 X134.052 Y219.143
; Path 203
G0 Z0
G0 X139.937 Y210.307
G0 Z2.2
G1 F3000
G1 X140.308 Y209.498
G1 X140.822 Y208.734
G1 X141.138 Y207.859
G1 X141.542 Y207.199
G1 X141.970 Y206.330
; Path 204
G0 Z0
G0 X142.910 Y206.363
G0 Z2.2
G1 F3000
G1 X142.075 Y206.070
G1 X141.284 Y205.675
G1 X140.526 Y205.295
G1 X139.657 Y205.046
G1 X138.758 Y204.600
G1 X137.989 Y204.327
; Path 205
G0 Z0
G0 X143.919 Y199.206
G0 Z2.2
G1 F3000
G1 X146.026 Y199.373
; Path 206
G0 Z0
G0 X145.801 Y199.897
G0 Z2.2
G1 F3000
G1 X144.251 Y198.775
; Path 207
G0 Z0
G0 X146.890 Y207.200
G0 Z2.2
G1 F3000
G1 X148.875 Y207.538
; Path 208
G0 Z0
G0 X159.030 Y189.323
G0 Z2.2
G1 F3000
G1 X161.057 Y189.404
; Path 209
G0 Z0
G0 X160.809 Y189.913
G0 Z2.2
G1 F3000
G1 X159.226 Y188.805
; Path 210
G0 Z0
G0 X179.047 Y202.224
G0 Z2.2
G1 F3000
G1 X180.898 Y202.276
; Path 211
G0 Z0
G0 X180.338 Y203.281
G0 Z2.2
G1 F3000
G1 X179.665 Y201.402
; Path 212
G0 Z0
G0 X181.959 Y201.335
G0 Z2.2
G1 F3000
G1 X182.462 Y200.881
G1 X182.980 Y200.367
; Path 213
G0 Z0
G0 X184.978 Y200.356
G0 Z2.2
G1 F3000
G1 X184.921 Y200.345
G1 X184.884 Y200.358
G1 X184.850 Y200.355
G1 X184.797 Y200.366
G1 X184.771 Y200.389
G1 X184.713 Y200.379
G1 X184.684 Y200.378
G1 X184.631 Y200.392
G1 X184.581 Y200.426
G1 X184.547 Y200.404
G1 X184.531 Y200.420
G1 X184.458 Y200.410
G1 X184.396 Y200.419
G1 X184.360 Y200.409
G1 X184.298 Y200.433
G1 X184.252 Y200.398
G1 X184.217 Y200.396
G1 X184.129 Y200.373
G1 X184.052 Y200.345
G1 X183.990 Y200.332
G1 X183.885 Y200.318
G1 X183.832 Y200.272
G1 X183.735 Y200.206
G1 X183.656 Y200.197
G1 X183.553 Y200.150
G1 X183.466 Y200.108
G1 X183.357 Y200.056
G1 X183.266 Y200.008
G1 X183.133 Y199.934
G1 X183.057 Y199.901
G1 X182.947 Y199.837
G1 X182.843 Y199.789
G1 X182.723 Y199.733
G1 X182.627 Y199.675
G1 X182.550 Y199.590
G1 X182.413 Y199.562
G1 X182.320 Y199.530
G1 X182.202 Y199.453
G1 X182.109 Y199.391
G1 X181.998 Y199.351
; Path 214
G0 Z0
G0 X181.994 Y199.364
G0 Z2.2
G1 F3000
G1 X181.655 Y197.688
G1 X181.331 Y196.011
G1 X180.978 Y194.334
; Path 215
G0 Z0
G0 X181.954 Y192.389
G0 Z2.2
G1 F3000
G1 X181.866 Y192.417
G1 X181.754 Y192.478
G1 X181.640 Y192.492
G1 X181.555 Y192.554
G1 X181.466 Y192.565
G1 X181.355 Y192.621
G1 X181.267 Y192.677
G1 X181.155 Y192.686
G1 X181.062 Y192.697
G1 X180.956 Y192.756
G1 X180.853 Y192.792
G1 X180.756 Y192.835
G1 X180.684 Y192.897
G1 X180.557 Y192.930
G1 X180.440 Y192.993
G1 X180.357 Y193.047
G1 X180.282 Y193.107
G1 X180.158 Y193.192
G1 X180.067 Y193.280
G1 X179.958 Y193.370
G1 X179.883 Y193.451
G1 X179.759 Y193.586
G1 X179.639 Y193.689
G1 X179.560 Y193.836
G1 X179.457 Y193.990
G1 X179.360 Y194.114
G1 X179.269 Y194.236
G1 X179.161 Y194.413
G1 X179.072 Y194.571
G1 X178.962 Y194.728
G1 X178.867 Y194.888
G1 X178.762 Y195.053
G1 X178.659 Y195.245
G1 X178.563 Y195.383
G1 X178.474 Y195.518
G1 X178.364 Y195.710
G1 X178.252 Y195.844
G1 X178.165 Y196.029
G1 X178.093 Y196.155
G1 X177.965 Y196.334
; Path 216
G0 Z0
G0 X177.992 Y196.386
G0 Z2.2
G1 F3000
G1 X178.062 Y196.423
G1 X178.089 Y196.491
G1 X178.115 Y196.570
G1 X178.180 Y196.604
G1 X178.237 Y196.687
G1 X178.266 Y196.720
G1 X178.313 Y196.749
G1 X178.352 Y196.838
G1 X178.376 Y196.903
G1 X178.440 Y196.953
G1 X178.495 Y197.014
G1 X178.532 Y197.064
G1 X178.608 Y197.109
G1 X178.632 Y197.166
G1 X178.693 Y197.228
G1 X178.743 Y197.256
G1 X178.821 Y197.264
G1 X178.867 Y197.331
G1 X178.920 Y197.335
G1 X179.008 Y197.389
G1 X179.065 Y197.431
G1 X179.167 Y197.426
G1 X179.253 Y197.457
G1 X179.342 Y197.446
G1 X179.441 Y197.427
G1 X179.531 Y197.451
G1 X179.645 Y197.420
G1 X179.731 Y197.444
G1 X179.807 Y197.425
G1 X179.938 Y197.429
G1 X180.060 Y197.416
G1 X180.150 Y197.409
G1 X180.239 Y197.395
G1 X180.364 Y197.386
G1 X180.456 Y197.372
G1 X180.577 Y197.365
G1 X180.706 Y197.334
G1 X180.786 Y197.347
G1 X180.876 Y197.336
G1 X180.988 Y197.338
; Path 217
G0 Z0
G0 X181.010 Y194.344
G0 Z2.2
G1 F3000
G1 X180.997 Y194.108
G1 X181.005 Y193.929
G1 X180.985 Y193.735
G1 X180.994 Y193.493
G1 X180.978 Y193.265
G1 X180.978 Y193.044
G1 X180.941 Y192.804
G1 X180.962 Y192.593
G1 X180.937 Y192.351
G1 X180.948 Y192.147
G1 X180.918 Y191.909
G1 X180.938 Y191.717
G1 X180.952 Y191.536
G1 X180.937 Y191.311
G1 X180.957 Y191.124
G1 X180.946 Y190.939
G1 X180.973 Y190.795
G1 X180.969 Y190.609
G1 X181.016 Y190.455
G1 X181.009 Y190.331
G1 X181.013 Y190.195
G1 X181.067 Y190.110
G1 X181.134 Y189.999
G1 X181.142 Y189.942
G1 X181.196 Y189.909
G1 X181.230 Y189.816
G1 X181.251 Y189.780
G1 X181.330 Y189.724
G1 X181.366 Y189.710
G1 X181.437 Y189.656
G1 X181.464 Y189.646
G1 X181.549 Y189.603
G1 X181.632 Y189.594
G1 X181.663 Y189.556
G1 X181.700 Y189.530
G1 X181.777 Y189.507
G1 X181.845 Y189.481
G1 X181.886 Y189.445
G1 X181.957 Y189.414
G1 X181.988 Y189.361
; Path 218
G0 Z0
G0 X182.975 Y188.338
G0 Z2.2
G1 F3000
G1 X182.083 Y186.604
G1 X181.232 Y184.948
G1 X180.315 Y183.208
G1 X179.431 Y181.518
G1 X178.535 Y179.815
G1 X177.634 Y178.070
G1 X176.760 Y176.366
G1 X175.874 Y174.660
G1 X175.008 Y172.978
G1 X174.135 Y171.268
G1 X173.211 Y169.510
G1 X172.315 Y167.772
G1 X171.420 Y166.070
G1 X170.534 Y164.321
G1 X169.615 Y162.572
G1 X168.677 Y160.829
G1 X167.826 Y159.122
G1 X166.903 Y157.406
G1 X166.006 Y155.657
G1 X165.130 Y153.998
G1 X164.267 Y152.316
G1 X163.410 Y150.617
G1 X162.526 Y148.974
G1 X161.668 Y147.277
G1 X160.792 Y145.606
G1 X159.886 Y143.895
G1 X159.043 Y142.224
G1 X158.129 Y140.593
G1 X157.307 Y138.886
G1 X156.411 Y137.216
G1 X155.528 Y135.485
G1 X154.669 Y133.809
G1 X153.781 Y132.088
G1 X152.867 Y130.425
G1 X151.966 Y128.702
G1 X151.082 Y127.030
G1 X150.241 Y125.287
G1 X149.343 Y123.583
G1 X148.416 Y121.890
G1 X147.548 Y120.175
G1 X146.668 Y118.496
G1 X145.820 Y116.850
G1 X144.966 Y115.179
G1 X144.119 Y113.541
G1 X143.235 Y111.874
G1 X142.348 Y110.248
G1 X141.506 Y108.612
G1 X140.637 Y106.952
G1 X139.814 Y105.315
G1 X138.921 Y103.633
G1 X138.060 Y102.004
G1 X137.222 Y100.335
G1 X136.380 Y98.645
G1 X135.504 Y97.007
G1 X134.639 Y95.313
G1 X133.769 Y93.630
G1 X132.850 Y91.967
G1 X131.969 Y90.268
G1 X131.126 Y88.592
G1 X130.244 Y86.900
G1 X129.383 Y85.253
G1 X128.515 Y83.574
G1 X127.655 Y81.988
G1 X126.849 Y80.339
G1 X126.015 Y78.719
G1 X125.150 Y77.100
G1 X124.359 Y75.499
G1 X123.486 Y73.886
G1 X122.655 Y72.271
G1 X121.809 Y70.697
G1 X120.993 Y69.054
G1 X120.166 Y67.432
G1 X119.295 Y65.787
G1 X118.446 Y64.153
G1 X117.635 Y62.520
G1 X116.798 Y60.898
G1 X115.950 Y59.241
G1 X115.099 Y57.614
G1 X114.319 Y56.095
G1 X113.587 Y54.617
G1 X112.787 Y53.087
G1 X112.040 Y51.579
G1 X111.278 Y50.095
G1 X110.653 Y48.701
G1 X109.973 Y47.337
G1 X110.742 Y48.641
G1 X111.480 Y49.899
G1 X112.268 Y51.347
G1 X113.071 Y52.805
G1 X113.901 Y54.296
G1 X114.713 Y55.734
G1 X115.505 Y57.222
G1 X116.385 Y58.799
G1 X117.255 Y60.443
G1 X118.116 Y62.016
G1 X119.000 Y63.671
G1 X119.873 Y65.266
G1 X120.705 Y66.868
G1 X121.602 Y68.465
G1 X122.470 Y70.049
G1 X123.319 Y71.622
G1 X124.153 Y73.252
G1 X125.053 Y74.854
G1 X125.878 Y76.417
G1 X126.725 Y78.026
G1 X127.632 Y79.578
G1 X128.451 Y81.178
G1 X129.327 Y82.789
G1 X130.212 Y84.465
G1 X131.101 Y86.083
G1 X131.980 Y87.769
G1 X132.917 Y89.399
G1 X133.785 Y91.097
G1 X134.667 Y92.754
G1 X135.570 Y94.362
G1 X136.428 Y96.064
G1 X137.363 Y97.723
G1 X138.236 Y99.353
G1 X139.097 Y101.010
G1 X139.964 Y102.609
G1 X140.856 Y104.227
G1 X141.726 Y105.865
G1 X142.595 Y107.526
G1 X143.493 Y109.181
G1 X144.373 Y110.792
G1 X145.240 Y112.430
G1 X146.113 Y114.041
G1 X147.014 Y115.711
G1 X147.886 Y117.318
G1 X148.776 Y118.991
G1 X149.669 Y120.681
G1 X150.603 Y122.381
G1 X151.519 Y124.083
G1 X152.382 Y125.761
G1 X153.322 Y127.445
G1 X154.210 Y129.097
G1 X155.146 Y130.808
G1 X156.048 Y132.445
G1 X156.935 Y134.155
G1 X157.831 Y135.842
G1 X158.700 Y137.475
G1 X159.594 Y139.184
G1 X160.523 Y140.826
G1 X161.413 Y142.455
G1 X162.305 Y144.142
G1 X163.146 Y145.808
G1 X164.061 Y147.466
G1 X164.934 Y149.120
G1 X165.826 Y150.784
G1 X166.721 Y152.416
G1 X167.629 Y154.086
G1 X168.559 Y155.774
G1 X169.471 Y157.488
G1 X170.365 Y159.207
G1 X171.339 Y160.959
G1 X172.250 Y162.630
G1 X173.155 Y164.338
G1 X174.095 Y166.088
G1 X174.974 Y167.772
G1 X175.918 Y169.482
G1 X176.834 Y171.211
G1 X177.766 Y172.896
G1 X178.665 Y174.607
G1 X179.541 Y176.289
G1 X180.448 Y177.977
G1 X181.365 Y179.639
G1 X182.304 Y181.313
G1 X183.185 Y182.984
G1 X184.084 Y184.678
G1 X185.003 Y186.375
; Path 219
G0 Z0
G0 X184.998 Y186.366
G0 Z2.2
G1 F3000
G1 X184.102 Y184.708
G1 X183.242 Y183.013
G1 X182.370 Y181.319
G1 X181.431 Y179.601
G1 X180.584 Y177.928
G1 X179.657 Y176.254
G1 X178.811 Y174.590
G1 X177.892 Y172.918
G1 X177.027 Y171.211
G1 X176.129 Y169.518
G1 X175.237 Y167.802
G1 X174.346 Y166.081
G1 X173.411 Y164.369
G1 X172.492 Y162.647
G1 X171.643 Y160.941
G1 X170.708 Y159.251
G1 X169.838 Y157.542
G1 X168.902 Y155.812
G1 X168.013 Y154.103
G1 X167.141 Y152.474
G1 X166.252 Y150.811
G1 X165.404 Y149.128
G1 X164.519 Y147.477
G1 X163.637 Y145.815
G1 X162.752 Y144.184
G1 X161.872 Y142.532
G1 X161.005 Y140.877
G1 X160.174 Y139.192
G1 X159.300 Y137.567
G1 X158.403 Y135.880
G1 X157.524 Y134.171
G1 X156.613 Y132.516
G1 X155.750 Y130.857
G1 X154.854 Y129.170
G1 X153.952 Y127.485
G1 X153.071 Y125.783
G1 X152.197 Y124.104
G1 X151.316 Y122.414
G1 X150.403 Y120.742
G1 X149.543 Y119.068
G1 X148.644 Y117.378
G1 X147.760 Y115.720
G1 X146.942 Y114.138
G1 X146.052 Y112.514
G1 X145.205 Y110.875
G1 X144.335 Y109.224
G1 X143.469 Y107.563
G1 X142.615 Y105.945
G1 X141.777 Y104.351
G1 X140.931 Y102.713
G1 X140.051 Y101.066
G1 X139.183 Y99.433
G1 X138.302 Y97.777
G1 X137.446 Y96.146
G1 X136.579 Y94.448
G1 X135.689 Y92.801
G1 X134.841 Y91.169
G1 X133.950 Y89.511
G1 X133.087 Y87.867
G1 X132.239 Y86.188
G1 X131.309 Y84.532
G1 X130.467 Y82.884
G1 X129.611 Y81.274
G1 X128.767 Y79.684
G1 X127.965 Y78.083
G1 X127.129 Y76.515
G1 X126.284 Y74.924
G1 X125.463 Y73.347
G1 X124.637 Y71.776
G1 X123.788 Y70.143
G1 X122.942 Y68.566
G1 X122.129 Y66.966
G1 X121.279 Y65.379
G1 X120.427 Y63.716
G1 X119.568 Y62.119
G1 X118.758 Y60.520
G1 X117.868 Y58.910
G1 X117.057 Y57.317
G1 X116.312 Y55.871
G1 X115.530 Y54.358
G1 X114.751 Y52.883
G1 X114.008 Y51.451
G1 X113.258 Y49.973
G1 X112.647 Y48.698
G1 X111.992 Y47.372
G1 X112.758 Y48.706
G1 X113.557 Y50.071
G1 X114.358 Y51.565
G1 X115.168 Y53.050
G1 X116.012 Y54.565
G1 X116.823 Y56.031
G1 X117.655 Y57.512
G1 X118.568 Y59.154
G1 X119.441 Y60.768
G1 X120.296 Y62.399
G1 X121.164 Y63.992
G1 X122.062 Y65.606
G1 X122.962 Y67.249
G1 X123.839 Y68.859
G1 X124.703 Y70.467
G1 X125.549 Y72.058
G1 X126.446 Y73.638
G1 X127.305 Y75.272
G1 X128.201 Y76.845
G1 X129.048 Y78.467
G1 X129.953 Y80.053
G1 X130.817 Y81.659
G1 X131.662 Y83.275
G1 X132.537 Y84.954
G1 X133.444 Y86.628
G1 X134.360 Y88.299
G1 X135.284 Y89.919
G1 X136.155 Y91.576
G1 X137.041 Y93.284
G1 X137.981 Y94.906
G1 X138.862 Y96.615
G1 X139.767 Y98.280
G1 X140.676 Y99.922
G1 X141.561 Y101.582
G1 X142.471 Y103.216
G1 X143.358 Y104.869
G1 X144.235 Y106.479
G1 X145.113 Y108.148
G1 X145.978 Y109.759
G1 X146.898 Y111.426
G1 X147.756 Y113.060
G1 X148.654 Y114.669
G1 X149.527 Y116.295
G1 X150.436 Y117.965
G1 X151.362 Y119.627
G1 X152.269 Y121.376
G1 X153.173 Y123.045
G1 X154.113 Y124.729
G1 X155.013 Y126.441
G1 X155.894 Y128.094
G1 X156.847 Y129.804
G1 X157.753 Y131.496
G1 X158.676 Y133.176
G1 X159.608 Y134.879
G1 X160.494 Y136.565
G1 X161.373 Y138.236
G1 X162.308 Y139.881
G1 X163.187 Y141.586
G1 X164.100 Y143.203
G1 X164.971 Y144.885
G1 X165.920 Y146.565
G1 X166.775 Y148.227
G1 X167.709 Y149.907
G1 X168.589 Y151.567
G1 X169.474 Y153.206
G1 X170.403 Y154.886
G1 X171.330 Y156.581
G1 X172.279 Y158.356
G1 X173.191 Y160.044
G1 X174.133 Y161.753
G1 X175.067 Y163.481
G1 X175.975 Y165.204
G1 X176.942 Y166.908
G1 X177.876 Y168.654
G1 X178.779 Y170.374
G1 X179.716 Y172.091
G1 X180.627 Y173.799
G1 X181.559 Y175.464
G1 X182.462 Y177.199
G1 X183.388 Y178.881
G1 X184.294 Y180.595
G1 X185.218 Y182.284
G1 X186.137 Y183.957
G1 X187.096 Y185.632
G1 X187.986 Y187.344
; Path 220
G0 Z0
G0 X188.008 Y187.356
G0 Z2.2
G1 F3000
G1 X187.000 Y188.368
G1 X185.976 Y189.385
; Path 221
G0 Z0
G0 X185.955 Y189.340
G0 Z2.2
G1 F3000
G1 X186.947 Y190.853
G1 X187.978 Y192.357
; Path 222
G0 Z0
G0 X188.007 Y192.360
G0 Z2.2
G1 F3000
G1 X187.931 Y192.635
G1 X187.907 Y192.868
G1 X187.832 Y193.158
G1 X187.814 Y193.390
G1 X187.794 Y193.657
G1 X187.725 Y193.920
G1 X187.704 Y194.183
G1 X187.636 Y194.451
G1 X187.594 Y194.724
G1 X187.546 Y194.979
G1 X187.523 Y195.216
G1 X187.451 Y195.497
G1 X187.379 Y195.733
G1 X187.348 Y195.999
G1 X187.310 Y196.260
G1 X187.235 Y196.480
G1 X187.142 Y196.710
G1 X187.109 Y196.933
G1 X187.053 Y197.159
G1 X186.967 Y197.353
G1 X186.912 Y197.531
G1 X186.806 Y197.735
G1 X186.745 Y197.885
G1 X186.630 Y198.084
G1 X186.517 Y198.257
G1 X186.440 Y198.406
G1 X186.359 Y198.553
G1 X186.240 Y198.706
G1 X186.124 Y198.842
G1 X186.032 Y198.990
G1 X185.951 Y199.124
G1 X185.820 Y199.265
G1 X185.685 Y199.392
G1 X185.606 Y199.535
G1 X185.494 Y199.700
G1 X185.392 Y199.808
G1 X185.309 Y199.938
G1 X185.183 Y200.088
G1 X185.087 Y200.232
G1 X184.980 Y200.382
; Path 223
G0 Z0
G0 X185.991 Y200.383
G0 Z2.2
G1 F3000
G1 X186.487 Y200.851
G1 X186.960 Y201.367
; Path 224
G0 Z0
G0 X191.167 Y203.796
G0 Z2.2
G1 F3000
G1 X192.725 Y205.058
; Path 225
G0 Z0
G0 X192.681 Y204.306
G0 Z2.2
G1 F3000
G1 X194.307 Y205.565
; Path 226
G0 Z0
G0 X193.099 Y206.074
G0 Z2.2
G1 F3000
G1 X194.929 Y206.841
; Path 227
G0 Z0
G0 X195.864 Y204.903
G0 Z2.2
G1 F3000
G1 X194.232 Y203.757
; Path 228
G0 Z0
G0 X194.105 Y203.768
G0 Z2.2
G1 F3000
G1 X195.750 Y204.919
; Path 229
G0 Z0
G0 X195.128 Y204.384
G0 Z2.2
G1 F3000
G1 X193.602 Y203.191
; Path 230
G0 Z0
G0 X193.198 Y204.496
G0 Z2.2
G1 F3000
G1 X191.773 Y203.149
; Path 231
G0 Z0
G0 X190.859 Y198.386
G0 Z2.2
G1 F3000
G1 X190.990 Y200.374
; Path 232
G0 Z0
G0 X190.973 Y200.222
G0 Z2.2
G1 F3000
G1 X190.972 Y198.288
; Path 233
G0 Z0
G0 X190.831 Y197.877
G0 Z2.2
G1 F3000
G1 X190.036 Y199.797
; Path 234
G0 Z0
G0 X189.323 Y200.896
G0 Z2.2
G1 F3000
G1 X189.562 Y198.893
; Path 235
G0 Z0
G0 X188.991 Y198.357
G0 Z2.2
G1 F3000
G1 X190.000 Y197.859
G1 X190.992 Y197.352
; Path 236
G0 Z0
G0 X190.987 Y197.346
G0 Z2.2
G1 F3000
G1 X190.966 Y197.230
G1 X190.888 Y197.143
G1 X190.854 Y197.023
G1 X190.797 Y196.933
G1 X190.740 Y196.834
G1 X190.709 Y196.720
G1 X190.687 Y196.606
G1 X190.622 Y196.506
G1 X190.588 Y196.414
G1 X190.533 Y196.293
G1 X190.458 Y196.180
G1 X190.439 Y196.086
G1 X190.390 Y195.974
G1 X190.338 Y195.886
G1 X190.281 Y195.816
G1 X190.227 Y195.697
G1 X190.143 Y195.597
G1 X190.102 Y195.522
G1 X190.027 Y195.453
G1 X189.962 Y195.363
G1 X189.902 Y195.321
G1 X189.804 Y195.222
G1 X189.734 Y195.173
G1 X189.629 Y195.098
G1 X189.551 Y195.068
G1 X189.442 Y194.987
G1 X189.320 Y194.957
G1 X189.244 Y194.887
G1 X189.124 Y194.871
G1 X189.039 Y194.795
G1 X188.907 Y194.774
G1 X188.830 Y194.707
G1 X188.728 Y194.644
G1 X188.618 Y194.622
G1 X188.504 Y194.606
G1 X188.407 Y194.536
G1 X188.330 Y194.465
G1 X188.200 Y194.445
G1 X188.091 Y194.369
G1 X188.000 Y194.348
; Path 237
G0 Z0
G0 X189.419 Y198.266
G0 Z2.2
G1 F3000
G1 X187.715 Y199.480
; Path 238
G0 Z0
G0 X187.785 Y198.510
G0 Z2.2
G1 F3000
G1 X188.342 Y200.304
; Path 239
G0 Z0
G0 X188.284 Y200.297
G0 Z2.2
G1 F3000
G1 X187.709 Y198.369
; Path 240
G0 Z0
G0 X184.988 Y198.375
G0 Z2.2
G1 F3000
G1 X184.779 Y196.763
G1 X184.596 Y195.191
G1 X184.361 Y193.583
G1 X184.193 Y191.986
G1 X183.965 Y190.364
; Path 241
G0 Z0
G0 X185.472 Y188.380
G0 Z2.2
G1 F3000
G1 X184.972 Y187.880
G1 X184.472 Y188.380
G1 X184.972 Y188.880
G1 X185.472 Y188.380
; Path 242
G0 Z0
G0 X194.059 Y182.236
G0 Z2.2
G1 F3000
G1 X196.009 Y182.331
; Path 243
G0 Z0
G0 X195.640 Y182.914
G0 Z2.2
G1 F3000
G1 X194.159 Y181.620
; Path 244
G0 Z0
G0 X219.015 Y162.456
G0 Z2.2
G1 F3000
G1 X221.115 Y162.450
; Path 245
G0 Z0
G0 X220.964 Y162.553
G0 Z2.2
G1 F3000
G1 X218.993 Y162.165
; Path 246
G0 Z0
G0 X200.962 Y147.476
G0 Z2.2
G1 F3000
G1 X198.966 Y147.342
; Path 247
G0 Z0
G0 X198.990 Y147.181
G0 Z2.2
G1 F3000
G1 X200.911 Y147.490
; Path 248
G0 Z0
G0 X199.958 Y156.330
G0 Z2.2
G1 F3000
G1 X199.090 Y156.344
G1 X198.215 Y156.274
G1 X197.279 Y156.300
G1 X196.454 Y156.221
G1 X195.575 Y156.216
G1 X194.740 Y156.233
G1 X193.742 Y156.103
G1 X192.970 Y156.225
G1 X192.005 Y156.142
G1 X191.191 Y156.102
G1 X190.293 Y156.087
G1 X189.395 Y156.002
G1 X188.618 Y155.959
G1 X187.685 Y156.057
G1 X186.807 Y155.990
G1 X185.912 Y155.928
G1 X185.098 Y155.967
G1 X184.252 Y155.971
G1 X183.281 Y155.878
G1 X182.422 Y155.876
G1 X181.493 Y155.932
G1 X180.592 Y155.856
G1 X179.728 Y155.796
G1 X178.921 Y155.745
G1 X178.039 Y155.762
G1 X177.201 Y155.698
G1 X176.300 Y155.751
G1 X175.336 Y155.768
G1 X174.464 Y155.592
G1 X173.658 Y155.646
G1 X172.853 Y155.649
G1 X171.926 Y155.558
G1 X171.098 Y155.590
G1 X170.173 Y155.505
G1 X169.279 Y155.527
G1 X168.382 Y155.537
G1 X167.483 Y155.481
G1 X166.732 Y155.465
G1 X165.784 Y155.450
G1 X164.904 Y155.405
G1 X163.966 Y155.435
G1 X163.108 Y155.309
G1 X162.267 Y155.340
G1 X161.486 Y155.373
G1 X160.532 Y155.279
G1 X159.581 Y155.290
G1 X158.717 Y155.258
G1 X157.989 Y155.181
G1 X156.971 Y155.232
G1 X156.164 Y155.149
G1 X155.312 Y155.072
G1 X154.408 Y155.170
G1 X153.505 Y155.014
G1 X152.628 Y155.041
G1 X151.799 Y155.016
G1 X150.962 Y154.999
G1 X150.095 Y155.039
G1 X149.221 Y154.886
G1 X148.350 Y154.886
G1 X147.435 Y154.882
G1 X146.616 Y154.805
G1 X145.709 Y154.790
G1 X144.783 Y154.724
G1 X143.929 Y154.743
G1 X143.072 Y154.746
G1 X142.169 Y154.787
G1 X141.309 Y154.613
G1 X140.387 Y154.724
G1 X139.626 Y154.627
G1 X138.710 Y154.610
G1 X137.775 Y154.591
G1 X137.018 Y154.603
G1 X136.137 Y154.538
G1 X135.292 Y154.537
G1 X134.347 Y154.475
G1 X133.496 Y154.378
G1 X132.540 Y154.369
G1 X131.727 Y154.356
G1 X130.909 Y154.408
G1 X129.983 Y154.341
; Path 249
G0 Z0
G0 X118.900 Y132.470
G0 Z2.2
G1 F3000
G1 X120.974 Y132.436
; Path 250
G0 Z0
G0 X131.062 Y149.321
G0 Z2.2
G1 F3000
G1 X129.086 Y149.341
; Path 251
G0 Z0
G0 X129.010 Y149.364
G0 Z2.2
G1 F3000
G1 X130.994 Y149.455
; Path 252
G0 Z0
G0 X132.039 Y158.419
G0 Z2.2
G1 F3000
G1 X134.008 Y158.546
; Path 253
G0 Z0
G0 X135.968 Y160.261
G0 Z2.2
G1 F3000
G1 X138.068 Y160.523
; Path 254
G0 Z0
G0 X151.041 Y159.482
G0 Z2.2
G1 F3000
G1 X148.984 Y159.334
; Path 255
G0 Z0
G0 X148.935 Y159.382
G0 Z2.2
G1 F3000
G1 X151.030 Y159.380
; Path 256
G0 Z0
G0 X165.340 Y153.359
G0 Z2.2
G1 F3000
G1 X164.512 Y151.513
; Path 257
G0 Z0
G0 X164.020 Y152.244
G0 Z2.2
G1 F3000
G1 X165.983 Y152.432
; Path 258
G0 Z0
G0 X185.983 Y161.661
G0 Z2.2
G1 F3000
G1 X183.902 Y161.209
; Path 259
G0 Z0
G0 X172.045 Y169.281
G0 Z2.2
G1 F3000
G1 X171.055 Y168.967
G1 X170.188 Y168.549
G1 X169.308 Y168.252
G1 X168.226 Y167.908
G1 X167.417 Y167.693
G1 X166.452 Y167.313
G1 X165.540 Y166.949
G1 X164.554 Y166.626
G1 X163.588 Y166.346
G1 X162.744 Y166.025
G1 X161.802 Y165.610
G1 X160.710 Y165.330
G1 X159.866 Y165.053
G1 X158.909 Y164.780
G1 X157.975 Y164.380
; Path 260
G0 Z0
G0 X124.017 Y184.298
G0 Z2.2
G1 F3000
G1 X126.031 Y184.597
; Path 261
G0 Z0
G0 X125.896 Y184.404
G0 Z2.2
G1 F3000
G1 X123.916 Y184.462
G0 Z0
M5
G4 P0.3
G0 X0 Y0
; End