; Generated by Sketch DSL for Machine
; Work area: 420mm x 297mm (A3)
G21
G90
M5
G4 P0.5
G0 F11000
; 127 paths
; Path 1
G0 X119.990 Y90.455
G0 Z2.2
G1 F3000
G1 X122.002 Y90.471
G1 X123.995 Y90.498
G1 X125.974 Y90.542
G1 X127.972 Y90.572
G1 X129.969 Y90.586
G1 X131.993 Y90.610
G1 X133.961 Y90.612
G1 X135.977 Y90.612
G1 X137.994 Y90.637
G1 X139.991 Y90.678
G1 X142.014 Y90.724
G1 X144.003 Y90.709
G1 X145.975 Y90.722
G1 X147.962 Y90.742
G1 X149.997 Y90.817
G1 X151.965 Y90.808
G1 X153.989 Y90.814
G1 X156.002 Y90.838
G1 X157.963 Y90.849
G1 X159.954 Y90.883
G1 X162.008 Y90.945
G1 X163.961 Y90.960
G1 X165.978 Y90.970
G1 X168.001 Y90.963
G1 X169.960 Y91.033
G1 X172.000 Y91.019
G1 X173.987 Y91.032
G1 X176.008 Y91.086
G1 X177.987 Y91.077
G1 X179.976 Y91.117
G1 X181.998 Y91.151
G1 X183.975 Y91.139
G1 X186.001 Y91.185
G1 X187.979 Y91.211
G1 X189.988 Y91.240
G1 X191.966 Y91.240
G1 X193.961 Y91.301
G1 X195.976 Y91.275
G1 X197.986 Y91.290
G1 X199.949 Y91.320
G1 X201.974 Y91.348
G1 X203.955 Y91.377
G1 X205.970 Y91.379
G1 X208.000 Y91.417
G1 X209.959 Y91.479
G1 X211.953 Y91.455
G1 X213.997 Y91.527
G1 X215.968 Y91.497
G1 X217.948 Y91.565
G1 X219.970 Y91.545
G1 X221.971 Y91.590
G1 X223.955 Y91.624
G1 X225.973 Y91.624
G1 X227.954 Y91.636
G1 X229.990 Y91.700
G1 X231.986 Y91.690
G1 X233.999 Y91.721
G1 X235.962 Y91.720
G1 X237.960 Y91.772
G1 X239.975 Y91.800
G1 X241.988 Y91.789
G1 X243.960 Y91.854
G1 X245.942 Y91.848
G1 X247.971 Y91.867
G1 X249.989 Y91.871
G1 X251.948 Y91.896
G1 X253.956 Y91.969
G1 X255.967 Y91.989
G1 X257.941 Y91.993
G1 X259.990 Y92.012
G1 X261.943 Y92.001
G1 X263.965 Y92.040
G1 X265.972 Y92.047
G1 X267.977 Y92.096
G1 X269.948 Y92.146
G1 X271.965 Y92.133
G1 X273.973 Y92.161
G1 X275.955 Y92.210
G1 X277.974 Y92.213
G1 X279.973 Y92.240
G1 X281.980 Y92.261
G1 X283.974 Y92.287
G1 X285.979 Y92.308
G1 X287.969 Y92.305
G1 X289.941 Y92.329
G1 X291.940 Y92.334
G1 X293.993 Y92.401
G1 X295.965 Y92.399
G1 X297.951 Y92.424
G1 X299.963 Y92.451
; Path 2
G0 Z0
G0 X289.972 Y100.438
G0 Z2.2
G1 F3000
G1 X289.447 Y100.920
G1 X288.974 Y101.440
G1 X288.500 Y101.918
G1 X287.975 Y102.441
G1 X287.456 Y102.921
G1 X286.977 Y103.442
G1 X286.468 Y103.946
G1 X285.979 Y104.443
G1 X285.481 Y104.918
G1 X284.981 Y105.444
G1 X284.467 Y105.949
G1 X283.982 Y106.445
G1 X283.479 Y106.916
G1 X282.983 Y107.446
G1 X282.477 Y107.955
G1 X281.984 Y108.447
G1 X281.492 Y108.933
G1 X280.985 Y109.448
G1 X280.478 Y109.948
G1 X279.984 Y110.450
G1 X279.496 Y110.923
G1 X278.983 Y111.451
G1 X278.485 Y111.950
G1 X277.982 Y112.452
G1 X277.484 Y112.924
G1 X276.980 Y113.454
G1 X276.506 Y113.944
G1 X275.978 Y114.455
G1 X275.473 Y114.958
G1 X274.975 Y115.457
G1 X274.468 Y115.939
G1 X273.972 Y116.458
G1 X273.493 Y116.978
G1 X272.969 Y117.460
G1 X272.485 Y117.957
G1 X271.966 Y118.462
G1 X271.456 Y118.941
G1 X270.963 Y119.463
G1 X270.487 Y119.967
G1 X269.961 Y120.465
; Path 3
G0 Z0
G0 X269.974 Y120.458
G0 Z2.2
G1 F3000
G1 X270.807 Y119.625
G1 X271.640 Y118.791
G1 X272.474 Y117.958
G1 X273.307 Y117.125
G1 X274.140 Y116.291
G1 X274.974 Y115.458
G1 X275.807 Y114.625
G1 X276.640 Y113.791
G1 X277.474 Y112.958
G1 X278.307 Y112.125
G1 X279.140 Y111.291
G1 X279.974 Y110.458
G1 X280.807 Y109.625
G1 X281.640 Y108.791
G1 X282.474 Y107.958
G1 X283.307 Y107.125
G1 X284.140 Y106.291
G1 X284.974 Y105.458
G1 X285.807 Y104.625
G1 X286.640 Y103.791
G1 X287.474 Y102.958
G1 X288.307 Y102.125
G1 X289.140 Y101.291
G1 X289.974 Y100.458
; Path 4
G1 X290.807 Y101.471
G1 X291.640 Y102.504
G1 X292.474 Y103.552
G1 X293.307 Y104.606
G1 X294.140 Y105.661
G1 X294.974 Y106.708
G1 X295.807 Y107.742
G1 X296.640 Y108.754
G1 X297.474 Y109.739
G1 X298.307 Y110.690
G1 X299.140 Y111.598
G1 X299.974 Y112.458
G1 X300.807 Y113.265
G1 X301.640 Y114.023
G1 X302.474 Y114.739
G1 X303.307 Y115.421
G1 X304.140 Y116.075
G1 X304.974 Y116.708
G1 X305.807 Y117.327
G1 X306.640 Y117.940
G1 X307.474 Y118.552
G1 X308.307 Y119.171
G1 X309.140 Y119.804
G1 X309.974 Y120.458
; Path 5
G0 Z0
G0 X309.947 Y120.454
G0 Z2.2
G1 F3000
G1 X309.459 Y120.048
G1 X308.947 Y119.672
G1 X308.444 Y119.269
G1 X307.947 Y118.918
G1 X307.457 Y118.532
G1 X306.947 Y118.180
G1 X306.444 Y117.799
G1 X305.946 Y117.445
G1 X305.423 Y117.062
G1 X304.946 Y116.703
G1 X304.464 Y116.303
G1 X303.946 Y115.941
G1 X303.456 Y115.545
G1 X302.946 Y115.147
G1 X302.453 Y114.751
G1 X301.945 Y114.309
G1 X301.426 Y113.872
G1 X300.945 Y113.416
G1 X300.455 Y112.914
G1 X299.946 Y112.455
G1 X299.458 Y111.966
G1 X298.946 Y111.419
G1 X298.436 Y110.873
G1 X297.946 Y110.315
G1 X297.424 Y109.747
G1 X296.946 Y109.156
G1 X296.422 Y108.543
G1 X295.947 Y107.953
G1 X295.461 Y107.334
G1 X294.947 Y106.718
G1 X294.454 Y106.110
G1 X293.948 Y105.463
G1 X293.477 Y104.854
G1 X292.948 Y104.201
G1 X292.436 Y103.555
G1 X291.949 Y102.942
G1 X291.474 Y102.323
G1 X290.950 Y101.699
G1 X290.473 Y101.084
G1 X289.950 Y100.484
; Path 6
G0 Z0
G0 X289.974 Y104.467
G0 Z2.2
G1 F3000
G1 X287.982 Y104.452
G1 X286.001 Y104.497
G1 X284.068 Y104.510
G1 X282.062 Y104.494
G1 X280.116 Y104.549
G1 X278.103 Y104.542
G1 X276.159 Y104.575
G1 X274.190 Y104.570
G1 X272.180 Y104.576
G1 X270.221 Y104.579
G1 X268.273 Y104.614
G1 X266.253 Y104.624
G1 X264.296 Y104.623
G1 X262.314 Y104.619
G1 X260.322 Y104.636
G1 X258.387 Y104.665
G1 X256.403 Y104.702
G1 X254.437 Y104.660
G1 X252.419 Y104.716
G1 X250.462 Y104.733
G1 X248.488 Y104.702
G1 X246.487 Y104.764
G1 X244.554 Y104.743
G1 X242.585 Y104.760
G1 X240.600 Y104.765
G1 X238.640 Y104.781
G1 X236.652 Y104.807
G1 X234.688 Y104.842
G1 X232.660 Y104.803
G1 X230.705 Y104.842
G1 X228.728 Y104.857
G1 X226.741 Y104.892
G1 X224.788 Y104.892
G1 X222.797 Y104.874
G1 X220.862 Y104.919
G1 X218.831 Y104.924
G1 X216.873 Y104.917
G1 X214.920 Y104.951
G1 X212.959 Y104.973
G1 X210.937 Y104.945
G1 X208.971 Y104.985
G1 X207.023 Y104.971
G1 X205.057 Y105.008
G1 X203.051 Y104.999
G1 X201.066 Y105.018
G1 X199.084 Y105.019
G1 X197.159 Y105.054
G1 X195.185 Y105.079
G1 X193.162 Y105.063
G1 X191.209 Y105.071
G1 X189.237 Y105.107
G1 X187.256 Y105.134
G1 X185.268 Y105.103
G1 X183.294 Y105.152
G1 X181.349 Y105.131
G1 X179.325 Y105.177
G1 X177.375 Y105.198
G1 X175.412 Y105.162
G1 X173.430 Y105.174
G1 X171.444 Y105.214
G1 X169.506 Y105.226
G1 X167.482 Y105.212
G1 X165.497 Y105.235
G1 X163.571 Y105.235
G1 X161.568 Y105.297
G1 X159.626 Y105.278
G1 X157.618 Y105.301
G1 X155.627 Y105.296
G1 X153.670 Y105.341
G1 X151.694 Y105.324
G1 X149.700 Y105.317
G1 X147.750 Y105.381
G1 X145.785 Y105.396
G1 X143.783 Y105.365
G1 X141.795 Y105.373
G1 X139.834 Y105.433
G1 X137.893 Y105.422
G1 X135.922 Y105.446
G1 X133.897 Y105.423
G1 X131.962 Y105.437
G1 X129.969 Y105.471
; Path 7
G0 Z0
G0 X132.144 Y99.411
G0 Z2.2
G1 F3000
G1 X131.831 Y97.478
; Path 8
G0 Z0
G0 X129.510 Y96.324
G0 Z2.2
G1 F3000
G1 X130.449 Y94.545
; Path 9
G0 Z0
G0 X127.981 Y92.441
G0 Z2.2
G1 F3000
G1 X129.318 Y91.105
G1 X130.605 Y89.764
G1 X131.946 Y88.436
; Path 10
G0 Z0
G0 X134.983 Y85.438
G0 Z2.2
G1 F3000
G1 X134.517 Y86.205
G1 X134.008 Y86.918
G1 X133.528 Y87.632
G1 X133.069 Y88.363
G1 X132.604 Y89.086
G1 X132.149 Y89.787
G1 X131.687 Y90.513
G1 X131.235 Y91.207
G1 X130.750 Y91.931
G1 X130.311 Y92.637
G1 X129.855 Y93.369
G1 X129.361 Y94.092
G1 X128.881 Y94.854
G1 X128.370 Y95.586
G1 X127.853 Y96.349
G1 X127.324 Y97.136
G1 X126.774 Y97.939
G1 X126.207 Y98.755
G1 X125.601 Y99.626
G1 X125.003 Y100.460
G1 X124.325 Y101.353
G1 X123.703 Y102.259
G1 X123.006 Y103.210
G1 X122.317 Y104.143
G1 X121.565 Y105.132
G1 X120.859 Y106.097
G1 X120.081 Y107.101
G1 X119.346 Y108.106
G1 X118.598 Y109.117
G1 X117.792 Y110.154
G1 X117.000 Y111.211
G1 X116.213 Y112.228
G1 X115.422 Y113.249
G1 X114.624 Y114.312
G1 X113.852 Y115.366
G1 X113.040 Y116.390
G1 X112.266 Y117.398
G1 X111.476 Y118.449
G1 X110.704 Y119.457
G1 X109.947 Y120.473
; Path 11
G0 Z0
G0 X109.974 Y120.458
G0 Z2.2
G1 F3000
G1 X111.239 Y118.776
G1 X112.531 Y117.067
G1 X113.841 Y115.341
G1 X115.159 Y113.606
G1 X116.477 Y111.872
G1 X117.786 Y110.146
G1 X119.078 Y108.437
G1 X120.344 Y106.754
G1 X121.575 Y105.107
G1 X122.763 Y103.502
G1 X123.899 Y101.950
G1 X124.974 Y100.458
G1 X125.982 Y99.033
G1 X126.930 Y97.669
G1 X127.825 Y96.357
G1 X128.677 Y95.088
G1 X129.495 Y93.854
G1 X130.286 Y92.646
G1 X131.060 Y91.455
G1 X131.825 Y90.273
G1 X132.591 Y89.091
G1 X133.365 Y87.900
G1 X134.156 Y86.692
G1 X134.974 Y85.458
; Path 12
G1 X135.807 Y87.141
G1 X136.640 Y88.849
G1 X137.474 Y90.575
G1 X138.307 Y92.310
G1 X139.140 Y94.045
G1 X139.974 Y95.771
G1 X140.807 Y97.479
G1 X141.640 Y99.162
G1 X142.474 Y100.810
G1 X143.307 Y102.414
G1 X144.140 Y103.967
G1 X144.974 Y105.458
G1 X145.807 Y106.883
G1 X146.640 Y108.247
G1 X147.474 Y109.560
G1 X148.307 Y110.828
G1 X149.140 Y112.063
G1 X149.974 Y113.271
G1 X150.807 Y114.461
G1 X151.640 Y115.643
G1 X152.474 Y116.825
G1 X153.307 Y118.016
G1 X154.140 Y119.224
G1 X154.974 Y120.458
; Path 13
G1 X156.239 Y118.337
G1 X157.531 Y116.153
G1 X158.841 Y113.927
G1 X160.159 Y111.680
G1 X161.477 Y109.434
G1 X162.786 Y107.208
G1 X164.078 Y105.024
G1 X165.344 Y102.903
G1 X166.575 Y100.864
G1 X167.763 Y98.930
G1 X168.899 Y97.121
G1 X169.974 Y95.458
G1 X170.966 Y93.936
G1 X171.872 Y92.528
G1 X172.708 Y91.224
G1 X173.492 Y90.014
G1 X174.241 Y88.887
G1 X174.974 Y87.833
G1 X175.706 Y86.842
G1 X176.455 Y85.903
G1 X177.239 Y85.005
G1 X178.075 Y84.139
G1 X178.981 Y83.293
G1 X179.974 Y82.458
G1 X181.048 Y81.665
G1 X182.184 Y80.944
G1 X183.372 Y80.286
G1 X184.603 Y79.680
G1 X185.869 Y79.116
G1 X187.161 Y78.583
G1 X188.470 Y78.071
G1 X189.788 Y77.569
G1 X191.106 Y77.067
G1 X192.416 Y76.555
G1 X193.708 Y76.022
G1 X194.974 Y75.458
; Path 14
G0 Z0
G0 X194.950 Y75.434
G0 Z2.2
G1 F3000
G1 X194.216 Y75.801
G1 X193.433 Y76.112
G1 X192.662 Y76.422
G1 X191.880 Y76.748
G1 X191.068 Y77.076
G1 X190.308 Y77.361
G1 X189.539 Y77.688
G1 X188.732 Y77.967
G1 X187.976 Y78.259
G1 X187.165 Y78.586
G1 X186.399 Y78.923
G1 X185.622 Y79.234
G1 X184.857 Y79.591
G1 X184.119 Y79.929
G1 X183.366 Y80.330
G1 X182.671 Y80.691
G1 X181.998 Y81.103
G1 X181.291 Y81.535
G1 X180.632 Y82.001
G1 X179.995 Y82.481
G1 X179.427 Y82.994
G1 X178.815 Y83.485
G1 X178.280 Y83.968
G1 X177.753 Y84.507
G1 X177.241 Y85.009
G1 X176.780 Y85.564
G1 X176.345 Y86.113
G1 X175.866 Y86.674
G1 X175.395 Y87.289
G1 X174.982 Y87.856
G1 X174.539 Y88.481
G1 X174.097 Y89.128
G1 X173.650 Y89.828
G1 X173.183 Y90.507
G1 X172.685 Y91.268
G1 X172.210 Y92.013
G1 X171.688 Y92.864
G1 X171.148 Y93.663
G1 X170.550 Y94.556
G1 X169.967 Y95.475
G1 X169.312 Y96.483
G1 X168.671 Y97.488
G1 X167.973 Y98.596
G1 X167.290 Y99.705
G1 X166.557 Y100.882
G1 X165.840 Y102.090
G1 X165.079 Y103.329
G1 X164.336 Y104.606
G1 X163.545 Y105.941
G1 X162.793 Y107.219
G1 X162.003 Y108.585
G1 X161.224 Y109.892
G1 X160.427 Y111.262
G1 X159.646 Y112.589
G1 X158.832 Y113.942
G1 X158.073 Y115.274
G1 X157.299 Y116.569
G1 X156.520 Y117.910
G1 X155.755 Y119.166
G1 X155.001 Y120.463
; Path 15
G0 Z0
G0 X154.949 Y120.458
G0 Z2.2
G1 F3000
G1 X154.433 Y119.705
G1 X153.950 Y118.979
G1 X153.451 Y118.277
G1 X152.950 Y117.534
G1 X152.465 Y116.809
G1 X151.950 Y116.110
G1 X151.439 Y115.429
G1 X150.950 Y114.691
G1 X150.449 Y113.964
G1 X149.950 Y113.262
G1 X149.441 Y112.507
G1 X148.950 Y111.808
G1 X148.470 Y111.065
G1 X147.951 Y110.314
G1 X147.469 Y109.552
G1 X146.952 Y108.765
G1 X146.463 Y107.962
G1 X145.953 Y107.147
G1 X145.431 Y106.311
G1 X144.955 Y105.444
G1 X144.455 Y104.518
G1 X143.958 Y103.646
G1 X143.437 Y102.707
G1 X142.961 Y101.764
G1 X142.487 Y100.794
G1 X141.964 Y99.813
G1 X141.469 Y98.786
G1 X140.968 Y97.806
G1 X140.478 Y96.763
G1 X139.972 Y95.760
G1 X139.485 Y94.750
G1 X138.976 Y93.689
G1 X138.493 Y92.647
G1 X137.981 Y91.608
G1 X137.511 Y90.573
G1 X136.985 Y89.532
G1 X136.492 Y88.531
G1 X135.989 Y87.476
G1 X135.514 Y86.490
G1 X134.993 Y85.455
; Path 16
G0 Z0
G0 X138.003 Y90.441
G0 Z2.2
G1 F3000
G1 X138.796 Y92.046
G1 X139.608 Y93.658
G1 X140.397 Y95.271
G1 X141.174 Y96.834
G1 X141.984 Y98.462
; Path 17
G0 Z0
G0 X139.396 Y99.635
G0 Z2.2
G1 F3000
G1 X140.498 Y101.313
; Path 18
G0 Z0
G0 X142.516 Y101.612
G0 Z2.2
G1 F3000
G1 X143.450 Y103.379
; Path 19
G0 Z0
G0 X159.965 Y108.469
G0 Z2.2
G1 F3000
G1 X161.574 Y109.265
G1 X163.187 Y110.079
G1 X164.778 Y110.821
G1 X166.390 Y111.624
G1 X167.995 Y112.438
; Path 20
G0 Z0
G0 X177.979 Y100.463
G0 Z2.2
G1 F3000
G1 X177.549 Y98.767
G1 X177.096 Y97.043
G1 X176.698 Y95.298
G1 X176.233 Y93.580
G1 X175.841 Y91.908
G1 X175.391 Y90.153
G1 X174.972 Y88.469
; Path 21
G0 Z0
G0 X181.665 Y89.516
G0 Z2.2
G1 F3000
G1 X182.223 Y91.451
; Path 22
G0 Z0
G0 X187.952 Y78.474
G0 Z2.2
G1 F3000
G1 X188.594 Y80.117
G1 X189.288 Y81.807
G1 X189.950 Y83.478
G1 X190.615 Y85.133
G1 X191.309 Y86.781
G1 X191.979 Y88.437
; Path 23
G0 Z0
G0 X201.979 Y85.467
G0 Z2.2
G1 F3000
G1 X201.201 Y83.861
G1 X200.397 Y82.256
G1 X199.577 Y80.684
G1 X198.769 Y79.034
G1 X197.990 Y77.460
; Path 24
G0 Z0
G0 X194.974 Y75.458
G0 Z2.2
G1 F3000
G1 X196.224 Y76.692
G1 X197.474 Y77.900
G1 X198.724 Y79.091
G1 X199.974 Y80.273
G1 X201.224 Y81.455
G1 X202.474 Y82.646
G1 X203.724 Y83.854
G1 X204.974 Y85.088
G1 X206.224 Y86.357
G1 X207.474 Y87.669
G1 X208.724 Y89.033
G1 X209.974 Y90.458
G1 X211.239 Y91.982
G1 X212.531 Y93.618
G1 X213.841 Y95.341
G1 X215.159 Y97.125
G1 X216.477 Y98.943
G1 X217.786 Y100.771
G1 X219.078 Y102.581
G1 X220.344 Y104.347
G1 X221.575 Y106.044
G1 X222.763 Y107.646
G1 X223.899 Y109.126
G1 X224.974 Y110.458
G1 X225.982 Y111.642
G1 X226.930 Y112.703
G1 X227.825 Y113.661
G1 X228.677 Y114.532
G1 X229.495 Y115.334
G1 X230.286 Y116.083
G1 X231.060 Y116.798
G1 X231.825 Y117.495
G1 X232.591 Y118.192
G1 X233.365 Y118.907
G1 X234.156 Y119.657
G1 X234.974 Y120.458
; Path 25
G0 Z0
G0 X235.000 Y120.436
G0 Z2.2
G1 F3000
G1 X234.536 Y119.975
G1 X234.020 Y119.485
G1 X233.552 Y119.023
G1 X233.074 Y118.605
G1 X232.591 Y118.192
G1 X232.149 Y117.766
G1 X231.713 Y117.343
G1 X231.228 Y116.936
G1 X230.765 Y116.498
G1 X230.297 Y116.087
G1 X229.826 Y115.653
G1 X229.341 Y115.186
G1 X228.855 Y114.682
G1 X228.346 Y114.206
G1 X227.819 Y113.669
G1 X227.296 Y113.114
G1 X226.708 Y112.470
G1 X226.177 Y111.881
G1 X225.571 Y111.177
G1 X224.974 Y110.477
G1 X224.325 Y109.674
G1 X223.677 Y108.858
G1 X222.975 Y107.944
G1 X222.295 Y107.032
G1 X221.596 Y106.030
G1 X220.845 Y105.045
G1 X220.086 Y103.975
G1 X219.340 Y102.941
G1 X218.568 Y101.827
G1 X217.796 Y100.767
G1 X217.015 Y99.675
G1 X216.226 Y98.569
G1 X215.456 Y97.455
G1 X214.646 Y96.390
G1 X213.875 Y95.307
G1 X213.070 Y94.278
G1 X212.267 Y93.260
G1 X211.513 Y92.277
G1 X210.733 Y91.359
G1 X209.990 Y90.433
G1 X209.234 Y89.569
G1 X208.488 Y88.731
G1 X207.754 Y87.899
G1 X206.985 Y87.115
G1 X206.232 Y86.357
G1 X205.481 Y85.570
G1 X204.732 Y84.837
G1 X203.977 Y84.082
G1 X203.229 Y83.340
G1 X202.472 Y82.633
G1 X201.721 Y81.946
G1 X200.967 Y81.211
G1 X200.240 Y80.502
G1 X199.462 Y79.798
G1 X198.738 Y79.118
G1 X197.956 Y78.380
G1 X197.217 Y77.639
G1 X196.451 Y76.942
G1 X195.671 Y76.231
G1 X194.947 Y75.469
; Path 26
G0 Z0
G0 X189.990 Y80.481
G0 Z2.2
G1 F3000
G1 X190.442 Y82.175
G1 X190.858 Y83.910
G1 X191.264 Y85.598
G1 X191.680 Y87.347
G1 X192.127 Y89.050
G1 X192.545 Y90.774
G1 X192.999 Y92.469
; Path 27
G0 Z0
G0 X184.476 Y94.396
G0 Z2.2
G1 F3000
G1 X183.540 Y92.584
; Path 28
G0 Z0
G0 X185.474 Y95.621
G0 Z2.2
G1 F3000
G1 X186.427 Y97.360
; Path 29
G0 Z0
G0 X187.392 Y97.669
G0 Z2.2
G1 F3000
G1 X188.602 Y99.292
; Path 30
G0 Z0
G0 X187.581 Y103.216
G0 Z2.2
G1 F3000
G1 X186.335 Y101.639
; Path 31
G0 Z0
G0 X184.733 Y104.471
G0 Z2.2
G1 F3000
G1 X185.216 Y106.462
; Path 32
G0 Z0
G0 X184.995 Y105.479
G0 Z2.2
G1 F3000
G1 X184.561 Y103.545
G1 X184.185 Y101.660
G1 X183.712 Y99.691
G1 X183.313 Y97.795
G1 X182.908 Y95.875
G1 X182.484 Y93.944
G1 X182.067 Y92.027
G1 X181.609 Y90.103
G1 X181.213 Y88.185
G1 X180.774 Y86.277
G1 X180.370 Y84.382
G1 X179.960 Y82.433
; Path 33
G0 Z0
G0 X179.974 Y82.458
G0 Z2.2
G1 F3000
G1 X184.974 Y105.458
; Path 34
G0 Z0
G0 X204.974 Y110.458
G0 Z2.2
G1 F3000
G1 X199.974 Y85.458
; Path 35
G0 Z0
G0 X199.947 Y85.464
G0 Z2.2
G1 F3000
G1 X200.343 Y87.384
G1 X200.696 Y89.295
G1 X201.083 Y91.234
G1 X201.474 Y93.185
G1 X201.897 Y95.075
G1 X202.281 Y96.985
G1 X202.639 Y98.941
G1 X203.041 Y100.885
G1 X203.424 Y102.774
G1 X203.790 Y104.715
G1 X204.179 Y106.609
G1 X204.551 Y108.574
G1 X204.956 Y110.485
; Path 36
G0 Z0
G0 X204.985 Y112.453
G0 Z2.2
G1 F3000
G1 X206.658 Y112.935
G1 X208.308 Y113.486
G1 X210.004 Y113.945
G1 X211.681 Y114.461
G1 X213.348 Y114.948
G1 X214.999 Y115.468
; Path 37
G0 Z0
G0 X219.949 Y120.435
G0 Z2.2
G1 F3000
G1 X220.696 Y119.698
G1 X221.452 Y118.946
G1 X222.191 Y118.218
G1 X222.954 Y117.472
G1 X223.715 Y116.765
G1 X224.456 Y116.006
G1 X225.219 Y115.288
G1 X225.959 Y114.542
G1 X226.738 Y113.830
G1 X227.461 Y113.074
G1 X228.202 Y112.354
G1 X228.964 Y111.596
G1 X229.736 Y110.863
G1 X230.466 Y110.101
G1 X231.235 Y109.337
G1 X231.968 Y108.583
G1 X232.748 Y107.834
G1 X233.471 Y107.038
G1 X234.221 Y106.226
G1 X234.972 Y105.457
G1 X235.709 Y104.656
G1 X236.474 Y103.837
G1 X237.204 Y103.008
G1 X237.976 Y102.183
G1 X238.714 Y101.370
G1 X239.477 Y100.499
G1 X240.218 Y99.667
G1 X240.979 Y98.794
G1 X241.705 Y97.963
G1 X242.480 Y97.072
G1 X243.201 Y96.196
G1 X243.981 Y95.339
G1 X244.740 Y94.464
G1 X245.482 Y93.603
G1 X246.229 Y92.713
G1 X246.984 Y91.869
G1 X247.725 Y90.976
G1 X248.485 Y90.143
G1 X249.223 Y89.303
G1 X249.986 Y88.431
; Path 38
G0 Z0
G0 X249.999 Y88.477
G0 Z2.2
G1 F3000
G1 X250.737 Y89.523
G1 X251.518 Y90.510
G1 X252.285 Y91.580
G1 X253.072 Y92.600
G1 X253.844 Y93.680
G1 X254.646 Y94.722
G1 X255.433 Y95.775
G1 X256.225 Y96.852
G1 X257.033 Y97.926
G1 X257.794 Y98.965
G1 X258.560 Y99.999
G1 X259.338 Y101.039
G1 X260.109 Y102.047
G1 X260.842 Y103.049
G1 X261.540 Y103.991
G1 X262.292 Y104.971
G1 X263.000 Y105.850
G1 X263.672 Y106.781
G1 X264.302 Y107.614
G1 X264.967 Y108.455
G1 X265.578 Y109.245
G1 X266.168 Y109.978
G1 X266.717 Y110.672
G1 X267.285 Y111.364
G1 X267.790 Y111.990
G1 X268.332 Y112.639
G1 X268.849 Y113.229
G1 X269.324 Y113.826
G1 X269.784 Y114.390
G1 X270.276 Y114.949
G1 X270.712 Y115.475
G1 X271.204 Y116.032
G1 X271.659 Y116.571
G1 X272.121 Y117.099
G1 X272.588 Y117.619
G1 X273.044 Y118.174
G1 X273.529 Y118.721
G1 X273.986 Y119.281
G1 X274.448 Y119.839
G1 X274.963 Y120.444
; Path 39
G0 Z0
G0 X274.974 Y120.458
G0 Z2.2
G1 F3000
G1 X274.156 Y119.484
G1 X273.365 Y118.551
G1 X272.591 Y117.646
G1 X271.825 Y116.754
G1 X271.060 Y115.863
G1 X270.286 Y114.958
G1 X269.495 Y114.025
G1 X268.677 Y113.051
G1 X267.825 Y112.021
G1 X266.930 Y110.921
G1 X265.982 Y109.738
G1 X264.974 Y108.458
G1 X263.899 Y107.072
G1 X262.763 Y105.588
G1 X261.575 Y104.021
G1 X260.344 Y102.384
G1 X259.078 Y100.692
G1 X257.786 Y98.958
G1 X256.477 Y97.197
G1 X255.159 Y95.421
G1 X253.841 Y93.646
G1 X252.531 Y91.884
G1 X251.239 Y90.150
G1 X249.974 Y88.458
; Path 40
G1 X248.724 Y89.881
G1 X247.474 Y91.315
G1 X246.224 Y92.755
G1 X244.974 Y94.199
G1 X243.724 Y95.643
G1 X242.474 Y97.083
G1 X241.224 Y98.517
G1 X239.974 Y99.940
G1 X238.724 Y101.349
G1 X237.474 Y102.741
G1 X236.224 Y104.111
G1 X234.974 Y105.458
G1 X233.724 Y106.778
G1 X232.474 Y108.074
G1 X231.224 Y109.349
G1 X229.974 Y110.606
G1 X228.724 Y111.850
G1 X227.474 Y113.083
G1 X226.224 Y114.309
G1 X224.974 Y115.532
G1 X223.724 Y116.755
G1 X222.474 Y117.981
G1 X221.224 Y119.214
G1 X219.974 Y120.458
; Path 41
G0 Z0
G0 X230.866 Y133.711
G0 Z2.2
G1 F3000
G1 X228.962 Y133.235
; Path 42
G0 Z0
G0 X220.720 Y105.069
G0 Z2.2
G1 F3000
G1 X219.188 Y103.829
; Path 43
G0 Z0
G0 X217.973 Y102.436
G0 Z2.2
G1 F3000
G1 X217.621 Y100.707
G1 X217.229 Y98.945
G1 X216.835 Y97.200
G1 X216.465 Y95.469
G1 X216.077 Y93.703
G1 X215.720 Y91.956
G1 X215.377 Y90.223
G1 X214.987 Y88.447
; Path 44
G0 Z0
G0 X208.912 Y92.774
G0 Z2.2
G1 F3000
G1 X207.020 Y92.094
; Path 45
G0 Z0
G0 X211.303 Y95.677
G0 Z2.2
G1 F3000
G1 X212.584 Y97.232
; Path 46
G0 Z0
G0 X215.422 Y99.627
G0 Z2.2
G1 F3000
G1 X216.485 Y101.273
; Path 47
G0 Z0
G0 X237.309 Y103.214
G0 Z2.2
G1 F3000
G1 X238.652 Y101.729
; Path 48
G0 Z0
G0 X241.628 Y105.497
G0 Z2.2
G1 F3000
G1 X242.303 Y107.374
; Path 49
G0 Z0
G0 X242.963 Y108.460
G0 Z2.2
G1 F3000
G1 X242.492 Y106.804
G1 X241.988 Y105.141
G1 X241.437 Y103.432
G1 X240.954 Y101.780
G1 X240.482 Y100.118
G1 X239.966 Y98.454
; Path 50
G0 Z0
G0 X244.974 Y95.458
G0 Z2.2
G1 F3000
G1 X247.974 Y115.458
; Path 51
G0 Z0
G0 X247.945 Y115.460
G0 Z2.2
G1 F3000
G1 X247.658 Y113.671
G1 X247.432 Y111.848
G1 X247.129 Y110.031
G1 X246.892 Y108.189
G1 X246.620 Y106.363
G1 X246.327 Y104.553
G1 X246.059 Y102.771
G1 X245.778 Y100.903
G1 X245.533 Y99.098
G1 X245.286 Y97.283
G1 X244.998 Y95.478
; Path 52
G0 Z0
G0 X248.974 Y95.445
G0 Z2.2
G1 F3000
G1 X247.988 Y93.782
G1 X247.003 Y92.090
G1 X245.985 Y90.434
; Path 53
G0 Z0
G0 X251.951 Y89.464
G0 Z2.2
G1 F3000
G1 X252.701 Y91.230
G1 X253.456 Y92.952
G1 X254.266 Y94.742
G1 X254.999 Y96.469
; Path 54
G0 Z0
G0 X255.003 Y92.439
G0 Z2.2
G1 F3000
G1 X255.505 Y94.096
G1 X256.011 Y95.745
G1 X256.519 Y97.436
G1 X256.972 Y99.082
G1 X257.485 Y100.777
G1 X257.986 Y102.445
; Path 55
G0 Z0
G0 X258.947 Y104.443
G0 Z2.2
G1 F3000
G1 X260.969 Y104.479
; Path 56
G0 Z0
G0 X262.370 Y106.745
G0 Z2.2
G1 F3000
G1 X263.656 Y108.246
; Path 57
G0 Z0
G0 X254.963 Y110.438
G0 Z2.2
G1 F3000
G1 X256.808 Y111.040
G1 X258.692 Y111.608
G1 X260.568 Y112.162
G1 X262.390 Y112.752
G1 X264.246 Y113.309
G1 X266.125 Y113.881
G1 X267.995 Y114.470
; Path 58
G0 Z0
G0 X258.917 Y128.350
G0 Z2.2
G1 F3000
G1 X260.881 Y128.565
; Path 59
G0 Z0
G0 X281.129 Y106.989
G0 Z2.2
G1 F3000
G1 X282.818 Y105.946
; Path 60
G0 Z0
G0 X285.004 Y104.429
G0 Z2.2
G1 F3000
G1 X285.508 Y105.911
G1 X285.993 Y107.423
G1 X286.523 Y108.933
G1 X286.999 Y110.468
; Path 61
G0 Z0
G0 X292.149 Y107.839
G0 Z2.2
G1 F3000
G1 X293.793 Y109.018
; Path 62
G0 Z0
G0 X309.955 Y116.436
G0 Z2.2
G1 F3000
G1 X307.955 Y116.437
G1 X305.968 Y116.411
G1 X303.949 Y116.415
G1 X301.977 Y116.379
G1 X299.977 Y116.404
G1 X297.941 Y116.378
G1 X295.949 Y116.379
G1 X293.938 Y116.331
G1 X291.931 Y116.335
G1 X289.932 Y116.348
G1 X287.938 Y116.341
G1 X285.986 Y116.337
G1 X283.969 Y116.298
G1 X281.984 Y116.289
G1 X279.988 Y116.276
G1 X277.932 Y116.250
G1 X275.970 Y116.259
G1 X273.935 Y116.278
G1 X271.955 Y116.262
G1 X269.987 Y116.216
G1 X267.953 Y116.205
G1 X265.974 Y116.192
G1 X263.972 Y116.205
G1 X261.942 Y116.228
G1 X259.941 Y116.206
G1 X257.986 Y116.209
G1 X255.974 Y116.184
G1 X253.944 Y116.148
G1 X251.939 Y116.174
G1 X249.974 Y116.142
G1 X247.989 Y116.106
G1 X245.965 Y116.148
G1 X243.947 Y116.138
G1 X241.976 Y116.130
G1 X239.968 Y116.110
G1 X237.980 Y116.111
G1 X235.989 Y116.088
G1 X233.940 Y116.045
G1 X231.970 Y116.055
G1 X229.969 Y116.067
G1 X227.992 Y116.011
G1 X225.972 Y116.011
G1 X223.973 Y115.988
G1 X221.974 Y115.982
G1 X219.991 Y115.989
G1 X217.996 Y115.978
G1 X215.949 Y115.992
G1 X214.000 Y115.953
G1 X211.981 Y115.966
G1 X209.946 Y115.944
G1 X208.003 Y115.951
G1 X206.001 Y115.934
G1 X203.982 Y115.892
G1 X201.994 Y115.903
G1 X199.985 Y115.923
G1 X197.968 Y115.864
G1 X195.976 Y115.903
G1 X193.997 Y115.843
G1 X191.962 Y115.864
G1 X189.963 Y115.872
G1 X187.959 Y115.825
G1 X185.976 Y115.817
G1 X183.954 Y115.820
G1 X181.952 Y115.796
G1 X179.985 Y115.817
G1 X177.976 Y115.797
G1 X175.993 Y115.772
G1 X173.994 Y115.772
G1 X171.979 Y115.789
G1 X170.003 Y115.728
G1 X167.958 Y115.751
G1 X165.985 Y115.750
G1 X163.971 Y115.699
G1 X161.988 Y115.689
G1 X159.996 Y115.690
G1 X157.974 Y115.679
G1 X155.958 Y115.687
G1 X154.005 Y115.675
G1 X152.010 Y115.643
G1 X149.993 Y115.647
G1 X147.967 Y115.672
G1 X145.960 Y115.642
G1 X143.995 Y115.624
G1 X142.001 Y115.630
G1 X140.005 Y115.599
G1 X138.013 Y115.590
G1 X135.983 Y115.564
G1 X133.978 Y115.568
G1 X132.005 Y115.552
G1 X129.991 Y115.531
G1 X127.982 Y115.519
G1 X125.987 Y115.519
G1 X124.000 Y115.499
G1 X122.013 Y115.527
G1 X120.008 Y115.488
G1 X117.997 Y115.500
G1 X116.004 Y115.469
G1 X114.007 Y115.475
G1 X111.973 Y115.474
G1 X109.995 Y115.456
; Path 63
G0 Z0
G0 X138.874 Y130.394
G0 Z2.2
G1 F3000
G1 X140.888 Y130.456
; Path 64
G0 Z0
G0 X156.015 Y135.580
G0 Z2.2
G1 F3000
G1 X153.882 Y135.397
; Path 65
G0 Z0
G0 X189.007 Y132.327
G0 Z2.2
G1 F3000
G1 X191.033 Y132.653
; Path 66
G0 Z0
G0 X198.956 Y153.440
G0 Z2.2
G1 F3000
G1 X200.953 Y153.574
; Path 67
G0 Z0
G0 X219.005 Y168.554
G0 Z2.2
G1 F3000
G1 X221.106 Y168.548
; Path 68
G0 Z0
G0 X244.094 Y156.269
G0 Z2.2
G1 F3000
G1 X246.025 Y156.538
; Path 69
G0 Z0
G0 X268.871 Y163.372
G0 Z2.2
G1 F3000
G1 X270.977 Y163.642
; Path 70
G0 Z0
G0 X278.973 Y152.360
G0 Z2.2
G1 F3000
G1 X280.949 Y152.409
; Path 71
G0 Z0
G0 X289.099 Y131.178
G0 Z2.2
G1 F3000
G1 X290.984 Y131.498
; Path 72
G0 Z0
G0 X309.941 Y147.507
G0 Z2.2
G1 F3000
G1 X309.001 Y147.482
G1 X308.074 Y147.504
G1 X307.043 Y147.499
G1 X306.098 Y147.416
G1 X305.136 Y147.492
G1 X304.213 Y147.375
G1 X303.216 Y147.514
G1 X302.189 Y147.431
G1 X301.237 Y147.348
G1 X300.312 Y147.458
G1 X299.336 Y147.471
G1 X298.335 Y147.319
G1 X297.444 Y147.379
G1 X296.437 Y147.433
G1 X295.594 Y147.385
G1 X294.537 Y147.358
G1 X293.578 Y147.407
G1 X292.678 Y147.371
G1 X291.637 Y147.280
G1 X290.668 Y147.358
G1 X289.692 Y147.274
G1 X288.865 Y147.356
G1 X287.766 Y147.331
G1 X286.832 Y147.288
G1 X285.959 Y147.257
G1 X284.947 Y147.250
G1 X283.992 Y147.317
G1 X283.047 Y147.232
G1 X282.098 Y147.293
G1 X281.039 Y147.156
G1 X280.220 Y147.125
G1 X279.198 Y147.153
G1 X278.152 Y147.221
G1 X277.177 Y147.226
G1 X276.234 Y147.166
G1 X275.402 Y147.110
G1 X274.318 Y147.108
G1 X273.459 Y147.061
G1 X272.449 Y147.122
G1 X271.433 Y147.090
G1 X270.513 Y147.060
G1 X269.488 Y147.118
G1 X268.549 Y147.073
G1 X267.694 Y147.094
G1 X266.719 Y147.047
G1 X265.699 Y147.089
G1 X264.769 Y147.003
G1 X263.762 Y147.012
G1 X262.771 Y147.032
G1 X261.837 Y147.032
G1 X260.859 Y147.021
G1 X259.952 Y146.994
G1 X259.048 Y147.053
G1 X257.958 Y147.041
G1 X257.093 Y147.001
G1 X256.097 Y147.028
G1 X255.101 Y146.868
G1 X254.168 Y146.877
G1 X253.277 Y146.930
G1 X252.269 Y146.992
G1 X251.248 Y146.918
G1 X250.384 Y146.927
G1 X249.430 Y146.928
G1 X248.438 Y146.850
G1 X247.455 Y146.866
G1 X246.523 Y146.866
G1 X245.554 Y146.781
G1 X244.626 Y146.766
G1 X243.639 Y146.831
G1 X242.675 Y146.822
G1 X241.645 Y146.796
G1 X240.705 Y146.753
G1 X239.794 Y146.800
G1 X238.787 Y146.788
G1 X237.856 Y146.809
G1 X236.830 Y146.701
G1 X235.951 Y146.762
G1 X234.958 Y146.737
G1 X233.923 Y146.665
G1 X232.960 Y146.648
G1 X232.048 Y146.683
G1 X231.159 Y146.677
G1 X230.217 Y146.732
G1 X229.150 Y146.726
G1 X228.266 Y146.607
G1 X227.297 Y146.717
G1 X226.283 Y146.646
G1 X225.312 Y146.631
G1 X224.451 Y146.566
G1 X223.438 Y146.624
G1 X222.461 Y146.607
G1 X221.500 Y146.520
G1 X220.584 Y146.628
G1 X219.532 Y146.559
G1 X218.592 Y146.580
G1 X217.661 Y146.500
G1 X216.642 Y146.559
G1 X215.670 Y146.471
G1 X214.789 Y146.583
G1 X213.736 Y146.456
G1 X212.906 Y146.495
G1 X211.809 Y146.488
G1 X210.997 Y146.478
G1 X209.964 Y146.476
G1 X208.976 Y146.518
G1 X207.981 Y146.518
G1 X207.040 Y146.433
G1 X206.092 Y146.383
G1 X205.171 Y146.429
G1 X204.249 Y146.359
G1 X203.163 Y146.414
G1 X202.310 Y146.377
G1 X201.328 Y146.424
G1 X200.407 Y146.367
G1 X199.333 Y146.354
G1 X198.404 Y146.388
G1 X197.467 Y146.344
G1 X196.505 Y146.391
G1 X195.509 Y146.257
G1 X194.572 Y146.239
G1 X193.677 Y146.332
G1 X192.694 Y146.285
G1 X191.644 Y146.213
G1 X190.804 Y146.210
G1 X189.855 Y146.260
G1 X188.884 Y146.276
G1 X187.899 Y146.228
G1 X186.968 Y146.183
G1 X185.972 Y146.142
G1 X184.971 Y146.210
G1 X183.945 Y146.147
G1 X183.014 Y146.149
G1 X182.023 Y146.186
G1 X181.127 Y146.225
G1 X180.196 Y146.233
G1 X179.157 Y146.200
G1 X178.274 Y146.204
G1 X177.332 Y146.151
G1 X176.297 Y146.064
G1 X175.404 Y146.103
G1 X174.321 Y146.050
G1 X173.399 Y146.038
G1 X172.474 Y146.076
G1 X171.488 Y146.074
G1 X170.567 Y146.126
G1 X169.653 Y145.977
G1 X168.650 Y146.090
G1 X167.643 Y145.962
G1 X166.703 Y145.981
G1 X165.764 Y146.075
G1 X164.801 Y145.919
G1 X163.824 Y145.975
G1 X162.849 Y146.008
G1 X161.825 Y146.022
G1 X160.960 Y145.976
G1 X159.978 Y145.942
G1 X158.971 Y145.903
G1 X158.024 Y145.919
G1 X157.118 Y145.982
G1 X156.103 Y145.875
G1 X155.229 Y145.854
G1 X154.208 Y145.802
G1 X153.321 Y145.919
G1 X152.257 Y145.790
G1 X151.258 Y145.909
G1 X150.404 Y145.818
G1 X149.432 Y145.889
G1 X148.470 Y145.821
G1 X147.482 Y145.807
G1 X146.599 Y145.765
G1 X145.513 Y145.846
G1 X144.534 Y145.721
G1 X143.557 Y145.831
G1 X142.699 Y145.750
G1 X141.794 Y145.816
G1 X140.767 Y145.727
G1 X139.796 Y145.726
G1 X138.838 Y145.714
G1 X137.908 Y145.781
G1 X136.881 Y145.761
G1 X135.916 Y145.627
G1 X134.985 Y145.671
G1 X134.080 Y145.592
G1 X133.040 Y145.610
G1 X132.073 Y145.605
G1 X131.072 Y145.659
G1 X130.216 Y145.606
G1 X129.226 Y145.568
G1 X128.195 Y145.565
G1 X127.267 Y145.548
G1 X126.399 Y145.657
G1 X125.321 Y145.634
G1 X124.400 Y145.527
G1 X123.409 Y145.505
G1 X122.489 Y145.537
G1 X121.483 Y145.518
G1 X120.629 Y145.562
G1 X119.532 Y145.497
G1 X118.654 Y145.525
G1 X117.678 Y145.483
G1 X116.791 Y145.416
G1 X115.731 Y145.479
G1 X114.833 Y145.378
G1 X113.785 Y145.429
G1 X112.801 Y145.465
G1 X111.946 Y145.373
G1 X111.006 Y145.441
G1 X109.993 Y145.402
; Path 73
G0 Z0
G0 X129.076 Y155.439
G0 Z2.2
G1 F3000
G1 X131.052 Y155.420
; Path 74
G0 Z0
G0 X148.925 Y165.480
G0 Z2.2
G1 F3000
G1 X151.020 Y165.478
; Path 75
G0 Z0
G0 X164.010 Y158.342
G0 Z2.2
G1 F3000
G1 X165.974 Y158.530
; Path 76
G0 Z0
G0 X161.047 Y195.502
G0 Z2.2
G1 F3000
G1 X159.020 Y195.421
; Path 77
G0 Z0
G0 X146.017 Y205.471
G0 Z2.2
G1 F3000
G1 X143.909 Y205.304
; Path 78
G0 Z0
G0 X136.026 Y225.540
G0 Z2.2
G1 F3000
G1 X133.886 Y225.474
; Path 79
G0 Z0
G0 X153.994 Y240.337
G0 Z2.2
G1 F3000
G1 X155.935 Y240.472
; Path 80
G0 Z0
G0 X168.979 Y228.468
G0 Z2.2
G1 F3000
G1 X171.068 Y228.476
; Path 81
G0 Z0
G0 X179.038 Y208.322
G0 Z2.2
G1 F3000
G1 X180.889 Y208.374
; Path 82
G0 Z0
G0 X181.949 Y207.433
G0 Z2.2
G1 F3000
G1 X182.453 Y206.979
G1 X182.971 Y206.465
; Path 83
G0 Z0
G0 X181.984 Y205.462
G0 Z2.2
G1 F3000
G1 X181.646 Y203.786
G1 X181.321 Y202.109
G1 X180.968 Y200.432
; Path 84
G0 Z0
G0 X181.000 Y200.442
G0 Z2.2
G1 F3000
G1 X180.987 Y200.206
G1 X180.996 Y200.027
G1 X180.976 Y199.833
G1 X180.984 Y199.591
G1 X180.969 Y199.363
G1 X180.969 Y199.142
G1 X180.931 Y198.902
G1 X180.953 Y198.691
G1 X180.927 Y198.449
G1 X180.938 Y198.245
G1 X180.908 Y198.007
G1 X180.929 Y197.815
G1 X180.942 Y197.635
G1 X180.927 Y197.409
G1 X180.948 Y197.222
G1 X180.936 Y197.037
G1 X180.963 Y196.893
G1 X180.959 Y196.707
G1 X181.007 Y196.554
G1 X180.999 Y196.429
G1 X181.004 Y196.293
G1 X181.057 Y196.209
G1 X181.124 Y196.097
G1 X181.132 Y196.040
G1 X181.187 Y196.007
G1 X181.221 Y195.914
G1 X181.241 Y195.878
G1 X181.320 Y195.822
G1 X181.356 Y195.808
G1 X181.428 Y195.754
G1 X181.454 Y195.744
G1 X181.540 Y195.701
G1 X181.623 Y195.692
G1 X181.654 Y195.654
G1 X181.690 Y195.628
G1 X181.767 Y195.605
G1 X181.835 Y195.579
G1 X181.876 Y195.543
G1 X181.947 Y195.512
G1 X181.979 Y195.460
; Path 85
G0 Z0
G0 X182.965 Y194.436
G0 Z2.2
G1 F3000
G1 X182.073 Y192.702
G1 X181.222 Y191.046
G1 X180.305 Y189.306
G1 X179.422 Y187.616
G1 X178.525 Y185.913
G1 X177.625 Y184.168
G1 X176.751 Y182.464
G1 X175.865 Y180.758
G1 X174.999 Y179.076
G1 X174.125 Y177.366
G1 X173.202 Y175.608
G1 X172.305 Y173.870
G1 X171.410 Y172.168
G1 X170.524 Y170.420
G1 X169.606 Y168.670
G1 X168.667 Y166.927
G1 X167.816 Y165.220
G1 X166.893 Y163.504
G1 X165.996 Y161.755
G1 X165.120 Y160.096
G1 X164.257 Y158.415
G1 X163.401 Y156.715
G1 X162.516 Y155.073
G1 X161.658 Y153.375
G1 X160.783 Y151.704
G1 X159.876 Y149.993
G1 X159.033 Y148.322
G1 X158.120 Y146.691
G1 X157.297 Y144.984
G1 X156.402 Y143.315
G1 X155.518 Y141.583
G1 X154.659 Y139.907
G1 X153.771 Y138.186
G1 X152.857 Y136.523
G1 X151.957 Y134.800
G1 X151.073 Y133.128
G1 X150.231 Y131.385
G1 X149.334 Y129.681
G1 X148.407 Y127.988
G1 X147.539 Y126.274
G1 X146.659 Y124.594
G1 X145.811 Y122.948
G1 X144.956 Y121.277
G1 X144.109 Y119.639
G1 X143.225 Y117.972
G1 X142.338 Y116.346
G1 X141.497 Y114.710
G1 X140.627 Y113.050
G1 X139.804 Y111.413
G1 X138.912 Y109.731
G1 X138.050 Y108.102
G1 X137.212 Y106.433
G1 X136.370 Y104.743
G1 X135.494 Y103.105
G1 X134.630 Y101.411
G1 X133.759 Y99.728
G1 X132.841 Y98.065
G1 X131.960 Y96.366
G1 X131.116 Y94.690
G1 X130.235 Y92.998
G1 X129.374 Y91.351
G1 X128.506 Y89.672
G1 X127.645 Y88.086
G1 X126.840 Y86.437
G1 X126.005 Y84.818
G1 X125.140 Y83.198
G1 X124.350 Y81.597
G1 X123.477 Y79.984
G1 X122.645 Y78.369
G1 X121.800 Y76.795
G1 X120.983 Y75.152
G1 X120.156 Y73.530
G1 X119.286 Y71.885
G1 X118.437 Y70.251
G1 X117.626 Y68.618
G1 X116.789 Y66.996
G1 X115.940 Y65.339
G1 X115.090 Y63.712
G1 X114.310 Y62.193
G1 X113.578 Y60.715
G1 X112.778 Y59.185
G1 X112.031 Y57.677
G1 X111.268 Y56.193
G1 X110.644 Y54.799
G1 X109.963 Y53.435
G1 X110.732 Y54.739
G1 X111.471 Y55.997
G1 X112.259 Y57.445
G1 X113.062 Y58.903
G1 X113.892 Y60.394
G1 X114.704 Y61.832
G1 X115.495 Y63.320
G1 X116.376 Y64.897
G1 X117.246 Y66.541
G1 X118.106 Y68.114
G1 X118.990 Y69.769
G1 X119.863 Y71.364
G1 X120.696 Y72.966
G1 X121.592 Y74.563
G1 X122.460 Y76.147
G1 X123.309 Y77.720
G1 X124.143 Y79.350
G1 X125.043 Y80.952
G1 X125.868 Y82.515
G1 X126.715 Y84.124
G1 X127.623 Y85.676
G1 X128.441 Y87.276
G1 X129.317 Y88.887
G1 X130.202 Y90.564
G1 X131.092 Y92.181
G1 X131.970 Y93.867
G1 X132.907 Y95.497
G1 X133.776 Y97.195
G1 X134.658 Y98.852
G1 X135.561 Y100.460
G1 X136.418 Y102.163
G1 X137.354 Y103.821
G1 X138.227 Y105.451
G1 X139.088 Y107.108
G1 X139.955 Y108.707
G1 X140.847 Y110.325
G1 X141.716 Y111.963
G1 X142.585 Y113.624
G1 X143.483 Y115.279
G1 X144.364 Y116.890
G1 X145.230 Y118.528
G1 X146.104 Y120.139
G1 X147.004 Y121.809
G1 X147.876 Y123.416
G1 X148.766 Y125.089
G1 X149.660 Y126.780
G1 X150.593 Y128.479
G1 X151.510 Y130.181
G1 X152.372 Y131.859
G1 X153.313 Y133.543
G1 X154.201 Y135.195
G1 X155.137 Y136.906
G1 X156.038 Y138.543
G1 X156.925 Y140.253
G1 X157.822 Y141.940
G1 X158.691 Y143.573
G1 X159.585 Y145.282
G1 X160.513 Y146.924
G1 X161.404 Y148.553
G1 X162.296 Y150.240
G1 X163.137 Y151.906
G1 X164.051 Y153.564
G1 X164.924 Y155.218
G1 X165.817 Y156.882
G1 X166.711 Y158.514
G1 X167.619 Y160.185
G1 X168.549 Y161.872
G1 X169.462 Y163.586
G1 X170.356 Y165.305
G1 X171.329 Y167.057
G1 X172.240 Y168.728
G1 X173.145 Y170.436
G1 X174.085 Y172.186
G1 X174.964 Y173.871
G1 X175.908 Y175.581
G1 X176.825 Y177.309
G1 X177.757 Y178.994
G1 X178.655 Y180.705
G1 X179.531 Y182.387
G1 X180.439 Y184.075
G1 X181.356 Y185.737
G1 X182.294 Y187.411
G1 X183.175 Y189.082
G1 X184.074 Y190.776
G1 X184.994 Y192.473
; Path 86
G0 Z0
G0 X184.989 Y192.464
G0 Z2.2
G1 F3000
G1 X184.093 Y190.806
G1 X183.232 Y189.111
G1 X182.361 Y187.417
G1 X181.421 Y185.700
G1 X180.575 Y184.026
G1 X179.647 Y182.352
G1 X178.802 Y180.688
G1 X177.882 Y179.016
G1 X177.017 Y177.309
G1 X176.119 Y175.617
G1 X175.228 Y173.900
G1 X174.336 Y172.179
G1 X173.401 Y170.467
G1 X172.483 Y168.745
G1 X171.634 Y167.039
G1 X170.699 Y165.350
G1 X169.829 Y163.640
G1 X168.893 Y161.910
G1 X168.003 Y160.202
G1 X167.131 Y158.572
G1 X166.242 Y156.909
G1 X165.395 Y155.226
G1 X164.509 Y153.576
G1 X163.627 Y151.914
G1 X162.742 Y150.282
G1 X161.862 Y148.630
G1 X160.995 Y146.975
G1 X160.165 Y145.290
G1 X159.291 Y143.665
G1 X158.393 Y141.978
G1 X157.514 Y140.269
G1 X156.603 Y138.614
G1 X155.741 Y136.956
G1 X154.844 Y135.268
G1 X153.943 Y133.583
G1 X153.061 Y131.881
G1 X152.187 Y130.202
G1 X151.306 Y128.512
G1 X150.394 Y126.840
G1 X149.534 Y125.167
G1 X148.634 Y123.476
G1 X147.751 Y121.818
G1 X146.933 Y120.236
G1 X146.043 Y118.612
G1 X145.196 Y116.974
G1 X144.325 Y115.322
G1 X143.459 Y113.661
G1 X142.606 Y112.043
G1 X141.768 Y110.449
G1 X140.921 Y108.811
G1 X140.041 Y107.164
G1 X139.173 Y105.531
G1 X138.292 Y103.875
G1 X137.437 Y102.244
G1 X136.569 Y100.546
G1 X135.679 Y98.900
G1 X134.832 Y97.268
G1 X133.941 Y95.609
G1 X133.077 Y93.965
G1 X132.230 Y92.286
G1 X131.300 Y90.630
G1 X130.457 Y88.982
G1 X129.601 Y87.372
G1 X128.758 Y85.782
G1 X127.956 Y84.181
G1 X127.119 Y82.614
G1 X126.275 Y81.022
G1 X125.454 Y79.445
G1 X124.627 Y77.874
G1 X123.779 Y76.241
G1 X122.933 Y74.664
G1 X122.119 Y73.064
G1 X121.270 Y71.477
G1 X120.417 Y69.814
G1 X119.559 Y68.217
G1 X118.749 Y66.618
G1 X117.859 Y65.008
G1 X117.048 Y63.415
G1 X116.302 Y61.969
G1 X115.520 Y60.457
G1 X114.742 Y58.981
G1 X113.998 Y57.549
G1 X113.249 Y56.071
G1 X112.638 Y54.797
G1 X111.983 Y53.470
G1 X112.749 Y54.804
G1 X113.548 Y56.169
G1 X114.349 Y57.663
G1 X115.158 Y59.149
G1 X116.002 Y60.663
G1 X116.814 Y62.129
G1 X117.645 Y63.610
G1 X118.558 Y65.252
G1 X119.431 Y66.866
G1 X120.287 Y68.498
G1 X121.155 Y70.090
G1 X122.053 Y71.704
G1 X122.953 Y73.347
G1 X123.829 Y74.957
G1 X124.694 Y76.565
G1 X125.539 Y78.156
G1 X126.437 Y79.736
G1 X127.296 Y81.370
G1 X128.192 Y82.943
G1 X129.038 Y84.565
G1 X129.943 Y86.152
G1 X130.808 Y87.757
G1 X131.652 Y89.373
G1 X132.528 Y91.052
G1 X133.434 Y92.726
G1 X134.351 Y94.397
G1 X135.274 Y96.017
G1 X136.146 Y97.674
G1 X137.032 Y99.382
G1 X137.971 Y101.004
G1 X138.852 Y102.713
G1 X139.758 Y104.378
G1 X140.667 Y106.020
G1 X141.552 Y107.680
G1 X142.461 Y109.314
G1 X143.348 Y110.967
G1 X144.226 Y112.577
G1 X145.103 Y114.246
G1 X145.968 Y115.857
G1 X146.889 Y117.524
G1 X147.747 Y119.158
G1 X148.645 Y120.767
G1 X149.518 Y122.393
G1 X150.427 Y124.063
G1 X151.353 Y125.725
G1 X152.260 Y127.474
G1 X153.164 Y129.143
G1 X154.103 Y130.827
G1 X155.003 Y132.540
G1 X155.884 Y134.192
G1 X156.837 Y135.903
G1 X157.743 Y137.594
G1 X158.667 Y139.274
G1 X159.599 Y140.977
G1 X160.485 Y142.663
G1 X161.363 Y144.334
G1 X162.298 Y145.979
G1 X163.177 Y147.684
G1 X164.090 Y149.302
G1 X164.961 Y150.983
G1 X165.911 Y152.663
G1 X166.766 Y154.325
G1 X167.700 Y156.005
G1 X168.579 Y157.665
G1 X169.464 Y159.305
G1 X170.393 Y160.984
G1 X171.321 Y162.679
G1 X172.269 Y164.454
G1 X173.182 Y166.143
G1 X174.124 Y167.851
G1 X175.058 Y169.579
G1 X175.965 Y171.302
G1 X176.933 Y173.006
G1 X177.867 Y174.752
G1 X178.769 Y176.472
G1 X179.706 Y178.190
G1 X180.618 Y179.898
G1 X181.550 Y181.562
G1 X182.452 Y183.297
G1 X183.378 Y184.979
G1 X184.284 Y186.693
G1 X185.209 Y188.382
G1 X186.128 Y190.055
G1 X187.087 Y191.730
G1 X187.976 Y193.442
; Path 87
G0 Z0
G0 X187.998 Y193.454
G0 Z2.2
G1 F3000
G1 X186.990 Y194.466
G1 X185.967 Y195.483
; Path 88
G0 Z0
G0 X185.946 Y195.438
G0 Z2.2
G1 F3000
G1 X186.937 Y196.951
G1 X187.968 Y198.455
; Path 89
G0 Z0
G0 X187.998 Y198.458
G0 Z2.2
G1 F3000
G1 X187.921 Y198.733
G1 X187.898 Y198.966
G1 X187.823 Y199.256
G1 X187.805 Y199.488
G1 X187.784 Y199.755
G1 X187.715 Y200.018
G1 X187.695 Y200.281
G1 X187.627 Y200.550
G1 X187.584 Y200.822
G1 X187.537 Y201.077
G1 X187.513 Y201.315
G1 X187.441 Y201.595
G1 X187.369 Y201.831
G1 X187.339 Y202.097
G1 X187.300 Y202.358
G1 X187.226 Y202.578
G1 X187.133 Y202.808
G1 X187.099 Y203.031
G1 X187.043 Y203.257
G1 X186.957 Y203.451
G1 X186.903 Y203.629
G1 X186.797 Y203.833
G1 X186.736 Y203.983
G1 X186.620 Y204.182
G1 X186.508 Y204.355
G1 X186.431 Y204.504
G1 X186.350 Y204.652
G1 X186.231 Y204.804
G1 X186.114 Y204.940
G1 X186.023 Y205.088
G1 X185.942 Y205.222
G1 X185.811 Y205.363
G1 X185.675 Y205.490
G1 X185.596 Y205.633
G1 X185.485 Y205.799
G1 X185.383 Y205.906
G1 X185.300 Y206.036
G1 X185.173 Y206.186
G1 X185.078 Y206.330
G1 X184.971 Y206.480
; Path 90
G0 Z0
G0 X184.969 Y206.454
G0 Z2.2
G1 F3000
G1 X184.911 Y206.443
G1 X184.874 Y206.456
G1 X184.841 Y206.453
G1 X184.787 Y206.464
G1 X184.762 Y206.487
G1 X184.704 Y206.477
G1 X184.674 Y206.476
G1 X184.622 Y206.490
G1 X184.571 Y206.524
G1 X184.537 Y206.502
G1 X184.521 Y206.518
G1 X184.448 Y206.508
G1 X184.386 Y206.517
G1 X184.351 Y206.507
G1 X184.289 Y206.531
G1 X184.242 Y206.496
G1 X184.208 Y206.494
G1 X184.120 Y206.471
G1 X184.042 Y206.443
G1 X183.981 Y206.430
G1 X183.875 Y206.417
G1 X183.822 Y206.371
G1 X183.726 Y206.304
G1 X183.646 Y206.295
G1 X183.544 Y206.248
G1 X183.457 Y206.206
G1 X183.348 Y206.154
G1 X183.256 Y206.106
G1 X183.123 Y206.032
G1 X183.047 Y205.999
G1 X182.938 Y205.935
G1 X182.834 Y205.887
G1 X182.714 Y205.831
G1 X182.618 Y205.773
G1 X182.541 Y205.688
G1 X182.403 Y205.661
G1 X182.311 Y205.628
G1 X182.192 Y205.551
G1 X182.099 Y205.489
G1 X181.989 Y205.449
; Path 91
G0 Z0
G0 X180.979 Y203.436
G0 Z2.2
G1 F3000
G1 X180.867 Y203.434
G1 X180.776 Y203.446
G1 X180.697 Y203.432
G1 X180.567 Y203.463
G1 X180.446 Y203.470
G1 X180.354 Y203.484
G1 X180.230 Y203.493
G1 X180.140 Y203.507
G1 X180.050 Y203.514
G1 X179.928 Y203.527
G1 X179.797 Y203.523
G1 X179.721 Y203.542
G1 X179.635 Y203.518
G1 X179.522 Y203.549
G1 X179.432 Y203.525
G1 X179.333 Y203.544
G1 X179.243 Y203.555
G1 X179.157 Y203.524
G1 X179.055 Y203.529
G1 X178.998 Y203.487
G1 X178.910 Y203.433
G1 X178.858 Y203.429
G1 X178.812 Y203.362
G1 X178.733 Y203.354
G1 X178.684 Y203.326
G1 X178.623 Y203.264
G1 X178.598 Y203.207
G1 X178.522 Y203.162
G1 X178.485 Y203.112
G1 X178.430 Y203.052
G1 X178.367 Y203.001
G1 X178.342 Y202.936
G1 X178.303 Y202.847
G1 X178.257 Y202.818
G1 X178.228 Y202.785
G1 X178.170 Y202.702
G1 X178.106 Y202.668
G1 X178.079 Y202.590
G1 X178.053 Y202.522
G1 X177.982 Y202.485
; Path 92
G0 Z0
G0 X177.956 Y202.433
G0 Z2.2
G1 F3000
G1 X178.083 Y202.254
G1 X178.155 Y202.127
G1 X178.242 Y201.942
G1 X178.354 Y201.808
G1 X178.465 Y201.616
G1 X178.554 Y201.481
G1 X178.650 Y201.343
G1 X178.753 Y201.152
G1 X178.857 Y200.986
G1 X178.952 Y200.826
G1 X179.063 Y200.669
G1 X179.151 Y200.511
G1 X179.259 Y200.334
G1 X179.351 Y200.212
G1 X179.447 Y200.088
G1 X179.550 Y199.934
G1 X179.630 Y199.787
G1 X179.749 Y199.684
G1 X179.874 Y199.550
G1 X179.949 Y199.468
G1 X180.057 Y199.378
G1 X180.148 Y199.290
G1 X180.273 Y199.206
G1 X180.348 Y199.145
G1 X180.431 Y199.091
G1 X180.547 Y199.028
G1 X180.675 Y198.996
G1 X180.747 Y198.933
G1 X180.843 Y198.890
G1 X180.946 Y198.854
G1 X181.052 Y198.795
G1 X181.146 Y198.784
G1 X181.257 Y198.775
G1 X181.346 Y198.719
G1 X181.456 Y198.663
G1 X181.545 Y198.652
G1 X181.631 Y198.590
G1 X181.745 Y198.576
G1 X181.857 Y198.515
G1 X181.944 Y198.487
; Path 93
G0 Z0
G0 X183.955 Y196.462
G0 Z2.2
G1 F3000
G1 X184.184 Y198.085
G1 X184.351 Y199.681
G1 X184.587 Y201.290
G1 X184.769 Y202.861
G1 X184.979 Y204.473
; Path 94
G0 Z0
G0 X185.463 Y194.478
G0 Z2.2
G1 F3000
G1 X184.963 Y193.978
G1 X184.463 Y194.478
G1 X184.963 Y194.978
G1 X185.463 Y194.478
; Path 95
G0 Z0
G0 X194.049 Y188.334
G0 Z2.2
G1 F3000
G1 X196.000 Y188.429
; Path 96
G0 Z0
G0 X213.938 Y202.424
G0 Z2.2
G1 F3000
G1 X216.009 Y202.499
; Path 97
G0 Z0
G0 X233.951 Y193.387
G0 Z2.2
G1 F3000
G1 X235.970 Y193.453
; Path 98
G0 Z0
G0 X273.878 Y191.430
G0 Z2.2
G1 F3000
G1 X275.868 Y191.423
; Path 99
G0 Z0
G0 X310.030 Y178.509
G0 Z2.2
G1 F3000
G1 X309.141 Y178.447
G1 X308.067 Y178.493
G1 X307.145 Y178.531
G1 X306.261 Y178.594
G1 X305.179 Y178.538
G1 X304.325 Y178.498
G1 X303.315 Y178.590
G1 X302.289 Y178.557
G1 X301.405 Y178.665
G1 X300.398 Y178.675
G1 X299.383 Y178.690
G1 X298.447 Y178.603
G1 X297.534 Y178.636
G1 X296.607 Y178.679
G1 X295.605 Y178.621
G1 X294.619 Y178.712
G1 X293.678 Y178.719
G1 X292.725 Y178.626
G1 X291.824 Y178.634
G1 X290.789 Y178.773
G1 X289.841 Y178.763
G1 X288.839 Y178.779
G1 X287.977 Y178.710
G1 X286.912 Y178.782
G1 X286.078 Y178.780
G1 X285.039 Y178.763
G1 X284.100 Y178.823
G1 X283.075 Y178.778
G1 X282.185 Y178.859
G1 X281.154 Y178.817
G1 X280.259 Y178.780
G1 X279.298 Y178.749
G1 X278.289 Y178.831
G1 X277.279 Y178.790
G1 X276.356 Y178.886
G1 X275.473 Y178.836
G1 X274.409 Y178.886
G1 X273.505 Y178.848
G1 X272.544 Y178.890
G1 X271.615 Y178.921
G1 X270.592 Y178.915
G1 X269.710 Y178.976
G1 X268.725 Y178.937
G1 X267.771 Y178.873
G1 X266.811 Y178.877
G1 X265.750 Y178.915
G1 X264.828 Y179.025
G1 X263.875 Y178.981
G1 X262.942 Y178.970
G1 X261.913 Y178.940
G1 X261.003 Y178.947
G1 X260.049 Y179.017
G1 X259.049 Y179.091
G1 X258.194 Y179.063
G1 X257.093 Y179.105
G1 X256.245 Y179.026
G1 X255.315 Y179.059
G1 X254.283 Y179.119
G1 X253.374 Y179.037
G1 X252.421 Y179.109
G1 X251.393 Y179.181
G1 X250.439 Y179.129
G1 X249.509 Y179.094
G1 X248.483 Y179.184
G1 X247.553 Y179.144
G1 X246.621 Y179.211
G1 X245.624 Y179.188
G1 X244.727 Y179.121
G1 X243.706 Y179.111
G1 X242.714 Y179.166
G1 X241.804 Y179.241
G1 X240.848 Y179.212
G1 X239.867 Y179.215
G1 X238.853 Y179.296
G1 X237.866 Y179.168
G1 X237.016 Y179.209
G1 X236.064 Y179.229
G1 X235.056 Y179.270
G1 X234.042 Y179.268
G1 X233.154 Y179.316
G1 X232.168 Y179.257
G1 X231.193 Y179.352
G1 X230.175 Y179.241
G1 X229.257 Y179.352
G1 X228.309 Y179.259
G1 X227.349 Y179.307
G1 X226.478 Y179.312
G1 X225.433 Y179.381
G1 X224.498 Y179.448
G1 X223.517 Y179.405
G1 X222.556 Y179.396
G1 X221.579 Y179.337
G1 X220.685 Y179.397
G1 X219.712 Y179.482
G1 X218.770 Y179.357
G1 X217.793 Y179.384
G1 X216.724 Y179.433
G1 X215.777 Y179.519
G1 X214.836 Y179.405
G1 X213.890 Y179.447
G1 X212.940 Y179.520
G1 X212.009 Y179.553
G1 X210.994 Y179.508
G1 X210.053 Y179.521
G1 X209.162 Y179.541
G1 X208.186 Y179.593
G1 X207.189 Y179.473
G1 X206.182 Y179.615
G1 X205.184 Y179.538
G1 X204.239 Y179.565
G1 X203.369 Y179.609
G1 X202.313 Y179.631
G1 X201.351 Y179.585
G1 X200.507 Y179.621
G1 X199.482 Y179.563
G1 X198.513 Y179.714
G1 X197.546 Y179.645
G1 X196.558 Y179.598
G1 X195.697 Y179.651
G1 X194.590 Y179.622
G1 X193.757 Y179.645
G1 X192.769 Y179.680
G1 X191.707 Y179.652
G1 X190.846 Y179.757
G1 X189.780 Y179.729
G1 X188.915 Y179.699
G1 X187.884 Y179.696
G1 X186.935 Y179.754
G1 X185.982 Y179.819
G1 X185.036 Y179.769
G1 X184.119 Y179.735
G1 X183.086 Y179.744
G1 X182.109 Y179.860
G1 X181.207 Y179.882
G1 X180.231 Y179.804
G1 X179.258 Y179.802
G1 X178.277 Y179.844
G1 X177.283 Y179.765
G1 X176.379 Y179.774
G1 X175.365 Y179.884
G1 X174.437 Y179.825
G1 X173.433 Y179.828
G1 X172.524 Y179.891
G1 X171.576 Y179.917
G1 X170.547 Y179.937
G1 X169.629 Y179.996
G1 X168.716 Y179.927
G1 X167.745 Y179.920
G1 X166.718 Y179.878
G1 X165.735 Y179.992
G1 X164.793 Y180.008
G1 X163.894 Y180.007
G1 X162.839 Y180.059
G1 X161.871 Y179.941
G1 X160.985 Y179.988
G1 X160.010 Y180.014
G1 X159.074 Y180.026
G1 X158.009 Y180.054
G1 X157.158 Y180.046
G1 X156.127 Y180.080
G1 X155.161 Y180.090
G1 X154.267 Y180.084
G1 X153.345 Y180.153
G1 X152.323 Y180.148
G1 X151.291 Y180.149
G1 X150.387 Y180.176
G1 X149.362 Y180.105
G1 X148.455 Y180.155
G1 X147.495 Y180.136
G1 X146.465 Y180.206
G1 X145.593 Y180.127
G1 X144.550 Y180.173
G1 X143.572 Y180.126
G1 X142.603 Y180.157
G1 X141.666 Y180.144
G1 X140.788 Y180.235
G1 X139.797 Y180.181
G1 X138.880 Y180.141
G1 X137.936 Y180.160
G1 X136.932 Y180.220
G1 X135.882 Y180.187
G1 X134.980 Y180.258
G1 X133.974 Y180.332
G1 X133.021 Y180.336
G1 X132.169 Y180.246
G1 X131.053 Y180.322
G1 X130.122 Y180.312
G1 X129.203 Y180.337
G1 X128.244 Y180.309
G1 X127.345 Y180.274
G1 X126.283 Y180.393
G1 X125.383 Y180.343
G1 X124.373 Y180.307
G1 X123.439 Y180.428
G1 X122.465 Y180.380
G1 X121.446 Y180.318
G1 X120.517 Y180.352
G1 X119.516 Y180.439
G1 X118.580 Y180.458
G1 X117.617 Y180.409
G1 X116.765 Y180.504
G1 X115.802 Y180.516
G1 X114.767 Y180.466
G1 X113.727 Y180.536
G1 X112.858 Y180.442
G1 X111.886 Y180.431
G1 X110.902 Y180.459
G1 X109.952 Y180.502
; Path 100
G0 Z0
G0 X125.887 Y190.503
G0 Z2.2
G1 F3000
G1 X123.906 Y190.560
; Path 101
G0 Z0
G0 X109.947 Y215.390
G0 Z2.2
G1 F3000
G1 X110.869 Y215.432
G1 X111.829 Y215.417
G1 X112.757 Y215.417
G1 X113.737 Y215.498
G1 X114.753 Y215.442
G1 X115.700 Y215.489
G1 X116.611 Y215.434
G1 X117.597 Y215.505
G1 X118.629 Y215.465
G1 X119.552 Y215.477
G1 X120.505 Y215.556
G1 X121.480 Y215.540
G1 X122.454 Y215.528
G1 X123.337 Y215.607
G1 X124.378 Y215.529
G1 X125.273 Y215.573
G1 X126.309 Y215.651
G1 X127.320 Y215.590
G1 X128.219 Y215.620
G1 X129.199 Y215.669
G1 X130.213 Y215.540
G1 X131.111 Y215.572
G1 X132.074 Y215.620
G1 X133.059 Y215.641
G1 X134.051 Y215.587
G1 X134.961 Y215.667
G1 X135.944 Y215.617
G1 X136.965 Y215.761
G1 X137.918 Y215.742
G1 X138.779 Y215.714
G1 X139.751 Y215.777
G1 X140.753 Y215.652
G1 X141.714 Y215.686
G1 X142.710 Y215.720
G1 X143.569 Y215.755
G1 X144.627 Y215.814
G1 X145.558 Y215.736
G1 X146.496 Y215.791
G1 X147.468 Y215.807
G1 X148.492 Y215.861
G1 X149.431 Y215.772
G1 X150.379 Y215.875
G1 X151.350 Y215.848
G1 X152.280 Y215.914
G1 X153.238 Y215.900
G1 X154.269 Y215.925
G1 X155.164 Y215.928
G1 X156.189 Y215.902
G1 X157.160 Y215.850
G1 X158.027 Y215.891
G1 X158.951 Y215.874
G1 X159.975 Y215.947
G1 X160.986 Y215.989
G1 X161.952 Y215.998
G1 X162.913 Y215.989
G1 X163.863 Y216.013
G1 X164.784 Y215.953
G1 X165.687 Y216.023
G1 X166.760 Y215.990
G1 X167.651 Y216.061
G1 X168.617 Y215.992
G1 X169.576 Y216.065
G1 X170.482 Y216.075
G1 X171.449 Y216.030
G1 X172.482 Y216.086
G1 X173.437 Y216.140
G1 X174.423 Y216.146
G1 X175.369 Y216.087
G1 X176.388 Y216.116
G1 X177.233 Y216.186
G1 X178.296 Y216.112
G1 X179.218 Y216.089
G1 X180.232 Y216.121
G1 X181.140 Y216.155
G1 X182.094 Y216.214
G1 X183.007 Y216.261
G1 X183.978 Y216.172
G1 X184.989 Y216.223
G1 X185.928 Y216.223
G1 X186.932 Y216.194
G1 X187.882 Y216.291
G1 X188.877 Y216.277
G1 X189.840 Y216.346
G1 X190.790 Y216.317
G1 X191.790 Y216.364
G1 X192.748 Y216.241
G1 X193.641 Y216.386
G1 X194.531 Y216.391
G1 X195.518 Y216.324
G1 X196.461 Y216.370
G1 X197.496 Y216.357
G1 X198.530 Y216.399
G1 X199.351 Y216.327
G1 X200.416 Y216.317
G1 X201.413 Y216.445
G1 X202.326 Y216.465
G1 X203.302 Y216.364
G1 X204.199 Y216.496
G1 X205.145 Y216.380
G1 X206.222 Y216.464
G1 X207.085 Y216.414
G1 X208.141 Y216.475
G1 X209.006 Y216.544
G1 X210.003 Y216.489
G1 X210.953 Y216.549
G1 X211.899 Y216.541
G1 X212.817 Y216.597
G1 X213.876 Y216.464
G1 X214.852 Y216.478
G1 X215.725 Y216.472
G1 X216.782 Y216.553
G1 X217.649 Y216.590
G1 X218.696 Y216.628
G1 X219.603 Y216.573
G1 X220.597 Y216.588
G1 X221.585 Y216.612
G1 X222.510 Y216.617
G1 X223.504 Y216.699
G1 X224.392 Y216.598
G1 X225.429 Y216.606
G1 X226.294 Y216.599
G1 X227.396 Y216.683
G1 X228.313 Y216.738
G1 X229.199 Y216.708
G1 X230.197 Y216.686
G1 X231.193 Y216.751
G1 X232.204 Y216.688
G1 X233.154 Y216.666
G1 X234.043 Y216.750
G1 X235.016 Y216.742
G1 X236.016 Y216.731
G1 X236.873 Y216.713
G1 X237.902 Y216.819
G1 X238.935 Y216.747
G1 X239.904 Y216.773
G1 X240.827 Y216.811
G1 X241.736 Y216.875
G1 X242.719 Y216.893
G1 X243.662 Y216.818
G1 X244.629 Y216.868
G1 X245.621 Y216.817
G1 X246.518 Y216.908
G1 X247.522 Y216.864
G1 X248.457 Y216.914
G1 X249.496 Y216.946
G1 X250.366 Y216.865
G1 X251.409 Y216.891
G1 X252.352 Y216.918
G1 X253.307 Y216.905
G1 X254.276 Y216.965
G1 X255.198 Y216.915
G1 X256.102 Y216.908
G1 X257.209 Y216.889
G1 X258.127 Y216.974
G1 X259.108 Y216.931
G1 X260.029 Y216.985
G1 X260.954 Y217.013
G1 X261.884 Y216.950
G1 X262.886 Y217.067
G1 X263.836 Y217.062
G1 X264.768 Y216.968
G1 X265.808 Y217.015
G1 X266.718 Y217.005
G1 X267.682 Y217.086
G1 X268.653 Y217.054
G1 X269.572 Y217.087
G1 X270.610 Y217.028
G1 X271.553 Y217.080
G1 X272.535 Y217.104
G1 X273.537 Y217.117
G1 X274.455 Y217.092
G1 X275.445 Y217.126
G1 X276.355 Y217.151
G1 X277.324 Y217.072
G1 X278.318 Y217.228
G1 X279.240 Y217.240
G1 X280.249 Y217.170
G1 X281.166 Y217.237
G1 X282.138 Y217.252
G1 X283.175 Y217.250
G1 X284.028 Y217.223
G1 X285.041 Y217.224
G1 X285.947 Y217.306
G1 X287.033 Y217.289
G1 X287.984 Y217.323
G1 X288.880 Y217.233
G1 X289.777 Y217.285
G1 X290.795 Y217.352
G1 X291.786 Y217.345
G1 X292.701 Y217.335
G1 X293.697 Y217.243
G1 X294.661 Y217.332
G1 X295.659 Y217.270
G1 X296.634 Y217.371
G1 X297.547 Y217.344
G1 X298.484 Y217.362
G1 X299.403 Y217.373
G1 X300.490 Y217.443
G1 X301.439 Y217.390
G1 X302.404 Y217.366
G1 X303.285 Y217.391
G1 X304.309 Y217.361
G1 X305.256 Y217.447
G1 X306.137 Y217.384
G1 X307.185 Y217.393
G1 X308.165 Y217.490
G1 X309.106 Y217.496
G1 X310.053 Y217.465
; Path 102
G0 Z0
G0 X296.015 Y204.467
G0 Z2.2
G1 F3000
G1 X293.968 Y204.415
; Path 103
G0 Z0
G0 X281.059 Y222.527
G0 Z2.2
G1 F3000
G1 X278.962 Y222.478
; Path 104
G0 Z0
G0 X301.036 Y237.556
G0 Z2.2
G1 F3000
G1 X299.003 Y237.485
; Path 105
G0 Z0
G0 X264.050 Y242.340
G0 Z2.2
G1 F3000
G1 X266.064 Y242.494
; Path 106
G0 Z0
G0 X255.837 Y207.433
G0 Z2.2
G1 F3000
G1 X253.987 Y207.359
; Path 107
G0 Z0
G0 X240.884 Y227.411
G0 Z2.2
G1 F3000
G1 X238.944 Y227.367
; Path 108
G0 Z0
G0 X225.881 Y238.511
G0 Z2.2
G1 F3000
G1 X223.870 Y238.403
; Path 109
G0 Z0
G0 X218.907 Y235.931
G0 Z2.2
G1 F3000
G1 X217.066 Y235.101
; Path 110
G0 Z0
G0 X215.904 Y235.950
G0 Z2.2
G1 F3000
G1 X214.111 Y234.984
; Path 111
G0 Z0
G0 X213.995 Y230.801
G0 Z2.2
G1 F3000
G1 X212.093 Y230.142
; Path 112
G0 Z0
G0 X210.908 Y230.823
G0 Z2.2
G1 F3000
G1 X209.114 Y230.015
; Path 113
G0 Z0
G0 X207.017 Y225.133
G0 Z2.2
G1 F3000
G1 X208.980 Y225.620
; Path 114
G0 Z0
G0 X206.008 Y225.869
G0 Z2.2
G1 F3000
G1 X203.979 Y225.322
; Path 115
G0 Z0
G0 X206.088 Y223.442
G0 Z2.2
G1 F3000
G1 X204.116 Y223.377
; Path 116
G0 Z0
G0 X203.958 Y220.602
G0 Z2.2
G1 F3000
G1 X202.020 Y220.337
; Path 117
G0 Z0
G0 X200.912 Y220.539
G0 Z2.2
G1 F3000
G1 X198.865 Y220.221
; Path 118
G0 Z0
G0 X199.992 Y215.477
G0 Z2.2
G1 F3000
G1 X197.941 Y215.420
; Path 119
G0 Z0
G0 X196.895 Y215.542
G0 Z2.2
G1 F3000
G1 X194.899 Y215.421
; Path 120
G0 Z0
G0 X195.740 Y211.017
G0 Z2.2
G1 F3000
G1 X194.096 Y209.866
; Path 121
G0 Z0
G0 X192.715 Y211.156
G0 Z2.2
G1 F3000
G1 X191.157 Y209.894
; Path 122
G0 Z0
G0 X190.980 Y206.472
G0 Z2.2
G1 F3000
G1 X190.849 Y204.484
; Path 123
G0 Z0
G0 X188.981 Y204.455
G0 Z2.2
G1 F3000
G1 X189.991 Y203.957
G1 X190.983 Y203.451
; Path 124
G0 Z0
G0 X190.977 Y203.444
G0 Z2.2
G1 F3000
G1 X190.957 Y203.328
G1 X190.879 Y203.241
G1 X190.845 Y203.121
G1 X190.787 Y203.032
G1 X190.731 Y202.932
G1 X190.699 Y202.818
G1 X190.677 Y202.704
G1 X190.612 Y202.604
G1 X190.578 Y202.512
G1 X190.523 Y202.392
G1 X190.448 Y202.279
G1 X190.430 Y202.184
G1 X190.381 Y202.072
G1 X190.329 Y201.984
G1 X190.272 Y201.914
G1 X190.217 Y201.795
G1 X190.133 Y201.695
G1 X190.093 Y201.620
G1 X190.017 Y201.552
G1 X189.952 Y201.461
G1 X189.892 Y201.419
G1 X189.794 Y201.320
G1 X189.725 Y201.271
G1 X189.620 Y201.196
G1 X189.541 Y201.166
G1 X189.433 Y201.085
G1 X189.310 Y201.055
G1 X189.235 Y200.985
G1 X189.115 Y200.969
G1 X189.030 Y200.893
G1 X188.898 Y200.872
G1 X188.820 Y200.806
G1 X188.719 Y200.742
G1 X188.608 Y200.720
G1 X188.494 Y200.704
G1 X188.398 Y200.634
G1 X188.321 Y200.563
G1 X188.191 Y200.543
G1 X188.082 Y200.467
G1 X187.990 Y200.446
; Path 125
G0 Z0
G0 X187.776 Y204.608
G0 Z2.2
G1 F3000
G1 X188.333 Y206.402
; Path 126
G0 Z0
G0 X186.950 Y207.465
G0 Z2.2
G1 F3000
G1 X186.477 Y206.949
G1 X185.981 Y206.481
; Path 127
G0 Z0
G0 X189.019 Y243.393
G0 Z2.2
G1 F3000
G1 X191.085 Y243.565
G0 Z0
M5
G4 P0.3
G0 X0 Y0
; End