; Generated by Sketch DSL for Machine
; Work area: 420mm x 297mm (A3)
G21
G90
M5
G4 P0.5
G0 F11000
; 143 paths
; Path 1
G0 X133.969 Y95.243
G0 Z2.2
G1 F3000
G1 X135.096 Y96.956
; Path 2
G0 Z0
G0 X140.548 Y94.064
G0 Z2.2
G1 F3000
G1 X141.866 Y92.719
G1 X143.198 Y91.385
G1 X144.507 Y90.070
; Path 3
G0 Z0
G0 X142.540 Y88.061
G0 Z2.2
G1 F3000
G1 X143.871 Y86.761
G1 X145.197 Y85.416
G1 X146.511 Y84.092
; Path 4
G0 Z0
G0 X146.209 Y84.513
G0 Z2.2
G1 F3000
G1 X144.701 Y85.876
; Path 5
G0 Z0
G0 X144.536 Y86.095
G0 Z2.2
G1 F3000
G1 X144.738 Y87.390
G1 X144.992 Y88.642
G1 X145.191 Y89.942
G1 X145.379 Y91.258
G1 X145.577 Y92.614
G1 X145.725 Y93.915
G1 X145.866 Y95.260
G1 X146.061 Y96.582
G1 X146.266 Y97.884
G1 X146.418 Y99.229
G1 X146.637 Y100.502
G1 X146.824 Y101.826
G1 X147.068 Y103.102
G1 X147.310 Y104.342
G1 X147.580 Y105.570
G1 X147.907 Y106.748
G1 X148.288 Y107.857
G1 X148.643 Y109.012
G1 X149.125 Y110.088
G1 X149.549 Y111.106
G1 X150.123 Y112.055
G1 X150.645 Y113.009
G1 X151.279 Y113.899
G1 X151.911 Y114.741
G1 X152.619 Y115.520
G1 X153.317 Y116.333
G1 X154.078 Y117.084
G1 X154.833 Y117.814
G1 X155.630 Y118.528
G1 X156.429 Y119.214
G1 X157.269 Y119.865
G1 X158.075 Y120.564
G1 X158.903 Y121.216
G1 X159.741 Y121.894
G1 X160.550 Y122.568
G1 X161.397 Y123.234
G1 X162.180 Y123.907
G1 X163.013 Y124.614
G1 X163.803 Y125.312
G1 X164.559 Y126.065
; Path 6
G0 Z0
G0 X164.531 Y126.082
G0 Z2.2
G1 F3000
G1 X163.249 Y124.864
G1 X161.915 Y123.698
G1 X160.546 Y122.567
G1 X159.160 Y121.453
G1 X157.774 Y120.339
G1 X156.406 Y119.207
G1 X155.072 Y118.041
G1 X153.790 Y116.823
G1 X152.577 Y115.536
G1 X151.452 Y114.161
G1 X150.430 Y112.683
G1 X149.531 Y111.082
G1 X148.764 Y109.349
G1 X148.119 Y107.494
G1 X147.577 Y105.536
G1 X147.123 Y103.490
G1 X146.738 Y101.375
G1 X146.406 Y99.207
G1 X146.108 Y97.005
G1 X145.827 Y94.786
G1 X145.546 Y92.567
G1 X145.248 Y90.365
G1 X144.915 Y88.198
G1 X144.531 Y86.082
; Path 7
G1 X143.697 Y87.749
G1 X142.864 Y89.416
G1 X142.031 Y91.082
G1 X141.197 Y92.749
G1 X140.364 Y94.416
G1 X139.531 Y96.082
G1 X138.697 Y97.749
G1 X137.864 Y99.416
G1 X137.031 Y101.082
G1 X136.197 Y102.749
G1 X135.364 Y104.416
G1 X134.531 Y106.082
G1 X133.697 Y107.749
G1 X132.864 Y109.416
G1 X132.031 Y111.082
G1 X131.197 Y112.749
G1 X130.364 Y114.416
G1 X129.531 Y116.082
G1 X128.697 Y117.749
G1 X127.864 Y119.416
G1 X127.031 Y121.082
G1 X126.197 Y122.749
G1 X125.364 Y124.416
G1 X124.531 Y126.082
; Path 8
G0 Z0
G0 X124.533 Y126.060
G0 Z2.2
G1 F3000
G1 X125.027 Y125.091
G1 X125.532 Y124.064
G1 X126.012 Y123.095
G1 X126.531 Y122.069
G1 X127.021 Y121.054
G1 X127.530 Y120.075
G1 X128.022 Y119.063
G1 X128.529 Y118.080
G1 X129.022 Y117.082
G1 X129.528 Y116.086
G1 X130.021 Y115.090
G1 X130.527 Y114.091
G1 X131.019 Y113.081
G1 X131.526 Y112.095
G1 X132.034 Y111.124
G1 X132.525 Y110.099
G1 X133.013 Y109.108
G1 X133.524 Y108.102
G1 X134.033 Y107.114
G1 X134.523 Y106.104
G1 X135.021 Y105.094
G1 X135.521 Y104.106
G1 X135.991 Y103.129
G1 X136.519 Y102.106
G1 X137.040 Y101.099
G1 X137.517 Y100.105
G1 X137.991 Y99.078
G1 X138.515 Y98.104
G1 X139.010 Y97.075
G1 X139.513 Y96.102
G1 X140.034 Y95.112
G1 X140.511 Y94.100
G1 X140.999 Y93.092
G1 X141.509 Y92.098
G1 X142.025 Y91.087
G1 X142.507 Y90.096
G1 X142.976 Y89.115
G1 X143.505 Y88.094
G1 X143.990 Y87.103
G1 X144.503 Y86.093
; Path 9
G0 Z0
G0 X144.258 Y86.375
G0 Z2.2
G1 F3000
G1 X142.876 Y87.822
; Path 10
G0 Z0
G0 X148.542 Y94.068
G0 Z2.2
G1 F3000
G1 X147.892 Y95.418
G1 X147.185 Y96.701
G1 X146.527 Y98.056
; Path 11
G0 Z0
G0 X149.530 Y111.069
G0 Z2.2
G1 F3000
G1 X150.508 Y112.591
G1 X151.507 Y114.058
; Path 12
G0 Z0
G0 X146.961 Y117.377
G0 Z2.2
G1 F3000
G1 X148.149 Y118.987
; Path 13
G0 Z0
G0 X144.952 Y117.009
G0 Z2.2
G1 F3000
G1 X143.968 Y115.238
; Path 14
G0 Z0
G0 X143.400 Y114.577
G0 Z2.2
G1 F3000
G1 X141.661 Y113.588
; Path 15
G0 Z0
G0 X142.147 Y113.176
G0 Z2.2
G1 F3000
G1 X143.090 Y114.909
; Path 16
G0 Z0
G0 X139.928 Y111.859
G0 Z2.2
G1 F3000
G1 X138.977 Y110.169
; Path 17
G0 Z0
G0 X140.338 Y110.493
G0 Z2.2
G1 F3000
G1 X138.723 Y111.672
; Path 18
G0 Z0
G0 X136.480 Y115.042
G0 Z2.2
G1 F3000
G1 X136.626 Y117.152
; Path 19
G0 Z0
G0 X135.857 Y116.822
G0 Z2.2
G1 F3000
G1 X137.204 Y115.343
; Path 20
G0 Z0
G0 X138.140 Y117.086
G0 Z2.2
G1 F3000
G1 X138.954 Y118.952
; Path 21
G0 Z0
G0 X140.107 Y119.223
G0 Z2.2
G1 F3000
G1 X141.027 Y120.870
; Path 22
G0 Z0
G0 X114.547 Y161.079
G0 Z2.2
G1 F3000
G1 X116.559 Y161.073
G1 X118.552 Y161.078
G1 X120.531 Y161.100
G1 X122.529 Y161.108
G1 X124.526 Y161.099
G1 X126.550 Y161.101
G1 X128.518 Y161.081
G1 X130.534 Y161.058
G1 X132.551 Y161.062
G1 X134.549 Y161.080
G1 X136.572 Y161.104
G1 X138.561 Y161.066
G1 X140.533 Y161.057
G1 X142.519 Y161.056
G1 X144.554 Y161.108
G1 X146.523 Y161.077
G1 X148.547 Y161.061
G1 X150.560 Y161.063
G1 X152.520 Y161.051
G1 X154.512 Y161.063
G1 X156.566 Y161.103
G1 X158.519 Y161.096
G1 X160.536 Y161.084
G1 X162.559 Y161.054
G1 X164.518 Y161.102
G1 X166.558 Y161.065
G1 X168.545 Y161.056
G1 X170.566 Y161.088
G1 X172.545 Y161.057
G1 X174.534 Y161.074
G1 X176.556 Y161.087
G1 X178.533 Y161.052
G1 X180.559 Y161.076
G1 X182.537 Y161.080
G1 X184.546 Y161.087
G1 X186.524 Y161.064
G1 X188.519 Y161.104
G1 X190.534 Y161.055
G1 X192.544 Y161.048
G1 X194.507 Y161.055
G1 X196.533 Y161.062
G1 X198.514 Y161.068
G1 X200.528 Y161.048
G1 X202.558 Y161.064
G1 X204.518 Y161.103
G1 X206.512 Y161.057
G1 X208.555 Y161.107
G1 X210.526 Y161.055
G1 X212.507 Y161.101
G1 X214.529 Y161.059
G1 X216.529 Y161.081
G1 X218.514 Y161.093
G1 X220.531 Y161.071
G1 X222.512 Y161.061
G1 X224.549 Y161.102
G1 X226.545 Y161.070
G1 X228.558 Y161.079
G1 X230.520 Y161.056
G1 X232.519 Y161.086
G1 X234.534 Y161.092
G1 X236.546 Y161.058
G1 X238.519 Y161.101
G1 X240.500 Y161.072
G1 X242.530 Y161.070
G1 X244.548 Y161.051
G1 X246.507 Y161.054
G1 X248.515 Y161.105
G1 X250.526 Y161.103
G1 X252.500 Y161.085
G1 X254.550 Y161.081
G1 X256.502 Y161.048
G1 X258.524 Y161.065
G1 X260.531 Y161.049
G1 X262.536 Y161.077
G1 X264.507 Y161.104
G1 X266.524 Y161.069
G1 X268.532 Y161.075
G1 X270.514 Y161.101
G1 X272.533 Y161.082
G1 X274.532 Y161.087
G1 X276.539 Y161.086
G1 X278.533 Y161.090
G1 X280.539 Y161.088
G1 X282.529 Y161.063
G1 X284.501 Y161.064
G1 X286.499 Y161.048
G1 X288.552 Y161.093
G1 X290.525 Y161.068
G1 X292.510 Y161.071
G1 X294.518 Y161.088
G1 X296.523 Y161.085
G1 X298.541 Y161.054
G1 X300.500 Y161.052
G1 X302.549 Y161.088
G1 X304.544 Y161.076
G1 X306.510 Y161.099
G1 X308.496 Y161.051
G1 X310.508 Y161.055
G1 X312.535 Y161.099
G1 X314.520 Y161.075
; Path 23
G0 Z0
G0 X304.538 Y164.098
G0 Z2.2
G1 F3000
G1 X304.054 Y164.020
G1 X303.536 Y163.999
G1 X303.044 Y163.944
G1 X302.533 Y163.901
G1 X302.028 Y163.822
G1 X301.530 Y163.803
G1 X301.003 Y163.727
G1 X300.527 Y163.704
G1 X300.035 Y163.654
G1 X299.524 Y163.606
G1 X299.032 Y163.558
G1 X298.521 Y163.508
G1 X298.017 Y163.473
G1 X297.518 Y163.409
G1 X297.040 Y163.370
G1 X296.516 Y163.310
G1 X296.004 Y163.254
G1 X295.514 Y163.211
G1 X295.016 Y163.173
G1 X294.512 Y163.111
G1 X294.004 Y163.083
G1 X293.511 Y163.011
G1 X293.017 Y162.986
G1 X292.510 Y162.911
G1 X292.006 Y162.855
G1 X291.510 Y162.810
G1 X290.984 Y162.774
G1 X290.509 Y162.709
G1 X290.004 Y162.631
G1 X289.510 Y162.608
G1 X288.999 Y162.554
G1 X288.510 Y162.506
G1 X287.980 Y162.432
G1 X287.510 Y162.405
G1 X286.982 Y162.379
G1 X286.510 Y162.304
G1 X286.028 Y162.274
G1 X285.510 Y162.202
G1 X284.983 Y162.126
G1 X284.510 Y162.101
; Path 24
G0 Z0
G0 X295.547 Y176.116
G0 Z2.2
G1 F3000
G1 X293.575 Y176.000
; Path 25
G0 Z0
G0 X280.531 Y178.134
G0 Z2.2
G1 F3000
G1 X278.486 Y177.984
; Path 26
G0 Z0
G0 X279.557 Y160.500
G0 Z2.2
G1 F3000
G1 X279.160 Y160.495
G1 X278.749 Y160.528
G1 X278.366 Y160.564
G1 X277.934 Y160.555
G1 X277.499 Y160.552
G1 X277.115 Y160.582
G1 X276.681 Y160.586
G1 X276.295 Y160.609
G1 X275.878 Y160.625
G1 X275.477 Y160.636
G1 X275.075 Y160.646
G1 X274.664 Y160.664
G1 X274.236 Y160.696
G1 X273.859 Y160.691
G1 X273.448 Y160.731
G1 X273.066 Y160.720
G1 X272.697 Y160.716
G1 X272.286 Y160.749
G1 X271.923 Y160.769
G1 X271.524 Y160.779
G1 X271.161 Y160.789
G1 X270.782 Y160.810
G1 X270.400 Y160.838
G1 X270.057 Y160.842
G1 X269.728 Y160.858
G1 X269.346 Y160.874
G1 X269.025 Y160.875
G1 X268.646 Y160.908
G1 X268.298 Y160.911
G1 X267.954 Y160.941
G1 X267.598 Y160.957
G1 X267.268 Y160.975
G1 X266.916 Y161.014
G1 X266.583 Y161.009
G1 X266.221 Y161.012
G1 X265.898 Y161.043
G1 X265.533 Y161.087
G1 X265.208 Y161.077
G1 X264.864 Y161.114
G1 X264.511 Y161.110
; Path 27
G0 Z0
G0 X260.528 Y170.102
G0 Z2.2
G1 F3000
G1 X258.511 Y170.015
; Path 28
G0 Z0
G0 X250.452 Y177.404
G0 Z2.2
G1 F3000
G1 X248.570 Y176.802
; Path 29
G0 Z0
G0 X237.555 Y179.061
G0 Z2.2
G1 F3000
G1 X236.559 Y177.379
G1 X235.493 Y175.751
G1 X234.504 Y174.070
; Path 30
G0 Z0
G0 X233.551 Y174.081
G0 Z2.2
G1 F3000
G1 X235.578 Y174.069
; Path 31
G0 Z0
G0 X235.028 Y174.954
G0 Z2.2
G1 F3000
G1 X234.035 Y173.218
; Path 32
G0 Z0
G0 X224.555 Y160.273
G0 Z2.2
G1 F3000
G1 X224.026 Y160.271
G1 X223.550 Y160.312
G1 X223.034 Y160.313
G1 X222.544 Y160.350
G1 X222.051 Y160.358
G1 X221.538 Y160.388
G1 X221.060 Y160.416
G1 X220.532 Y160.426
G1 X220.004 Y160.464
G1 X219.526 Y160.464
G1 X219.034 Y160.455
G1 X218.520 Y160.503
G1 X218.045 Y160.528
G1 X217.515 Y160.541
G1 X217.022 Y160.560
G1 X216.511 Y160.580
G1 X216.037 Y160.582
G1 X215.507 Y160.618
G1 X215.023 Y160.616
G1 X214.505 Y160.658
G1 X214.021 Y160.685
G1 X213.504 Y160.697
G1 X213.007 Y160.689
G1 X212.504 Y160.737
G1 X212.021 Y160.755
G1 X211.505 Y160.777
G1 X210.987 Y160.823
G1 X210.507 Y160.817
G1 X210.038 Y160.823
G1 X209.510 Y160.857
G1 X209.031 Y160.858
G1 X208.512 Y160.897
G1 X208.023 Y160.894
G1 X207.515 Y160.937
G1 X207.000 Y160.964
G1 X206.518 Y160.978
G1 X206.004 Y161.017
G1 X205.521 Y161.018
G1 X205.047 Y161.010
G1 X204.523 Y161.058
; Path 33
G0 Z0
G0 X213.524 Y171.996
G0 Z2.2
G1 F3000
G1 X215.509 Y172.203
; Path 34
G0 Z0
G0 X200.500 Y175.270
G0 Z2.2
G1 F3000
G1 X198.572 Y174.917
; Path 35
G0 Z0
G0 X201.096 Y187.003
G0 Z2.2
G1 F3000
G1 X200.596 Y187.503
G1 X200.096 Y187.003
G1 X200.596 Y186.503
G1 X201.096 Y187.003
; Path 36
G0 Z0
G0 X202.077 Y189.070
G0 Z2.2
G1 F3000
G1 X201.577 Y188.570
G1 X201.077 Y189.070
G1 X201.577 Y189.570
G1 X202.077 Y189.070
; Path 37
G0 Z0
G0 X204.526 Y190.117
G0 Z2.2
G1 F3000
G1 X204.181 Y189.390
G1 X203.878 Y188.813
G1 X203.584 Y188.105
; Path 38
G0 Z0
G0 X202.511 Y186.162
G0 Z2.2
G1 F3000
G1 X201.621 Y186.481
G1 X200.801 Y186.832
G1 X200.019 Y187.025
G1 X199.086 Y187.416
G1 X198.328 Y187.767
G1 X197.466 Y188.015
; Path 39
G0 Z0
G0 X197.584 Y188.136
G0 Z2.2
G1 F3000
G1 X198.466 Y187.861
G1 X199.164 Y187.381
G1 X200.125 Y187.136
G1 X200.820 Y186.708
G1 X201.680 Y186.453
G1 X202.512 Y186.080
; Path 40
G0 Z0
G0 X202.544 Y186.122
G0 Z2.2
G1 F3000
G1 X201.801 Y186.734
G1 X201.177 Y187.325
G1 X200.410 Y187.817
G1 X199.726 Y188.496
G1 X198.961 Y189.063
G1 X198.368 Y189.605
G1 X197.594 Y190.137
; Path 41
G0 Z0
G0 X197.473 Y190.156
G0 Z2.2
G1 F3000
G1 X197.187 Y189.457
G1 X196.772 Y188.767
G1 X196.469 Y188.032
; Path 42
G0 Z0
G0 X199.499 Y191.013
G0 Z2.2
G1 F3000
G1 X198.878 Y190.214
G1 X198.380 Y189.362
G1 X197.850 Y188.563
G1 X197.213 Y187.772
G1 X196.744 Y186.923
G1 X196.074 Y186.166
G1 X195.502 Y185.363
G1 X195.026 Y184.555
G1 X194.346 Y183.726
G1 X193.892 Y182.878
G1 X193.302 Y182.088
G1 X192.721 Y181.392
G1 X192.100 Y180.593
G1 X191.549 Y179.659
G1 X191.076 Y178.841
G1 X190.483 Y178.159
G1 X189.972 Y177.291
G1 X189.363 Y176.515
G1 X188.722 Y175.714
G1 X188.220 Y174.808
G1 X187.684 Y174.147
G1 X187.030 Y173.335
G1 X186.517 Y172.469
G1 X186.008 Y171.609
G1 X185.449 Y170.908
G1 X184.829 Y169.953
G1 X184.272 Y169.264
G1 X183.755 Y168.305
G1 X183.081 Y167.488
G1 X182.577 Y166.662
G1 X181.971 Y165.990
G1 X181.426 Y165.091
G1 X180.877 Y164.282
G1 X180.302 Y163.389
G1 X179.705 Y162.684
G1 X179.092 Y161.765
G1 X178.645 Y160.935
G1 X178.036 Y160.185
G1 X177.511 Y159.337
G1 X176.834 Y158.561
G1 X176.385 Y157.771
G1 X175.736 Y156.903
G1 X175.193 Y156.028
G1 X174.641 Y155.337
G1 X174.072 Y154.395
G1 X173.439 Y153.572
G1 X172.942 Y152.774
G1 X172.277 Y152.026
G1 X171.776 Y151.180
G1 X171.177 Y150.313
G1 X170.595 Y149.659
G1 X170.069 Y148.794
G1 X169.495 Y147.930
G1 X169.003 Y147.175
G1 X168.395 Y146.439
G1 X167.838 Y145.660
G1 X167.428 Y144.790
G1 X166.875 Y143.977
G1 X166.266 Y143.209
G1 X165.773 Y142.328
G1 X165.101 Y141.547
G1 X164.654 Y140.842
G1 X163.974 Y139.997
G1 X163.542 Y139.230
G1 X163.020 Y138.354
G1 X162.472 Y137.524
G1 X161.800 Y136.821
G1 X161.347 Y135.983
G1 X160.711 Y135.174
G1 X160.260 Y134.383
G1 X159.567 Y133.571
G1 X159.077 Y132.869
G1 X158.596 Y131.965
G1 X158.002 Y131.184
G1 X157.391 Y130.374
G1 X156.948 Y129.594
G1 X156.332 Y128.794
G1 X155.765 Y128.044
G1 X155.187 Y127.144
G1 X154.681 Y126.349
G1 X154.140 Y125.602
G1 X153.568 Y124.730
G1 X152.955 Y124.016
G1 X152.495 Y123.166
G1 X151.826 Y122.348
G1 X151.280 Y121.593
G1 X150.813 Y120.735
G1 X150.162 Y119.878
G1 X149.555 Y119.132
G1 X149.043 Y118.203
G1 X148.485 Y117.466
G1 X147.924 Y116.657
G1 X147.312 Y115.799
G1 X146.822 Y115.022
G1 X146.238 Y114.239
G1 X145.791 Y113.350
G1 X145.187 Y112.678
G1 X144.617 Y111.780
G1 X144.053 Y110.925
G1 X143.462 Y110.181
G1 X142.957 Y109.359
G1 X142.357 Y108.576
G1 X141.837 Y107.766
G1 X141.239 Y106.957
G1 X140.698 Y106.148
G1 X140.085 Y105.250
G1 X139.500 Y104.424
G1 X138.921 Y103.746
G1 X138.367 Y102.856
G1 X137.739 Y102.008
G1 X137.200 Y101.177
G1 X136.610 Y100.347
G1 X136.144 Y99.651
G1 X135.579 Y98.770
G1 X135.007 Y98.011
G1 X134.470 Y97.098
G1 X133.762 Y96.249
G1 X133.334 Y95.427
G1 X132.714 Y94.760
G1 X132.038 Y93.888
G1 X131.498 Y93.096
G1 X130.897 Y92.269
G1 X130.473 Y91.445
G1 X129.780 Y90.584
G1 X129.300 Y89.784
G1 X128.747 Y88.981
G1 X128.192 Y88.055
G1 X127.553 Y87.315
G1 X127.063 Y86.483
G1 X126.445 Y85.739
G1 X125.890 Y84.937
G1 X125.290 Y84.222
G1 X124.812 Y83.354
G1 X124.265 Y82.529
G1 X123.596 Y81.790
G1 X123.034 Y81.059
G1 X122.459 Y80.284
G1 X121.932 Y79.443
G1 X121.351 Y78.687
G1 X120.833 Y77.789
G1 X120.238 Y77.080
G1 X119.680 Y76.263
G1 X119.195 Y75.474
G1 X118.627 Y74.617
G1 X117.970 Y73.871
G1 X117.472 Y73.073
G1 X116.904 Y72.264
G1 X116.328 Y71.515
G1 X115.721 Y70.713
G1 X115.177 Y70.005
G1 X114.538 Y69.067
G1 X113.880 Y68.305
G1 X113.330 Y67.582
G1 X112.794 Y66.803
G1 X112.112 Y65.972
G1 X111.641 Y65.187
G1 X110.919 Y64.355
G1 X110.404 Y63.520
G1 X109.779 Y62.855
G1 X109.244 Y61.956
G1 X108.619 Y61.203
G1 X107.932 Y60.583
G1 X107.440 Y59.947
G1 X106.764 Y59.279
G1 X106.112 Y58.671
G1 X105.480 Y58.027
G1 X105.862 Y58.878
G1 X106.115 Y59.670
G1 X106.560 Y60.614
G1 X106.954 Y61.400
G1 X107.241 Y62.261
G1 X107.614 Y63.083
G1 X108.104 Y64.034
G1 X108.603 Y64.750
G1 X108.993 Y65.618
G1 X109.510 Y66.525
G1 X109.959 Y67.479
G1 X110.517 Y68.367
G1 X110.908 Y69.168
G1 X111.445 Y70.115
G1 X111.950 Y70.909
G1 X112.455 Y71.861
G1 X112.935 Y72.699
G1 X113.354 Y73.586
G1 X113.819 Y74.464
G1 X114.319 Y75.275
G1 X114.774 Y76.176
G1 X115.316 Y76.900
G1 X115.700 Y77.856
G1 X116.228 Y78.581
G1 X116.795 Y79.445
G1 X117.223 Y80.406
G1 X117.669 Y81.231
G1 X118.143 Y82.049
G1 X118.765 Y82.814
G1 X119.264 Y83.646
G1 X119.655 Y84.530
G1 X120.203 Y85.316
G1 X120.617 Y86.235
G1 X121.132 Y86.992
G1 X121.543 Y87.891
G1 X122.093 Y88.762
G1 X122.610 Y89.615
G1 X123.053 Y90.400
G1 X123.500 Y91.260
G1 X124.028 Y92.178
G1 X124.539 Y92.955
G1 X125.097 Y93.854
G1 X125.632 Y94.732
G1 X126.028 Y95.556
G1 X126.558 Y96.476
G1 X126.999 Y97.268
G1 X127.533 Y98.137
G1 X128.046 Y98.940
G1 X128.655 Y99.912
G1 X129.076 Y100.728
G1 X129.541 Y101.492
G1 X130.097 Y102.370
G1 X130.664 Y103.347
G1 X131.054 Y104.111
G1 X131.692 Y104.980
G1 X132.118 Y105.818
G1 X132.672 Y106.653
G1 X133.211 Y107.664
G1 X133.742 Y108.469
G1 X134.203 Y109.276
G1 X134.743 Y110.248
G1 X135.225 Y111.057
G1 X135.693 Y111.880
G1 X136.222 Y112.743
G1 X136.731 Y113.541
G1 X137.220 Y114.477
G1 X137.651 Y115.276
G1 X138.174 Y116.122
G1 X138.653 Y117.001
G1 X139.312 Y117.851
G1 X139.750 Y118.762
G1 X140.231 Y119.580
G1 X140.787 Y120.436
G1 X141.225 Y121.222
G1 X141.778 Y122.047
G1 X142.270 Y123.009
G1 X142.730 Y123.792
G1 X143.279 Y124.647
G1 X143.835 Y125.534
G1 X144.303 Y126.400
G1 X144.746 Y127.147
G1 X145.232 Y127.958
G1 X145.751 Y128.885
G1 X146.282 Y129.786
G1 X146.749 Y130.651
G1 X147.333 Y131.480
G1 X147.723 Y132.195
G1 X148.322 Y133.136
G1 X148.752 Y133.960
G1 X149.323 Y134.780
G1 X149.809 Y135.650
G1 X150.278 Y136.488
G1 X150.766 Y137.387
G1 X151.308 Y138.195
G1 X151.805 Y139.080
G1 X152.327 Y139.931
G1 X152.759 Y140.706
G1 X153.321 Y141.470
G1 X153.861 Y142.459
G1 X154.360 Y143.210
G1 X154.742 Y144.124
G1 X155.223 Y144.957
G1 X155.737 Y145.781
G1 X156.265 Y146.550
G1 X156.786 Y147.401
G1 X157.316 Y148.221
G1 X157.744 Y149.127
G1 X158.282 Y149.982
G1 X158.744 Y150.740
G1 X159.334 Y151.628
G1 X159.748 Y152.462
G1 X160.336 Y153.242
G1 X160.694 Y154.066
G1 X161.237 Y154.934
G1 X161.825 Y155.773
G1 X162.296 Y156.638
G1 X162.768 Y157.489
G1 X163.201 Y158.339
G1 X163.789 Y159.145
G1 X164.181 Y159.927
G1 X164.790 Y160.739
G1 X165.183 Y161.548
G1 X165.747 Y162.461
G1 X166.334 Y163.331
G1 X166.804 Y164.216
G1 X167.246 Y165.105
G1 X167.806 Y165.925
G1 X168.297 Y166.709
G1 X168.839 Y167.626
G1 X169.276 Y168.435
G1 X169.807 Y169.271
G1 X170.388 Y170.165
G1 X170.814 Y171.053
G1 X171.298 Y171.970
G1 X171.808 Y172.820
G1 X172.401 Y173.687
G1 X172.934 Y174.474
G1 X173.389 Y175.291
G1 X173.835 Y176.155
G1 X174.455 Y177.088
G1 X174.912 Y177.845
G1 X175.461 Y178.716
G1 X175.996 Y179.683
G1 X176.363 Y180.437
G1 X176.943 Y181.278
G1 X177.473 Y182.131
G1 X177.910 Y183.023
G1 X178.409 Y183.954
G1 X178.913 Y184.796
G1 X179.483 Y185.630
G1 X179.968 Y186.518
G1 X180.403 Y187.369
G1 X181.035 Y188.202
G1 X181.531 Y188.977
G1 X182.030 Y189.907
G1 X182.428 Y190.802
G1 X182.918 Y191.518
G1 X183.496 Y192.430
G1 X184.041 Y193.212
G1 X184.546 Y194.189
G1 X184.961 Y194.968
G1 X185.503 Y195.904
G1 X185.905 Y196.755
G1 X186.516 Y197.622
G1 X186.981 Y198.426
G1 X187.402 Y199.235
G1 X187.930 Y200.068
G1 X188.480 Y201.019
G1 X188.918 Y201.772
G1 X189.427 Y202.683
G1 X189.955 Y203.520
G1 X190.444 Y204.430
G1 X190.889 Y205.222
G1 X191.461 Y206.054
; Path 43
G0 Z0
G0 X191.452 Y206.147
G0 Z2.2
G1 F3000
G1 X190.877 Y205.384
G1 X190.437 Y204.568
G1 X189.786 Y203.737
G1 X189.344 Y202.790
G1 X188.779 Y202.094
G1 X188.272 Y201.268
G1 X187.799 Y200.334
G1 X187.144 Y199.578
G1 X186.646 Y198.675
G1 X186.118 Y197.955
G1 X185.554 Y197.025
G1 X185.129 Y196.177
G1 X184.467 Y195.457
G1 X183.965 Y194.587
G1 X183.522 Y193.838
G1 X182.879 Y192.987
G1 X182.412 Y192.059
G1 X181.905 Y191.283
G1 X181.279 Y190.505
G1 X180.851 Y189.691
G1 X180.313 Y188.896
G1 X179.752 Y188.006
G1 X179.209 Y187.107
G1 X178.701 Y186.363
G1 X178.167 Y185.429
G1 X177.640 Y184.611
G1 X177.084 Y183.850
G1 X176.480 Y182.947
G1 X175.949 Y182.130
G1 X175.497 Y181.404
G1 X174.996 Y180.469
G1 X174.380 Y179.622
G1 X173.797 Y178.801
G1 X173.355 Y178.037
G1 X172.732 Y177.134
G1 X172.260 Y176.322
G1 X171.741 Y175.549
G1 X171.191 Y174.685
G1 X170.572 Y173.848
G1 X170.053 Y173.013
G1 X169.592 Y172.210
G1 X168.964 Y171.422
G1 X168.453 Y170.486
G1 X167.905 Y169.657
G1 X167.467 Y168.822
G1 X166.810 Y167.957
G1 X166.332 Y167.179
G1 X165.828 Y166.328
G1 X165.302 Y165.533
G1 X164.699 Y164.817
G1 X164.236 Y163.939
G1 X163.687 Y163.051
G1 X163.194 Y162.283
G1 X162.599 Y161.471
G1 X162.104 Y160.723
G1 X161.709 Y159.877
G1 X161.187 Y159.083
G1 X160.648 Y158.320
G1 X160.139 Y157.408
G1 X159.485 Y156.680
G1 X158.970 Y155.810
G1 X158.537 Y155.083
G1 X157.920 Y154.235
G1 X157.426 Y153.447
G1 X156.858 Y152.596
G1 X156.410 Y151.718
G1 X155.955 Y150.949
G1 X155.400 Y150.104
G1 X154.867 Y149.347
G1 X154.301 Y148.462
G1 X153.730 Y147.684
G1 X153.318 Y146.849
G1 X152.826 Y146.045
G1 X152.226 Y145.276
G1 X151.658 Y144.520
G1 X151.123 Y143.619
G1 X150.633 Y142.855
G1 X150.180 Y141.929
G1 X149.656 Y141.157
G1 X149.056 Y140.266
G1 X148.582 Y139.506
G1 X147.921 Y138.764
G1 X147.502 Y137.822
G1 X146.895 Y136.985
G1 X146.456 Y136.256
G1 X145.935 Y135.419
G1 X145.368 Y134.655
G1 X144.871 Y133.742
G1 X144.300 Y132.982
G1 X143.746 Y132.173
G1 X143.218 Y131.351
G1 X142.750 Y130.486
G1 X142.089 Y129.598
G1 X141.662 Y128.806
G1 X141.180 Y128.030
G1 X140.613 Y127.252
G1 X140.069 Y126.351
G1 X139.530 Y125.545
G1 X139.063 Y124.792
G1 X138.462 Y123.911
G1 X137.873 Y123.009
G1 X137.336 Y122.173
G1 X136.769 Y121.330
G1 X136.270 Y120.595
G1 X135.762 Y119.750
G1 X135.220 Y118.871
G1 X134.765 Y118.125
G1 X134.135 Y117.153
G1 X133.588 Y116.329
G1 X133.131 Y115.596
G1 X132.515 Y114.662
G1 X132.020 Y113.904
G1 X131.443 Y113.121
G1 X130.966 Y112.232
G1 X130.461 Y111.414
G1 X129.904 Y110.571
G1 X129.321 Y109.635
G1 X128.705 Y108.839
G1 X128.153 Y107.991
G1 X127.662 Y107.240
G1 X127.206 Y106.405
G1 X126.599 Y105.498
G1 X126.075 Y104.695
G1 X125.608 Y103.900
G1 X125.011 Y103.119
G1 X124.543 Y102.255
G1 X123.949 Y101.363
G1 X123.523 Y100.626
G1 X122.900 Y99.798
G1 X122.409 Y99.056
G1 X121.859 Y98.142
G1 X121.393 Y97.346
G1 X120.746 Y96.530
G1 X120.336 Y95.703
G1 X119.838 Y94.856
G1 X119.320 Y94.135
G1 X118.778 Y93.335
G1 X118.163 Y92.566
G1 X117.706 Y91.646
G1 X117.208 Y90.888
G1 X116.543 Y90.041
G1 X116.093 Y89.242
G1 X115.578 Y88.512
G1 X115.085 Y87.702
G1 X114.533 Y86.965
G1 X114.124 Y86.093
G1 X113.508 Y85.321
G1 X113.153 Y84.538
G1 X112.503 Y83.799
G1 X112.080 Y83.063
G1 X111.505 Y82.271
G1 X111.083 Y81.476
G1 X110.483 Y80.680
G1 X110.128 Y79.891
G1 X109.550 Y79.162
G1 X109.021 Y78.319
G1 X108.581 Y77.671
G1 X107.954 Y76.766
G1 X107.476 Y76.069
G1 X107.965 Y76.838
G1 X108.477 Y77.652
G1 X108.999 Y78.580
G1 X109.453 Y79.374
G1 X110.058 Y80.237
G1 X110.559 Y81.038
G1 X111.055 Y81.880
G1 X111.550 Y82.558
G1 X112.089 Y83.433
G1 X112.642 Y84.165
G1 X113.083 Y84.975
G1 X113.581 Y85.804
G1 X114.057 Y86.565
G1 X114.659 Y87.451
G1 X115.063 Y88.210
G1 X115.586 Y89.063
G1 X116.038 Y89.851
G1 X116.673 Y90.642
G1 X117.064 Y91.339
G1 X117.542 Y92.255
G1 X118.111 Y92.993
G1 X118.701 Y93.812
G1 X119.122 Y94.721
G1 X119.748 Y95.526
G1 X120.271 Y96.305
G1 X120.699 Y97.172
G1 X121.231 Y97.933
G1 X121.790 Y98.723
G1 X122.336 Y99.582
G1 X122.782 Y100.375
G1 X123.360 Y101.290
G1 X123.946 Y102.012
G1 X124.430 Y102.847
G1 X124.858 Y103.727
G1 X125.384 Y104.501
G1 X125.997 Y105.439
G1 X126.445 Y106.246
G1 X127.003 Y106.968
G1 X127.572 Y107.826
G1 X128.102 Y108.617
G1 X128.649 Y109.455
G1 X129.101 Y110.322
G1 X129.669 Y111.185
G1 X130.157 Y111.935
G1 X130.774 Y112.829
G1 X131.288 Y113.626
G1 X131.737 Y114.585
G1 X132.334 Y115.332
G1 X132.806 Y116.246
G1 X133.451 Y117.146
G1 X133.853 Y117.877
G1 X134.439 Y118.771
G1 X134.977 Y119.547
G1 X135.526 Y120.481
G1 X136.005 Y121.299
G1 X136.620 Y122.190
G1 X137.107 Y123.010
G1 X137.729 Y123.807
G1 X138.169 Y124.651
G1 X138.691 Y125.448
G1 X139.239 Y126.355
G1 X139.833 Y127.236
G1 X140.390 Y128.082
G1 X140.908 Y128.839
G1 X141.358 Y129.682
G1 X141.975 Y130.599
G1 X142.498 Y131.413
G1 X143.054 Y132.196
G1 X143.519 Y133.065
G1 X144.128 Y133.879
G1 X144.652 Y134.742
G1 X145.193 Y135.635
G1 X145.596 Y136.404
G1 X146.166 Y137.232
G1 X146.767 Y138.090
G1 X147.282 Y138.829
G1 X147.773 Y139.729
G1 X148.299 Y140.480
G1 X148.793 Y141.412
G1 X149.367 Y142.260
G1 X149.866 Y143.106
G1 X150.338 Y143.879
G1 X150.930 Y144.666
G1 X151.524 Y145.596
G1 X152.063 Y146.400
G1 X152.466 Y147.257
G1 X152.999 Y148.022
G1 X153.635 Y148.888
G1 X154.087 Y149.730
G1 X154.605 Y150.554
G1 X155.177 Y151.326
G1 X155.658 Y152.236
G1 X156.226 Y153.063
G1 X156.722 Y153.746
G1 X157.270 Y154.654
G1 X157.763 Y155.484
G1 X158.336 Y156.289
G1 X158.829 Y157.084
G1 X159.396 Y157.937
G1 X159.856 Y158.738
G1 X160.397 Y159.516
G1 X160.842 Y160.404
G1 X161.406 Y161.200
G1 X161.918 Y162.062
G1 X162.438 Y162.809
G1 X163.011 Y163.649
G1 X163.454 Y164.431
G1 X164.006 Y165.354
G1 X164.538 Y166.188
G1 X165.019 Y166.900
G1 X165.573 Y167.793
G1 X166.172 Y168.549
G1 X166.675 Y169.421
G1 X167.240 Y170.165
G1 X167.617 Y171.014
G1 X168.196 Y171.849
G1 X168.757 Y172.729
G1 X169.271 Y173.498
G1 X169.799 Y174.341
G1 X170.340 Y175.143
G1 X170.780 Y175.945
G1 X171.393 Y176.856
G1 X171.837 Y177.654
G1 X172.386 Y178.432
G1 X172.878 Y179.327
G1 X173.477 Y180.086
G1 X173.982 Y180.987
G1 X174.511 Y181.788
G1 X175.064 Y182.713
G1 X175.577 Y183.545
G1 X176.166 Y184.331
G1 X176.739 Y185.144
G1 X177.266 Y185.968
G1 X177.730 Y186.890
G1 X178.197 Y187.635
G1 X178.836 Y188.503
G1 X179.322 Y189.381
G1 X179.929 Y190.148
G1 X180.475 Y191.020
G1 X180.961 Y191.934
G1 X181.461 Y192.719
G1 X181.959 Y193.592
G1 X182.570 Y194.473
G1 X183.149 Y195.268
G1 X183.544 Y196.035
G1 X184.175 Y196.892
G1 X184.635 Y197.734
G1 X185.243 Y198.686
G1 X185.782 Y199.459
G1 X186.291 Y200.286
G1 X186.814 Y201.136
G1 X187.323 Y201.955
G1 X187.907 Y202.854
G1 X188.352 Y203.660
G1 X188.976 Y204.467
G1 X189.412 Y205.230
G1 X190.030 Y206.080
G1 X190.545 Y206.910
G1 X190.978 Y207.886
G1 X191.551 Y208.674
G1 X192.097 Y209.526
G1 X192.604 Y210.376
G1 X193.230 Y211.150
G1 X193.666 Y211.934
G1 X194.295 Y212.828
G1 X194.710 Y213.588
G1 X195.255 Y214.547
G1 X195.850 Y215.260
G1 X196.365 Y216.205
G1 X196.944 Y217.029
G1 X197.438 Y217.745
G1 X197.865 Y218.599
G1 X198.535 Y219.515
G1 X198.920 Y220.341
G1 X199.523 Y221.152
; Path 44
G0 Z0
G0 X199.475 Y221.060
G0 Z2.2
G1 F3000
G1 X199.066 Y220.125
G1 X198.598 Y219.389
G1 X198.088 Y218.482
G1 X197.627 Y217.652
G1 X197.154 Y216.723
G1 X196.650 Y215.877
G1 X196.189 Y214.920
G1 X195.675 Y214.089
G1 X195.178 Y213.190
G1 X194.696 Y212.419
G1 X194.273 Y211.512
G1 X193.809 Y210.594
G1 X193.391 Y209.700
G1 X192.868 Y208.809
G1 X192.436 Y207.972
G1 X191.863 Y207.187
G1 X191.508 Y206.257
G1 X190.979 Y205.369
G1 X190.523 Y204.568
G1 X190.027 Y203.702
G1 X189.491 Y202.744
G1 X189.015 Y201.929
G1 X188.618 Y201.049
G1 X188.119 Y200.187
G1 X187.643 Y199.252
G1 X187.160 Y198.458
G1 X186.752 Y197.525
G1 X186.162 Y196.696
G1 X185.742 Y195.764
G1 X185.304 Y194.961
G1 X184.837 Y194.075
G1 X184.359 Y193.221
G1 X183.876 Y192.350
G1 X183.286 Y191.384
G1 X182.845 Y190.538
G1 X182.461 Y189.635
G1 X181.973 Y188.825
G1 X181.431 Y187.989
G1 X181.019 Y187.123
G1 X180.471 Y186.236
G1 X179.996 Y185.388
G1 X179.548 Y184.460
G1 X179.061 Y183.625
G1 X178.596 Y182.659
G1 X178.139 Y181.885
G1 X177.588 Y180.964
G1 X177.133 Y180.047
G1 X176.686 Y179.262
G1 X176.161 Y178.351
G1 X175.643 Y177.492
G1 X175.278 Y176.620
G1 X174.777 Y175.747
G1 X174.309 Y174.875
G1 X173.803 Y174.161
G1 X173.325 Y173.260
G1 X172.958 Y172.450
G1 X172.499 Y171.631
G1 X171.973 Y170.649
G1 X171.536 Y169.791
G1 X171.039 Y169.007
G1 X170.548 Y168.147
G1 X170.079 Y167.261
G1 X169.676 Y166.391
G1 X169.156 Y165.682
G1 X168.670 Y164.794
G1 X168.265 Y163.926
G1 X167.749 Y163.148
G1 X167.207 Y162.233
G1 X166.807 Y161.350
G1 X166.260 Y160.590
G1 X165.860 Y159.695
G1 X165.379 Y158.873
G1 X164.920 Y157.955
G1 X164.491 Y157.105
G1 X163.953 Y156.307
G1 X163.462 Y155.397
G1 X163.064 Y154.579
G1 X162.572 Y153.753
G1 X162.114 Y152.856
G1 X161.586 Y152.063
G1 X161.096 Y151.131
G1 X160.656 Y150.282
G1 X160.186 Y149.447
G1 X159.781 Y148.585
G1 X159.358 Y147.701
G1 X158.779 Y146.765
G1 X158.405 Y145.901
G1 X157.818 Y145.077
G1 X157.384 Y144.245
G1 X156.989 Y143.438
G1 X156.394 Y142.511
G1 X156.028 Y141.601
G1 X155.506 Y140.822
G1 X154.968 Y139.920
G1 X154.572 Y139.157
G1 X154.053 Y138.296
G1 X153.526 Y137.442
G1 X153.079 Y136.484
G1 X152.688 Y135.680
G1 X152.174 Y134.752
G1 X151.676 Y133.972
G1 X151.222 Y133.109
G1 X150.757 Y132.146
G1 X150.288 Y131.343
G1 X149.885 Y130.440
G1 X149.351 Y129.725
G1 X148.904 Y128.862
G1 X148.404 Y128.025
G1 X148.043 Y127.103
G1 X147.479 Y126.322
G1 X147.147 Y125.466
G1 X146.631 Y124.647
G1 X146.107 Y123.749
G1 X145.718 Y122.976
G1 X145.189 Y122.081
G1 X144.795 Y121.191
G1 X144.335 Y120.306
G1 X143.827 Y119.535
G1 X143.319 Y118.641
G1 X142.896 Y117.884
G1 X142.515 Y116.981
G1 X141.953 Y116.177
G1 X141.550 Y115.286
G1 X141.122 Y114.496
G1 X140.600 Y113.636
G1 X140.219 Y112.844
G1 X139.736 Y111.952
G1 X139.283 Y111.035
G1 X138.791 Y110.257
G1 X138.361 Y109.319
G1 X137.799 Y108.482
G1 X137.375 Y107.715
G1 X136.920 Y106.795
G1 X136.486 Y105.908
G1 X135.954 Y105.003
G1 X135.543 Y104.133
G1 X135.048 Y103.392
G1 X134.692 Y102.488
G1 X134.089 Y101.653
G1 X133.740 Y100.699
G1 X133.308 Y99.856
G1 X132.774 Y99.040
G1 X132.364 Y98.081
G1 X131.909 Y97.278
G1 X131.380 Y96.473
G1 X130.924 Y95.545
G1 X130.493 Y94.634
G1 X129.965 Y93.848
G1 X129.534 Y92.932
G1 X129.130 Y92.135
G1 X128.661 Y91.249
G1 X128.294 Y90.319
G1 X127.801 Y89.445
G1 X127.338 Y88.637
G1 X126.956 Y87.849
G1 X126.529 Y86.956
G1 X126.076 Y86.095
G1 X125.591 Y85.313
G1 X125.133 Y84.321
G1 X124.812 Y83.499
G1 X124.388 Y82.655
G1 X123.857 Y81.821
G1 X123.476 Y80.980
G1 X123.181 Y80.177
G1 X122.840 Y79.281
G1 X122.511 Y78.538
G1 X122.138 Y77.590
G1 X121.866 Y76.863
G1 X121.579 Y76.011
G1 X122.144 Y76.550
G1 X122.725 Y77.207
G1 X123.396 Y77.820
G1 X123.893 Y78.497
G1 X124.481 Y79.102
G1 X125.044 Y79.948
G1 X125.568 Y80.670
G1 X126.096 Y81.358
G1 X126.707 Y82.184
G1 X127.239 Y83.034
G1 X127.802 Y83.675
G1 X128.330 Y84.466
G1 X128.766 Y85.281
G1 X129.325 Y86.132
G1 X129.889 Y86.784
G1 X130.448 Y87.591
G1 X131.002 Y88.429
G1 X131.544 Y89.177
G1 X132.116 Y90.041
G1 X132.603 Y90.799
G1 X133.235 Y91.626
G1 X133.761 Y92.482
G1 X134.266 Y93.166
G1 X134.761 Y94.111
G1 X135.266 Y94.837
G1 X135.823 Y95.668
G1 X136.456 Y96.515
G1 X136.902 Y97.341
G1 X137.442 Y98.098
G1 X138.100 Y98.937
G1 X138.577 Y99.683
G1 X139.110 Y100.638
G1 X139.619 Y101.316
G1 X140.261 Y102.173
G1 X140.656 Y102.947
G1 X141.326 Y103.774
G1 X141.806 Y104.625
G1 X142.384 Y105.447
G1 X142.828 Y106.245
G1 X143.472 Y107.175
G1 X143.913 Y107.973
G1 X144.554 Y108.769
G1 X145.028 Y109.592
G1 X145.585 Y110.475
G1 X146.138 Y111.366
G1 X146.743 Y112.098
G1 X147.216 Y112.933
G1 X147.745 Y113.875
G1 X148.349 Y114.722
G1 X148.880 Y115.470
G1 X149.413 Y116.294
G1 X149.938 Y117.161
G1 X150.449 Y117.908
G1 X151.052 Y118.743
G1 X151.544 Y119.679
G1 X152.121 Y120.446
G1 X152.624 Y121.274
G1 X153.236 Y122.179
G1 X153.713 Y123.025
G1 X154.308 Y123.833
G1 X154.831 Y124.731
G1 X155.411 Y125.475
G1 X155.932 Y126.280
G1 X156.398 Y127.049
G1 X156.908 Y127.975
G1 X157.458 Y128.803
G1 X158.052 Y129.615
G1 X158.490 Y130.479
G1 X159.015 Y131.173
G1 X159.621 Y132.031
G1 X160.165 Y132.872
G1 X160.593 Y133.712
G1 X161.235 Y134.516
G1 X161.697 Y135.362
G1 X162.223 Y136.184
G1 X162.822 Y136.991
G1 X163.393 Y137.872
G1 X163.864 Y138.679
G1 X164.325 Y139.492
G1 X164.913 Y140.331
G1 X165.381 Y141.072
G1 X165.967 Y141.934
G1 X166.433 Y142.787
G1 X167.054 Y143.520
G1 X167.503 Y144.379
G1 X168.090 Y145.191
G1 X168.540 Y145.954
G1 X169.056 Y146.787
G1 X169.605 Y147.576
G1 X170.211 Y148.468
G1 X170.705 Y149.216
G1 X171.273 Y149.978
G1 X171.814 Y150.798
G1 X172.295 Y151.660
G1 X172.730 Y152.429
G1 X173.270 Y153.365
G1 X173.802 Y154.171
G1 X174.435 Y154.883
G1 X174.804 Y155.760
G1 X175.358 Y156.552
G1 X175.924 Y157.378
G1 X176.450 Y158.152
G1 X177.035 Y158.918
G1 X177.458 Y159.839
G1 X178.043 Y160.590
G1 X178.519 Y161.356
G1 X179.070 Y162.278
G1 X179.524 Y162.961
G1 X180.080 Y163.795
G1 X180.563 Y164.684
G1 X181.113 Y165.505
G1 X181.634 Y166.257
G1 X182.192 Y167.086
G1 X182.806 Y167.986
G1 X183.343 Y168.822
G1 X183.810 Y169.595
G1 X184.271 Y170.489
G1 X184.903 Y171.218
G1 X185.432 Y172.031
G1 X185.949 Y172.882
G1 X186.579 Y173.812
G1 X187.095 Y174.632
G1 X187.555 Y175.458
G1 X188.136 Y176.231
G1 X188.710 Y177.097
G1 X189.178 Y177.934
G1 X189.733 Y178.693
G1 X190.271 Y179.613
G1 X190.847 Y180.338
G1 X191.350 Y181.319
G1 X191.823 Y182.079
G1 X192.371 Y182.839
G1 X192.945 Y183.792
G1 X193.469 Y184.647
G1 X193.969 Y185.338
G1 X194.531 Y186.304
G1 X195.189 Y187.099
G1 X195.654 Y187.906
G1 X196.170 Y188.740
G1 X196.711 Y189.622
G1 X197.312 Y190.421
G1 X197.771 Y191.164
G1 X198.303 Y192.076
G1 X198.828 Y192.826
G1 X199.502 Y193.742
G1 X199.903 Y194.551
G1 X200.470 Y195.343
G1 X201.097 Y196.145
G1 X201.592 Y197.049
G1 X202.147 Y197.799
G1 X202.699 Y198.694
G1 X203.140 Y199.391
G1 X203.822 Y200.194
G1 X204.300 Y201.057
G1 X204.755 Y201.959
G1 X205.281 Y202.797
G1 X205.838 Y203.572
G1 X206.506 Y204.349
G1 X206.923 Y205.182
G1 X207.516 Y206.040
; Path 45
G0 Z0
G0 X207.539 Y206.017
G0 Z2.2
G1 F3000
G1 X206.979 Y205.191
G1 X206.517 Y204.305
G1 X206.141 Y203.485
G1 X205.644 Y202.597
G1 X205.102 Y201.798
G1 X204.652 Y200.871
G1 X204.122 Y200.039
G1 X203.609 Y199.218
G1 X203.154 Y198.377
G1 X202.655 Y197.525
G1 X202.283 Y196.725
G1 X201.672 Y195.872
G1 X201.286 Y194.992
G1 X200.767 Y194.178
G1 X200.249 Y193.177
G1 X199.795 Y192.345
G1 X199.382 Y191.557
G1 X198.853 Y190.778
G1 X198.311 Y189.862
G1 X197.925 Y189.031
G1 X197.449 Y188.191
G1 X196.935 Y187.271
G1 X196.460 Y186.457
G1 X195.948 Y185.596
G1 X195.482 Y184.673
G1 X195.029 Y183.810
G1 X194.516 Y183.027
G1 X194.026 Y182.170
G1 X193.470 Y181.296
G1 X193.004 Y180.404
G1 X192.568 Y179.603
G1 X192.035 Y178.744
G1 X191.578 Y177.916
G1 X191.026 Y176.960
G1 X190.621 Y176.173
G1 X190.029 Y175.238
G1 X189.540 Y174.373
G1 X189.102 Y173.560
G1 X188.687 Y172.707
G1 X188.219 Y171.913
G1 X187.626 Y171.059
G1 X187.217 Y170.092
G1 X186.722 Y169.354
G1 X186.182 Y168.435
G1 X185.685 Y167.572
G1 X185.298 Y166.659
G1 X184.759 Y165.870
G1 X184.257 Y164.928
G1 X183.815 Y164.188
G1 X183.237 Y163.270
G1 X182.795 Y162.430
G1 X182.279 Y161.577
G1 X181.817 Y160.640
G1 X181.268 Y159.843
G1 X180.765 Y158.898
G1 X180.353 Y158.154
G1 X179.770 Y157.170
G1 X179.409 Y156.353
G1 X178.781 Y155.490
G1 X178.438 Y154.623
G1 X177.847 Y153.817
G1 X177.322 Y152.961
G1 X176.850 Y152.019
G1 X176.372 Y151.112
G1 X175.920 Y150.302
G1 X175.467 Y149.376
G1 X174.850 Y148.575
G1 X174.466 Y147.681
G1 X173.954 Y146.872
G1 X173.502 Y145.958
G1 X172.897 Y145.089
G1 X172.437 Y144.267
G1 X171.969 Y143.423
G1 X171.442 Y142.433
G1 X170.974 Y141.559
G1 X170.549 Y140.796
G1 X170.034 Y139.892
G1 X169.454 Y138.963
G1 X169.017 Y138.166
G1 X168.602 Y137.257
G1 X168.133 Y136.471
G1 X167.642 Y135.650
G1 X167.138 Y134.766
G1 X166.688 Y133.883
G1 X166.172 Y133.006
G1 X165.587 Y132.185
G1 X165.136 Y131.350
G1 X164.625 Y130.550
G1 X164.210 Y129.753
G1 X163.759 Y128.924
G1 X163.201 Y128.054
G1 X162.798 Y127.221
G1 X162.337 Y126.332
G1 X161.782 Y125.408
G1 X161.368 Y124.611
G1 X160.766 Y123.721
G1 X160.324 Y122.872
G1 X159.855 Y122.083
G1 X159.415 Y121.297
G1 X158.981 Y120.311
G1 X158.459 Y119.588
G1 X157.931 Y118.624
G1 X157.472 Y117.807
G1 X157.014 Y117.063
G1 X156.531 Y116.071
G1 X156.034 Y115.291
G1 X155.552 Y114.451
G1 X155.051 Y113.626
G1 X154.499 Y112.790
G1 X154.107 Y111.893
G1 X153.552 Y110.981
G1 X153.077 Y110.146
G1 X152.644 Y109.358
G1 X152.102 Y108.401
G1 X151.700 Y107.529
G1 X151.152 Y106.627
G1 X150.738 Y105.893
G1 X150.147 Y104.915
G1 X149.620 Y104.184
G1 X149.239 Y103.242
G1 X148.739 Y102.462
G1 X148.250 Y101.544
G1 X147.813 Y100.648
G1 X147.200 Y99.879
G1 X146.693 Y98.904
G1 X146.188 Y98.163
G1 X145.804 Y97.232
G1 X145.371 Y96.448
G1 X144.816 Y95.508
G1 X144.318 Y94.656
G1 X143.833 Y93.795
G1 X143.337 Y92.932
G1 X142.898 Y92.169
G1 X142.354 Y91.318
G1 X141.873 Y90.352
G1 X141.482 Y89.496
G1 X140.926 Y88.683
G1 X140.443 Y87.847
G1 X139.925 Y87.070
G1 X139.553 Y86.185
G1 X139.047 Y85.315
G1 X138.500 Y84.481
G1 X138.055 Y83.633
G1 X137.671 Y82.911
G1 X137.076 Y82.057
G1 X136.639 Y81.118
G1 X136.131 Y80.265
G1 X135.650 Y79.456
G1 X135.280 Y78.669
G1 X134.666 Y77.773
G1 X134.273 Y76.969
G1 X133.780 Y76.096
G1 X133.307 Y75.256
G1 X132.917 Y74.385
G1 X132.357 Y73.646
G1 X131.960 Y72.743
G1 X131.413 Y71.992
G1 X130.930 Y71.226
G1 X130.576 Y70.332
G1 X130.137 Y69.598
G1 X129.615 Y68.774
G1 X129.132 Y67.993
G1 X128.723 Y67.076
G1 X128.244 Y66.350
G1 X127.817 Y65.494
G1 X127.306 Y64.718
G1 X126.918 Y63.836
G1 X126.402 Y63.070
G1 X125.982 Y62.275
G1 X125.412 Y61.390
G1 X124.957 Y60.576
G1 X124.454 Y59.632
G1 X123.960 Y58.828
G1 X123.558 Y58.020
G1 X123.948 Y58.842
G1 X124.423 Y59.648
G1 X125.008 Y60.458
G1 X125.399 Y61.204
G1 X125.914 Y62.037
G1 X126.447 Y62.898
G1 X126.949 Y63.751
G1 X127.288 Y64.567
G1 X127.880 Y65.477
G1 X128.278 Y66.415
G1 X128.821 Y67.258
G1 X129.399 Y68.021
G1 X129.798 Y68.879
G1 X130.345 Y69.730
G1 X130.832 Y70.651
G1 X131.301 Y71.525
G1 X131.716 Y72.429
G1 X132.189 Y73.231
G1 X132.782 Y74.096
G1 X133.225 Y74.889
G1 X133.618 Y75.649
G1 X134.080 Y76.578
G1 X134.645 Y77.351
G1 X135.158 Y78.113
G1 X135.570 Y79.084
G1 X135.995 Y79.914
G1 X136.547 Y80.751
G1 X137.000 Y81.556
G1 X137.505 Y82.419
G1 X138.002 Y83.215
G1 X138.347 Y83.957
G1 X138.902 Y84.844
G1 X139.373 Y85.734
G1 X139.907 Y86.443
G1 X140.327 Y87.336
G1 X140.815 Y88.154
G1 X141.304 Y88.974
G1 X141.794 Y89.839
G1 X142.324 Y90.737
G1 X142.825 Y91.589
G1 X143.185 Y92.506
G1 X143.809 Y93.285
G1 X144.244 Y94.200
G1 X144.638 Y95.020
G1 X145.277 Y95.921
G1 X145.756 Y96.756
G1 X146.193 Y97.525
G1 X146.710 Y98.434
G1 X147.173 Y99.368
G1 X147.614 Y100.092
G1 X148.122 Y101.077
G1 X148.664 Y101.797
G1 X149.057 Y102.733
G1 X149.548 Y103.635
G1 X150.023 Y104.391
G1 X150.556 Y105.250
G1 X150.982 Y106.137
G1 X151.539 Y106.989
G1 X151.943 Y107.795
G1 X152.509 Y108.718
G1 X152.964 Y109.532
G1 X153.487 Y110.330
G1 X153.968 Y111.198
G1 X154.405 Y112.109
G1 X154.948 Y112.813
G1 X155.306 Y113.741
G1 X155.856 Y114.603
G1 X156.298 Y115.334
G1 X156.821 Y116.175
G1 X157.321 Y117.044
G1 X157.742 Y117.881
G1 X158.177 Y118.768
G1 X158.780 Y119.604
G1 X159.272 Y120.385
G1 X159.704 Y121.261
G1 X160.113 Y122.195
G1 X160.574 Y122.981
G1 X161.145 Y123.799
G1 X161.638 Y124.682
G1 X162.127 Y125.466
G1 X162.627 Y126.308
G1 X163.026 Y127.105
G1 X163.490 Y127.983
G1 X164.001 Y128.838
G1 X164.531 Y129.667
G1 X164.986 Y130.499
G1 X165.450 Y131.355
G1 X165.953 Y132.243
G1 X166.478 Y133.077
G1 X167.004 Y134.040
G1 X167.481 Y134.823
G1 X167.941 Y135.742
G1 X168.450 Y136.548
G1 X168.949 Y137.451
G1 X169.348 Y138.335
G1 X169.846 Y139.115
G1 X170.444 Y140.032
G1 X170.836 Y140.825
G1 X171.312 Y141.772
G1 X171.917 Y142.636
G1 X172.327 Y143.422
G1 X172.896 Y144.396
G1 X173.286 Y145.206
G1 X173.862 Y146.122
G1 X174.369 Y146.937
G1 X174.770 Y147.783
G1 X175.304 Y148.620
G1 X175.868 Y149.540
G1 X176.241 Y150.395
G1 X176.775 Y151.236
G1 X177.266 Y152.073
G1 X177.736 Y152.881
G1 X178.177 Y153.746
G1 X178.771 Y154.642
G1 X179.232 Y155.559
G1 X179.744 Y156.268
G1 X180.117 Y157.236
G1 X180.650 Y158.099
G1 X181.142 Y158.835
G1 X181.558 Y159.822
G1 X182.157 Y160.583
G1 X182.660 Y161.447
G1 X183.120 Y162.280
G1 X183.647 Y163.141
G1 X184.101 Y164.030
G1 X184.617 Y164.942
G1 X184.962 Y165.658
G1 X185.504 Y166.581
G1 X185.984 Y167.439
G1 X186.439 Y168.351
G1 X186.985 Y169.170
G1 X187.430 Y169.941
G1 X188.024 Y170.881
G1 X188.361 Y171.712
G1 X188.924 Y172.536
G1 X189.374 Y173.356
G1 X189.915 Y174.258
G1 X190.434 Y175.126
G1 X190.793 Y175.861
G1 X191.297 Y176.779
G1 X191.851 Y177.552
G1 X192.357 Y178.462
G1 X192.758 Y179.249
G1 X193.214 Y180.108
G1 X193.677 Y180.922
G1 X194.293 Y181.826
G1 X194.777 Y182.702
G1 X195.133 Y183.471
G1 X195.671 Y184.302
G1 X196.162 Y185.208
G1 X196.630 Y186.091
G1 X197.078 Y186.818
G1 X197.562 Y187.760
G1 X198.124 Y188.515
G1 X198.475 Y189.447
G1 X199.023 Y190.312
G1 X199.512 Y191.092
; Path 46
G0 Z0
G0 X199.552 Y191.061
G0 Z2.2
G1 F3000
G1 X199.012 Y190.322
G1 X198.359 Y189.402
G1 X197.807 Y188.654
G1 X197.337 Y187.762
G1 X196.780 Y187.019
G1 X196.156 Y186.295
G1 X195.661 Y185.450
G1 X195.045 Y184.633
G1 X194.551 Y183.875
G1 X193.903 Y183.002
G1 X193.372 Y182.260
G1 X192.824 Y181.360
G1 X192.251 Y180.603
G1 X191.592 Y179.703
G1 X191.126 Y178.997
G1 X190.453 Y178.138
G1 X189.954 Y177.420
G1 X189.408 Y176.513
G1 X188.853 Y175.794
G1 X188.228 Y174.888
G1 X187.723 Y174.150
G1 X187.136 Y173.320
G1 X186.573 Y172.521
G1 X186.025 Y171.738
G1 X185.418 Y170.917
G1 X184.846 Y170.052
G1 X184.371 Y169.290
G1 X183.763 Y168.386
G1 X183.138 Y167.568
G1 X182.640 Y166.816
G1 X182.060 Y166.013
G1 X181.543 Y165.227
G1 X180.952 Y164.308
G1 X180.380 Y163.439
G1 X179.741 Y162.759
G1 X179.278 Y161.853
G1 X178.685 Y161.081
G1 X178.122 Y160.307
G1 X177.470 Y159.498
G1 X176.918 Y158.616
G1 X176.306 Y157.751
G1 X175.855 Y157.009
G1 X175.179 Y156.116
G1 X174.709 Y155.357
G1 X174.133 Y154.571
G1 X173.594 Y153.752
G1 X172.968 Y152.937
G1 X172.425 Y152.081
G1 X171.837 Y151.237
G1 X171.318 Y150.442
G1 X170.748 Y149.635
G1 X170.191 Y148.789
G1 X169.608 Y148.073
G1 X169.048 Y147.251
G1 X168.532 Y146.461
G1 X168.008 Y145.635
G1 X167.421 Y144.767
G1 X166.851 Y144.106
G1 X166.264 Y143.210
G1 X165.693 Y142.491
G1 X165.256 Y141.705
G1 X164.720 Y140.883
G1 X164.056 Y140.017
G1 X163.608 Y139.288
G1 X163.058 Y138.506
G1 X162.511 Y137.643
G1 X161.936 Y136.871
G1 X161.281 Y136.099
G1 X160.733 Y135.236
G1 X160.328 Y134.476
G1 X159.734 Y133.709
G1 X159.109 Y132.780
G1 X158.549 Y132.132
G1 X158.000 Y131.253
G1 X157.466 Y130.471
G1 X156.892 Y129.716
G1 X156.397 Y128.855
G1 X155.797 Y128.087
G1 X155.319 Y127.159
G1 X154.678 Y126.459
G1 X154.119 Y125.560
G1 X153.545 Y124.837
G1 X152.977 Y123.949
G1 X152.487 Y123.163
G1 X151.897 Y122.444
G1 X151.365 Y121.502
G1 X150.855 Y120.790
G1 X150.222 Y120.027
G1 X149.713 Y119.086
G1 X149.099 Y118.379
G1 X148.610 Y117.581
G1 X148.035 Y116.657
G1 X147.392 Y115.948
G1 X146.958 Y115.091
G1 X146.390 Y114.254
G1 X145.739 Y113.476
G1 X145.266 Y112.607
G1 X144.654 Y111.835
G1 X144.178 Y111.121
G1 X143.509 Y110.244
G1 X143.057 Y109.467
G1 X142.409 Y108.579
G1 X141.847 Y107.905
G1 X141.309 Y107.023
G1 X140.693 Y106.151
G1 X140.156 Y105.356
G1 X139.584 Y104.615
G1 X139.043 Y103.740
G1 X138.536 Y102.882
G1 X137.916 Y102.153
G1 X137.267 Y101.228
G1 X136.675 Y100.479
G1 X136.185 Y99.626
G1 X135.529 Y98.841
G1 X134.966 Y98.012
G1 X134.491 Y97.255
G1 X133.961 Y96.321
G1 X133.378 Y95.622
G1 X132.749 Y94.828
G1 X132.186 Y93.981
G1 X131.567 Y93.087
G1 X130.977 Y92.304
G1 X130.440 Y91.528
G1 X129.926 Y90.692
G1 X129.284 Y89.913
G1 X128.767 Y88.944
G1 X128.271 Y88.189
G1 X127.627 Y87.385
G1 X127.047 Y86.660
G1 X126.437 Y85.817
G1 X125.911 Y85.088
G1 X125.374 Y84.177
G1 X124.843 Y83.493
G1 X124.214 Y82.721
G1 X123.701 Y81.875
G1 X123.172 Y81.099
G1 X122.527 Y80.292
G1 X121.996 Y79.417
G1 X121.456 Y78.697
G1 X120.876 Y77.944
G1 X120.385 Y77.069
G1 X119.725 Y76.303
G1 X119.213 Y75.581
G1 X118.677 Y74.772
G1 X118.075 Y74.005
G1 X117.497 Y73.130
G1 X117.046 Y72.424
G1 X116.407 Y71.588
G1 X115.776 Y70.765
G1 X115.233 Y70.036
G1 X114.649 Y69.283
G1 X113.998 Y68.356
G1 X113.486 Y67.618
G1 X112.837 Y66.861
G1 X112.257 Y65.999
G1 X111.616 Y65.227
G1 X111.116 Y64.460
G1 X110.428 Y63.660
G1 X109.941 Y62.865
G1 X109.337 Y62.046
G1 X108.702 Y61.279
G1 X108.055 Y60.584
G1 X107.516 Y59.929
G1 X106.896 Y59.328
G1 X106.176 Y58.803
G1 X105.568 Y58.103
G1 X105.980 Y58.981
G1 X106.338 Y59.808
G1 X106.567 Y60.635
G1 X107.035 Y61.394
G1 X107.282 Y62.259
G1 X107.707 Y63.157
G1 X108.138 Y64.013
G1 X108.712 Y64.864
G1 X109.180 Y65.793
G1 X109.619 Y66.701
G1 X110.062 Y67.566
G1 X110.647 Y68.410
G1 X110.990 Y69.292
G1 X111.592 Y70.054
G1 X112.038 Y70.973
G1 X112.428 Y71.862
G1 X113.016 Y72.789
G1 X113.424 Y73.591
G1 X114.011 Y74.519
G1 X114.417 Y75.346
G1 X114.845 Y76.229
G1 X115.343 Y77.062
G1 X115.886 Y77.877
G1 X116.357 Y78.636
G1 X116.849 Y79.542
G1 X117.410 Y80.352
G1 X117.781 Y81.212
G1 X118.308 Y82.132
G1 X118.877 Y82.874
G1 X119.250 Y83.693
G1 X119.827 Y84.539
G1 X120.322 Y85.386
G1 X120.821 Y86.212
G1 X121.194 Y87.129
G1 X121.670 Y87.984
G1 X122.227 Y88.734
G1 X122.772 Y89.606
G1 X123.115 Y90.430
G1 X123.731 Y91.383
G1 X124.191 Y92.172
G1 X124.643 Y93.021
G1 X125.212 Y93.836
G1 X125.670 Y94.701
G1 X126.151 Y95.609
G1 X126.752 Y96.475
G1 X127.255 Y97.247
G1 X127.609 Y98.155
G1 X128.210 Y99.065
G1 X128.699 Y99.980
G1 X129.272 Y100.688
G1 X129.709 Y101.648
G1 X130.221 Y102.449
G1 X130.796 Y103.412
G1 X131.286 Y104.209
G1 X131.729 Y105.104
G1 X132.239 Y105.903
G1 X132.774 Y106.788
G1 X133.294 Y107.662
G1 X133.733 Y108.591
G1 X134.323 Y109.378
G1 X134.723 Y110.257
G1 X135.292 Y111.031
G1 X135.784 Y111.887
G1 X136.261 Y112.885
G1 X136.788 Y113.755
G1 X137.329 Y114.538
G1 X137.897 Y115.346
G1 X138.296 Y116.310
G1 X138.865 Y117.083
G1 X139.317 Y117.859
G1 X139.799 Y118.800
G1 X140.341 Y119.655
G1 X140.823 Y120.510
G1 X141.373 Y121.346
G1 X141.890 Y122.208
G1 X142.358 Y123.015
G1 X142.897 Y123.931
G1 X143.325 Y124.748
G1 X143.833 Y125.576
G1 X144.456 Y126.386
G1 X144.833 Y127.220
G1 X145.409 Y128.080
G1 X145.822 Y128.952
G1 X146.335 Y129.825
G1 X146.876 Y130.666
G1 X147.416 Y131.486
G1 X147.887 Y132.307
G1 X148.449 Y133.117
G1 X148.882 Y134.040
G1 X149.364 Y134.911
G1 X149.974 Y135.676
G1 X150.403 Y136.526
G1 X150.987 Y137.371
G1 X151.422 Y138.249
G1 X151.916 Y139.107
G1 X152.483 Y139.887
G1 X152.922 Y140.750
G1 X153.430 Y141.602
G1 X153.853 Y142.452
G1 X154.390 Y143.251
G1 X154.843 Y144.170
G1 X155.452 Y144.984
G1 X155.908 Y145.708
G1 X156.423 Y146.669
G1 X156.837 Y147.495
G1 X157.405 Y148.241
G1 X157.943 Y149.111
G1 X158.458 Y149.983
G1 X158.945 Y150.797
G1 X159.366 Y151.562
G1 X159.916 Y152.540
G1 X160.384 Y153.312
G1 X160.840 Y154.186
G1 X161.462 Y154.978
G1 X161.957 Y155.874
G1 X162.435 Y156.612
G1 X162.911 Y157.418
G1 X163.398 Y158.292
G1 X163.952 Y159.152
G1 X164.412 Y160.021
G1 X164.835 Y160.872
G1 X165.420 Y161.664
G1 X165.867 Y162.509
G1 X166.422 Y163.437
G1 X166.833 Y164.286
G1 X167.374 Y165.007
G1 X167.892 Y166.012
G1 X168.490 Y166.759
G1 X168.996 Y167.671
G1 X169.401 Y168.453
G1 X169.953 Y169.399
G1 X170.439 Y170.243
G1 X171.020 Y171.042
G1 X171.469 Y171.965
G1 X171.902 Y172.848
G1 X172.460 Y173.652
G1 X172.943 Y174.536
G1 X173.488 Y175.309
G1 X174.010 Y176.172
G1 X174.512 Y177.016
G1 X175.017 Y177.973
G1 X175.580 Y178.813
G1 X176.121 Y179.634
G1 X176.481 Y180.596
G1 X177.126 Y181.389
G1 X177.551 Y182.165
G1 X178.092 Y183.020
G1 X178.615 Y183.954
G1 X179.133 Y184.877
G1 X179.609 Y185.672
G1 X180.123 Y186.562
G1 X180.635 Y187.445
G1 X181.062 Y188.177
G1 X181.579 Y189.130
G1 X182.114 Y189.983
G1 X182.546 Y190.721
G1 X183.159 Y191.668
G1 X183.540 Y192.456
G1 X184.042 Y193.352
G1 X184.569 Y194.231
G1 X185.112 Y194.992
G1 X185.586 Y195.918
G1 X186.022 Y196.808
G1 X186.589 Y197.532
G1 X187.078 Y198.454
G1 X187.541 Y199.283
G1 X188.058 Y200.058
G1 X188.667 Y200.996
G1 X189.074 Y201.889
G1 X189.545 Y202.630
G1 X190.130 Y203.562
G1 X190.594 Y204.331
G1 X191.127 Y205.167
G1 X191.592 Y206.091
; Path 47
G0 Z0
G0 X191.589 Y206.143
G0 Z2.2
G1 F3000
G1 X191.044 Y205.379
G1 X190.492 Y204.443
G1 X189.971 Y203.605
G1 X189.439 Y202.856
G1 X188.871 Y202.050
G1 X188.442 Y201.141
G1 X187.913 Y200.359
G1 X187.348 Y199.561
G1 X186.774 Y198.778
G1 X186.305 Y197.971
G1 X185.683 Y197.051
G1 X185.152 Y196.185
G1 X184.664 Y195.460
G1 X184.155 Y194.622
G1 X183.620 Y193.781
G1 X183.102 Y192.978
G1 X182.542 Y192.133
G1 X181.937 Y191.305
G1 X181.480 Y190.505
G1 X180.893 Y189.673
G1 X180.437 Y188.761
G1 X179.882 Y188.007
G1 X179.419 Y187.155
G1 X178.730 Y186.416
G1 X178.264 Y185.536
G1 X177.797 Y184.599
G1 X177.207 Y183.826
G1 X176.611 Y182.942
G1 X176.148 Y182.146
G1 X175.554 Y181.335
G1 X175.077 Y180.486
G1 X174.447 Y179.619
G1 X174.032 Y178.786
G1 X173.359 Y178.002
G1 X172.859 Y177.141
G1 X172.295 Y176.308
G1 X171.749 Y175.489
G1 X171.336 Y174.677
G1 X170.715 Y173.892
G1 X170.146 Y172.949
G1 X169.637 Y172.178
G1 X169.062 Y171.416
G1 X168.601 Y170.578
G1 X167.998 Y169.606
G1 X167.473 Y168.802
G1 X167.034 Y168.098
G1 X166.456 Y167.186
G1 X165.984 Y166.422
G1 X165.376 Y165.636
G1 X164.965 Y164.737
G1 X164.334 Y163.971
G1 X163.765 Y163.059
G1 X163.244 Y162.350
G1 X162.824 Y161.568
G1 X162.342 Y160.757
G1 X161.749 Y159.951
G1 X161.267 Y159.152
G1 X160.676 Y158.194
G1 X160.248 Y157.477
G1 X159.584 Y156.629
G1 X159.167 Y155.858
G1 X158.553 Y155.030
G1 X158.106 Y154.133
G1 X157.634 Y153.455
G1 X157.007 Y152.543
G1 X156.573 Y151.750
G1 X155.991 Y150.895
G1 X155.524 Y150.133
G1 X154.923 Y149.372
G1 X154.443 Y148.571
G1 X153.921 Y147.712
G1 X153.340 Y146.950
G1 X152.868 Y146.083
G1 X152.343 Y145.290
G1 X151.856 Y144.508
G1 X151.204 Y143.580
G1 X150.780 Y142.903
G1 X150.162 Y142.021
G1 X149.674 Y141.190
G1 X149.124 Y140.306
G1 X148.694 Y139.464
G1 X148.108 Y138.763
G1 X147.559 Y137.858
G1 X147.093 Y137.098
G1 X146.594 Y136.303
G1 X145.970 Y135.411
G1 X145.406 Y134.689
G1 X144.852 Y133.814
G1 X144.335 Y132.956
G1 X143.875 Y132.106
G1 X143.379 Y131.284
G1 X142.824 Y130.538
G1 X142.207 Y129.757
G1 X141.681 Y128.783
G1 X141.293 Y128.065
G1 X140.712 Y127.177
G1 X140.230 Y126.411
G1 X139.651 Y125.528
G1 X139.082 Y124.787
G1 X138.574 Y123.931
G1 X137.990 Y123.099
G1 X137.575 Y122.272
G1 X136.963 Y121.447
G1 X136.355 Y120.646
G1 X135.832 Y119.709
G1 X135.327 Y118.930
G1 X134.881 Y118.154
G1 X134.185 Y117.287
G1 X133.656 Y116.446
G1 X133.263 Y115.559
G1 X132.580 Y114.801
G1 X132.129 Y113.858
G1 X131.558 Y113.148
G1 X130.990 Y112.183
G1 X130.447 Y111.402
G1 X129.988 Y110.578
G1 X129.455 Y109.809
G1 X128.915 Y108.848
G1 X128.378 Y108.040
G1 X127.850 Y107.178
G1 X127.276 Y106.355
G1 X126.684 Y105.480
G1 X126.179 Y104.721
G1 X125.638 Y103.878
G1 X125.097 Y103.163
G1 X124.584 Y102.203
G1 X124.009 Y101.528
G1 X123.595 Y100.645
G1 X122.963 Y99.850
G1 X122.553 Y99.076
G1 X122.018 Y98.225
G1 X121.521 Y97.438
G1 X120.945 Y96.519
G1 X120.336 Y95.724
G1 X119.869 Y94.925
G1 X119.399 Y94.190
G1 X118.740 Y93.382
G1 X118.268 Y92.494
G1 X117.768 Y91.691
G1 X117.244 Y90.967
G1 X116.751 Y90.147
G1 X116.191 Y89.271
G1 X115.696 Y88.567
G1 X115.168 Y87.679
G1 X114.656 Y87.007
G1 X114.253 Y86.132
G1 X113.683 Y85.366
G1 X113.207 Y84.581
G1 X112.614 Y83.849
G1 X112.137 Y83.105
G1 X111.676 Y82.309
G1 X111.099 Y81.447
G1 X110.680 Y80.691
G1 X110.086 Y80.022
G1 X109.639 Y79.192
G1 X109.150 Y78.392
G1 X108.582 Y77.719
G1 X108.084 Y76.852
G1 X107.556 Y76.095
G1 X108.007 Y76.948
G1 X108.520 Y77.721
G1 X109.061 Y78.603
G1 X109.674 Y79.440
G1 X110.189 Y80.183
G1 X110.629 Y81.054
G1 X111.058 Y81.777
G1 X111.570 Y82.612
G1 X112.141 Y83.399
G1 X112.621 Y84.164
G1 X113.196 Y85.087
G1 X113.615 Y85.873
G1 X114.179 Y86.653
G1 X114.588 Y87.388
G1 X115.179 Y88.241
G1 X115.616 Y88.948
G1 X116.234 Y89.870
G1 X116.620 Y90.573
G1 X117.157 Y91.413
G1 X117.741 Y92.178
G1 X118.170 Y92.997
G1 X118.658 Y93.780
G1 X119.140 Y94.621
G1 X119.712 Y95.460
G1 X120.235 Y96.281
G1 X120.738 Y97.058
G1 X121.260 Y97.955
G1 X121.832 Y98.794
G1 X122.336 Y99.659
G1 X122.887 Y100.466
G1 X123.396 Y101.202
G1 X123.852 Y102.074
G1 X124.386 Y102.814
G1 X125.012 Y103.749
G1 X125.519 Y104.585
G1 X126.070 Y105.429
G1 X126.490 Y106.221
G1 X127.018 Y107.008
G1 X127.529 Y107.904
G1 X128.085 Y108.696
G1 X128.682 Y109.546
G1 X129.147 Y110.310
G1 X129.708 Y111.212
G1 X130.144 Y111.968
G1 X130.804 Y112.812
G1 X131.331 Y113.628
G1 X131.764 Y114.506
G1 X132.384 Y115.357
G1 X132.955 Y116.207
G1 X133.422 Y117.016
G1 X134.032 Y117.869
G1 X134.453 Y118.703
G1 X134.973 Y119.548
G1 X135.506 Y120.395
G1 X136.155 Y121.237
G1 X136.599 Y122.046
G1 X137.194 Y122.964
G1 X137.742 Y123.790
G1 X138.278 Y124.598
G1 X138.744 Y125.450
G1 X139.342 Y126.377
G1 X139.894 Y127.099
G1 X140.343 Y128.005
G1 X140.889 Y128.864
G1 X141.498 Y129.758
G1 X142.053 Y130.518
G1 X142.531 Y131.383
G1 X143.124 Y132.268
G1 X143.645 Y133.013
G1 X144.095 Y133.867
G1 X144.610 Y134.644
G1 X145.166 Y135.534
G1 X145.623 Y136.309
G1 X146.258 Y137.211
G1 X146.825 Y138.065
G1 X147.307 Y138.770
G1 X147.853 Y139.608
G1 X148.263 Y140.497
G1 X148.926 Y141.379
G1 X149.332 Y142.086
G1 X149.862 Y142.988
G1 X150.407 Y143.866
G1 X150.930 Y144.596
G1 X151.540 Y145.416
G1 X152.001 Y146.346
G1 X152.499 Y147.077
G1 X153.059 Y147.995
G1 X153.616 Y148.772
G1 X154.109 Y149.678
G1 X154.592 Y150.477
G1 X155.172 Y151.367
G1 X155.742 Y152.077
G1 X156.190 Y153.004
G1 X156.691 Y153.854
G1 X157.290 Y154.605
G1 X157.743 Y155.437
G1 X158.291 Y156.237
G1 X158.931 Y157.066
G1 X159.349 Y157.883
G1 X159.906 Y158.757
G1 X160.441 Y159.583
G1 X161.010 Y160.316
G1 X161.399 Y161.186
G1 X162.019 Y161.978
G1 X162.441 Y162.768
G1 X163.097 Y163.603
G1 X163.474 Y164.452
G1 X164.030 Y165.276
G1 X164.507 Y166.096
G1 X165.046 Y166.947
G1 X165.652 Y167.634
G1 X166.109 Y168.521
G1 X166.601 Y169.400
G1 X167.150 Y170.199
G1 X167.675 Y170.932
G1 X168.213 Y171.803
G1 X168.822 Y172.563
G1 X169.255 Y173.389
G1 X169.851 Y174.203
G1 X170.337 Y175.093
G1 X170.857 Y175.898
G1 X171.323 Y176.751
G1 X171.831 Y177.528
G1 X172.393 Y178.364
G1 X172.974 Y179.219
G1 X173.458 Y180.084
G1 X174.021 Y180.876
G1 X174.456 Y181.669
G1 X175.118 Y182.486
G1 X175.546 Y183.462
G1 X176.197 Y184.255
G1 X176.594 Y185.055
G1 X177.228 Y185.996
G1 X177.693 Y186.727
G1 X178.303 Y187.673
G1 X178.846 Y188.498
G1 X179.388 Y189.219
G1 X179.936 Y190.202
G1 X180.332 Y191.044
G1 X180.867 Y191.864
G1 X181.412 Y192.697
G1 X181.950 Y193.496
G1 X182.608 Y194.371
G1 X183.072 Y195.218
G1 X183.657 Y196.035
G1 X184.097 Y196.887
G1 X184.713 Y197.689
G1 X185.247 Y198.546
G1 X185.664 Y199.313
G1 X186.200 Y200.199
G1 X186.808 Y201.048
G1 X187.314 Y201.827
G1 X187.939 Y202.669
G1 X188.349 Y203.546
G1 X188.865 Y204.402
G1 X189.425 Y205.184
G1 X189.905 Y205.995
G1 X190.510 Y206.950
G1 X191.062 Y207.651
G1 X191.540 Y208.499
G1 X192.149 Y209.337
G1 X192.621 Y210.233
G1 X193.126 Y211.118
G1 X193.698 Y211.859
G1 X194.238 Y212.776
G1 X194.730 Y213.590
G1 X195.297 Y214.320
G1 X195.728 Y215.164
G1 X196.373 Y216.106
G1 X196.922 Y216.881
G1 X197.460 Y217.790
G1 X197.919 Y218.604
G1 X198.501 Y219.435
G1 X199.001 Y220.240
G1 X199.504 Y221.047
; Path 48
G0 Z0
G0 X199.512 Y221.024
G0 Z2.2
G1 F3000
G1 X199.031 Y220.223
G1 X198.493 Y219.319
G1 X198.019 Y218.393
G1 X197.584 Y217.591
G1 X197.225 Y216.628
G1 X196.660 Y215.856
G1 X196.191 Y214.923
G1 X195.795 Y214.061
G1 X195.281 Y213.272
G1 X194.814 Y212.326
G1 X194.370 Y211.526
G1 X193.848 Y210.661
G1 X193.297 Y209.716
G1 X192.967 Y208.917
G1 X192.376 Y208.027
G1 X191.887 Y207.072
G1 X191.477 Y206.241
G1 X191.008 Y205.325
G1 X190.523 Y204.499
G1 X190.128 Y203.665
G1 X189.517 Y202.749
G1 X189.059 Y201.930
G1 X188.642 Y201.037
G1 X188.179 Y200.212
G1 X187.686 Y199.322
G1 X187.275 Y198.388
G1 X186.676 Y197.477
G1 X186.308 Y196.754
G1 X185.815 Y195.737
G1 X185.312 Y194.918
G1 X184.794 Y194.086
G1 X184.341 Y193.153
G1 X183.823 Y192.389
G1 X183.362 Y191.477
G1 X182.828 Y190.593
G1 X182.343 Y189.732
G1 X181.978 Y188.765
G1 X181.452 Y188.012
G1 X181.046 Y187.131
G1 X180.474 Y186.282
G1 X179.965 Y185.420
G1 X179.583 Y184.500
G1 X179.030 Y183.635
G1 X178.586 Y182.674
G1 X178.132 Y181.825
G1 X177.627 Y180.919
G1 X177.091 Y180.157
G1 X176.577 Y179.209
G1 X176.171 Y178.367
G1 X175.655 Y177.578
G1 X175.231 Y176.626
G1 X174.817 Y175.839
G1 X174.236 Y174.933
G1 X173.891 Y174.156
G1 X173.306 Y173.323
G1 X172.971 Y172.428
G1 X172.357 Y171.661
G1 X171.966 Y170.772
G1 X171.550 Y169.896
G1 X171.052 Y169.029
G1 X170.499 Y168.130
G1 X170.095 Y167.367
G1 X169.639 Y166.543
G1 X169.121 Y165.634
G1 X168.710 Y164.837
G1 X168.165 Y163.931
G1 X167.682 Y163.088
G1 X167.236 Y162.313
G1 X166.727 Y161.479
G1 X166.415 Y160.481
G1 X165.803 Y159.702
G1 X165.450 Y158.938
G1 X164.909 Y158.007
G1 X164.466 Y157.223
G1 X164.039 Y156.259
G1 X163.562 Y155.448
G1 X163.060 Y154.624
G1 X162.634 Y153.824
G1 X162.048 Y152.924
G1 X161.683 Y152.066
G1 X161.228 Y151.252
G1 X160.723 Y150.303
G1 X160.288 Y149.462
G1 X159.743 Y148.546
G1 X159.315 Y147.715
G1 X158.811 Y146.817
G1 X158.257 Y146.016
G1 X157.793 Y145.236
G1 X157.323 Y144.356
G1 X156.867 Y143.483
G1 X156.484 Y142.648
G1 X155.920 Y141.764
G1 X155.409 Y140.842
G1 X155.084 Y140.061
G1 X154.468 Y139.098
G1 X154.123 Y138.294
G1 X153.649 Y137.425
G1 X153.062 Y136.495
G1 X152.601 Y135.708
G1 X152.167 Y134.813
G1 X151.770 Y133.989
G1 X151.180 Y133.094
G1 X150.809 Y132.239
G1 X150.268 Y131.417
G1 X149.780 Y130.532
G1 X149.414 Y129.800
G1 X148.893 Y128.832
G1 X148.491 Y128.065
G1 X147.896 Y127.201
G1 X147.554 Y126.346
G1 X147.094 Y125.545
G1 X146.650 Y124.729
G1 X146.045 Y123.892
G1 X145.624 Y123.020
G1 X145.156 Y122.228
G1 X144.792 Y121.273
G1 X144.343 Y120.511
G1 X143.789 Y119.608
G1 X143.290 Y118.803
G1 X142.950 Y118.010
G1 X142.407 Y117.020
G1 X142.042 Y116.219
G1 X141.490 Y115.460
G1 X141.111 Y114.601
G1 X140.659 Y113.720
G1 X140.174 Y112.946
G1 X139.650 Y112.088
G1 X139.172 Y111.135
G1 X138.758 Y110.357
G1 X138.242 Y109.536
G1 X137.866 Y108.637
G1 X137.322 Y107.747
G1 X136.867 Y106.840
G1 X136.484 Y106.109
G1 X135.920 Y105.116
G1 X135.510 Y104.369
G1 X135.081 Y103.486
G1 X134.622 Y102.628
G1 X134.110 Y101.745
G1 X133.712 Y100.847
G1 X133.236 Y99.925
G1 X132.665 Y99.049
G1 X132.214 Y98.285
G1 X131.757 Y97.350
G1 X131.378 Y96.562
G1 X130.854 Y95.617
G1 X130.411 Y94.809
G1 X129.993 Y93.937
G1 X129.489 Y93.054
G1 X129.120 Y92.252
G1 X128.575 Y91.269
G1 X128.224 Y90.456
G1 X127.719 Y89.620
G1 X127.399 Y88.830
G1 X126.945 Y87.967
G1 X126.516 Y87.133
G1 X125.960 Y86.158
G1 X125.514 Y85.452
G1 X125.111 Y84.548
G1 X124.650 Y83.621
G1 X124.212 Y82.798
G1 X123.776 Y81.897
G1 X123.422 Y81.117
G1 X123.128 Y80.361
G1 X122.851 Y79.509
G1 X122.524 Y78.651
G1 X122.151 Y77.731
G1 X121.847 Y77.016
G1 X121.518 Y76.156
G1 X122.067 Y76.736
G1 X122.633 Y77.394
G1 X123.267 Y78.022
G1 X123.877 Y78.675
G1 X124.418 Y79.246
G1 X124.984 Y79.989
G1 X125.509 Y80.802
G1 X125.975 Y81.556
G1 X126.598 Y82.349
G1 X127.080 Y83.126
G1 X127.610 Y83.929
G1 X128.195 Y84.605
G1 X128.809 Y85.467
G1 X129.282 Y86.211
G1 X129.793 Y87.035
G1 X130.360 Y87.744
G1 X130.964 Y88.507
G1 X131.481 Y89.311
G1 X131.957 Y90.045
G1 X132.612 Y90.902
G1 X133.140 Y91.684
G1 X133.609 Y92.576
G1 X134.136 Y93.341
G1 X134.647 Y94.196
G1 X135.268 Y95.049
G1 X135.805 Y95.880
G1 X136.318 Y96.656
G1 X136.932 Y97.433
G1 X137.347 Y98.196
G1 X137.933 Y99.059
G1 X138.425 Y99.819
G1 X139.063 Y100.716
G1 X139.521 Y101.540
G1 X140.106 Y102.241
G1 X140.619 Y103.199
G1 X141.181 Y104.000
G1 X141.745 Y104.744
G1 X142.307 Y105.609
G1 X142.884 Y106.482
G1 X143.365 Y107.263
G1 X143.952 Y108.007
G1 X144.400 Y108.890
G1 X145.069 Y109.690
G1 X145.581 Y110.528
G1 X146.167 Y111.459
G1 X146.693 Y112.326
G1 X147.180 Y113.035
G1 X147.651 Y113.969
G1 X148.217 Y114.826
G1 X148.800 Y115.589
G1 X149.421 Y116.381
G1 X149.838 Y117.182
G1 X150.387 Y118.159
G1 X150.975 Y118.929
G1 X151.465 Y119.726
G1 X152.080 Y120.641
G1 X152.603 Y121.414
G1 X153.085 Y122.281
G1 X153.683 Y123.037
G1 X154.252 Y123.933
G1 X154.860 Y124.824
G1 X155.291 Y125.575
G1 X155.832 Y126.345
G1 X156.371 Y127.227
G1 X156.872 Y127.956
G1 X157.495 Y128.783
G1 X157.896 Y129.693
G1 X158.536 Y130.517
G1 X159.067 Y131.313
G1 X159.519 Y132.116
G1 X160.020 Y132.911
G1 X160.603 Y133.712
G1 X161.215 Y134.611
G1 X161.698 Y135.392
G1 X162.243 Y136.232
G1 X162.702 Y137.125
G1 X163.275 Y137.849
G1 X163.743 Y138.655
G1 X164.322 Y139.575
G1 X164.807 Y140.345
G1 X165.399 Y141.225
G1 X165.852 Y141.998
G1 X166.432 Y142.840
G1 X167.025 Y143.636
G1 X167.480 Y144.484
G1 X168.039 Y145.268
G1 X168.586 Y146.129
G1 X169.141 Y146.856
G1 X169.599 Y147.673
G1 X170.106 Y148.454
G1 X170.587 Y149.331
G1 X171.138 Y150.155
G1 X171.698 Y150.935
G1 X172.191 Y151.722
G1 X172.680 Y152.498
G1 X173.291 Y153.399
G1 X173.731 Y154.202
G1 X174.317 Y154.943
G1 X174.894 Y155.764
G1 X175.389 Y156.627
G1 X175.798 Y157.374
G1 X176.392 Y158.178
G1 X176.907 Y159.078
G1 X177.487 Y159.892
G1 X177.976 Y160.697
G1 X178.412 Y161.488
G1 X179.021 Y162.296
G1 X179.520 Y163.041
G1 X179.980 Y163.856
G1 X180.567 Y164.721
G1 X181.092 Y165.453
G1 X181.558 Y166.373
G1 X182.146 Y167.140
G1 X182.638 Y168.047
G1 X183.211 Y168.865
G1 X183.712 Y169.652
G1 X184.318 Y170.488
G1 X184.869 Y171.254
G1 X185.439 Y172.188
G1 X185.939 Y172.887
G1 X186.437 Y173.859
G1 X186.939 Y174.630
G1 X187.485 Y175.438
G1 X188.036 Y176.225
G1 X188.629 Y177.147
G1 X189.138 Y178.012
G1 X189.612 Y178.738
G1 X190.252 Y179.559
G1 X190.806 Y180.493
G1 X191.346 Y181.329
G1 X191.821 Y182.103
G1 X192.373 Y182.878
G1 X192.961 Y183.751
G1 X193.531 Y184.623
G1 X194.048 Y185.467
G1 X194.576 Y186.283
G1 X195.146 Y187.109
G1 X195.613 Y187.939
G1 X196.132 Y188.800
G1 X196.631 Y189.664
G1 X197.309 Y190.430
G1 X197.819 Y191.203
G1 X198.278 Y192.036
G1 X198.916 Y192.897
G1 X199.395 Y193.682
G1 X199.953 Y194.447
G1 X200.455 Y195.324
G1 X200.991 Y196.241
G1 X201.572 Y197.030
G1 X202.130 Y197.819
G1 X202.627 Y198.605
G1 X203.161 Y199.464
G1 X203.643 Y200.289
G1 X204.320 Y201.096
G1 X204.792 Y201.903
G1 X205.303 Y202.700
G1 X205.806 Y203.536
G1 X206.372 Y204.417
G1 X206.954 Y205.191
G1 X207.479 Y206.055
; Path 49
G0 Z0
G0 X207.472 Y206.043
G0 Z2.2
G1 F3000
G1 X206.999 Y205.211
G1 X206.432 Y204.285
G1 X206.008 Y203.556
G1 X205.462 Y202.647
G1 X205.088 Y201.823
G1 X204.580 Y200.866
G1 X204.160 Y200.144
G1 X203.620 Y199.163
G1 X203.191 Y198.438
G1 X202.716 Y197.535
G1 X202.140 Y196.685
G1 X201.676 Y195.826
G1 X201.134 Y195.045
G1 X200.716 Y194.187
G1 X200.312 Y193.255
G1 X199.676 Y192.397
G1 X199.291 Y191.616
G1 X198.822 Y190.792
G1 X198.284 Y189.816
G1 X197.826 Y189.011
G1 X197.284 Y188.252
G1 X196.924 Y187.247
G1 X196.334 Y186.415
G1 X195.889 Y185.624
G1 X195.412 Y184.773
G1 X194.991 Y183.975
G1 X194.420 Y183.127
G1 X193.922 Y182.124
G1 X193.516 Y181.296
G1 X192.946 Y180.506
G1 X192.423 Y179.547
G1 X191.993 Y178.737
G1 X191.585 Y177.852
G1 X191.069 Y176.983
G1 X190.483 Y176.142
G1 X190.008 Y175.376
G1 X189.497 Y174.431
G1 X189.064 Y173.664
G1 X188.544 Y172.768
G1 X188.086 Y171.834
G1 X187.581 Y171.078
G1 X187.061 Y170.153
G1 X186.567 Y169.357
G1 X186.130 Y168.418
G1 X185.680 Y167.657
G1 X185.104 Y166.778
G1 X184.618 Y165.842
G1 X184.267 Y165.008
G1 X183.775 Y164.247
G1 X183.162 Y163.333
G1 X182.744 Y162.461
G1 X182.273 Y161.568
G1 X181.832 Y160.799
G1 X181.210 Y159.843
G1 X180.787 Y158.996
G1 X180.353 Y158.105
G1 X179.800 Y157.315
G1 X179.254 Y156.384
G1 X178.859 Y155.482
G1 X178.255 Y154.593
G1 X177.775 Y153.846
G1 X177.341 Y152.864
G1 X176.854 Y151.995
G1 X176.393 Y151.151
G1 X175.910 Y150.340
G1 X175.333 Y149.405
G1 X174.923 Y148.523
G1 X174.433 Y147.712
G1 X173.937 Y146.834
G1 X173.430 Y146.025
G1 X172.836 Y145.088
G1 X172.381 Y144.237
G1 X171.886 Y143.403
G1 X171.361 Y142.580
G1 X170.881 Y141.593
G1 X170.469 Y140.834
G1 X170.030 Y139.893
G1 X169.456 Y139.064
G1 X168.974 Y138.201
G1 X168.458 Y137.370
G1 X167.934 Y136.584
G1 X167.477 Y135.681
G1 X167.022 Y134.835
G1 X166.633 Y133.945
G1 X166.044 Y133.137
G1 X165.602 Y132.293
G1 X165.082 Y131.481
G1 X164.574 Y130.573
G1 X164.114 Y129.744
G1 X163.718 Y128.960
G1 X163.280 Y128.005
G1 X162.720 Y127.161
G1 X162.201 Y126.337
G1 X161.733 Y125.523
G1 X161.336 Y124.595
G1 X160.730 Y123.842
G1 X160.399 Y122.887
G1 X159.899 Y122.169
G1 X159.363 Y121.263
G1 X158.854 Y120.479
G1 X158.357 Y119.603
G1 X157.962 Y118.738
G1 X157.518 Y117.888
G1 X156.888 Y116.973
G1 X156.537 Y116.178
G1 X156.020 Y115.302
G1 X155.516 Y114.489
G1 X155.037 Y113.559
G1 X154.583 Y112.831
G1 X154.077 Y111.861
G1 X153.618 Y111.025
G1 X153.076 Y110.221
G1 X152.575 Y109.285
G1 X152.069 Y108.409
G1 X151.638 Y107.655
G1 X151.074 Y106.796
G1 X150.636 Y105.897
G1 X150.096 Y105.061
G1 X149.710 Y104.144
G1 X149.154 Y103.367
G1 X148.640 Y102.423
G1 X148.267 Y101.640
G1 X147.764 Y100.680
G1 X147.260 Y99.855
G1 X146.665 Y98.986
G1 X146.298 Y98.164
G1 X145.727 Y97.213
G1 X145.298 Y96.395
G1 X144.792 Y95.542
G1 X144.268 Y94.647
G1 X143.749 Y93.787
G1 X143.308 Y92.972
G1 X142.887 Y92.085
G1 X142.381 Y91.357
G1 X141.866 Y90.383
G1 X141.477 Y89.567
G1 X140.845 Y88.748
G1 X140.510 Y87.981
G1 X140.018 Y87.009
G1 X139.514 Y86.232
G1 X139.014 Y85.405
G1 X138.477 Y84.499
G1 X138.114 Y83.770
G1 X137.630 Y82.914
G1 X137.097 Y82.094
G1 X136.634 Y81.177
G1 X136.156 Y80.344
G1 X135.668 Y79.478
G1 X135.152 Y78.618
G1 X134.733 Y77.898
G1 X134.270 Y77.015
G1 X133.762 Y76.209
G1 X133.287 Y75.297
G1 X132.839 Y74.472
G1 X132.372 Y73.670
G1 X131.879 Y72.820
G1 X131.512 Y71.985
G1 X131.011 Y71.244
G1 X130.488 Y70.469
G1 X130.102 Y69.595
G1 X129.577 Y68.858
G1 X129.227 Y67.993
G1 X128.709 Y67.184
G1 X128.283 Y66.327
G1 X127.845 Y65.536
G1 X127.332 Y64.724
G1 X126.889 Y63.884
G1 X126.389 Y63.110
G1 X125.994 Y62.197
G1 X125.383 Y61.454
G1 X125.011 Y60.583
G1 X124.481 Y59.794
G1 X124.079 Y58.893
G1 X123.551 Y58.056
G1 X123.993 Y58.806
G1 X124.477 Y59.695
G1 X124.884 Y60.383
G1 X125.399 Y61.233
G1 X125.825 Y62.013
G1 X126.316 Y62.928
G1 X126.922 Y63.808
G1 X127.318 Y64.660
G1 X127.817 Y65.492
G1 X128.275 Y66.341
G1 X128.806 Y67.215
G1 X129.265 Y68.161
G1 X129.807 Y68.998
G1 X130.387 Y69.851
G1 X130.790 Y70.699
G1 X131.308 Y71.545
G1 X131.862 Y72.319
G1 X132.277 Y73.199
G1 X132.721 Y74.016
G1 X133.228 Y74.855
G1 X133.707 Y75.734
G1 X134.087 Y76.494
G1 X134.614 Y77.338
G1 X135.186 Y78.251
G1 X135.520 Y79.031
G1 X136.107 Y79.888
G1 X136.502 Y80.639
G1 X136.946 Y81.573
G1 X137.480 Y82.385
G1 X137.953 Y83.174
G1 X138.364 Y84.016
G1 X138.847 Y84.907
G1 X139.313 Y85.671
G1 X139.849 Y86.503
G1 X140.340 Y87.344
G1 X140.840 Y88.160
G1 X141.264 Y89.114
G1 X141.823 Y89.910
G1 X142.249 Y90.764
G1 X142.838 Y91.551
G1 X143.257 Y92.536
G1 X143.736 Y93.371
G1 X144.295 Y94.141
G1 X144.748 Y95.002
G1 X145.280 Y95.900
G1 X145.676 Y96.689
G1 X146.266 Y97.522
G1 X146.659 Y98.466
G1 X147.169 Y99.321
G1 X147.674 Y100.108
G1 X148.176 Y101.081
G1 X148.626 Y101.878
G1 X149.088 Y102.714
G1 X149.624 Y103.573
G1 X150.027 Y104.461
G1 X150.611 Y105.346
G1 X151.075 Y106.148
G1 X151.559 Y106.985
G1 X152.014 Y107.850
G1 X152.570 Y108.619
G1 X152.966 Y109.462
G1 X153.499 Y110.363
G1 X153.921 Y111.146
G1 X154.396 Y112.042
G1 X154.990 Y112.853
G1 X155.331 Y113.665
G1 X155.889 Y114.539
G1 X156.334 Y115.347
G1 X156.902 Y116.227
G1 X157.333 Y117.100
G1 X157.825 Y117.917
G1 X158.195 Y118.728
G1 X158.687 Y119.526
G1 X159.287 Y120.363
G1 X159.647 Y121.340
G1 X160.191 Y122.034
G1 X160.626 Y122.933
G1 X161.104 Y123.817
G1 X161.614 Y124.602
G1 X162.049 Y125.486
G1 X162.553 Y126.345
G1 X163.062 Y127.218
G1 X163.559 Y127.979
G1 X164.027 Y128.820
G1 X164.502 Y129.667
G1 X164.991 Y130.524
G1 X165.526 Y131.433
G1 X166.066 Y132.266
G1 X166.556 Y133.186
G1 X166.937 Y133.987
G1 X167.474 Y134.855
G1 X167.959 Y135.749
G1 X168.474 Y136.582
G1 X168.964 Y137.386
G1 X169.398 Y138.331
G1 X169.910 Y139.114
G1 X170.401 Y139.937
G1 X170.956 Y140.810
G1 X171.463 Y141.795
G1 X171.947 Y142.638
G1 X172.450 Y143.457
G1 X172.952 Y144.355
G1 X173.403 Y145.166
G1 X173.810 Y146.106
G1 X174.426 Y146.932
G1 X174.820 Y147.785
G1 X175.276 Y148.559
G1 X175.880 Y149.533
G1 X176.337 Y150.334
G1 X176.807 Y151.204
G1 X177.230 Y152.030
G1 X177.703 Y152.963
G1 X178.247 Y153.803
G1 X178.690 Y154.544
G1 X179.290 Y155.394
G1 X179.782 Y156.329
G1 X180.153 Y157.213
G1 X180.669 Y158.027
G1 X181.213 Y158.925
G1 X181.671 Y159.768
G1 X182.085 Y160.547
G1 X182.646 Y161.359
G1 X183.062 Y162.260
G1 X183.608 Y163.047
G1 X184.104 Y164.047
G1 X184.660 Y164.770
G1 X185.001 Y165.704
G1 X185.618 Y166.521
G1 X186.045 Y167.462
G1 X186.520 Y168.179
G1 X186.963 Y169.107
G1 X187.552 Y169.976
G1 X187.984 Y170.854
G1 X188.445 Y171.619
G1 X188.963 Y172.491
G1 X189.470 Y173.382
G1 X189.951 Y174.134
G1 X190.396 Y175.020
G1 X190.828 Y175.879
G1 X191.384 Y176.730
G1 X191.792 Y177.506
G1 X192.310 Y178.465
G1 X192.775 Y179.163
G1 X193.250 Y180.141
G1 X193.707 Y180.914
G1 X194.328 Y181.826
G1 X194.665 Y182.583
G1 X195.269 Y183.480
G1 X195.704 Y184.330
G1 X196.228 Y185.130
G1 X196.705 Y185.904
G1 X197.100 Y186.824
G1 X197.678 Y187.668
G1 X198.180 Y188.581
G1 X198.576 Y189.327
G1 X199.133 Y190.134
G1 X199.556 Y191.034
; Path 50
G0 Z0
G0 X201.113 Y195.185
G0 Z2.2
G1 F3000
G1 X201.914 Y197.124
; Path 51
G0 Z0
G0 X202.932 Y197.237
G0 Z2.2
G1 F3000
G1 X203.942 Y198.982
; Path 52
G0 Z0
G0 X203.899 Y198.912
G0 Z2.2
G1 F3000
G1 X203.072 Y197.264
; Path 53
G0 Z0
G0 X205.193 Y199.100
G0 Z2.2
G1 F3000
G1 X206.007 Y200.927
; Path 54
G0 Z0
G0 X204.009 Y201.153
G0 Z2.2
G1 F3000
G1 X205.120 Y202.821
; Path 55
G0 Z0
G0 X205.019 Y202.934
G0 Z2.2
G1 F3000
G1 X203.905 Y201.230
; Path 56
G0 Z0
G0 X202.258 Y203.147
G0 Z2.2
G1 F3000
G1 X202.552 Y205.144
; Path 57
G0 Z0
G0 X204.369 Y205.200
G0 Z2.2
G1 F3000
G1 X204.821 Y207.111
; Path 58
G0 Z0
G0 X203.340 Y207.120
G0 Z2.2
G1 F3000
G1 X203.845 Y209.030
; Path 59
G0 Z0
G0 X203.739 Y209.032
G0 Z2.2
G1 F3000
G1 X203.237 Y207.204
; Path 60
G0 Z0
G0 X199.693 Y207.013
G0 Z2.2
G1 F3000
G1 X199.523 Y205.015
; Path 61
G0 Z0
G0 X197.410 Y203.046
G0 Z2.2
G1 F3000
G1 X197.415 Y201.075
; Path 62
G0 Z0
G0 X193.508 Y196.007
G0 Z2.2
G1 F3000
G1 X193.575 Y197.037
G1 X193.702 Y197.866
G1 X193.709 Y198.939
G1 X193.824 Y199.914
G1 X193.900 Y200.844
G1 X194.095 Y201.815
G1 X194.192 Y202.741
G1 X194.287 Y203.739
G1 X194.313 Y204.649
G1 X194.360 Y205.542
G1 X194.507 Y206.598
G1 X194.605 Y207.457
G1 X194.616 Y208.421
G1 X194.810 Y209.440
G1 X194.930 Y210.341
G1 X194.931 Y211.334
G1 X195.087 Y212.232
G1 X195.223 Y213.190
G1 X195.263 Y214.166
G1 X195.350 Y215.135
G1 X195.443 Y216.110
G1 X195.504 Y217.075
G1 X195.602 Y218.013
; Path 63
G0 Z0
G0 X195.542 Y218.150
G0 Z2.2
G1 F3000
G1 X195.523 Y217.237
G1 X195.365 Y216.306
G1 X195.213 Y215.284
G1 X195.264 Y214.250
G1 X195.094 Y213.337
G1 X195.067 Y212.450
G1 X194.878 Y211.375
G1 X194.858 Y210.475
G1 X194.798 Y209.502
G1 X194.592 Y208.603
G1 X194.546 Y207.628
G1 X194.513 Y206.726
G1 X194.407 Y205.739
G1 X194.332 Y204.790
G1 X194.163 Y203.750
G1 X194.090 Y202.763
G1 X194.036 Y201.840
G1 X193.930 Y200.931
G1 X193.790 Y199.911
G1 X193.720 Y198.973
G1 X193.713 Y198.025
G1 X193.612 Y197.066
G1 X193.484 Y196.118
; Path 64
G0 Z0
G0 X191.499 Y204.010
G0 Z2.2
G1 F3000
G1 X190.830 Y204.649
G1 X190.249 Y205.413
G1 X189.730 Y206.079
G1 X189.123 Y206.837
G1 X188.530 Y207.512
G1 X187.890 Y208.190
G1 X187.295 Y208.907
G1 X186.659 Y209.616
G1 X186.058 Y210.380
G1 X185.520 Y211.017
; Path 65
G0 Z0
G0 X185.544 Y211.093
G0 Z2.2
G1 F3000
G1 X186.091 Y210.457
G1 X186.660 Y209.639
G1 X187.265 Y208.943
G1 X187.939 Y208.241
G1 X188.590 Y207.533
G1 X189.113 Y206.829
G1 X189.733 Y206.096
G1 X190.367 Y205.443
G1 X190.843 Y204.786
G1 X191.519 Y204.056
; Path 66
G0 Z0
G0 X189.466 Y206.060
G0 Z2.2
G1 F3000
G1 X189.026 Y206.807
G1 X188.569 Y207.631
G1 X188.005 Y208.278
G1 X187.578 Y209.075
; Path 67
G0 Z0
G0 X188.494 Y208.012
G0 Z2.2
G1 F3000
G1 X187.773 Y208.689
G1 X187.091 Y209.324
G1 X186.471 Y210.039
; Path 68
G0 Z0
G0 X189.678 Y215.110
G0 Z2.2
G1 F3000
G1 X189.404 Y217.061
; Path 69
G0 Z0
G0 X192.118 Y215.025
G0 Z2.2
G1 F3000
G1 X192.888 Y213.184
; Path 70
G0 Z0
G0 X198.378 Y209.069
G0 Z2.2
G1 F3000
G1 X198.511 Y211.032
; Path 71
G0 Z0
G0 X200.732 Y215.117
G0 Z2.2
G1 F3000
G1 X200.348 Y213.165
; Path 72
G0 Z0
G0 X203.755 Y213.117
G0 Z2.2
G1 F3000
G1 X203.152 Y211.158
; Path 73
G0 Z0
G0 X205.783 Y211.015
G0 Z2.2
G1 F3000
G1 X205.213 Y209.174
; Path 74
G0 Z0
G0 X209.528 Y207.026
G0 Z2.2
G1 F3000
G1 X209.756 Y207.929
G1 X209.842 Y208.747
G1 X210.074 Y209.445
G1 X210.197 Y210.397
G1 X210.452 Y211.148
; Path 75
G0 Z0
G0 X210.515 Y209.011
G0 Z2.2
G1 F3000
G1 X210.765 Y209.834
G1 X211.009 Y210.521
G1 X211.276 Y211.225
G1 X211.538 Y212.009
; Path 76
G0 Z0
G0 X212.495 Y214.032
G0 Z2.2
G1 F3000
G1 X212.085 Y213.134
G1 X211.606 Y212.375
G1 X211.310 Y211.572
G1 X210.858 Y210.671
G1 X210.434 Y209.890
G1 X210.094 Y209.067
G1 X209.629 Y208.213
G1 X209.269 Y207.347
G1 X208.832 Y206.596
G1 X208.427 Y205.683
G1 X208.031 Y204.874
G1 X207.589 Y204.011
; Path 77
G0 Z0
G0 X207.555 Y204.038
G0 Z2.2
G1 F3000
G1 X207.959 Y204.914
G1 X208.336 Y205.768
G1 X208.766 Y206.595
G1 X209.216 Y207.394
G1 X209.549 Y208.244
G1 X209.979 Y209.094
G1 X210.457 Y209.854
G1 X210.908 Y210.792
G1 X211.241 Y211.674
G1 X211.667 Y212.382
G1 X212.016 Y213.340
G1 X212.473 Y214.116
; Path 78
G0 Z0
G0 X205.482 Y227.020
G0 Z2.2
G1 F3000
G1 X205.222 Y227.018
G1 X204.879 Y227.108
G1 X204.484 Y227.129
; Path 79
G0 Z0
G0 X203.589 Y227.080
G0 Z2.2
G1 F3000
G1 X203.433 Y226.286
G1 X203.359 Y225.369
G1 X203.103 Y224.451
G1 X202.981 Y223.709
G1 X202.939 Y222.805
G1 X202.802 Y221.894
G1 X202.589 Y221.119
; Path 80
G0 Z0
G0 X202.472 Y221.078
G0 Z2.2
G1 F3000
G1 X202.710 Y222.017
G1 X202.723 Y222.847
G1 X202.980 Y223.620
G1 X203.193 Y224.543
G1 X203.255 Y225.394
G1 X203.459 Y226.210
G1 X203.596 Y227.133
; Path 81
G0 Z0
G0 X203.585 Y227.122
G0 Z2.2
G1 F3000
G1 X204.563 Y227.145
G1 X205.630 Y227.025
G1 X206.540 Y227.027
; Path 82
G0 Z0
G0 X206.459 Y227.139
G0 Z2.2
G1 F3000
G1 X205.422 Y227.075
G1 X204.530 Y227.153
G1 X203.560 Y227.042
; Path 83
G0 Z0
G0 X197.570 Y226.162
G0 Z2.2
G1 F3000
G1 X196.869 Y226.123
G1 X196.023 Y226.157
G1 X195.345 Y226.161
G1 X194.525 Y226.153
; Path 84
G0 Z0
G0 X194.563 Y226.123
G0 Z2.2
G1 F3000
G1 X194.859 Y225.331
G1 X195.138 Y224.512
G1 X195.450 Y223.673
G1 X195.781 Y222.787
G1 X196.212 Y221.931
G1 X196.467 Y221.139
; Path 85
G0 Z0
G0 X196.461 Y221.045
G0 Z2.2
G1 F3000
G1 X196.176 Y221.859
G1 X195.879 Y222.636
G1 X195.489 Y223.565
G1 X195.224 Y224.438
G1 X194.930 Y225.154
G1 X194.575 Y226.033
; Path 86
G0 Z0
G0 X194.590 Y226.020
G0 Z2.2
G1 F3000
G1 X195.628 Y225.973
G1 X196.578 Y226.132
G1 X197.513 Y226.098
; Path 87
G0 Z0
G0 X195.523 Y226.103
G0 Z2.2
G1 F3000
G1 X195.845 Y226.119
G1 X196.117 Y226.150
G1 X196.480 Y226.062
; Path 88
G0 Z0
G0 X184.371 Y220.074
G0 Z2.2
G1 F3000
G1 X184.646 Y222.100
; Path 89
G0 Z0
G0 X181.383 Y222.128
G0 Z2.2
G1 F3000
G1 X181.731 Y224.090
; Path 90
G0 Z0
G0 X176.249 Y227.134
G0 Z2.2
G1 F3000
G1 X176.843 Y229.039
; Path 91
G0 Z0
G0 X173.881 Y231.005
G0 Z2.2
G1 F3000
G1 X173.204 Y229.145
; Path 92
G0 Z0
G0 X168.128 Y234.185
G0 Z2.2
G1 F3000
G1 X168.915 Y236.032
; Path 93
G0 Z0
G0 X164.972 Y238.980
G0 Z2.2
G1 F3000
G1 X164.117 Y237.153
; Path 94
G0 Z0
G0 X183.506 Y171.099
G0 Z2.2
G1 F3000
G1 X185.522 Y171.095
; Path 95
G0 Z0
G0 X185.010 Y171.938
G0 Z2.2
G1 F3000
G1 X183.980 Y170.211
; Path 96
G0 Z0
G0 X184.514 Y171.064
G0 Z2.2
G1 F3000
G1 X183.499 Y169.422
G1 X182.551 Y167.729
G1 X181.536 Y166.104
; Path 97
G0 Z0
G0 X169.900 Y179.025
G0 Z2.2
G1 F3000
G1 X169.122 Y177.197
; Path 98
G0 Z0
G0 X162.509 Y181.095
G0 Z2.2
G1 F3000
G1 X161.506 Y179.437
G1 X160.508 Y177.729
G1 X159.502 Y176.072
; Path 99
G0 Z0
G0 X159.017 Y175.238
G0 Z2.2
G1 F3000
G1 X159.997 Y176.943
; Path 100
G0 Z0
G0 X160.530 Y176.063
G0 Z2.2
G1 F3000
G1 X158.512 Y176.105
; Path 101
G0 Z0
G0 X135.535 Y173.152
G0 Z2.2
G1 F3000
G1 X133.516 Y172.972
; Path 102
G0 Z0
G0 X124.521 Y163.097
G0 Z2.2
G1 F3000
G1 X124.886 Y163.167
G1 X125.221 Y163.199
G1 X125.564 Y163.260
G1 X125.914 Y163.301
G1 X126.253 Y163.376
G1 X126.604 Y163.403
G1 X126.943 Y163.436
G1 X127.293 Y163.505
G1 X127.659 Y163.559
G1 X127.983 Y163.606
G1 X128.324 Y163.660
G1 X128.679 Y163.708
G1 X129.032 Y163.789
G1 X129.381 Y163.810
G1 X129.749 Y163.864
G1 X130.094 Y163.910
G1 X130.458 Y163.984
G1 X130.819 Y164.011
G1 X131.182 Y164.078
G1 X131.559 Y164.111
G1 X131.952 Y164.180
G1 X132.317 Y164.210
G1 X132.732 Y164.272
G1 X133.090 Y164.308
G1 X133.466 Y164.343
G1 X133.875 Y164.406
G1 X134.259 Y164.470
G1 X134.671 Y164.504
G1 X135.097 Y164.581
G1 X135.474 Y164.601
G1 X135.882 Y164.627
G1 X136.281 Y164.698
G1 X136.660 Y164.757
G1 X137.091 Y164.795
G1 X137.498 Y164.860
G1 X137.899 Y164.892
G1 X138.299 Y164.912
G1 X138.704 Y164.989
G1 X139.081 Y165.013
G1 X139.502 Y165.087
; Path 103
G0 Z0
G0 X144.539 Y161.089
G0 Z2.2
G1 F3000
G1 X145.022 Y161.052
G1 X145.541 Y161.041
G1 X146.021 Y161.009
G1 X146.543 Y160.994
G1 X147.029 Y160.965
G1 X147.546 Y160.947
G1 X148.048 Y160.927
G1 X148.548 Y160.900
G1 X149.064 Y160.857
G1 X149.550 Y160.853
G1 X150.054 Y160.835
G1 X150.552 Y160.805
G1 X151.041 Y160.787
G1 X151.554 Y160.758
G1 X152.058 Y160.753
G1 X152.556 Y160.709
G1 X153.033 Y160.670
G1 X153.557 Y160.659
G1 X154.058 Y160.634
G1 X154.558 Y160.609
G1 X155.056 Y160.558
G1 X155.559 Y160.557
G1 X156.068 Y160.530
G1 X156.559 Y160.504
G1 X157.058 Y160.500
G1 X157.559 Y160.450
G1 X158.050 Y160.438
G1 X158.559 Y160.396
G1 X159.040 Y160.395
G1 X159.559 Y160.341
G1 X160.062 Y160.329
G1 X160.558 Y160.285
G1 X161.068 Y160.246
G1 X161.557 Y160.230
G1 X162.056 Y160.221
G1 X162.557 Y160.175
G1 X163.047 Y160.139
G1 X163.557 Y160.119
G1 X164.041 Y160.108
G1 X164.556 Y160.065
; Path 104
G0 Z0
G0 X174.531 Y126.082
G0 Z2.2
G1 F3000
G1 X176.197 Y123.102
G1 X177.864 Y120.018
G1 X179.531 Y116.864
G1 X181.197 Y113.675
G1 X182.864 Y110.486
G1 X184.531 Y107.332
G1 X186.197 Y104.248
G1 X187.864 Y101.268
G1 X189.531 Y98.426
G1 X191.197 Y95.758
G1 X192.864 Y93.299
G1 X194.531 Y91.082
G1 X196.197 Y89.132
G1 X197.864 Y87.425
G1 X199.531 Y85.926
G1 X201.197 Y84.601
G1 X202.864 Y83.415
G1 X204.531 Y82.332
G1 X206.197 Y81.320
G1 X207.864 Y80.342
G1 X209.531 Y79.364
G1 X211.197 Y78.351
G1 X212.864 Y77.269
G1 X214.531 Y76.082
; Path 105
G1 X215.781 Y77.717
G1 X217.031 Y79.300
G1 X218.281 Y80.848
G1 X219.531 Y82.379
G1 X220.781 Y83.909
G1 X222.031 Y85.457
G1 X223.281 Y87.040
G1 X224.531 Y88.675
G1 X225.781 Y90.379
G1 X227.031 Y92.170
G1 X228.281 Y94.066
G1 X229.531 Y96.082
G1 X230.781 Y98.232
G1 X232.031 Y100.504
G1 X233.281 Y102.879
G1 X234.531 Y105.342
G1 X235.781 Y107.874
G1 X237.031 Y110.457
G1 X238.281 Y113.076
G1 X239.531 Y115.712
G1 X240.781 Y118.348
G1 X242.031 Y120.967
G1 X243.281 Y123.551
G1 X244.531 Y126.082
; Path 106
G0 Z0
G0 X244.509 Y126.081
G0 Z2.2
G1 F3000
G1 X243.742 Y124.556
G1 X243.010 Y123.039
G1 X242.279 Y121.458
G1 X241.511 Y119.928
G1 X240.734 Y118.334
G1 X240.012 Y116.777
G1 X239.282 Y115.200
G1 X238.514 Y113.615
G1 X237.758 Y112.042
G1 X237.015 Y110.474
G1 X236.289 Y108.946
G1 X235.516 Y107.383
G1 X234.764 Y105.865
G1 X234.017 Y104.371
G1 X233.252 Y102.938
G1 X232.517 Y101.468
G1 X231.758 Y100.112
G1 X231.018 Y98.705
G1 X230.246 Y97.438
G1 X229.518 Y96.111
G1 X228.762 Y94.906
G1 X228.019 Y93.706
G1 X227.258 Y92.574
G1 X226.519 Y91.471
G1 X225.794 Y90.441
G1 X225.018 Y89.374
G1 X224.256 Y88.396
G1 X223.518 Y87.387
G1 X222.759 Y86.404
G1 X222.018 Y85.480
G1 X221.264 Y84.528
G1 X220.517 Y83.622
G1 X219.775 Y82.695
G1 X219.017 Y81.784
G1 X218.237 Y80.850
G1 X217.516 Y79.936
G1 X216.742 Y79.022
G1 X216.016 Y78.049
G1 X215.256 Y77.091
G1 X214.516 Y76.092
; Path 107
G0 Z0
G0 X214.325 Y76.290
G0 Z2.2
G1 F3000
G1 X212.910 Y77.751
; Path 108
G0 Z0
G0 X212.520 Y78.111
G0 Z2.2
G1 F3000
G1 X213.843 Y76.759
G1 X215.148 Y75.414
G1 X216.506 Y74.085
; Path 109
G0 Z0
G0 X216.181 Y74.319
G0 Z2.2
G1 F3000
G1 X214.675 Y75.678
; Path 110
G0 Z0
G0 X214.535 Y76.090
G0 Z2.2
G1 F3000
G1 X213.534 Y76.772
G1 X212.535 Y77.496
G1 X211.563 Y78.153
G1 X210.534 Y78.762
G1 X209.551 Y79.350
G1 X208.533 Y79.948
G1 X207.554 Y80.546
G1 X206.532 Y81.114
G1 X205.522 Y81.736
G1 X204.532 Y82.320
G1 X203.559 Y82.996
G1 X202.531 Y83.626
G1 X201.542 Y84.374
G1 X200.531 Y85.093
G1 X199.540 Y85.962
G1 X198.530 Y86.779
G1 X197.518 Y87.772
G1 X196.530 Y88.747
G1 X195.527 Y89.908
G1 X194.531 Y91.055
G1 X193.530 Y92.398
G1 X192.532 Y93.744
G1 X191.545 Y95.231
G1 X190.533 Y96.773
G1 X189.510 Y98.405
G1 X188.535 Y100.083
G1 X187.895 Y101.274
G1 X187.208 Y102.415
G1 X186.537 Y103.613
G1 X185.851 Y104.850
G1 X185.230 Y106.066
G1 X184.539 Y107.304
G1 X183.876 Y108.554
G1 X183.214 Y109.848
G1 X182.542 Y111.095
G1 X181.887 Y112.358
G1 X181.207 Y113.659
G1 X180.544 Y114.926
G1 X179.849 Y116.169
G1 X179.207 Y117.465
G1 X178.546 Y118.737
G1 X177.880 Y119.987
G1 X177.204 Y121.223
G1 X176.548 Y122.468
G1 X175.908 Y123.656
G1 X175.210 Y124.843
G1 X174.551 Y126.058
; Path 111
G0 Z0
G0 X205.553 Y108.292
G0 Z2.2
G1 F3000
G1 X207.508 Y107.873
; Path 112
G0 Z0
G0 X209.582 Y111.164
G0 Z2.2
G1 F3000
G1 X211.597 Y111.017
; Path 113
G0 Z0
G0 X213.538 Y107.893
G0 Z2.2
G1 F3000
G1 X215.418 Y108.069
; Path 114
G0 Z0
G0 X213.509 Y106.287
G0 Z2.2
G1 F3000
G1 X211.552 Y105.878
; Path 115
G0 Z0
G0 X211.472 Y106.164
G0 Z2.2
G1 F3000
G1 X213.455 Y106.169
; Path 116
G0 Z0
G0 X215.532 Y103.737
G0 Z2.2
G1 F3000
G1 X217.503 Y104.364
; Path 117
G0 Z0
G0 X218.809 Y100.621
G0 Z2.2
G1 F3000
G1 X220.467 Y101.646
; Path 118
G0 Z0
G0 X210.528 Y101.015
G0 Z2.2
G1 F3000
G1 X208.533 Y101.150
; Path 119
G0 Z0
G0 X208.521 Y101.322
G0 Z2.2
G1 F3000
G1 X210.363 Y100.826
; Path 120
G0 Z0
G0 X205.416 Y103.556
G0 Z2.2
G1 F3000
G1 X203.553 Y104.498
; Path 121
G0 Z0
G0 X202.513 Y88.109
G0 Z2.2
G1 F3000
G1 X203.834 Y86.747
G1 X205.178 Y85.418
G1 X206.541 Y84.078
; Path 122
G0 Z0
G0 X210.540 Y82.074
G0 Z2.2
G1 F3000
G1 X211.883 Y80.738
G1 X213.200 Y79.402
G1 X214.537 Y78.070
; Path 123
G0 Z0
G0 X214.506 Y80.056
G0 Z2.2
G1 F3000
G1 X215.843 Y79.058
G1 X217.182 Y78.094
G1 X218.559 Y77.104
; Path 124
G0 Z0
G0 X229.520 Y96.075
G0 Z2.2
G1 F3000
G1 X230.213 Y97.735
G1 X230.857 Y99.425
G1 X231.544 Y101.069
; Path 125
G0 Z0
G0 X253.544 Y90.964
G0 Z2.2
G1 F3000
G1 X255.512 Y91.264
; Path 126
G0 Z0
G0 X266.555 Y108.102
G0 Z2.2
G1 F3000
G1 X265.227 Y109.422
G1 X263.831 Y110.767
G1 X262.511 Y112.096
; Path 127
G0 Z0
G0 X265.403 Y117.594
G0 Z2.2
G1 F3000
G1 X263.658 Y118.571
; Path 128
G0 Z0
G0 X263.390 Y119.612
G0 Z2.2
G1 F3000
G1 X261.661 Y120.681
; Path 129
G0 Z0
G0 X265.619 Y123.390
G0 Z2.2
G1 F3000
G1 X267.449 Y122.763
; Path 130
G0 Z0
G0 X268.449 Y121.327
G0 Z2.2
G1 F3000
G1 X270.519 Y120.891
; Path 131
G0 Z0
G0 X270.531 Y121.089
G0 Z2.2
G1 F3000
G1 X268.531 Y121.076
; Path 132
G0 Z0
G0 X271.411 Y119.167
G0 Z2.2
G1 F3000
G1 X273.400 Y119.156
; Path 133
G0 Z0
G0 X275.691 Y115.718
G0 Z2.2
G1 F3000
G1 X277.379 Y116.574
; Path 134
G0 Z0
G0 X284.553 Y116.104
G0 Z2.2
G1 F3000
G1 X285.540 Y117.590
G1 X286.512 Y119.111
; Path 135
G0 Z0
G0 X290.342 Y106.571
G0 Z2.2
G1 F3000
G1 X288.691 Y105.549
; Path 136
G0 Z0
G0 X276.554 Y99.070
G0 Z2.2
G1 F3000
G1 X275.203 Y100.420
G1 X273.884 Y101.733
G1 X272.516 Y103.105
; Path 137
G0 Z0
G0 X272.791 Y102.786
G0 Z2.2
G1 F3000
G1 X274.154 Y101.300
; Path 138
G0 Z0
G0 X274.521 Y101.084
G0 Z2.2
G1 F3000
G1 X273.771 Y101.544
G1 X272.997 Y102.060
G1 X272.221 Y102.529
G1 X271.439 Y103.000
G1 X270.652 Y103.431
G1 X269.860 Y103.921
G1 X269.095 Y104.368
G1 X268.276 Y104.836
G1 X267.486 Y105.301
G1 X266.702 Y105.761
G1 X265.922 Y106.218
G1 X265.153 Y106.712
G1 X264.421 Y107.227
G1 X263.645 Y107.703
G1 X262.936 Y108.223
G1 X262.192 Y108.750
G1 X261.492 Y109.287
G1 X260.809 Y109.868
G1 X260.186 Y110.472
G1 X259.512 Y111.071
G1 X258.923 Y111.712
G1 X258.311 Y112.370
G1 X257.752 Y113.043
G1 X257.196 Y113.756
G1 X256.660 Y114.490
G1 X256.151 Y115.212
G1 X255.629 Y115.944
G1 X255.161 Y116.723
G1 X254.700 Y117.492
G1 X254.212 Y118.275
G1 X253.756 Y119.046
G1 X253.288 Y119.852
G1 X252.827 Y120.652
G1 X252.374 Y121.440
G1 X251.887 Y122.216
G1 X251.455 Y123.022
G1 X250.969 Y123.805
G1 X250.516 Y124.584
G1 X250.050 Y125.344
G1 X249.541 Y126.111
; Path 139
G0 Z0
G0 X249.531 Y126.082
G0 Z2.2
G1 F3000
G1 X250.348 Y124.817
G1 X251.139 Y123.525
G1 X251.913 Y122.215
G1 X252.679 Y120.897
G1 X253.444 Y119.579
G1 X254.218 Y118.270
G1 X255.009 Y116.978
G1 X255.827 Y115.712
G1 X256.679 Y114.481
G1 X257.575 Y113.293
G1 X258.522 Y112.157
G1 X259.531 Y111.082
G1 X260.605 Y110.074
G1 X261.741 Y109.126
G1 X262.929 Y108.231
G1 X264.160 Y107.379
G1 X265.426 Y106.561
G1 X266.718 Y105.770
G1 X268.027 Y104.996
G1 X269.345 Y104.231
G1 X270.663 Y103.465
G1 X271.973 Y102.691
G1 X273.265 Y101.900
G1 X274.531 Y101.082
; Path 140
G1 X275.348 Y102.348
G1 X276.139 Y103.640
G1 X276.913 Y104.950
G1 X277.679 Y106.268
G1 X278.444 Y107.586
G1 X279.218 Y108.895
G1 X280.009 Y110.187
G1 X280.827 Y111.453
G1 X281.679 Y112.684
G1 X282.575 Y113.872
G1 X283.522 Y115.007
G1 X284.531 Y116.082
G1 X285.605 Y117.091
G1 X286.741 Y118.038
G1 X287.929 Y118.934
G1 X289.160 Y119.786
G1 X290.426 Y120.604
G1 X291.718 Y121.395
G1 X293.027 Y122.169
G1 X294.345 Y122.934
G1 X295.663 Y123.700
G1 X296.973 Y124.474
G1 X298.265 Y125.265
G1 X299.531 Y126.082
; Path 141
G0 Z0
G0 X299.538 Y126.068
G0 Z2.2
G1 F3000
G1 X298.789 Y125.610
G1 X298.014 Y125.093
G1 X297.225 Y124.629
G1 X296.455 Y124.153
G1 X295.643 Y123.705
G1 X294.876 Y123.233
G1 X294.059 Y122.765
G1 X293.292 Y122.319
G1 X292.518 Y121.855
G1 X291.718 Y121.394
G1 X290.949 Y120.939
G1 X290.169 Y120.444
G1 X289.443 Y119.971
G1 X288.660 Y119.454
G1 X287.920 Y118.915
G1 X287.206 Y118.409
G1 X286.538 Y117.854
G1 X285.822 Y117.293
G1 X285.196 Y116.684
G1 X284.524 Y116.091
G1 X283.894 Y115.439
G1 X283.321 Y114.794
G1 X282.736 Y114.099
G1 X282.203 Y113.411
G1 X281.656 Y112.711
G1 X281.155 Y111.958
G1 X280.633 Y111.185
G1 X280.163 Y110.450
G1 X279.712 Y109.654
G1 X279.211 Y108.901
G1 X278.726 Y108.094
G1 X278.283 Y107.327
G1 X277.815 Y106.539
G1 X277.366 Y105.743
G1 X276.906 Y104.928
G1 X276.444 Y104.164
G1 X275.959 Y103.389
G1 X275.501 Y102.605
G1 X275.009 Y101.815
G1 X274.524 Y101.082
; Path 142
G0 Z0
G0 X274.883 Y100.809
G0 Z2.2
G1 F3000
G1 X276.230 Y99.322
; Path 143
G0 Z0
G0 X274.540 Y104.071
G0 Z2.2
G1 F3000
G1 X273.200 Y105.390
G1 X271.864 Y106.765
G1 X270.542 Y108.106
G0 Z0
M5
G4 P0.3
G0 X0 Y0
; End