; Generated by Sketch DSL for Machine
; Work area: 420mm x 297mm (A3)
G21
G90
M5
G4 P0.5
G0 F11000
; 159 paths
; Path 1
G0 X133.474 Y95.243
G0 Z2.2
G1 F3000
G1 X134.601 Y96.956
; Path 2
G0 Z0
G0 X135.005 Y95.816
G0 Z2.2
G1 F3000
G1 X133.069 Y96.366
; Path 3
G0 Z0
G0 X134.014 Y96.086
G0 Z2.2
G1 F3000
G1 X135.932 Y95.700
G1 X137.850 Y95.337
G1 X139.805 Y94.925
G1 X141.728 Y94.544
G1 X143.629 Y94.167
G1 X145.597 Y93.794
G1 X147.470 Y93.406
G1 X149.433 Y93.029
G1 X151.340 Y92.632
G1 X153.277 Y92.231
G1 X155.205 Y91.882
G1 X157.122 Y91.507
G1 X159.046 Y91.105
; Path 4
G0 Z0
G0 X149.987 Y87.813
G0 Z2.2
G1 F3000
G1 X148.085 Y88.406
; Path 5
G0 Z0
G0 X142.381 Y87.822
G0 Z2.2
G1 F3000
G1 X143.763 Y86.375
; Path 6
G0 Z0
G0 X144.008 Y86.093
G0 Z2.2
G1 F3000
G1 X143.495 Y87.103
G1 X143.010 Y88.094
G1 X142.481 Y89.115
G1 X142.012 Y90.096
G1 X141.530 Y91.087
G1 X141.014 Y92.098
G1 X140.504 Y93.092
G1 X140.016 Y94.100
G1 X139.539 Y95.112
G1 X139.018 Y96.102
G1 X138.515 Y97.075
G1 X138.020 Y98.104
G1 X137.495 Y99.078
G1 X137.022 Y100.105
G1 X136.544 Y101.099
G1 X136.024 Y102.106
G1 X135.496 Y103.129
G1 X135.026 Y104.106
G1 X134.526 Y105.094
G1 X134.027 Y106.104
G1 X133.537 Y107.114
G1 X133.029 Y108.102
G1 X132.518 Y109.108
G1 X132.030 Y110.099
G1 X131.539 Y111.124
G1 X131.031 Y112.095
G1 X130.524 Y113.081
G1 X130.032 Y114.091
G1 X129.526 Y115.090
G1 X129.033 Y116.086
G1 X128.527 Y117.082
G1 X128.034 Y118.080
G1 X127.526 Y119.063
G1 X127.035 Y120.075
G1 X126.526 Y121.054
G1 X126.036 Y122.069
G1 X125.517 Y123.095
G1 X125.037 Y124.064
G1 X124.532 Y125.091
G1 X124.038 Y126.060
; Path 7
G0 Z0
G0 X124.035 Y126.082
G0 Z2.2
G1 F3000
G1 X124.869 Y124.416
G1 X125.702 Y122.749
G1 X126.535 Y121.082
G1 X127.369 Y119.416
G1 X128.202 Y117.749
G1 X129.035 Y116.082
G1 X129.869 Y114.416
G1 X130.702 Y112.749
G1 X131.535 Y111.082
G1 X132.369 Y109.416
G1 X133.202 Y107.749
G1 X134.035 Y106.082
G1 X134.869 Y104.416
G1 X135.702 Y102.749
G1 X136.535 Y101.082
G1 X137.369 Y99.416
G1 X138.202 Y97.749
G1 X139.035 Y96.082
G1 X139.869 Y94.416
G1 X140.702 Y92.749
G1 X141.535 Y91.082
G1 X142.369 Y89.416
G1 X143.202 Y87.749
G1 X144.035 Y86.082
; Path 8
G1 X144.420 Y88.198
G1 X144.753 Y90.365
G1 X145.051 Y92.567
G1 X145.332 Y94.786
G1 X145.612 Y97.005
G1 X145.910 Y99.207
G1 X146.243 Y101.375
G1 X146.628 Y103.490
G1 X147.082 Y105.536
G1 X147.623 Y107.494
G1 X148.269 Y109.349
G1 X149.035 Y111.082
G1 X149.935 Y112.683
G1 X150.957 Y114.161
G1 X152.082 Y115.536
G1 X153.295 Y116.823
G1 X154.576 Y118.041
G1 X155.910 Y119.207
G1 X157.279 Y120.339
G1 X158.665 Y121.453
G1 X160.051 Y122.567
G1 X161.420 Y123.698
G1 X162.753 Y124.864
G1 X164.035 Y126.082
; Path 9
G0 Z0
G0 X164.064 Y126.065
G0 Z2.2
G1 F3000
G1 X163.308 Y125.312
G1 X162.518 Y124.614
G1 X161.685 Y123.907
G1 X160.902 Y123.234
G1 X160.055 Y122.568
G1 X159.246 Y121.894
G1 X158.408 Y121.216
G1 X157.580 Y120.564
G1 X156.774 Y119.865
G1 X155.934 Y119.214
G1 X155.135 Y118.528
G1 X154.338 Y117.814
G1 X153.583 Y117.084
G1 X152.822 Y116.333
G1 X152.124 Y115.520
G1 X151.416 Y114.741
G1 X150.784 Y113.899
G1 X150.150 Y113.009
G1 X149.627 Y112.055
G1 X149.054 Y111.106
G1 X148.630 Y110.088
G1 X148.148 Y109.012
G1 X147.792 Y107.857
G1 X147.411 Y106.748
G1 X147.085 Y105.570
G1 X146.815 Y104.342
G1 X146.572 Y103.102
G1 X146.329 Y101.826
G1 X146.142 Y100.502
G1 X145.923 Y99.229
G1 X145.771 Y97.884
G1 X145.566 Y96.582
G1 X145.371 Y95.260
G1 X145.230 Y93.915
G1 X145.082 Y92.614
G1 X144.883 Y91.258
G1 X144.696 Y89.942
G1 X144.497 Y88.642
G1 X144.243 Y87.390
G1 X144.041 Y86.095
; Path 10
G0 Z0
G0 X144.205 Y85.876
G0 Z2.2
G1 F3000
G1 X145.713 Y84.513
; Path 11
G0 Z0
G0 X146.016 Y84.092
G0 Z2.2
G1 F3000
G1 X144.702 Y85.416
G1 X143.375 Y86.761
G1 X142.044 Y88.061
; Path 12
G0 Z0
G0 X144.012 Y90.070
G0 Z2.2
G1 F3000
G1 X142.703 Y91.385
G1 X141.370 Y92.719
G1 X140.053 Y94.064
; Path 13
G0 Z0
G0 X148.047 Y94.068
G0 Z2.2
G1 F3000
G1 X147.397 Y95.418
G1 X146.690 Y96.701
G1 X146.032 Y98.056
; Path 14
G0 Z0
G0 X152.024 Y99.102
G0 Z2.2
G1 F3000
G1 X150.225 Y99.415
G1 X148.460 Y99.778
G1 X146.701 Y100.068
G1 X144.889 Y100.444
G1 X143.139 Y100.737
G1 X141.336 Y101.097
G1 X139.590 Y101.423
G1 X137.794 Y101.761
G1 X136.016 Y102.070
; Path 15
G0 Z0
G0 X138.482 Y110.169
G0 Z2.2
G1 F3000
G1 X139.432 Y111.859
; Path 16
G0 Z0
G0 X138.228 Y111.672
G0 Z2.2
G1 F3000
G1 X139.843 Y110.493
; Path 17
G0 Z0
G0 X149.035 Y111.069
G0 Z2.2
G1 F3000
G1 X150.012 Y112.591
G1 X151.012 Y114.058
; Path 18
G0 Z0
G0 X147.654 Y118.987
G0 Z2.2
G1 F3000
G1 X146.466 Y117.377
; Path 19
G0 Z0
G0 X144.457 Y117.009
G0 Z2.2
G1 F3000
G1 X143.473 Y115.238
; Path 20
G0 Z0
G0 X141.651 Y113.176
G0 Z2.2
G1 F3000
G1 X142.595 Y114.909
; Path 21
G0 Z0
G0 X142.905 Y114.577
G0 Z2.2
G1 F3000
G1 X141.166 Y113.588
; Path 22
G0 Z0
G0 X139.612 Y119.223
G0 Z2.2
G1 F3000
G1 X140.532 Y120.870
; Path 23
G0 Z0
G0 X138.459 Y118.952
G0 Z2.2
G1 F3000
G1 X137.645 Y117.086
; Path 24
G0 Z0
G0 X136.131 Y117.152
G0 Z2.2
G1 F3000
G1 X135.985 Y115.042
; Path 25
G0 Z0
G0 X136.709 Y115.343
G0 Z2.2
G1 F3000
G1 X135.362 Y116.822
; Path 26
G0 Z0
G0 X114.052 Y161.079
G0 Z2.2
G1 F3000
G1 X116.063 Y161.073
G1 X118.056 Y161.078
G1 X120.035 Y161.100
G1 X122.034 Y161.108
G1 X124.031 Y161.099
G1 X126.055 Y161.101
G1 X128.023 Y161.081
G1 X130.039 Y161.058
G1 X132.056 Y161.062
G1 X134.054 Y161.080
G1 X136.076 Y161.104
G1 X138.066 Y161.066
G1 X140.037 Y161.057
G1 X142.024 Y161.056
G1 X144.059 Y161.108
G1 X146.027 Y161.077
G1 X148.052 Y161.061
G1 X150.065 Y161.063
G1 X152.025 Y161.051
G1 X154.017 Y161.063
G1 X156.070 Y161.103
G1 X158.024 Y161.096
G1 X160.041 Y161.084
G1 X162.064 Y161.054
G1 X164.022 Y161.102
G1 X166.063 Y161.065
G1 X168.049 Y161.056
G1 X170.070 Y161.088
G1 X172.050 Y161.057
G1 X174.039 Y161.074
G1 X176.061 Y161.087
G1 X178.038 Y161.052
G1 X180.064 Y161.076
G1 X182.041 Y161.080
G1 X184.051 Y161.087
G1 X186.028 Y161.064
G1 X188.024 Y161.104
G1 X190.038 Y161.055
G1 X192.049 Y161.048
G1 X194.012 Y161.055
G1 X196.037 Y161.062
G1 X198.018 Y161.068
G1 X200.033 Y161.048
G1 X202.063 Y161.064
G1 X204.023 Y161.103
G1 X206.016 Y161.057
G1 X208.060 Y161.107
G1 X210.031 Y161.055
G1 X212.012 Y161.101
G1 X214.034 Y161.059
G1 X216.034 Y161.081
G1 X218.018 Y161.093
G1 X220.036 Y161.071
G1 X222.017 Y161.061
G1 X224.053 Y161.102
G1 X226.050 Y161.070
G1 X228.062 Y161.079
G1 X230.025 Y161.056
G1 X232.023 Y161.086
G1 X234.038 Y161.092
G1 X236.051 Y161.058
G1 X238.023 Y161.101
G1 X240.005 Y161.072
G1 X242.035 Y161.070
G1 X244.053 Y161.051
G1 X246.012 Y161.054
G1 X248.020 Y161.105
G1 X250.031 Y161.103
G1 X252.005 Y161.085
G1 X254.054 Y161.081
G1 X256.007 Y161.048
G1 X258.029 Y161.065
G1 X260.036 Y161.049
G1 X262.041 Y161.077
G1 X264.012 Y161.104
G1 X266.029 Y161.069
G1 X268.037 Y161.075
G1 X270.019 Y161.101
G1 X272.038 Y161.082
G1 X274.037 Y161.087
G1 X276.044 Y161.086
G1 X278.038 Y161.090
G1 X280.044 Y161.088
G1 X282.034 Y161.063
G1 X284.006 Y161.064
G1 X286.004 Y161.048
G1 X288.057 Y161.093
G1 X290.029 Y161.068
G1 X292.015 Y161.071
G1 X294.023 Y161.088
G1 X296.028 Y161.085
G1 X298.045 Y161.054
G1 X300.005 Y161.052
G1 X302.054 Y161.088
G1 X304.049 Y161.076
G1 X306.014 Y161.099
G1 X308.000 Y161.051
G1 X310.013 Y161.055
G1 X312.039 Y161.099
G1 X314.025 Y161.075
; Path 27
G0 Z0
G0 X295.052 Y176.116
G0 Z2.2
G1 F3000
G1 X293.080 Y176.000
; Path 28
G0 Z0
G0 X280.035 Y178.134
G0 Z2.2
G1 F3000
G1 X277.991 Y177.984
; Path 29
G0 Z0
G0 X304.043 Y164.098
G0 Z2.2
G1 F3000
G1 X303.559 Y164.020
G1 X303.040 Y163.999
G1 X302.549 Y163.944
G1 X302.037 Y163.901
G1 X301.532 Y163.822
G1 X301.034 Y163.803
G1 X300.507 Y163.727
G1 X300.031 Y163.704
G1 X299.540 Y163.654
G1 X299.028 Y163.606
G1 X298.537 Y163.558
G1 X298.025 Y163.508
G1 X297.522 Y163.473
G1 X297.023 Y163.409
G1 X296.545 Y163.370
G1 X296.020 Y163.310
G1 X295.508 Y163.254
G1 X295.018 Y163.211
G1 X294.521 Y163.173
G1 X294.017 Y163.111
G1 X293.508 Y163.083
G1 X293.016 Y163.011
G1 X292.522 Y162.986
G1 X292.015 Y162.911
G1 X291.511 Y162.855
G1 X291.014 Y162.810
G1 X290.489 Y162.774
G1 X290.014 Y162.709
G1 X289.509 Y162.631
G1 X289.014 Y162.608
G1 X288.504 Y162.554
G1 X288.014 Y162.506
G1 X287.485 Y162.432
G1 X287.015 Y162.405
G1 X286.486 Y162.379
G1 X286.015 Y162.304
G1 X285.533 Y162.274
G1 X285.015 Y162.202
G1 X284.488 Y162.126
G1 X284.015 Y162.101
; Path 30
G0 Z0
G0 X279.062 Y160.500
G0 Z2.2
G1 F3000
G1 X278.665 Y160.495
G1 X278.254 Y160.528
G1 X277.871 Y160.564
G1 X277.439 Y160.555
G1 X277.004 Y160.552
G1 X276.620 Y160.582
G1 X276.186 Y160.586
G1 X275.800 Y160.609
G1 X275.382 Y160.625
G1 X274.982 Y160.636
G1 X274.580 Y160.646
G1 X274.169 Y160.664
G1 X273.741 Y160.696
G1 X273.364 Y160.691
G1 X272.953 Y160.731
G1 X272.571 Y160.720
G1 X272.202 Y160.716
G1 X271.791 Y160.749
G1 X271.428 Y160.769
G1 X271.029 Y160.779
G1 X270.666 Y160.789
G1 X270.287 Y160.810
G1 X269.905 Y160.838
G1 X269.561 Y160.842
G1 X269.233 Y160.858
G1 X268.850 Y160.874
G1 X268.530 Y160.875
G1 X268.151 Y160.908
G1 X267.802 Y160.911
G1 X267.459 Y160.941
G1 X267.103 Y160.957
G1 X266.772 Y160.975
G1 X266.421 Y161.014
G1 X266.088 Y161.009
G1 X265.726 Y161.012
G1 X265.402 Y161.043
G1 X265.037 Y161.087
G1 X264.713 Y161.077
G1 X264.369 Y161.114
G1 X264.016 Y161.110
; Path 31
G0 Z0
G0 X260.033 Y170.102
G0 Z2.2
G1 F3000
G1 X258.016 Y170.015
; Path 32
G0 Z0
G0 X249.957 Y177.404
G0 Z2.2
G1 F3000
G1 X248.074 Y176.802
; Path 33
G0 Z0
G0 X237.060 Y179.061
G0 Z2.2
G1 F3000
G1 X236.064 Y177.379
G1 X234.997 Y175.751
G1 X234.008 Y174.070
; Path 34
G0 Z0
G0 X233.056 Y174.081
G0 Z2.2
G1 F3000
G1 X235.083 Y174.069
; Path 35
G0 Z0
G0 X234.533 Y174.954
G0 Z2.2
G1 F3000
G1 X233.540 Y173.218
; Path 36
G0 Z0
G0 X224.060 Y160.273
G0 Z2.2
G1 F3000
G1 X223.530 Y160.271
G1 X223.055 Y160.312
G1 X222.539 Y160.313
G1 X222.049 Y160.350
G1 X221.555 Y160.358
G1 X221.043 Y160.388
G1 X220.565 Y160.416
G1 X220.037 Y160.426
G1 X219.509 Y160.464
G1 X219.031 Y160.464
G1 X218.538 Y160.455
G1 X218.025 Y160.503
G1 X217.549 Y160.528
G1 X217.020 Y160.541
G1 X216.527 Y160.560
G1 X216.015 Y160.580
G1 X215.541 Y160.582
G1 X215.012 Y160.618
G1 X214.528 Y160.616
G1 X214.010 Y160.658
G1 X213.526 Y160.685
G1 X213.009 Y160.697
G1 X212.512 Y160.689
G1 X212.009 Y160.737
G1 X211.526 Y160.755
G1 X211.010 Y160.777
G1 X210.492 Y160.823
G1 X210.012 Y160.817
G1 X209.543 Y160.823
G1 X209.014 Y160.857
G1 X208.536 Y160.858
G1 X208.017 Y160.897
G1 X207.528 Y160.894
G1 X207.020 Y160.937
G1 X206.505 Y160.964
G1 X206.023 Y160.978
G1 X205.509 Y161.017
G1 X205.025 Y161.018
G1 X204.552 Y161.010
G1 X204.028 Y161.058
; Path 37
G0 Z0
G0 X213.029 Y171.996
G0 Z2.2
G1 F3000
G1 X215.013 Y172.203
; Path 38
G0 Z0
G0 X200.005 Y175.270
G0 Z2.2
G1 F3000
G1 X198.077 Y174.917
; Path 39
G0 Z0
G0 X200.601 Y187.003
G0 Z2.2
G1 F3000
G1 X200.101 Y187.503
G1 X199.601 Y187.003
G1 X200.101 Y186.503
G1 X200.601 Y187.003
; Path 40
G0 Z0
G0 X201.582 Y189.070
G0 Z2.2
G1 F3000
G1 X201.082 Y188.570
G1 X200.582 Y189.070
G1 X201.082 Y189.570
G1 X201.582 Y189.070
; Path 41
G0 Z0
G0 X204.030 Y190.117
G0 Z2.2
G1 F3000
G1 X203.686 Y189.390
G1 X203.383 Y188.813
G1 X203.089 Y188.105
; Path 42
G0 Z0
G0 X202.016 Y186.162
G0 Z2.2
G1 F3000
G1 X201.126 Y186.481
G1 X200.305 Y186.832
G1 X199.524 Y187.025
G1 X198.590 Y187.416
G1 X197.833 Y187.767
G1 X196.971 Y188.015
; Path 43
G0 Z0
G0 X197.089 Y188.136
G0 Z2.2
G1 F3000
G1 X197.971 Y187.861
G1 X198.669 Y187.381
G1 X199.630 Y187.136
G1 X200.325 Y186.708
G1 X201.185 Y186.453
G1 X202.017 Y186.080
; Path 44
G0 Z0
G0 X202.049 Y186.122
G0 Z2.2
G1 F3000
G1 X201.306 Y186.734
G1 X200.682 Y187.325
G1 X199.915 Y187.817
G1 X199.231 Y188.496
G1 X198.466 Y189.063
G1 X197.873 Y189.605
G1 X197.098 Y190.137
; Path 45
G0 Z0
G0 X196.978 Y190.156
G0 Z2.2
G1 F3000
G1 X196.692 Y189.457
G1 X196.277 Y188.767
G1 X195.974 Y188.032
; Path 46
G0 Z0
G0 X199.004 Y191.013
G0 Z2.2
G1 F3000
G1 X198.383 Y190.214
G1 X197.885 Y189.362
G1 X197.355 Y188.563
G1 X196.718 Y187.772
G1 X196.249 Y186.923
G1 X195.579 Y186.166
G1 X195.007 Y185.363
G1 X194.531 Y184.555
G1 X193.851 Y183.726
G1 X193.396 Y182.878
G1 X192.807 Y182.088
G1 X192.226 Y181.392
G1 X191.605 Y180.593
G1 X191.054 Y179.659
G1 X190.581 Y178.841
G1 X189.988 Y178.159
G1 X189.476 Y177.291
G1 X188.868 Y176.515
G1 X188.227 Y175.714
G1 X187.724 Y174.808
G1 X187.189 Y174.147
G1 X186.535 Y173.335
G1 X186.021 Y172.469
G1 X185.512 Y171.609
G1 X184.954 Y170.908
G1 X184.334 Y169.953
G1 X183.777 Y169.264
G1 X183.260 Y168.305
G1 X182.586 Y167.488
G1 X182.081 Y166.662
G1 X181.476 Y165.990
G1 X180.931 Y165.091
G1 X180.382 Y164.282
G1 X179.806 Y163.389
G1 X179.210 Y162.684
G1 X178.597 Y161.765
G1 X178.150 Y160.935
G1 X177.541 Y160.185
G1 X177.016 Y159.337
G1 X176.338 Y158.561
G1 X175.890 Y157.771
G1 X175.241 Y156.903
G1 X174.698 Y156.028
G1 X174.146 Y155.337
G1 X173.577 Y154.395
G1 X172.944 Y153.572
G1 X172.447 Y152.774
G1 X171.781 Y152.026
G1 X171.280 Y151.180
G1 X170.682 Y150.313
G1 X170.100 Y149.659
G1 X169.574 Y148.794
G1 X169.000 Y147.930
G1 X168.508 Y147.175
G1 X167.900 Y146.439
G1 X167.343 Y145.660
G1 X166.933 Y144.790
G1 X166.380 Y143.977
G1 X165.771 Y143.209
G1 X165.278 Y142.328
G1 X164.606 Y141.547
G1 X164.159 Y140.842
G1 X163.479 Y139.997
G1 X163.047 Y139.230
G1 X162.525 Y138.354
G1 X161.976 Y137.524
G1 X161.305 Y136.821
G1 X160.852 Y135.983
G1 X160.215 Y135.174
G1 X159.765 Y134.383
G1 X159.071 Y133.571
G1 X158.582 Y132.869
G1 X158.101 Y131.965
G1 X157.507 Y131.184
G1 X156.896 Y130.374
G1 X156.453 Y129.594
G1 X155.837 Y128.794
G1 X155.270 Y128.044
G1 X154.692 Y127.144
G1 X154.186 Y126.349
G1 X153.644 Y125.602
G1 X153.072 Y124.730
G1 X152.460 Y124.016
G1 X152.000 Y123.166
G1 X151.330 Y122.348
G1 X150.785 Y121.593
G1 X150.318 Y120.735
G1 X149.667 Y119.878
G1 X149.060 Y119.132
G1 X148.548 Y118.203
G1 X147.990 Y117.466
G1 X147.429 Y116.657
G1 X146.817 Y115.799
G1 X146.327 Y115.022
G1 X145.743 Y114.239
G1 X145.296 Y113.350
G1 X144.691 Y112.678
G1 X144.122 Y111.780
G1 X143.558 Y110.925
G1 X142.967 Y110.181
G1 X142.462 Y109.359
G1 X141.862 Y108.576
G1 X141.342 Y107.766
G1 X140.744 Y106.957
G1 X140.202 Y106.148
G1 X139.590 Y105.250
G1 X139.005 Y104.424
G1 X138.425 Y103.746
G1 X137.872 Y102.856
G1 X137.244 Y102.008
G1 X136.704 Y101.177
G1 X136.115 Y100.347
G1 X135.649 Y99.651
G1 X135.084 Y98.770
G1 X134.512 Y98.011
G1 X133.975 Y97.098
G1 X133.266 Y96.249
G1 X132.839 Y95.427
G1 X132.218 Y94.760
G1 X131.542 Y93.888
G1 X131.002 Y93.096
G1 X130.402 Y92.269
G1 X129.978 Y91.445
G1 X129.285 Y90.584
G1 X128.805 Y89.784
G1 X128.252 Y88.981
G1 X127.696 Y88.055
G1 X127.058 Y87.315
G1 X126.568 Y86.483
G1 X125.949 Y85.739
G1 X125.395 Y84.937
G1 X124.795 Y84.222
G1 X124.317 Y83.354
G1 X123.769 Y82.529
G1 X123.101 Y81.790
G1 X122.539 Y81.059
G1 X121.963 Y80.284
G1 X121.436 Y79.443
G1 X120.856 Y78.687
G1 X120.338 Y77.789
G1 X119.742 Y77.080
G1 X119.185 Y76.263
G1 X118.700 Y75.474
G1 X118.132 Y74.617
G1 X117.475 Y73.871
G1 X116.977 Y73.073
G1 X116.408 Y72.264
G1 X115.833 Y71.515
G1 X115.226 Y70.713
G1 X114.682 Y70.005
G1 X114.043 Y69.067
G1 X113.385 Y68.305
G1 X112.834 Y67.582
G1 X112.298 Y66.803
G1 X111.617 Y65.972
G1 X111.146 Y65.187
G1 X110.423 Y64.355
G1 X109.909 Y63.520
G1 X109.284 Y62.855
G1 X108.749 Y61.956
G1 X108.123 Y61.203
G1 X107.437 Y60.583
G1 X106.944 Y59.947
G1 X106.269 Y59.279
G1 X105.616 Y58.671
G1 X104.984 Y58.027
G1 X105.367 Y58.878
G1 X105.620 Y59.670
G1 X106.065 Y60.614
G1 X106.459 Y61.400
G1 X106.746 Y62.261
G1 X107.119 Y63.083
G1 X107.609 Y64.034
G1 X108.107 Y64.750
G1 X108.498 Y65.618
G1 X109.015 Y66.525
G1 X109.464 Y67.479
G1 X110.022 Y68.367
G1 X110.412 Y69.168
G1 X110.950 Y70.115
G1 X111.455 Y70.909
G1 X111.960 Y71.861
G1 X112.440 Y72.699
G1 X112.859 Y73.586
G1 X113.324 Y74.464
G1 X113.823 Y75.275
G1 X114.279 Y76.176
G1 X114.820 Y76.900
G1 X115.205 Y77.856
G1 X115.733 Y78.581
G1 X116.300 Y79.445
G1 X116.727 Y80.406
G1 X117.174 Y81.231
G1 X117.648 Y82.049
G1 X118.269 Y82.814
G1 X118.769 Y83.646
G1 X119.160 Y84.530
G1 X119.707 Y85.316
G1 X120.122 Y86.235
G1 X120.637 Y86.992
G1 X121.048 Y87.891
G1 X121.598 Y88.762
G1 X122.115 Y89.615
G1 X122.558 Y90.400
G1 X123.005 Y91.260
G1 X123.533 Y92.178
G1 X124.044 Y92.955
G1 X124.602 Y93.854
G1 X125.137 Y94.732
G1 X125.533 Y95.556
G1 X126.062 Y96.476
G1 X126.504 Y97.268
G1 X127.038 Y98.137
G1 X127.551 Y98.940
G1 X128.160 Y99.912
G1 X128.581 Y100.728
G1 X129.045 Y101.492
G1 X129.602 Y102.370
G1 X130.169 Y103.347
G1 X130.559 Y104.111
G1 X131.197 Y104.980
G1 X131.622 Y105.818
G1 X132.176 Y106.653
G1 X132.715 Y107.664
G1 X133.246 Y108.469
G1 X133.708 Y109.276
G1 X134.248 Y110.248
G1 X134.729 Y111.057
G1 X135.198 Y111.880
G1 X135.727 Y112.743
G1 X136.236 Y113.541
G1 X136.725 Y114.477
G1 X137.155 Y115.276
G1 X137.678 Y116.122
G1 X138.158 Y117.001
G1 X138.817 Y117.851
G1 X139.254 Y118.762
G1 X139.736 Y119.580
G1 X140.292 Y120.436
G1 X140.730 Y121.222
G1 X141.283 Y122.047
G1 X141.775 Y123.009
G1 X142.235 Y123.792
G1 X142.784 Y124.647
G1 X143.340 Y125.534
G1 X143.807 Y126.400
G1 X144.251 Y127.147
G1 X144.737 Y127.958
G1 X145.255 Y128.885
G1 X145.787 Y129.786
G1 X146.254 Y130.651
G1 X146.838 Y131.480
G1 X147.228 Y132.195
G1 X147.827 Y133.136
G1 X148.257 Y133.960
G1 X148.828 Y134.780
G1 X149.314 Y135.650
G1 X149.783 Y136.488
G1 X150.271 Y137.387
G1 X150.812 Y138.195
G1 X151.310 Y139.080
G1 X151.832 Y139.931
G1 X152.264 Y140.706
G1 X152.825 Y141.470
G1 X153.366 Y142.459
G1 X153.865 Y143.210
G1 X154.247 Y144.124
G1 X154.728 Y144.957
G1 X155.242 Y145.781
G1 X155.770 Y146.550
G1 X156.291 Y147.401
G1 X156.820 Y148.221
G1 X157.248 Y149.127
G1 X157.787 Y149.982
G1 X158.249 Y150.740
G1 X158.838 Y151.628
G1 X159.253 Y152.462
G1 X159.841 Y153.242
G1 X160.199 Y154.066
G1 X160.742 Y154.934
G1 X161.330 Y155.773
G1 X161.801 Y156.638
G1 X162.273 Y157.489
G1 X162.706 Y158.339
G1 X163.294 Y159.145
G1 X163.685 Y159.927
G1 X164.295 Y160.739
G1 X164.688 Y161.548
G1 X165.252 Y162.461
G1 X165.839 Y163.331
G1 X166.309 Y164.216
G1 X166.750 Y165.105
G1 X167.311 Y165.925
G1 X167.802 Y166.709
G1 X168.344 Y167.626
G1 X168.781 Y168.435
G1 X169.312 Y169.271
G1 X169.893 Y170.165
G1 X170.319 Y171.053
G1 X170.803 Y171.970
G1 X171.313 Y172.820
G1 X171.906 Y173.687
G1 X172.439 Y174.474
G1 X172.893 Y175.291
G1 X173.340 Y176.155
G1 X173.960 Y177.088
G1 X174.416 Y177.845
G1 X174.966 Y178.716
G1 X175.500 Y179.683
G1 X175.868 Y180.437
G1 X176.448 Y181.278
G1 X176.978 Y182.131
G1 X177.415 Y183.023
G1 X177.914 Y183.954
G1 X178.418 Y184.796
G1 X178.988 Y185.630
G1 X179.473 Y186.518
G1 X179.908 Y187.369
G1 X180.539 Y188.202
G1 X181.036 Y188.977
G1 X181.535 Y189.907
G1 X181.933 Y190.802
G1 X182.423 Y191.518
G1 X183.001 Y192.430
G1 X183.545 Y193.212
G1 X184.051 Y194.189
G1 X184.466 Y194.968
G1 X185.008 Y195.904
G1 X185.410 Y196.755
G1 X186.020 Y197.622
G1 X186.486 Y198.426
G1 X186.907 Y199.235
G1 X187.435 Y200.068
G1 X187.985 Y201.019
G1 X188.423 Y201.772
G1 X188.932 Y202.683
G1 X189.460 Y203.520
G1 X189.949 Y204.430
G1 X190.393 Y205.222
G1 X190.966 Y206.054
; Path 47
G0 Z0
G0 X190.957 Y206.147
G0 Z2.2
G1 F3000
G1 X190.381 Y205.384
G1 X189.942 Y204.568
G1 X189.291 Y203.737
G1 X188.848 Y202.790
G1 X188.283 Y202.094
G1 X187.777 Y201.268
G1 X187.304 Y200.334
G1 X186.649 Y199.578
G1 X186.150 Y198.675
G1 X185.623 Y197.955
G1 X185.059 Y197.025
G1 X184.634 Y196.177
G1 X183.971 Y195.457
G1 X183.469 Y194.587
G1 X183.027 Y193.838
G1 X182.384 Y192.987
G1 X181.917 Y192.059
G1 X181.410 Y191.283
G1 X180.784 Y190.505
G1 X180.355 Y189.691
G1 X179.818 Y188.896
G1 X179.256 Y188.006
G1 X178.714 Y187.107
G1 X178.206 Y186.363
G1 X177.671 Y185.429
G1 X177.144 Y184.611
G1 X176.589 Y183.850
G1 X175.985 Y182.947
G1 X175.453 Y182.130
G1 X175.002 Y181.404
G1 X174.500 Y180.469
G1 X173.885 Y179.622
G1 X173.301 Y178.801
G1 X172.860 Y178.037
G1 X172.236 Y177.134
G1 X171.765 Y176.322
G1 X171.246 Y175.549
G1 X170.696 Y174.685
G1 X170.076 Y173.848
G1 X169.558 Y173.013
G1 X169.097 Y172.210
G1 X168.469 Y171.422
G1 X167.958 Y170.486
G1 X167.410 Y169.657
G1 X166.972 Y168.822
G1 X166.314 Y167.957
G1 X165.837 Y167.179
G1 X165.333 Y166.328
G1 X164.807 Y165.533
G1 X164.204 Y164.817
G1 X163.740 Y163.939
G1 X163.192 Y163.051
G1 X162.699 Y162.283
G1 X162.104 Y161.471
G1 X161.609 Y160.723
G1 X161.214 Y159.877
G1 X160.692 Y159.083
G1 X160.153 Y158.320
G1 X159.644 Y157.408
G1 X158.990 Y156.680
G1 X158.475 Y155.810
G1 X158.042 Y155.083
G1 X157.424 Y154.235
G1 X156.930 Y153.447
G1 X156.362 Y152.596
G1 X155.915 Y151.718
G1 X155.460 Y150.949
G1 X154.905 Y150.104
G1 X154.372 Y149.347
G1 X153.806 Y148.462
G1 X153.235 Y147.684
G1 X152.823 Y146.849
G1 X152.331 Y146.045
G1 X151.730 Y145.276
G1 X151.163 Y144.520
G1 X150.628 Y143.619
G1 X150.138 Y142.855
G1 X149.685 Y141.929
G1 X149.161 Y141.157
G1 X148.561 Y140.266
G1 X148.087 Y139.506
G1 X147.425 Y138.764
G1 X147.007 Y137.822
G1 X146.399 Y136.985
G1 X145.961 Y136.256
G1 X145.440 Y135.419
G1 X144.873 Y134.655
G1 X144.376 Y133.742
G1 X143.804 Y132.982
G1 X143.251 Y132.173
G1 X142.723 Y131.351
G1 X142.255 Y130.486
G1 X141.594 Y129.598
G1 X141.167 Y128.806
G1 X140.685 Y128.030
G1 X140.118 Y127.252
G1 X139.574 Y126.351
G1 X139.035 Y125.545
G1 X138.568 Y124.792
G1 X137.967 Y123.911
G1 X137.378 Y123.009
G1 X136.841 Y122.173
G1 X136.273 Y121.330
G1 X135.775 Y120.595
G1 X135.267 Y119.750
G1 X134.724 Y118.871
G1 X134.270 Y118.125
G1 X133.640 Y117.153
G1 X133.092 Y116.329
G1 X132.636 Y115.596
G1 X132.020 Y114.662
G1 X131.524 Y113.904
G1 X130.948 Y113.121
G1 X130.471 Y112.232
G1 X129.966 Y111.414
G1 X129.408 Y110.571
G1 X128.826 Y109.635
G1 X128.210 Y108.839
G1 X127.658 Y107.991
G1 X127.166 Y107.240
G1 X126.711 Y106.405
G1 X126.104 Y105.498
G1 X125.579 Y104.695
G1 X125.113 Y103.900
G1 X124.516 Y103.119
G1 X124.048 Y102.255
G1 X123.453 Y101.363
G1 X123.027 Y100.626
G1 X122.405 Y99.798
G1 X121.913 Y99.056
G1 X121.363 Y98.142
G1 X120.897 Y97.346
G1 X120.250 Y96.530
G1 X119.841 Y95.703
G1 X119.343 Y94.856
G1 X118.824 Y94.135
G1 X118.282 Y93.335
G1 X117.668 Y92.566
G1 X117.211 Y91.646
G1 X116.713 Y90.888
G1 X116.048 Y90.041
G1 X115.598 Y89.242
G1 X115.083 Y88.512
G1 X114.590 Y87.702
G1 X114.038 Y86.965
G1 X113.629 Y86.093
G1 X113.013 Y85.321
G1 X112.657 Y84.538
G1 X112.008 Y83.799
G1 X111.585 Y83.063
G1 X111.010 Y82.271
G1 X110.588 Y81.476
G1 X109.987 Y80.680
G1 X109.633 Y79.891
G1 X109.055 Y79.162
G1 X108.526 Y78.319
G1 X108.085 Y77.671
G1 X107.459 Y76.766
G1 X106.981 Y76.069
G1 X107.470 Y76.838
G1 X107.981 Y77.652
G1 X108.504 Y78.580
G1 X108.958 Y79.374
G1 X109.563 Y80.237
G1 X110.064 Y81.038
G1 X110.560 Y81.880
G1 X111.055 Y82.558
G1 X111.594 Y83.433
G1 X112.147 Y84.165
G1 X112.587 Y84.975
G1 X113.086 Y85.804
G1 X113.562 Y86.565
G1 X114.164 Y87.451
G1 X114.568 Y88.210
G1 X115.091 Y89.063
G1 X115.542 Y89.851
G1 X116.178 Y90.642
G1 X116.569 Y91.339
G1 X117.047 Y92.255
G1 X117.616 Y92.993
G1 X118.206 Y93.812
G1 X118.627 Y94.721
G1 X119.252 Y95.526
G1 X119.776 Y96.305
G1 X120.204 Y97.172
G1 X120.736 Y97.933
G1 X121.295 Y98.723
G1 X121.841 Y99.582
G1 X122.287 Y100.375
G1 X122.865 Y101.290
G1 X123.451 Y102.012
G1 X123.935 Y102.847
G1 X124.363 Y103.727
G1 X124.888 Y104.501
G1 X125.502 Y105.439
G1 X125.950 Y106.246
G1 X126.508 Y106.968
G1 X127.077 Y107.826
G1 X127.607 Y108.617
G1 X128.154 Y109.455
G1 X128.606 Y110.322
G1 X129.173 Y111.185
G1 X129.662 Y111.935
G1 X130.279 Y112.829
G1 X130.793 Y113.626
G1 X131.242 Y114.585
G1 X131.838 Y115.332
G1 X132.311 Y116.246
G1 X132.956 Y117.146
G1 X133.358 Y117.877
G1 X133.944 Y118.771
G1 X134.482 Y119.547
G1 X135.031 Y120.481
G1 X135.510 Y121.299
G1 X136.125 Y122.190
G1 X136.612 Y123.010
G1 X137.234 Y123.807
G1 X137.674 Y124.651
G1 X138.196 Y125.448
G1 X138.744 Y126.355
G1 X139.338 Y127.236
G1 X139.895 Y128.082
G1 X140.413 Y128.839
G1 X140.862 Y129.682
G1 X141.479 Y130.599
G1 X142.003 Y131.413
G1 X142.559 Y132.196
G1 X143.024 Y133.065
G1 X143.633 Y133.879
G1 X144.157 Y134.742
G1 X144.698 Y135.635
G1 X145.100 Y136.404
G1 X145.671 Y137.232
G1 X146.272 Y138.090
G1 X146.786 Y138.829
G1 X147.278 Y139.729
G1 X147.804 Y140.480
G1 X148.297 Y141.412
G1 X148.872 Y142.260
G1 X149.371 Y143.106
G1 X149.843 Y143.879
G1 X150.435 Y144.666
G1 X151.029 Y145.596
G1 X151.567 Y146.400
G1 X151.971 Y147.257
G1 X152.504 Y148.022
G1 X153.139 Y148.888
G1 X153.592 Y149.730
G1 X154.110 Y150.554
G1 X154.682 Y151.326
G1 X155.163 Y152.236
G1 X155.731 Y153.063
G1 X156.226 Y153.746
G1 X156.775 Y154.654
G1 X157.268 Y155.484
G1 X157.841 Y156.289
G1 X158.334 Y157.084
G1 X158.900 Y157.937
G1 X159.361 Y158.738
G1 X159.902 Y159.516
G1 X160.347 Y160.404
G1 X160.911 Y161.200
G1 X161.423 Y162.062
G1 X161.942 Y162.809
G1 X162.516 Y163.649
G1 X162.959 Y164.431
G1 X163.510 Y165.354
G1 X164.043 Y166.188
G1 X164.524 Y166.900
G1 X165.078 Y167.793
G1 X165.677 Y168.549
G1 X166.179 Y169.421
G1 X166.745 Y170.165
G1 X167.121 Y171.014
G1 X167.700 Y171.849
G1 X168.262 Y172.729
G1 X168.775 Y173.498
G1 X169.304 Y174.341
G1 X169.844 Y175.143
G1 X170.285 Y175.945
G1 X170.898 Y176.856
G1 X171.342 Y177.654
G1 X171.891 Y178.432
G1 X172.383 Y179.327
G1 X172.982 Y180.086
G1 X173.487 Y180.987
G1 X174.015 Y181.788
G1 X174.569 Y182.713
G1 X175.082 Y183.545
G1 X175.670 Y184.331
G1 X176.243 Y185.144
G1 X176.771 Y185.968
G1 X177.234 Y186.890
G1 X177.702 Y187.635
G1 X178.341 Y188.503
G1 X178.827 Y189.381
G1 X179.434 Y190.148
G1 X179.980 Y191.020
G1 X180.466 Y191.934
G1 X180.966 Y192.719
G1 X181.464 Y193.592
G1 X182.075 Y194.473
G1 X182.654 Y195.268
G1 X183.049 Y196.035
G1 X183.680 Y196.892
G1 X184.140 Y197.734
G1 X184.748 Y198.686
G1 X185.287 Y199.459
G1 X185.795 Y200.286
G1 X186.319 Y201.136
G1 X186.828 Y201.955
G1 X187.412 Y202.854
G1 X187.857 Y203.660
G1 X188.481 Y204.467
G1 X188.916 Y205.230
G1 X189.535 Y206.080
G1 X190.050 Y206.910
G1 X190.483 Y207.886
G1 X191.056 Y208.674
G1 X191.602 Y209.526
G1 X192.109 Y210.376
G1 X192.735 Y211.150
G1 X193.171 Y211.934
G1 X193.800 Y212.828
G1 X194.214 Y213.588
G1 X194.760 Y214.547
G1 X195.354 Y215.260
G1 X195.870 Y216.205
G1 X196.448 Y217.029
G1 X196.943 Y217.745
G1 X197.370 Y218.599
G1 X198.040 Y219.515
G1 X198.425 Y220.341
G1 X199.028 Y221.152
; Path 48
G0 Z0
G0 X198.980 Y221.060
G0 Z2.2
G1 F3000
G1 X198.570 Y220.125
G1 X198.102 Y219.389
G1 X197.592 Y218.482
G1 X197.132 Y217.652
G1 X196.659 Y216.723
G1 X196.155 Y215.877
G1 X195.694 Y214.920
G1 X195.180 Y214.089
G1 X194.682 Y213.190
G1 X194.201 Y212.419
G1 X193.778 Y211.512
G1 X193.314 Y210.594
G1 X192.896 Y209.700
G1 X192.373 Y208.809
G1 X191.941 Y207.972
G1 X191.368 Y207.187
G1 X191.013 Y206.257
G1 X190.484 Y205.369
G1 X190.028 Y204.568
G1 X189.532 Y203.702
G1 X188.996 Y202.744
G1 X188.519 Y201.929
G1 X188.123 Y201.049
G1 X187.624 Y200.187
G1 X187.147 Y199.252
G1 X186.665 Y198.458
G1 X186.257 Y197.525
G1 X185.667 Y196.696
G1 X185.247 Y195.764
G1 X184.808 Y194.961
G1 X184.342 Y194.075
G1 X183.864 Y193.221
G1 X183.380 Y192.350
G1 X182.791 Y191.384
G1 X182.350 Y190.538
G1 X181.966 Y189.635
G1 X181.478 Y188.825
G1 X180.936 Y187.989
G1 X180.524 Y187.123
G1 X179.976 Y186.236
G1 X179.500 Y185.388
G1 X179.053 Y184.460
G1 X178.565 Y183.625
G1 X178.101 Y182.659
G1 X177.644 Y181.885
G1 X177.093 Y180.964
G1 X176.638 Y180.047
G1 X176.191 Y179.262
G1 X175.666 Y178.351
G1 X175.148 Y177.492
G1 X174.783 Y176.620
G1 X174.282 Y175.747
G1 X173.814 Y174.875
G1 X173.307 Y174.161
G1 X172.829 Y173.260
G1 X172.463 Y172.450
G1 X172.004 Y171.631
G1 X171.477 Y170.649
G1 X171.041 Y169.791
G1 X170.543 Y169.007
G1 X170.052 Y168.147
G1 X169.584 Y167.261
G1 X169.180 Y166.391
G1 X168.661 Y165.682
G1 X168.175 Y164.794
G1 X167.770 Y163.926
G1 X167.254 Y163.148
G1 X166.712 Y162.233
G1 X166.311 Y161.350
G1 X165.765 Y160.590
G1 X165.364 Y159.695
G1 X164.883 Y158.873
G1 X164.425 Y157.955
G1 X163.996 Y157.105
G1 X163.458 Y156.307
G1 X162.967 Y155.397
G1 X162.569 Y154.579
G1 X162.077 Y153.753
G1 X161.618 Y152.856
G1 X161.091 Y152.063
G1 X160.601 Y151.131
G1 X160.161 Y150.282
G1 X159.690 Y149.447
G1 X159.286 Y148.585
G1 X158.863 Y147.701
G1 X158.283 Y146.765
G1 X157.909 Y145.901
G1 X157.323 Y145.077
G1 X156.889 Y144.245
G1 X156.493 Y143.438
G1 X155.899 Y142.511
G1 X155.533 Y141.601
G1 X155.011 Y140.822
G1 X154.473 Y139.920
G1 X154.077 Y139.157
G1 X153.558 Y138.296
G1 X153.031 Y137.442
G1 X152.584 Y136.484
G1 X152.193 Y135.680
G1 X151.679 Y134.752
G1 X151.180 Y133.972
G1 X150.727 Y133.109
G1 X150.262 Y132.146
G1 X149.792 Y131.343
G1 X149.390 Y130.440
G1 X148.856 Y129.725
G1 X148.408 Y128.862
G1 X147.908 Y128.025
G1 X147.547 Y127.103
G1 X146.984 Y126.322
G1 X146.651 Y125.466
G1 X146.136 Y124.647
G1 X145.612 Y123.749
G1 X145.223 Y122.976
G1 X144.694 Y122.081
G1 X144.300 Y121.191
G1 X143.840 Y120.306
G1 X143.332 Y119.535
G1 X142.823 Y118.641
G1 X142.401 Y117.884
G1 X142.020 Y116.981
G1 X141.457 Y116.177
G1 X141.055 Y115.286
G1 X140.626 Y114.496
G1 X140.105 Y113.636
G1 X139.724 Y112.844
G1 X139.241 Y111.952
G1 X138.788 Y111.035
G1 X138.295 Y110.257
G1 X137.866 Y109.319
G1 X137.304 Y108.482
G1 X136.880 Y107.715
G1 X136.425 Y106.795
G1 X135.991 Y105.908
G1 X135.459 Y105.003
G1 X135.048 Y104.133
G1 X134.553 Y103.392
G1 X134.197 Y102.488
G1 X133.594 Y101.653
G1 X133.245 Y100.699
G1 X132.813 Y99.856
G1 X132.279 Y99.040
G1 X131.869 Y98.081
G1 X131.414 Y97.278
G1 X130.885 Y96.473
G1 X130.429 Y95.545
G1 X129.997 Y94.634
G1 X129.470 Y93.848
G1 X129.038 Y92.932
G1 X128.634 Y92.135
G1 X128.166 Y91.249
G1 X127.798 Y90.319
G1 X127.306 Y89.445
G1 X126.843 Y88.637
G1 X126.461 Y87.849
G1 X126.033 Y86.956
G1 X125.581 Y86.095
G1 X125.096 Y85.313
G1 X124.638 Y84.321
G1 X124.317 Y83.499
G1 X123.893 Y82.655
G1 X123.361 Y81.821
G1 X122.981 Y80.980
G1 X122.686 Y80.177
G1 X122.345 Y79.281
G1 X122.015 Y78.538
G1 X121.643 Y77.590
G1 X121.371 Y76.863
G1 X121.084 Y76.011
G1 X121.648 Y76.550
G1 X122.230 Y77.207
G1 X122.901 Y77.820
G1 X123.398 Y78.497
G1 X123.986 Y79.102
G1 X124.549 Y79.948
G1 X125.073 Y80.670
G1 X125.600 Y81.358
G1 X126.212 Y82.184
G1 X126.743 Y83.034
G1 X127.307 Y83.675
G1 X127.835 Y84.466
G1 X128.271 Y85.281
G1 X128.829 Y86.132
G1 X129.393 Y86.784
G1 X129.952 Y87.591
G1 X130.507 Y88.429
G1 X131.049 Y89.177
G1 X131.621 Y90.041
G1 X132.108 Y90.799
G1 X132.740 Y91.626
G1 X133.266 Y92.482
G1 X133.771 Y93.166
G1 X134.266 Y94.111
G1 X134.771 Y94.837
G1 X135.328 Y95.668
G1 X135.960 Y96.515
G1 X136.406 Y97.341
G1 X136.946 Y98.098
G1 X137.604 Y98.937
G1 X138.081 Y99.683
G1 X138.615 Y100.638
G1 X139.124 Y101.316
G1 X139.766 Y102.173
G1 X140.161 Y102.947
G1 X140.830 Y103.774
G1 X141.311 Y104.625
G1 X141.889 Y105.447
G1 X142.333 Y106.245
G1 X142.977 Y107.175
G1 X143.417 Y107.973
G1 X144.058 Y108.769
G1 X144.533 Y109.592
G1 X145.089 Y110.475
G1 X145.643 Y111.366
G1 X146.248 Y112.098
G1 X146.721 Y112.933
G1 X147.250 Y113.875
G1 X147.854 Y114.722
G1 X148.384 Y115.470
G1 X148.917 Y116.294
G1 X149.443 Y117.161
G1 X149.954 Y117.908
G1 X150.557 Y118.743
G1 X151.048 Y119.679
G1 X151.626 Y120.446
G1 X152.129 Y121.274
G1 X152.741 Y122.179
G1 X153.218 Y123.025
G1 X153.813 Y123.833
G1 X154.336 Y124.731
G1 X154.915 Y125.475
G1 X155.437 Y126.280
G1 X155.903 Y127.049
G1 X156.413 Y127.975
G1 X156.963 Y128.803
G1 X157.557 Y129.615
G1 X157.995 Y130.479
G1 X158.519 Y131.173
G1 X159.126 Y132.031
G1 X159.670 Y132.872
G1 X160.098 Y133.712
G1 X160.740 Y134.516
G1 X161.202 Y135.362
G1 X161.728 Y136.184
G1 X162.327 Y136.991
G1 X162.898 Y137.872
G1 X163.369 Y138.679
G1 X163.830 Y139.492
G1 X164.418 Y140.331
G1 X164.886 Y141.072
G1 X165.472 Y141.934
G1 X165.938 Y142.787
G1 X166.558 Y143.520
G1 X167.008 Y144.379
G1 X167.595 Y145.191
G1 X168.045 Y145.954
G1 X168.561 Y146.787
G1 X169.109 Y147.576
G1 X169.716 Y148.468
G1 X170.210 Y149.216
G1 X170.778 Y149.978
G1 X171.319 Y150.798
G1 X171.800 Y151.660
G1 X172.235 Y152.429
G1 X172.775 Y153.365
G1 X173.307 Y154.171
G1 X173.939 Y154.883
G1 X174.309 Y155.760
G1 X174.863 Y156.552
G1 X175.429 Y157.378
G1 X175.954 Y158.152
G1 X176.540 Y158.918
G1 X176.963 Y159.839
G1 X177.548 Y160.590
G1 X178.024 Y161.356
G1 X178.575 Y162.278
G1 X179.029 Y162.961
G1 X179.585 Y163.795
G1 X180.068 Y164.684
G1 X180.618 Y165.505
G1 X181.139 Y166.257
G1 X181.697 Y167.086
G1 X182.310 Y167.986
G1 X182.848 Y168.822
G1 X183.315 Y169.595
G1 X183.776 Y170.489
G1 X184.408 Y171.218
G1 X184.937 Y172.031
G1 X185.454 Y172.882
G1 X186.084 Y173.812
G1 X186.600 Y174.632
G1 X187.060 Y175.458
G1 X187.641 Y176.231
G1 X188.214 Y177.097
G1 X188.683 Y177.934
G1 X189.238 Y178.693
G1 X189.775 Y179.613
G1 X190.352 Y180.338
G1 X190.855 Y181.319
G1 X191.328 Y182.079
G1 X191.876 Y182.839
G1 X192.450 Y183.792
G1 X192.974 Y184.647
G1 X193.473 Y185.338
G1 X194.036 Y186.304
G1 X194.693 Y187.099
G1 X195.159 Y187.906
G1 X195.675 Y188.740
G1 X196.216 Y189.622
G1 X196.817 Y190.421
G1 X197.276 Y191.164
G1 X197.808 Y192.076
G1 X198.333 Y192.826
G1 X199.006 Y193.742
G1 X199.408 Y194.551
G1 X199.975 Y195.343
G1 X200.602 Y196.145
G1 X201.097 Y197.049
G1 X201.652 Y197.799
G1 X202.204 Y198.694
G1 X202.645 Y199.391
G1 X203.327 Y200.194
G1 X203.805 Y201.057
G1 X204.260 Y201.959
G1 X204.785 Y202.797
G1 X205.343 Y203.572
G1 X206.011 Y204.349
G1 X206.427 Y205.182
G1 X207.021 Y206.040
; Path 49
G0 Z0
G0 X207.044 Y206.017
G0 Z2.2
G1 F3000
G1 X206.484 Y205.191
G1 X206.022 Y204.305
G1 X205.646 Y203.485
G1 X205.149 Y202.597
G1 X204.607 Y201.798
G1 X204.156 Y200.871
G1 X203.627 Y200.039
G1 X203.114 Y199.218
G1 X202.659 Y198.377
G1 X202.160 Y197.525
G1 X201.788 Y196.725
G1 X201.177 Y195.872
G1 X200.790 Y194.992
G1 X200.272 Y194.178
G1 X199.754 Y193.177
G1 X199.300 Y192.345
G1 X198.887 Y191.557
G1 X198.358 Y190.778
G1 X197.815 Y189.862
G1 X197.430 Y189.031
G1 X196.954 Y188.191
G1 X196.440 Y187.271
G1 X195.965 Y186.457
G1 X195.453 Y185.596
G1 X194.987 Y184.673
G1 X194.534 Y183.810
G1 X194.021 Y183.027
G1 X193.531 Y182.170
G1 X192.975 Y181.296
G1 X192.509 Y180.404
G1 X192.072 Y179.603
G1 X191.540 Y178.744
G1 X191.083 Y177.916
G1 X190.531 Y176.960
G1 X190.126 Y176.173
G1 X189.534 Y175.238
G1 X189.045 Y174.373
G1 X188.607 Y173.560
G1 X188.191 Y172.707
G1 X187.724 Y171.913
G1 X187.131 Y171.059
G1 X186.722 Y170.092
G1 X186.227 Y169.354
G1 X185.687 Y168.435
G1 X185.190 Y167.572
G1 X184.803 Y166.659
G1 X184.264 Y165.870
G1 X183.762 Y164.928
G1 X183.320 Y164.188
G1 X182.742 Y163.270
G1 X182.300 Y162.430
G1 X181.784 Y161.577
G1 X181.322 Y160.640
G1 X180.773 Y159.843
G1 X180.270 Y158.898
G1 X179.858 Y158.154
G1 X179.275 Y157.170
G1 X178.913 Y156.353
G1 X178.286 Y155.490
G1 X177.943 Y154.623
G1 X177.352 Y153.817
G1 X176.827 Y152.961
G1 X176.355 Y152.019
G1 X175.877 Y151.112
G1 X175.425 Y150.302
G1 X174.971 Y149.376
G1 X174.355 Y148.575
G1 X173.971 Y147.681
G1 X173.458 Y146.872
G1 X173.006 Y145.958
G1 X172.402 Y145.089
G1 X171.942 Y144.267
G1 X171.473 Y143.423
G1 X170.946 Y142.433
G1 X170.479 Y141.559
G1 X170.054 Y140.796
G1 X169.539 Y139.892
G1 X168.958 Y138.963
G1 X168.522 Y138.166
G1 X168.107 Y137.257
G1 X167.638 Y136.471
G1 X167.147 Y135.650
G1 X166.643 Y134.766
G1 X166.193 Y133.883
G1 X165.677 Y133.006
G1 X165.091 Y132.185
G1 X164.641 Y131.350
G1 X164.130 Y130.550
G1 X163.715 Y129.753
G1 X163.264 Y128.924
G1 X162.705 Y128.054
G1 X162.303 Y127.221
G1 X161.841 Y126.332
G1 X161.286 Y125.408
G1 X160.873 Y124.611
G1 X160.271 Y123.721
G1 X159.829 Y122.872
G1 X159.360 Y122.083
G1 X158.920 Y121.297
G1 X158.486 Y120.311
G1 X157.963 Y119.588
G1 X157.436 Y118.624
G1 X156.977 Y117.807
G1 X156.519 Y117.063
G1 X156.035 Y116.071
G1 X155.539 Y115.291
G1 X155.057 Y114.451
G1 X154.556 Y113.626
G1 X154.004 Y112.790
G1 X153.612 Y111.893
G1 X153.057 Y110.981
G1 X152.582 Y110.146
G1 X152.149 Y109.358
G1 X151.607 Y108.401
G1 X151.205 Y107.529
G1 X150.657 Y106.627
G1 X150.243 Y105.893
G1 X149.652 Y104.915
G1 X149.125 Y104.184
G1 X148.743 Y103.242
G1 X148.244 Y102.462
G1 X147.755 Y101.544
G1 X147.318 Y100.648
G1 X146.704 Y99.879
G1 X146.198 Y98.904
G1 X145.693 Y98.163
G1 X145.309 Y97.232
G1 X144.876 Y96.448
G1 X144.321 Y95.508
G1 X143.823 Y94.656
G1 X143.337 Y93.795
G1 X142.841 Y92.932
G1 X142.403 Y92.169
G1 X141.859 Y91.318
G1 X141.378 Y90.352
G1 X140.987 Y89.496
G1 X140.431 Y88.683
G1 X139.948 Y87.847
G1 X139.430 Y87.070
G1 X139.058 Y86.185
G1 X138.551 Y85.315
G1 X138.004 Y84.481
G1 X137.560 Y83.633
G1 X137.175 Y82.911
G1 X136.581 Y82.057
G1 X136.144 Y81.118
G1 X135.636 Y80.265
G1 X135.155 Y79.456
G1 X134.785 Y78.669
G1 X134.171 Y77.773
G1 X133.778 Y76.969
G1 X133.285 Y76.096
G1 X132.812 Y75.256
G1 X132.421 Y74.385
G1 X131.862 Y73.646
G1 X131.465 Y72.743
G1 X130.918 Y71.992
G1 X130.435 Y71.226
G1 X130.081 Y70.332
G1 X129.641 Y69.598
G1 X129.120 Y68.774
G1 X128.637 Y67.993
G1 X128.228 Y67.076
G1 X127.749 Y66.350
G1 X127.322 Y65.494
G1 X126.811 Y64.718
G1 X126.423 Y63.836
G1 X125.907 Y63.070
G1 X125.487 Y62.275
G1 X124.916 Y61.390
G1 X124.462 Y60.576
G1 X123.959 Y59.632
G1 X123.465 Y58.828
G1 X123.062 Y58.020
G1 X123.452 Y58.842
G1 X123.928 Y59.648
G1 X124.513 Y60.458
G1 X124.904 Y61.204
G1 X125.419 Y62.037
G1 X125.951 Y62.898
G1 X126.453 Y63.751
G1 X126.792 Y64.567
G1 X127.385 Y65.477
G1 X127.783 Y66.415
G1 X128.326 Y67.258
G1 X128.904 Y68.021
G1 X129.303 Y68.879
G1 X129.850 Y69.730
G1 X130.337 Y70.651
G1 X130.806 Y71.525
G1 X131.221 Y72.429
G1 X131.694 Y73.231
G1 X132.287 Y74.096
G1 X132.730 Y74.889
G1 X133.123 Y75.649
G1 X133.584 Y76.578
G1 X134.149 Y77.351
G1 X134.663 Y78.113
G1 X135.074 Y79.084
G1 X135.500 Y79.914
G1 X136.052 Y80.751
G1 X136.505 Y81.556
G1 X137.010 Y82.419
G1 X137.507 Y83.215
G1 X137.852 Y83.957
G1 X138.407 Y84.844
G1 X138.878 Y85.734
G1 X139.411 Y86.443
G1 X139.831 Y87.336
G1 X140.319 Y88.154
G1 X140.809 Y88.974
G1 X141.299 Y89.839
G1 X141.829 Y90.737
G1 X142.329 Y91.589
G1 X142.690 Y92.506
G1 X143.313 Y93.285
G1 X143.749 Y94.200
G1 X144.143 Y95.020
G1 X144.782 Y95.921
G1 X145.261 Y96.756
G1 X145.698 Y97.525
G1 X146.215 Y98.434
G1 X146.678 Y99.368
G1 X147.119 Y100.092
G1 X147.626 Y101.077
G1 X148.169 Y101.797
G1 X148.562 Y102.733
G1 X149.052 Y103.635
G1 X149.528 Y104.391
G1 X150.061 Y105.250
G1 X150.487 Y106.137
G1 X151.044 Y106.989
G1 X151.448 Y107.795
G1 X152.013 Y108.718
G1 X152.469 Y109.532
G1 X152.992 Y110.330
G1 X153.473 Y111.198
G1 X153.910 Y112.109
G1 X154.452 Y112.813
G1 X154.811 Y113.741
G1 X155.361 Y114.603
G1 X155.803 Y115.334
G1 X156.325 Y116.175
G1 X156.826 Y117.044
G1 X157.246 Y117.881
G1 X157.682 Y118.768
G1 X158.285 Y119.604
G1 X158.777 Y120.385
G1 X159.209 Y121.261
G1 X159.617 Y122.195
G1 X160.078 Y122.981
G1 X160.650 Y123.799
G1 X161.143 Y124.682
G1 X161.632 Y125.466
G1 X162.132 Y126.308
G1 X162.531 Y127.105
G1 X162.995 Y127.983
G1 X163.505 Y128.838
G1 X164.036 Y129.667
G1 X164.490 Y130.499
G1 X164.955 Y131.355
G1 X165.458 Y132.243
G1 X165.983 Y133.077
G1 X166.508 Y134.040
G1 X166.986 Y134.823
G1 X167.446 Y135.742
G1 X167.955 Y136.548
G1 X168.454 Y137.451
G1 X168.853 Y138.335
G1 X169.351 Y139.115
G1 X169.949 Y140.032
G1 X170.341 Y140.825
G1 X170.817 Y141.772
G1 X171.422 Y142.636
G1 X171.832 Y143.422
G1 X172.401 Y144.396
G1 X172.791 Y145.206
G1 X173.367 Y146.122
G1 X173.874 Y146.937
G1 X174.274 Y147.783
G1 X174.809 Y148.620
G1 X175.372 Y149.540
G1 X175.746 Y150.395
G1 X176.280 Y151.236
G1 X176.771 Y152.073
G1 X177.241 Y152.881
G1 X177.682 Y153.746
G1 X178.276 Y154.642
G1 X178.737 Y155.559
G1 X179.249 Y156.268
G1 X179.622 Y157.236
G1 X180.155 Y158.099
G1 X180.647 Y158.835
G1 X181.063 Y159.822
G1 X181.662 Y160.583
G1 X182.165 Y161.447
G1 X182.625 Y162.280
G1 X183.152 Y163.141
G1 X183.606 Y164.030
G1 X184.122 Y164.942
G1 X184.467 Y165.658
G1 X185.008 Y166.581
G1 X185.488 Y167.439
G1 X185.944 Y168.351
G1 X186.490 Y169.170
G1 X186.935 Y169.941
G1 X187.529 Y170.881
G1 X187.865 Y171.712
G1 X188.429 Y172.536
G1 X188.879 Y173.356
G1 X189.420 Y174.258
G1 X189.939 Y175.126
G1 X190.297 Y175.861
G1 X190.801 Y176.779
G1 X191.356 Y177.552
G1 X191.862 Y178.462
G1 X192.263 Y179.249
G1 X192.719 Y180.108
G1 X193.182 Y180.922
G1 X193.798 Y181.826
G1 X194.282 Y182.702
G1 X194.637 Y183.471
G1 X195.176 Y184.302
G1 X195.667 Y185.208
G1 X196.135 Y186.091
G1 X196.582 Y186.818
G1 X197.067 Y187.760
G1 X197.629 Y188.515
G1 X197.980 Y189.447
G1 X198.528 Y190.312
G1 X199.017 Y191.092
; Path 50
G0 Z0
G0 X199.056 Y191.061
G0 Z2.2
G1 F3000
G1 X198.517 Y190.322
G1 X197.863 Y189.402
G1 X197.312 Y188.654
G1 X196.841 Y187.762
G1 X196.285 Y187.019
G1 X195.660 Y186.295
G1 X195.166 Y185.450
G1 X194.550 Y184.633
G1 X194.056 Y183.875
G1 X193.407 Y183.002
G1 X192.877 Y182.260
G1 X192.328 Y181.360
G1 X191.756 Y180.603
G1 X191.097 Y179.703
G1 X190.631 Y178.997
G1 X189.958 Y178.138
G1 X189.459 Y177.420
G1 X188.913 Y176.513
G1 X188.358 Y175.794
G1 X187.733 Y174.888
G1 X187.228 Y174.150
G1 X186.641 Y173.320
G1 X186.078 Y172.521
G1 X185.530 Y171.738
G1 X184.923 Y170.917
G1 X184.351 Y170.052
G1 X183.876 Y169.290
G1 X183.267 Y168.386
G1 X182.642 Y167.568
G1 X182.145 Y166.816
G1 X181.565 Y166.013
G1 X181.048 Y165.227
G1 X180.457 Y164.308
G1 X179.884 Y163.439
G1 X179.245 Y162.759
G1 X178.783 Y161.853
G1 X178.190 Y161.081
G1 X177.626 Y160.307
G1 X176.975 Y159.498
G1 X176.423 Y158.616
G1 X175.810 Y157.751
G1 X175.360 Y157.009
G1 X174.684 Y156.116
G1 X174.214 Y155.357
G1 X173.638 Y154.571
G1 X173.098 Y153.752
G1 X172.473 Y152.937
G1 X171.930 Y152.081
G1 X171.341 Y151.237
G1 X170.823 Y150.442
G1 X170.253 Y149.635
G1 X169.696 Y148.789
G1 X169.113 Y148.073
G1 X168.553 Y147.251
G1 X168.037 Y146.461
G1 X167.512 Y145.635
G1 X166.926 Y144.767
G1 X166.356 Y144.106
G1 X165.768 Y143.210
G1 X165.198 Y142.491
G1 X164.761 Y141.705
G1 X164.225 Y140.883
G1 X163.560 Y140.017
G1 X163.113 Y139.288
G1 X162.563 Y138.506
G1 X162.016 Y137.643
G1 X161.441 Y136.871
G1 X160.786 Y136.099
G1 X160.238 Y135.236
G1 X159.833 Y134.476
G1 X159.239 Y133.709
G1 X158.613 Y132.780
G1 X158.054 Y132.132
G1 X157.505 Y131.253
G1 X156.971 Y130.471
G1 X156.397 Y129.716
G1 X155.902 Y128.855
G1 X155.302 Y128.087
G1 X154.823 Y127.159
G1 X154.183 Y126.459
G1 X153.624 Y125.560
G1 X153.050 Y124.837
G1 X152.482 Y123.949
G1 X151.992 Y123.163
G1 X151.402 Y122.444
G1 X150.869 Y121.502
G1 X150.359 Y120.790
G1 X149.727 Y120.027
G1 X149.218 Y119.086
G1 X148.603 Y118.379
G1 X148.115 Y117.581
G1 X147.540 Y116.657
G1 X146.896 Y115.948
G1 X146.462 Y115.091
G1 X145.895 Y114.254
G1 X145.244 Y113.476
G1 X144.771 Y112.607
G1 X144.159 Y111.835
G1 X143.682 Y111.121
G1 X143.014 Y110.244
G1 X142.562 Y109.467
G1 X141.913 Y108.579
G1 X141.352 Y107.905
G1 X140.814 Y107.023
G1 X140.198 Y106.151
G1 X139.660 Y105.356
G1 X139.089 Y104.615
G1 X138.548 Y103.740
G1 X138.040 Y102.882
G1 X137.421 Y102.153
G1 X136.772 Y101.228
G1 X136.180 Y100.479
G1 X135.690 Y99.626
G1 X135.034 Y98.841
G1 X134.471 Y98.012
G1 X133.995 Y97.255
G1 X133.465 Y96.321
G1 X132.883 Y95.622
G1 X132.254 Y94.828
G1 X131.690 Y93.981
G1 X131.071 Y93.087
G1 X130.482 Y92.304
G1 X129.945 Y91.528
G1 X129.431 Y90.692
G1 X128.789 Y89.913
G1 X128.271 Y88.944
G1 X127.776 Y88.189
G1 X127.132 Y87.385
G1 X126.551 Y86.660
G1 X125.942 Y85.817
G1 X125.416 Y85.088
G1 X124.879 Y84.177
G1 X124.348 Y83.493
G1 X123.719 Y82.721
G1 X123.206 Y81.875
G1 X122.677 Y81.099
G1 X122.032 Y80.292
G1 X121.501 Y79.417
G1 X120.961 Y78.697
G1 X120.380 Y77.944
G1 X119.890 Y77.069
G1 X119.229 Y76.303
G1 X118.718 Y75.581
G1 X118.182 Y74.772
G1 X117.580 Y74.005
G1 X117.002 Y73.130
G1 X116.551 Y72.424
G1 X115.912 Y71.588
G1 X115.281 Y70.765
G1 X114.737 Y70.036
G1 X114.154 Y69.283
G1 X113.503 Y68.356
G1 X112.991 Y67.618
G1 X112.342 Y66.861
G1 X111.762 Y65.999
G1 X111.121 Y65.227
G1 X110.621 Y64.460
G1 X109.933 Y63.660
G1 X109.446 Y62.865
G1 X108.842 Y62.046
G1 X108.207 Y61.279
G1 X107.560 Y60.584
G1 X107.020 Y59.929
G1 X106.401 Y59.328
G1 X105.681 Y58.803
G1 X105.072 Y58.103
G1 X105.485 Y58.981
G1 X105.842 Y59.808
G1 X106.072 Y60.635
G1 X106.540 Y61.394
G1 X106.787 Y62.259
G1 X107.212 Y63.157
G1 X107.643 Y64.013
G1 X108.217 Y64.864
G1 X108.685 Y65.793
G1 X109.124 Y66.701
G1 X109.567 Y67.566
G1 X110.152 Y68.410
G1 X110.494 Y69.292
G1 X111.097 Y70.054
G1 X111.543 Y70.973
G1 X111.933 Y71.862
G1 X112.521 Y72.789
G1 X112.929 Y73.591
G1 X113.516 Y74.519
G1 X113.922 Y75.346
G1 X114.350 Y76.229
G1 X114.847 Y77.062
G1 X115.391 Y77.877
G1 X115.862 Y78.636
G1 X116.354 Y79.542
G1 X116.915 Y80.352
G1 X117.286 Y81.212
G1 X117.813 Y82.132
G1 X118.382 Y82.874
G1 X118.754 Y83.693
G1 X119.332 Y84.539
G1 X119.826 Y85.386
G1 X120.326 Y86.212
G1 X120.699 Y87.129
G1 X121.174 Y87.984
G1 X121.732 Y88.734
G1 X122.277 Y89.606
G1 X122.620 Y90.430
G1 X123.236 Y91.383
G1 X123.696 Y92.172
G1 X124.147 Y93.021
G1 X124.716 Y93.836
G1 X125.175 Y94.701
G1 X125.655 Y95.609
G1 X126.257 Y96.475
G1 X126.760 Y97.247
G1 X127.113 Y98.155
G1 X127.715 Y99.065
G1 X128.204 Y99.980
G1 X128.776 Y100.688
G1 X129.214 Y101.648
G1 X129.726 Y102.449
G1 X130.301 Y103.412
G1 X130.791 Y104.209
G1 X131.234 Y105.104
G1 X131.744 Y105.903
G1 X132.279 Y106.788
G1 X132.799 Y107.662
G1 X133.238 Y108.591
G1 X133.828 Y109.378
G1 X134.228 Y110.257
G1 X134.796 Y111.031
G1 X135.289 Y111.887
G1 X135.766 Y112.885
G1 X136.293 Y113.755
G1 X136.834 Y114.538
G1 X137.402 Y115.346
G1 X137.801 Y116.310
G1 X138.369 Y117.083
G1 X138.822 Y117.859
G1 X139.303 Y118.800
G1 X139.846 Y119.655
G1 X140.328 Y120.510
G1 X140.878 Y121.346
G1 X141.395 Y122.208
G1 X141.863 Y123.015
G1 X142.402 Y123.931
G1 X142.830 Y124.748
G1 X143.338 Y125.576
G1 X143.961 Y126.386
G1 X144.338 Y127.220
G1 X144.914 Y128.080
G1 X145.327 Y128.952
G1 X145.840 Y129.825
G1 X146.380 Y130.666
G1 X146.921 Y131.486
G1 X147.392 Y132.307
G1 X147.954 Y133.117
G1 X148.387 Y134.040
G1 X148.869 Y134.911
G1 X149.479 Y135.676
G1 X149.908 Y136.526
G1 X150.492 Y137.371
G1 X150.927 Y138.249
G1 X151.421 Y139.107
G1 X151.988 Y139.887
G1 X152.427 Y140.750
G1 X152.934 Y141.602
G1 X153.358 Y142.452
G1 X153.894 Y143.251
G1 X154.348 Y144.170
G1 X154.957 Y144.984
G1 X155.413 Y145.708
G1 X155.927 Y146.669
G1 X156.342 Y147.495
G1 X156.910 Y148.241
G1 X157.448 Y149.111
G1 X157.963 Y149.983
G1 X158.450 Y150.797
G1 X158.871 Y151.562
G1 X159.420 Y152.540
G1 X159.888 Y153.312
G1 X160.345 Y154.186
G1 X160.967 Y154.978
G1 X161.461 Y155.874
G1 X161.940 Y156.612
G1 X162.416 Y157.418
G1 X162.902 Y158.292
G1 X163.457 Y159.152
G1 X163.917 Y160.021
G1 X164.340 Y160.872
G1 X164.925 Y161.664
G1 X165.372 Y162.509
G1 X165.927 Y163.437
G1 X166.338 Y164.286
G1 X166.879 Y165.007
G1 X167.397 Y166.012
G1 X167.995 Y166.759
G1 X168.501 Y167.671
G1 X168.906 Y168.453
G1 X169.458 Y169.399
G1 X169.943 Y170.243
G1 X170.525 Y171.042
G1 X170.974 Y171.965
G1 X171.407 Y172.848
G1 X171.965 Y173.652
G1 X172.448 Y174.536
G1 X172.993 Y175.309
G1 X173.514 Y176.172
G1 X174.017 Y177.016
G1 X174.521 Y177.973
G1 X175.084 Y178.813
G1 X175.626 Y179.634
G1 X175.986 Y180.596
G1 X176.631 Y181.389
G1 X177.055 Y182.165
G1 X177.597 Y183.020
G1 X178.120 Y183.954
G1 X178.638 Y184.877
G1 X179.113 Y185.672
G1 X179.628 Y186.562
G1 X180.140 Y187.445
G1 X180.567 Y188.177
G1 X181.084 Y189.130
G1 X181.619 Y189.983
G1 X182.051 Y190.721
G1 X182.664 Y191.668
G1 X183.045 Y192.456
G1 X183.547 Y193.352
G1 X184.074 Y194.231
G1 X184.617 Y194.992
G1 X185.090 Y195.918
G1 X185.527 Y196.808
G1 X186.094 Y197.532
G1 X186.582 Y198.454
G1 X187.046 Y199.283
G1 X187.563 Y200.058
G1 X188.172 Y200.996
G1 X188.579 Y201.889
G1 X189.050 Y202.630
G1 X189.635 Y203.562
G1 X190.098 Y204.331
G1 X190.632 Y205.167
G1 X191.097 Y206.091
; Path 51
G0 Z0
G0 X191.094 Y206.143
G0 Z2.2
G1 F3000
G1 X190.549 Y205.379
G1 X189.997 Y204.443
G1 X189.476 Y203.605
G1 X188.944 Y202.856
G1 X188.376 Y202.050
G1 X187.947 Y201.141
G1 X187.418 Y200.359
G1 X186.853 Y199.561
G1 X186.279 Y198.778
G1 X185.810 Y197.971
G1 X185.188 Y197.051
G1 X184.656 Y196.185
G1 X184.169 Y195.460
G1 X183.660 Y194.622
G1 X183.125 Y193.781
G1 X182.606 Y192.978
G1 X182.047 Y192.133
G1 X181.442 Y191.305
G1 X180.985 Y190.505
G1 X180.398 Y189.673
G1 X179.942 Y188.761
G1 X179.387 Y188.007
G1 X178.924 Y187.155
G1 X178.235 Y186.416
G1 X177.769 Y185.536
G1 X177.301 Y184.599
G1 X176.711 Y183.826
G1 X176.116 Y182.942
G1 X175.653 Y182.146
G1 X175.059 Y181.335
G1 X174.582 Y180.486
G1 X173.952 Y179.619
G1 X173.536 Y178.786
G1 X172.864 Y178.002
G1 X172.363 Y177.141
G1 X171.800 Y176.308
G1 X171.253 Y175.489
G1 X170.841 Y174.677
G1 X170.219 Y173.892
G1 X169.650 Y172.949
G1 X169.142 Y172.178
G1 X168.567 Y171.416
G1 X168.105 Y170.578
G1 X167.503 Y169.606
G1 X166.978 Y168.802
G1 X166.539 Y168.098
G1 X165.961 Y167.186
G1 X165.489 Y166.422
G1 X164.881 Y165.636
G1 X164.470 Y164.737
G1 X163.839 Y163.971
G1 X163.270 Y163.059
G1 X162.748 Y162.350
G1 X162.329 Y161.568
G1 X161.847 Y160.757
G1 X161.254 Y159.951
G1 X160.772 Y159.152
G1 X160.181 Y158.194
G1 X159.753 Y157.477
G1 X159.089 Y156.629
G1 X158.671 Y155.858
G1 X158.057 Y155.030
G1 X157.611 Y154.133
G1 X157.139 Y153.455
G1 X156.512 Y152.543
G1 X156.077 Y151.750
G1 X155.495 Y150.895
G1 X155.029 Y150.133
G1 X154.428 Y149.372
G1 X153.948 Y148.571
G1 X153.426 Y147.712
G1 X152.845 Y146.950
G1 X152.373 Y146.083
G1 X151.848 Y145.290
G1 X151.360 Y144.508
G1 X150.709 Y143.580
G1 X150.285 Y142.903
G1 X149.667 Y142.021
G1 X149.179 Y141.190
G1 X148.629 Y140.306
G1 X148.199 Y139.464
G1 X147.613 Y138.763
G1 X147.064 Y137.858
G1 X146.597 Y137.098
G1 X146.099 Y136.303
G1 X145.474 Y135.411
G1 X144.910 Y134.689
G1 X144.357 Y133.814
G1 X143.839 Y132.956
G1 X143.380 Y132.106
G1 X142.883 Y131.284
G1 X142.329 Y130.538
G1 X141.712 Y129.757
G1 X141.186 Y128.783
G1 X140.798 Y128.065
G1 X140.217 Y127.177
G1 X139.735 Y126.411
G1 X139.156 Y125.528
G1 X138.586 Y124.787
G1 X138.079 Y123.931
G1 X137.494 Y123.099
G1 X137.079 Y122.272
G1 X136.468 Y121.447
G1 X135.859 Y120.646
G1 X135.337 Y119.709
G1 X134.832 Y118.930
G1 X134.386 Y118.154
G1 X133.690 Y117.287
G1 X133.160 Y116.446
G1 X132.767 Y115.559
G1 X132.084 Y114.801
G1 X131.633 Y113.858
G1 X131.063 Y113.148
G1 X130.494 Y112.183
G1 X129.952 Y111.402
G1 X129.493 Y110.578
G1 X128.960 Y109.809
G1 X128.420 Y108.848
G1 X127.882 Y108.040
G1 X127.355 Y107.178
G1 X126.781 Y106.355
G1 X126.189 Y105.480
G1 X125.684 Y104.721
G1 X125.143 Y103.878
G1 X124.602 Y103.163
G1 X124.089 Y102.203
G1 X123.514 Y101.528
G1 X123.100 Y100.645
G1 X122.468 Y99.850
G1 X122.058 Y99.076
G1 X121.523 Y98.225
G1 X121.025 Y97.438
G1 X120.449 Y96.519
G1 X119.840 Y95.724
G1 X119.374 Y94.925
G1 X118.904 Y94.190
G1 X118.245 Y93.382
G1 X117.773 Y92.494
G1 X117.272 Y91.691
G1 X116.749 Y90.967
G1 X116.256 Y90.147
G1 X115.696 Y89.271
G1 X115.201 Y88.567
G1 X114.673 Y87.679
G1 X114.160 Y87.007
G1 X113.758 Y86.132
G1 X113.187 Y85.366
G1 X112.712 Y84.581
G1 X112.119 Y83.849
G1 X111.641 Y83.105
G1 X111.181 Y82.309
G1 X110.604 Y81.447
G1 X110.185 Y80.691
G1 X109.591 Y80.022
G1 X109.144 Y79.192
G1 X108.655 Y78.392
G1 X108.087 Y77.719
G1 X107.589 Y76.852
G1 X107.061 Y76.095
G1 X107.511 Y76.948
G1 X108.025 Y77.721
G1 X108.566 Y78.603
G1 X109.179 Y79.440
G1 X109.693 Y80.183
G1 X110.134 Y81.054
G1 X110.563 Y81.777
G1 X111.075 Y82.612
G1 X111.646 Y83.399
G1 X112.125 Y84.164
G1 X112.701 Y85.087
G1 X113.120 Y85.873
G1 X113.684 Y86.653
G1 X114.093 Y87.388
G1 X114.684 Y88.241
G1 X115.121 Y88.948
G1 X115.738 Y89.870
G1 X116.124 Y90.573
G1 X116.661 Y91.413
G1 X117.246 Y92.178
G1 X117.674 Y92.997
G1 X118.163 Y93.780
G1 X118.645 Y94.621
G1 X119.216 Y95.460
G1 X119.740 Y96.281
G1 X120.243 Y97.058
G1 X120.765 Y97.955
G1 X121.337 Y98.794
G1 X121.841 Y99.659
G1 X122.392 Y100.466
G1 X122.901 Y101.202
G1 X123.357 Y102.074
G1 X123.891 Y102.814
G1 X124.517 Y103.749
G1 X125.024 Y104.585
G1 X125.575 Y105.429
G1 X125.995 Y106.221
G1 X126.522 Y107.008
G1 X127.034 Y107.904
G1 X127.590 Y108.696
G1 X128.186 Y109.546
G1 X128.652 Y110.310
G1 X129.213 Y111.212
G1 X129.649 Y111.968
G1 X130.309 Y112.812
G1 X130.836 Y113.628
G1 X131.268 Y114.506
G1 X131.889 Y115.357
G1 X132.460 Y116.207
G1 X132.926 Y117.016
G1 X133.537 Y117.869
G1 X133.958 Y118.703
G1 X134.478 Y119.548
G1 X135.011 Y120.395
G1 X135.660 Y121.237
G1 X136.104 Y122.046
G1 X136.699 Y122.964
G1 X137.247 Y123.790
G1 X137.783 Y124.598
G1 X138.249 Y125.450
G1 X138.847 Y126.377
G1 X139.399 Y127.099
G1 X139.848 Y128.005
G1 X140.394 Y128.864
G1 X141.003 Y129.758
G1 X141.558 Y130.518
G1 X142.036 Y131.383
G1 X142.629 Y132.268
G1 X143.149 Y133.013
G1 X143.600 Y133.867
G1 X144.115 Y134.644
G1 X144.671 Y135.534
G1 X145.128 Y136.309
G1 X145.762 Y137.211
G1 X146.330 Y138.065
G1 X146.812 Y138.770
G1 X147.357 Y139.608
G1 X147.768 Y140.497
G1 X148.430 Y141.379
G1 X148.836 Y142.086
G1 X149.367 Y142.988
G1 X149.912 Y143.866
G1 X150.434 Y144.596
G1 X151.045 Y145.416
G1 X151.506 Y146.346
G1 X152.004 Y147.077
G1 X152.564 Y147.995
G1 X153.121 Y148.772
G1 X153.613 Y149.678
G1 X154.097 Y150.477
G1 X154.677 Y151.367
G1 X155.247 Y152.077
G1 X155.695 Y153.004
G1 X156.196 Y153.854
G1 X156.795 Y154.605
G1 X157.248 Y155.437
G1 X157.796 Y156.237
G1 X158.436 Y157.066
G1 X158.853 Y157.883
G1 X159.411 Y158.757
G1 X159.946 Y159.583
G1 X160.515 Y160.316
G1 X160.904 Y161.186
G1 X161.524 Y161.978
G1 X161.945 Y162.768
G1 X162.602 Y163.603
G1 X162.979 Y164.452
G1 X163.535 Y165.276
G1 X164.012 Y166.096
G1 X164.551 Y166.947
G1 X165.156 Y167.634
G1 X165.613 Y168.521
G1 X166.106 Y169.400
G1 X166.655 Y170.199
G1 X167.179 Y170.932
G1 X167.717 Y171.803
G1 X168.327 Y172.563
G1 X168.760 Y173.389
G1 X169.356 Y174.203
G1 X169.842 Y175.093
G1 X170.361 Y175.898
G1 X170.828 Y176.751
G1 X171.336 Y177.528
G1 X171.897 Y178.364
G1 X172.479 Y179.219
G1 X172.963 Y180.084
G1 X173.525 Y180.876
G1 X173.961 Y181.669
G1 X174.622 Y182.486
G1 X175.051 Y183.462
G1 X175.702 Y184.255
G1 X176.099 Y185.055
G1 X176.733 Y185.996
G1 X177.198 Y186.727
G1 X177.808 Y187.673
G1 X178.351 Y188.498
G1 X178.893 Y189.219
G1 X179.441 Y190.202
G1 X179.837 Y191.044
G1 X180.371 Y191.864
G1 X180.917 Y192.697
G1 X181.455 Y193.496
G1 X182.113 Y194.371
G1 X182.577 Y195.218
G1 X183.162 Y196.035
G1 X183.602 Y196.887
G1 X184.217 Y197.689
G1 X184.751 Y198.546
G1 X185.169 Y199.313
G1 X185.704 Y200.199
G1 X186.312 Y201.048
G1 X186.819 Y201.827
G1 X187.444 Y202.669
G1 X187.854 Y203.546
G1 X188.370 Y204.402
G1 X188.930 Y205.184
G1 X189.409 Y205.995
G1 X190.015 Y206.950
G1 X190.567 Y207.651
G1 X191.045 Y208.499
G1 X191.654 Y209.337
G1 X192.125 Y210.233
G1 X192.631 Y211.118
G1 X193.203 Y211.859
G1 X193.743 Y212.776
G1 X194.235 Y213.590
G1 X194.802 Y214.320
G1 X195.233 Y215.164
G1 X195.878 Y216.106
G1 X196.426 Y216.881
G1 X196.965 Y217.790
G1 X197.424 Y218.604
G1 X198.006 Y219.435
G1 X198.506 Y220.240
G1 X199.009 Y221.047
; Path 52
G0 Z0
G0 X199.017 Y221.024
G0 Z2.2
G1 F3000
G1 X198.535 Y220.223
G1 X197.998 Y219.319
G1 X197.524 Y218.393
G1 X197.088 Y217.591
G1 X196.730 Y216.628
G1 X196.165 Y215.856
G1 X195.696 Y214.923
G1 X195.300 Y214.061
G1 X194.786 Y213.272
G1 X194.319 Y212.326
G1 X193.875 Y211.526
G1 X193.353 Y210.661
G1 X192.802 Y209.716
G1 X192.472 Y208.917
G1 X191.880 Y208.027
G1 X191.392 Y207.072
G1 X190.982 Y206.241
G1 X190.513 Y205.325
G1 X190.027 Y204.499
G1 X189.633 Y203.665
G1 X189.022 Y202.749
G1 X188.564 Y201.930
G1 X188.147 Y201.037
G1 X187.684 Y200.212
G1 X187.191 Y199.322
G1 X186.780 Y198.388
G1 X186.181 Y197.477
G1 X185.813 Y196.754
G1 X185.319 Y195.737
G1 X184.816 Y194.918
G1 X184.298 Y194.086
G1 X183.846 Y193.153
G1 X183.327 Y192.389
G1 X182.867 Y191.477
G1 X182.333 Y190.593
G1 X181.848 Y189.732
G1 X181.483 Y188.765
G1 X180.957 Y188.012
G1 X180.551 Y187.131
G1 X179.979 Y186.282
G1 X179.470 Y185.420
G1 X179.088 Y184.500
G1 X178.535 Y183.635
G1 X178.091 Y182.674
G1 X177.636 Y181.825
G1 X177.131 Y180.919
G1 X176.596 Y180.157
G1 X176.082 Y179.209
G1 X175.676 Y178.367
G1 X175.160 Y177.578
G1 X174.735 Y176.626
G1 X174.321 Y175.839
G1 X173.741 Y174.933
G1 X173.396 Y174.156
G1 X172.811 Y173.323
G1 X172.475 Y172.428
G1 X171.862 Y171.661
G1 X171.471 Y170.772
G1 X171.055 Y169.896
G1 X170.557 Y169.029
G1 X170.004 Y168.130
G1 X169.600 Y167.367
G1 X169.144 Y166.543
G1 X168.626 Y165.634
G1 X168.215 Y164.837
G1 X167.670 Y163.931
G1 X167.187 Y163.088
G1 X166.741 Y162.313
G1 X166.232 Y161.479
G1 X165.920 Y160.481
G1 X165.308 Y159.702
G1 X164.955 Y158.938
G1 X164.414 Y158.007
G1 X163.970 Y157.223
G1 X163.544 Y156.259
G1 X163.067 Y155.448
G1 X162.564 Y154.624
G1 X162.139 Y153.824
G1 X161.553 Y152.924
G1 X161.187 Y152.066
G1 X160.733 Y151.252
G1 X160.228 Y150.303
G1 X159.793 Y149.462
G1 X159.248 Y148.546
G1 X158.820 Y147.715
G1 X158.315 Y146.817
G1 X157.762 Y146.016
G1 X157.297 Y145.236
G1 X156.828 Y144.356
G1 X156.372 Y143.483
G1 X155.989 Y142.648
G1 X155.424 Y141.764
G1 X154.913 Y140.842
G1 X154.588 Y140.061
G1 X153.973 Y139.098
G1 X153.628 Y138.294
G1 X153.154 Y137.425
G1 X152.567 Y136.495
G1 X152.106 Y135.708
G1 X151.671 Y134.813
G1 X151.274 Y133.989
G1 X150.685 Y133.094
G1 X150.314 Y132.239
G1 X149.773 Y131.417
G1 X149.284 Y130.532
G1 X148.919 Y129.800
G1 X148.397 Y128.832
G1 X147.996 Y128.065
G1 X147.401 Y127.201
G1 X147.059 Y126.346
G1 X146.598 Y125.545
G1 X146.154 Y124.729
G1 X145.549 Y123.892
G1 X145.129 Y123.020
G1 X144.660 Y122.228
G1 X144.297 Y121.273
G1 X143.848 Y120.511
G1 X143.294 Y119.608
G1 X142.795 Y118.803
G1 X142.455 Y118.010
G1 X141.912 Y117.020
G1 X141.547 Y116.219
G1 X140.995 Y115.460
G1 X140.616 Y114.601
G1 X140.164 Y113.720
G1 X139.679 Y112.946
G1 X139.155 Y112.088
G1 X138.676 Y111.135
G1 X138.263 Y110.357
G1 X137.746 Y109.536
G1 X137.370 Y108.637
G1 X136.827 Y107.747
G1 X136.371 Y106.840
G1 X135.988 Y106.109
G1 X135.424 Y105.116
G1 X135.015 Y104.369
G1 X134.586 Y103.486
G1 X134.127 Y102.628
G1 X133.614 Y101.745
G1 X133.217 Y100.847
G1 X132.741 Y99.925
G1 X132.169 Y99.049
G1 X131.719 Y98.285
G1 X131.262 Y97.350
G1 X130.883 Y96.562
G1 X130.359 Y95.617
G1 X129.915 Y94.809
G1 X129.498 Y93.937
G1 X128.994 Y93.054
G1 X128.624 Y92.252
G1 X128.080 Y91.269
G1 X127.729 Y90.456
G1 X127.223 Y89.620
G1 X126.904 Y88.830
G1 X126.450 Y87.967
G1 X126.021 Y87.133
G1 X125.465 Y86.158
G1 X125.018 Y85.452
G1 X124.616 Y84.548
G1 X124.155 Y83.621
G1 X123.717 Y82.798
G1 X123.281 Y81.897
G1 X122.927 Y81.117
G1 X122.633 Y80.361
G1 X122.355 Y79.509
G1 X122.029 Y78.651
G1 X121.656 Y77.731
G1 X121.352 Y77.016
G1 X121.023 Y76.156
G1 X121.572 Y76.736
G1 X122.138 Y77.394
G1 X122.771 Y78.022
G1 X123.382 Y78.675
G1 X123.923 Y79.246
G1 X124.489 Y79.989
G1 X125.014 Y80.802
G1 X125.480 Y81.556
G1 X126.103 Y82.349
G1 X126.585 Y83.126
G1 X127.115 Y83.929
G1 X127.699 Y84.605
G1 X128.314 Y85.467
G1 X128.787 Y86.211
G1 X129.298 Y87.035
G1 X129.865 Y87.744
G1 X130.469 Y88.507
G1 X130.985 Y89.311
G1 X131.462 Y90.045
G1 X132.117 Y90.902
G1 X132.644 Y91.684
G1 X133.113 Y92.576
G1 X133.641 Y93.341
G1 X134.152 Y94.196
G1 X134.772 Y95.049
G1 X135.310 Y95.880
G1 X135.823 Y96.656
G1 X136.437 Y97.433
G1 X136.852 Y98.196
G1 X137.438 Y99.059
G1 X137.930 Y99.819
G1 X138.568 Y100.716
G1 X139.025 Y101.540
G1 X139.611 Y102.241
G1 X140.124 Y103.199
G1 X140.685 Y104.000
G1 X141.250 Y104.744
G1 X141.812 Y105.609
G1 X142.389 Y106.482
G1 X142.870 Y107.263
G1 X143.457 Y108.007
G1 X143.905 Y108.890
G1 X144.573 Y109.690
G1 X145.086 Y110.528
G1 X145.672 Y111.459
G1 X146.198 Y112.326
G1 X146.684 Y113.035
G1 X147.155 Y113.969
G1 X147.722 Y114.826
G1 X148.304 Y115.589
G1 X148.926 Y116.381
G1 X149.343 Y117.182
G1 X149.892 Y118.159
G1 X150.479 Y118.929
G1 X150.969 Y119.726
G1 X151.584 Y120.641
G1 X152.108 Y121.414
G1 X152.590 Y122.281
G1 X153.187 Y123.037
G1 X153.756 Y123.933
G1 X154.365 Y124.824
G1 X154.795 Y125.575
G1 X155.337 Y126.345
G1 X155.876 Y127.227
G1 X156.377 Y127.956
G1 X157.000 Y128.783
G1 X157.401 Y129.693
G1 X158.041 Y130.517
G1 X158.572 Y131.313
G1 X159.023 Y132.116
G1 X159.525 Y132.911
G1 X160.107 Y133.712
G1 X160.720 Y134.611
G1 X161.203 Y135.392
G1 X161.748 Y136.232
G1 X162.207 Y137.125
G1 X162.780 Y137.849
G1 X163.248 Y138.655
G1 X163.826 Y139.575
G1 X164.312 Y140.345
G1 X164.903 Y141.225
G1 X165.357 Y141.998
G1 X165.937 Y142.840
G1 X166.530 Y143.636
G1 X166.985 Y144.484
G1 X167.544 Y145.268
G1 X168.090 Y146.129
G1 X168.646 Y146.856
G1 X169.103 Y147.673
G1 X169.610 Y148.454
G1 X170.091 Y149.331
G1 X170.643 Y150.155
G1 X171.203 Y150.935
G1 X171.696 Y151.722
G1 X172.184 Y152.498
G1 X172.796 Y153.399
G1 X173.236 Y154.202
G1 X173.822 Y154.943
G1 X174.399 Y155.764
G1 X174.893 Y156.627
G1 X175.302 Y157.374
G1 X175.897 Y158.178
G1 X176.412 Y159.078
G1 X176.992 Y159.892
G1 X177.480 Y160.697
G1 X177.917 Y161.488
G1 X178.526 Y162.296
G1 X179.025 Y163.041
G1 X179.485 Y163.856
G1 X180.071 Y164.721
G1 X180.597 Y165.453
G1 X181.063 Y166.373
G1 X181.651 Y167.140
G1 X182.142 Y168.047
G1 X182.716 Y168.865
G1 X183.217 Y169.652
G1 X183.823 Y170.488
G1 X184.373 Y171.254
G1 X184.944 Y172.188
G1 X185.444 Y172.887
G1 X185.941 Y173.859
G1 X186.444 Y174.630
G1 X186.990 Y175.438
G1 X187.541 Y176.225
G1 X188.134 Y177.147
G1 X188.643 Y178.012
G1 X189.117 Y178.738
G1 X189.756 Y179.559
G1 X190.311 Y180.493
G1 X190.850 Y181.329
G1 X191.326 Y182.103
G1 X191.877 Y182.878
G1 X192.466 Y183.751
G1 X193.036 Y184.623
G1 X193.553 Y185.467
G1 X194.081 Y186.283
G1 X194.651 Y187.109
G1 X195.118 Y187.939
G1 X195.637 Y188.800
G1 X196.136 Y189.664
G1 X196.814 Y190.430
G1 X197.324 Y191.203
G1 X197.782 Y192.036
G1 X198.420 Y192.897
G1 X198.899 Y193.682
G1 X199.458 Y194.447
G1 X199.960 Y195.324
G1 X200.496 Y196.241
G1 X201.077 Y197.030
G1 X201.635 Y197.819
G1 X202.131 Y198.605
G1 X202.666 Y199.464
G1 X203.147 Y200.289
G1 X203.824 Y201.096
G1 X204.296 Y201.903
G1 X204.808 Y202.700
G1 X205.310 Y203.536
G1 X205.877 Y204.417
G1 X206.458 Y205.191
G1 X206.984 Y206.055
; Path 53
G0 Z0
G0 X206.977 Y206.043
G0 Z2.2
G1 F3000
G1 X206.504 Y205.211
G1 X205.937 Y204.285
G1 X205.512 Y203.556
G1 X204.966 Y202.647
G1 X204.592 Y201.823
G1 X204.085 Y200.866
G1 X203.664 Y200.144
G1 X203.125 Y199.163
G1 X202.695 Y198.438
G1 X202.221 Y197.535
G1 X201.645 Y196.685
G1 X201.180 Y195.826
G1 X200.639 Y195.045
G1 X200.220 Y194.187
G1 X199.816 Y193.255
G1 X199.181 Y192.397
G1 X198.796 Y191.616
G1 X198.327 Y190.792
G1 X197.789 Y189.816
G1 X197.331 Y189.011
G1 X196.789 Y188.252
G1 X196.429 Y187.247
G1 X195.839 Y186.415
G1 X195.393 Y185.624
G1 X194.917 Y184.773
G1 X194.496 Y183.975
G1 X193.925 Y183.127
G1 X193.427 Y182.124
G1 X193.021 Y181.296
G1 X192.451 Y180.506
G1 X191.928 Y179.547
G1 X191.497 Y178.737
G1 X191.089 Y177.852
G1 X190.574 Y176.983
G1 X189.988 Y176.142
G1 X189.513 Y175.376
G1 X189.002 Y174.431
G1 X188.569 Y173.664
G1 X188.049 Y172.768
G1 X187.590 Y171.834
G1 X187.086 Y171.078
G1 X186.566 Y170.153
G1 X186.072 Y169.357
G1 X185.635 Y168.418
G1 X185.185 Y167.657
G1 X184.609 Y166.778
G1 X184.123 Y165.842
G1 X183.771 Y165.008
G1 X183.280 Y164.247
G1 X182.667 Y163.333
G1 X182.248 Y162.461
G1 X181.778 Y161.568
G1 X181.337 Y160.799
G1 X180.715 Y159.843
G1 X180.292 Y158.996
G1 X179.858 Y158.105
G1 X179.305 Y157.315
G1 X178.758 Y156.384
G1 X178.364 Y155.482
G1 X177.760 Y154.593
G1 X177.280 Y153.846
G1 X176.845 Y152.864
G1 X176.359 Y151.995
G1 X175.898 Y151.151
G1 X175.415 Y150.340
G1 X174.838 Y149.405
G1 X174.428 Y148.523
G1 X173.938 Y147.712
G1 X173.441 Y146.834
G1 X172.935 Y146.025
G1 X172.341 Y145.088
G1 X171.886 Y144.237
G1 X171.391 Y143.403
G1 X170.865 Y142.580
G1 X170.386 Y141.593
G1 X169.973 Y140.834
G1 X169.535 Y139.893
G1 X168.960 Y139.064
G1 X168.479 Y138.201
G1 X167.963 Y137.370
G1 X167.439 Y136.584
G1 X166.981 Y135.681
G1 X166.526 Y134.835
G1 X166.138 Y133.945
G1 X165.549 Y133.137
G1 X165.107 Y132.293
G1 X164.587 Y131.481
G1 X164.078 Y130.573
G1 X163.618 Y129.744
G1 X163.223 Y128.960
G1 X162.785 Y128.005
G1 X162.225 Y127.161
G1 X161.706 Y126.337
G1 X161.237 Y125.523
G1 X160.841 Y124.595
G1 X160.235 Y123.842
G1 X159.903 Y122.887
G1 X159.404 Y122.169
G1 X158.868 Y121.263
G1 X158.359 Y120.479
G1 X157.862 Y119.603
G1 X157.467 Y118.738
G1 X157.023 Y117.888
G1 X156.392 Y116.973
G1 X156.042 Y116.178
G1 X155.525 Y115.302
G1 X155.021 Y114.489
G1 X154.542 Y113.559
G1 X154.088 Y112.831
G1 X153.582 Y111.861
G1 X153.123 Y111.025
G1 X152.581 Y110.221
G1 X152.080 Y109.285
G1 X151.574 Y108.409
G1 X151.142 Y107.655
G1 X150.578 Y106.796
G1 X150.140 Y105.897
G1 X149.600 Y105.061
G1 X149.214 Y104.144
G1 X148.659 Y103.367
G1 X148.145 Y102.423
G1 X147.772 Y101.640
G1 X147.268 Y100.680
G1 X146.765 Y99.855
G1 X146.170 Y98.986
G1 X145.803 Y98.164
G1 X145.231 Y97.213
G1 X144.803 Y96.395
G1 X144.297 Y95.542
G1 X143.773 Y94.647
G1 X143.254 Y93.787
G1 X142.813 Y92.972
G1 X142.391 Y92.085
G1 X141.886 Y91.357
G1 X141.371 Y90.383
G1 X140.982 Y89.567
G1 X140.350 Y88.748
G1 X140.015 Y87.981
G1 X139.523 Y87.009
G1 X139.019 Y86.232
G1 X138.519 Y85.405
G1 X137.981 Y84.499
G1 X137.619 Y83.770
G1 X137.135 Y82.914
G1 X136.602 Y82.094
G1 X136.138 Y81.177
G1 X135.660 Y80.344
G1 X135.173 Y79.478
G1 X134.657 Y78.618
G1 X134.238 Y77.898
G1 X133.775 Y77.015
G1 X133.266 Y76.209
G1 X132.791 Y75.297
G1 X132.344 Y74.472
G1 X131.876 Y73.670
G1 X131.384 Y72.820
G1 X131.017 Y71.985
G1 X130.515 Y71.244
G1 X129.993 Y70.469
G1 X129.606 Y69.595
G1 X129.082 Y68.858
G1 X128.732 Y67.993
G1 X128.214 Y67.184
G1 X127.788 Y66.327
G1 X127.350 Y65.536
G1 X126.836 Y64.724
G1 X126.394 Y63.884
G1 X125.893 Y63.110
G1 X125.499 Y62.197
G1 X124.888 Y61.454
G1 X124.515 Y60.583
G1 X123.986 Y59.794
G1 X123.584 Y58.893
G1 X123.056 Y58.056
G1 X123.498 Y58.806
G1 X123.982 Y59.695
G1 X124.388 Y60.383
G1 X124.904 Y61.233
G1 X125.330 Y62.013
G1 X125.821 Y62.928
G1 X126.427 Y63.808
G1 X126.823 Y64.660
G1 X127.322 Y65.492
G1 X127.780 Y66.341
G1 X128.311 Y67.215
G1 X128.770 Y68.161
G1 X129.312 Y68.998
G1 X129.892 Y69.851
G1 X130.294 Y70.699
G1 X130.813 Y71.545
G1 X131.367 Y72.319
G1 X131.782 Y73.199
G1 X132.226 Y74.016
G1 X132.733 Y74.855
G1 X133.212 Y75.734
G1 X133.592 Y76.494
G1 X134.119 Y77.338
G1 X134.690 Y78.251
G1 X135.025 Y79.031
G1 X135.612 Y79.888
G1 X136.006 Y80.639
G1 X136.451 Y81.573
G1 X136.985 Y82.385
G1 X137.458 Y83.174
G1 X137.869 Y84.016
G1 X138.352 Y84.907
G1 X138.818 Y85.671
G1 X139.353 Y86.503
G1 X139.845 Y87.344
G1 X140.345 Y88.160
G1 X140.769 Y89.114
G1 X141.328 Y89.910
G1 X141.754 Y90.764
G1 X142.343 Y91.551
G1 X142.762 Y92.536
G1 X143.241 Y93.371
G1 X143.800 Y94.141
G1 X144.253 Y95.002
G1 X144.785 Y95.900
G1 X145.181 Y96.689
G1 X145.771 Y97.522
G1 X146.163 Y98.466
G1 X146.674 Y99.321
G1 X147.179 Y100.108
G1 X147.681 Y101.081
G1 X148.131 Y101.878
G1 X148.593 Y102.714
G1 X149.129 Y103.573
G1 X149.532 Y104.461
G1 X150.116 Y105.346
G1 X150.580 Y106.148
G1 X151.063 Y106.985
G1 X151.518 Y107.850
G1 X152.075 Y108.619
G1 X152.471 Y109.462
G1 X153.004 Y110.363
G1 X153.426 Y111.146
G1 X153.901 Y112.042
G1 X154.495 Y112.853
G1 X154.836 Y113.665
G1 X155.394 Y114.539
G1 X155.839 Y115.347
G1 X156.406 Y116.227
G1 X156.838 Y117.100
G1 X157.330 Y117.917
G1 X157.700 Y118.728
G1 X158.192 Y119.526
G1 X158.792 Y120.363
G1 X159.152 Y121.340
G1 X159.696 Y122.034
G1 X160.130 Y122.933
G1 X160.608 Y123.817
G1 X161.119 Y124.602
G1 X161.554 Y125.486
G1 X162.058 Y126.345
G1 X162.567 Y127.218
G1 X163.064 Y127.979
G1 X163.531 Y128.820
G1 X164.007 Y129.667
G1 X164.496 Y130.524
G1 X165.031 Y131.433
G1 X165.570 Y132.266
G1 X166.061 Y133.186
G1 X166.442 Y133.987
G1 X166.979 Y134.855
G1 X167.463 Y135.749
G1 X167.979 Y136.582
G1 X168.469 Y137.386
G1 X168.903 Y138.331
G1 X169.415 Y139.114
G1 X169.906 Y139.937
G1 X170.461 Y140.810
G1 X170.968 Y141.795
G1 X171.452 Y142.638
G1 X171.955 Y143.457
G1 X172.457 Y144.355
G1 X172.908 Y145.166
G1 X173.314 Y146.106
G1 X173.931 Y146.932
G1 X174.325 Y147.785
G1 X174.781 Y148.559
G1 X175.385 Y149.533
G1 X175.842 Y150.334
G1 X176.312 Y151.204
G1 X176.734 Y152.030
G1 X177.208 Y152.963
G1 X177.752 Y153.803
G1 X178.195 Y154.544
G1 X178.794 Y155.394
G1 X179.286 Y156.329
G1 X179.658 Y157.213
G1 X180.174 Y158.027
G1 X180.718 Y158.925
G1 X181.175 Y159.768
G1 X181.589 Y160.547
G1 X182.150 Y161.359
G1 X182.566 Y162.260
G1 X183.113 Y163.047
G1 X183.609 Y164.047
G1 X184.165 Y164.770
G1 X184.506 Y165.704
G1 X185.123 Y166.521
G1 X185.550 Y167.462
G1 X186.025 Y168.179
G1 X186.467 Y169.107
G1 X187.057 Y169.976
G1 X187.489 Y170.854
G1 X187.949 Y171.619
G1 X188.467 Y172.491
G1 X188.975 Y173.382
G1 X189.455 Y174.134
G1 X189.901 Y175.020
G1 X190.332 Y175.879
G1 X190.888 Y176.730
G1 X191.296 Y177.506
G1 X191.815 Y178.465
G1 X192.280 Y179.163
G1 X192.755 Y180.141
G1 X193.212 Y180.914
G1 X193.833 Y181.826
G1 X194.170 Y182.583
G1 X194.774 Y183.480
G1 X195.209 Y184.330
G1 X195.733 Y185.130
G1 X196.209 Y185.904
G1 X196.604 Y186.824
G1 X197.182 Y187.668
G1 X197.685 Y188.581
G1 X198.081 Y189.327
G1 X198.638 Y190.134
G1 X199.061 Y191.034
; Path 54
G0 Z0
G0 X200.618 Y195.185
G0 Z2.2
G1 F3000
G1 X201.419 Y197.124
; Path 55
G0 Z0
G0 X202.437 Y197.237
G0 Z2.2
G1 F3000
G1 X203.447 Y198.982
; Path 56
G0 Z0
G0 X203.404 Y198.912
G0 Z2.2
G1 F3000
G1 X202.577 Y197.264
; Path 57
G0 Z0
G0 X204.698 Y199.100
G0 Z2.2
G1 F3000
G1 X205.512 Y200.927
; Path 58
G0 Z0
G0 X203.514 Y201.153
G0 Z2.2
G1 F3000
G1 X204.625 Y202.821
; Path 59
G0 Z0
G0 X204.524 Y202.934
G0 Z2.2
G1 F3000
G1 X203.410 Y201.230
; Path 60
G0 Z0
G0 X201.763 Y203.147
G0 Z2.2
G1 F3000
G1 X202.057 Y205.144
; Path 61
G0 Z0
G0 X203.874 Y205.200
G0 Z2.2
G1 F3000
G1 X204.326 Y207.111
; Path 62
G0 Z0
G0 X202.845 Y207.120
G0 Z2.2
G1 F3000
G1 X203.350 Y209.030
; Path 63
G0 Z0
G0 X203.243 Y209.032
G0 Z2.2
G1 F3000
G1 X202.742 Y207.204
; Path 64
G0 Z0
G0 X199.198 Y207.013
G0 Z2.2
G1 F3000
G1 X199.028 Y205.015
; Path 65
G0 Z0
G0 X196.915 Y203.046
G0 Z2.2
G1 F3000
G1 X196.920 Y201.075
; Path 66
G0 Z0
G0 X193.012 Y196.007
G0 Z2.2
G1 F3000
G1 X193.080 Y197.037
G1 X193.207 Y197.866
G1 X193.214 Y198.939
G1 X193.329 Y199.914
G1 X193.405 Y200.844
G1 X193.599 Y201.815
G1 X193.697 Y202.741
G1 X193.792 Y203.739
G1 X193.818 Y204.649
G1 X193.864 Y205.542
G1 X194.011 Y206.598
G1 X194.110 Y207.457
G1 X194.120 Y208.421
G1 X194.315 Y209.440
G1 X194.435 Y210.341
G1 X194.436 Y211.334
G1 X194.592 Y212.232
G1 X194.728 Y213.190
G1 X194.768 Y214.166
G1 X194.854 Y215.135
G1 X194.948 Y216.110
G1 X195.009 Y217.075
G1 X195.107 Y218.013
; Path 67
G0 Z0
G0 X195.047 Y218.150
G0 Z2.2
G1 F3000
G1 X195.028 Y217.237
G1 X194.870 Y216.306
G1 X194.718 Y215.284
G1 X194.768 Y214.250
G1 X194.598 Y213.337
G1 X194.572 Y212.450
G1 X194.383 Y211.375
G1 X194.363 Y210.475
G1 X194.303 Y209.502
G1 X194.097 Y208.603
G1 X194.050 Y207.628
G1 X194.018 Y206.726
G1 X193.912 Y205.739
G1 X193.836 Y204.790
G1 X193.668 Y203.750
G1 X193.595 Y202.763
G1 X193.541 Y201.840
G1 X193.435 Y200.931
G1 X193.295 Y199.911
G1 X193.225 Y198.973
G1 X193.218 Y198.025
G1 X193.117 Y197.066
G1 X192.989 Y196.118
; Path 68
G0 Z0
G0 X191.003 Y204.010
G0 Z2.2
G1 F3000
G1 X190.335 Y204.649
G1 X189.754 Y205.413
G1 X189.235 Y206.079
G1 X188.628 Y206.837
G1 X188.034 Y207.512
G1 X187.395 Y208.190
G1 X186.800 Y208.907
G1 X186.163 Y209.616
G1 X185.563 Y210.380
G1 X185.025 Y211.017
; Path 69
G0 Z0
G0 X185.049 Y211.093
G0 Z2.2
G1 F3000
G1 X185.596 Y210.457
G1 X186.164 Y209.639
G1 X186.770 Y208.943
G1 X187.444 Y208.241
G1 X188.095 Y207.533
G1 X188.618 Y206.829
G1 X189.238 Y206.096
G1 X189.872 Y205.443
G1 X190.348 Y204.786
G1 X191.024 Y204.056
; Path 70
G0 Z0
G0 X188.971 Y206.060
G0 Z2.2
G1 F3000
G1 X188.531 Y206.807
G1 X188.074 Y207.631
G1 X187.510 Y208.278
G1 X187.083 Y209.075
; Path 71
G0 Z0
G0 X187.999 Y208.012
G0 Z2.2
G1 F3000
G1 X187.278 Y208.689
G1 X186.596 Y209.324
G1 X185.976 Y210.039
; Path 72
G0 Z0
G0 X189.182 Y215.110
G0 Z2.2
G1 F3000
G1 X188.909 Y217.061
; Path 73
G0 Z0
G0 X191.623 Y215.025
G0 Z2.2
G1 F3000
G1 X192.393 Y213.184
; Path 74
G0 Z0
G0 X197.883 Y209.069
G0 Z2.2
G1 F3000
G1 X198.016 Y211.032
; Path 75
G0 Z0
G0 X200.237 Y215.117
G0 Z2.2
G1 F3000
G1 X199.853 Y213.165
; Path 76
G0 Z0
G0 X203.260 Y213.117
G0 Z2.2
G1 F3000
G1 X202.657 Y211.158
; Path 77
G0 Z0
G0 X205.288 Y211.015
G0 Z2.2
G1 F3000
G1 X204.718 Y209.174
; Path 78
G0 Z0
G0 X209.032 Y207.026
G0 Z2.2
G1 F3000
G1 X209.261 Y207.929
G1 X209.346 Y208.747
G1 X209.579 Y209.445
G1 X209.702 Y210.397
G1 X209.957 Y211.148
; Path 79
G0 Z0
G0 X210.020 Y209.011
G0 Z2.2
G1 F3000
G1 X210.269 Y209.834
G1 X210.514 Y210.521
G1 X210.781 Y211.225
G1 X211.043 Y212.009
; Path 80
G0 Z0
G0 X212.000 Y214.032
G0 Z2.2
G1 F3000
G1 X211.590 Y213.134
G1 X211.110 Y212.375
G1 X210.815 Y211.572
G1 X210.363 Y210.671
G1 X209.939 Y209.890
G1 X209.599 Y209.067
G1 X209.134 Y208.213
G1 X208.774 Y207.347
G1 X208.337 Y206.596
G1 X207.932 Y205.683
G1 X207.536 Y204.874
G1 X207.094 Y204.011
; Path 81
G0 Z0
G0 X207.060 Y204.038
G0 Z2.2
G1 F3000
G1 X207.464 Y204.914
G1 X207.840 Y205.768
G1 X208.271 Y206.595
G1 X208.721 Y207.394
G1 X209.054 Y208.244
G1 X209.484 Y209.094
G1 X209.962 Y209.854
G1 X210.413 Y210.792
G1 X210.746 Y211.674
G1 X211.172 Y212.382
G1 X211.521 Y213.340
G1 X211.977 Y214.116
; Path 82
G0 Z0
G0 X204.986 Y227.020
G0 Z2.2
G1 F3000
G1 X204.727 Y227.018
G1 X204.383 Y227.108
G1 X203.988 Y227.129
; Path 83
G0 Z0
G0 X203.094 Y227.080
G0 Z2.2
G1 F3000
G1 X202.937 Y226.286
G1 X202.864 Y225.369
G1 X202.608 Y224.451
G1 X202.486 Y223.709
G1 X202.444 Y222.805
G1 X202.306 Y221.894
G1 X202.094 Y221.119
; Path 84
G0 Z0
G0 X201.976 Y221.078
G0 Z2.2
G1 F3000
G1 X202.215 Y222.017
G1 X202.227 Y222.847
G1 X202.485 Y223.620
G1 X202.698 Y224.543
G1 X202.759 Y225.394
G1 X202.964 Y226.210
G1 X203.101 Y227.133
; Path 85
G0 Z0
G0 X203.089 Y227.122
G0 Z2.2
G1 F3000
G1 X204.068 Y227.145
G1 X205.135 Y227.025
G1 X206.045 Y227.027
; Path 86
G0 Z0
G0 X205.964 Y227.139
G0 Z2.2
G1 F3000
G1 X204.927 Y227.075
G1 X204.035 Y227.153
G1 X203.065 Y227.042
; Path 87
G0 Z0
G0 X197.075 Y226.162
G0 Z2.2
G1 F3000
G1 X196.374 Y226.123
G1 X195.527 Y226.157
G1 X194.850 Y226.161
G1 X194.030 Y226.153
; Path 88
G0 Z0
G0 X194.068 Y226.123
G0 Z2.2
G1 F3000
G1 X194.363 Y225.331
G1 X194.643 Y224.512
G1 X194.954 Y223.673
G1 X195.286 Y222.787
G1 X195.717 Y221.931
G1 X195.972 Y221.139
; Path 89
G0 Z0
G0 X195.966 Y221.045
G0 Z2.2
G1 F3000
G1 X195.680 Y221.859
G1 X195.384 Y222.636
G1 X194.994 Y223.565
G1 X194.729 Y224.438
G1 X194.435 Y225.154
G1 X194.080 Y226.033
; Path 90
G0 Z0
G0 X194.095 Y226.020
G0 Z2.2
G1 F3000
G1 X195.133 Y225.973
G1 X196.083 Y226.132
G1 X197.018 Y226.098
; Path 91
G0 Z0
G0 X195.027 Y226.103
G0 Z2.2
G1 F3000
G1 X195.349 Y226.119
G1 X195.622 Y226.150
G1 X195.985 Y226.062
; Path 92
G0 Z0
G0 X183.875 Y220.074
G0 Z2.2
G1 F3000
G1 X184.151 Y222.100
; Path 93
G0 Z0
G0 X180.888 Y222.128
G0 Z2.2
G1 F3000
G1 X181.236 Y224.090
; Path 94
G0 Z0
G0 X175.754 Y227.134
G0 Z2.2
G1 F3000
G1 X176.348 Y229.039
; Path 95
G0 Z0
G0 X173.386 Y231.005
G0 Z2.2
G1 F3000
G1 X172.708 Y229.145
; Path 96
G0 Z0
G0 X167.633 Y234.185
G0 Z2.2
G1 F3000
G1 X168.420 Y236.032
; Path 97
G0 Z0
G0 X164.477 Y238.980
G0 Z2.2
G1 F3000
G1 X163.622 Y237.153
; Path 98
G0 Z0
G0 X183.011 Y171.099
G0 Z2.2
G1 F3000
G1 X185.026 Y171.095
; Path 99
G0 Z0
G0 X184.514 Y171.938
G0 Z2.2
G1 F3000
G1 X183.485 Y170.211
; Path 100
G0 Z0
G0 X184.019 Y171.064
G0 Z2.2
G1 F3000
G1 X183.004 Y169.422
G1 X182.055 Y167.729
G1 X181.041 Y166.104
; Path 101
G0 Z0
G0 X169.405 Y179.025
G0 Z2.2
G1 F3000
G1 X168.627 Y177.197
; Path 102
G0 Z0
G0 X162.014 Y181.095
G0 Z2.2
G1 F3000
G1 X161.011 Y179.437
G1 X160.012 Y177.729
G1 X159.007 Y176.072
; Path 103
G0 Z0
G0 X158.522 Y175.238
G0 Z2.2
G1 F3000
G1 X159.502 Y176.943
; Path 104
G0 Z0
G0 X160.034 Y176.063
G0 Z2.2
G1 F3000
G1 X158.017 Y176.105
; Path 105
G0 Z0
G0 X135.040 Y173.152
G0 Z2.2
G1 F3000
G1 X133.021 Y172.972
; Path 106
G0 Z0
G0 X124.026 Y163.097
G0 Z2.2
G1 F3000
G1 X124.391 Y163.167
G1 X124.726 Y163.199
G1 X125.068 Y163.260
G1 X125.419 Y163.301
G1 X125.757 Y163.376
G1 X126.109 Y163.403
G1 X126.448 Y163.436
G1 X126.798 Y163.505
G1 X127.164 Y163.559
G1 X127.488 Y163.606
G1 X127.829 Y163.660
G1 X128.183 Y163.708
G1 X128.536 Y163.789
G1 X128.886 Y163.810
G1 X129.253 Y163.864
G1 X129.598 Y163.910
G1 X129.963 Y163.984
G1 X130.323 Y164.011
G1 X130.686 Y164.078
G1 X131.064 Y164.111
G1 X131.456 Y164.180
G1 X131.821 Y164.210
G1 X132.236 Y164.272
G1 X132.595 Y164.308
G1 X132.971 Y164.343
G1 X133.380 Y164.406
G1 X133.764 Y164.470
G1 X134.176 Y164.504
G1 X134.602 Y164.581
G1 X134.979 Y164.601
G1 X135.387 Y164.627
G1 X135.786 Y164.698
G1 X136.165 Y164.757
G1 X136.596 Y164.795
G1 X137.003 Y164.860
G1 X137.404 Y164.892
G1 X137.804 Y164.912
G1 X138.209 Y164.989
G1 X138.586 Y165.013
G1 X139.007 Y165.087
; Path 107
G0 Z0
G0 X144.044 Y161.089
G0 Z2.2
G1 F3000
G1 X144.527 Y161.052
G1 X145.046 Y161.041
G1 X145.526 Y161.009
G1 X146.048 Y160.994
G1 X146.534 Y160.965
G1 X147.050 Y160.947
G1 X147.553 Y160.927
G1 X148.053 Y160.900
G1 X148.568 Y160.857
G1 X149.055 Y160.853
G1 X149.558 Y160.835
G1 X150.057 Y160.805
G1 X150.546 Y160.787
G1 X151.059 Y160.758
G1 X151.563 Y160.753
G1 X152.060 Y160.709
G1 X152.538 Y160.670
G1 X153.062 Y160.659
G1 X153.562 Y160.634
G1 X154.063 Y160.609
G1 X154.561 Y160.558
G1 X155.064 Y160.557
G1 X155.573 Y160.530
G1 X156.064 Y160.504
G1 X156.563 Y160.500
G1 X157.064 Y160.450
G1 X157.555 Y160.438
G1 X158.064 Y160.396
G1 X158.545 Y160.395
G1 X159.063 Y160.341
G1 X159.566 Y160.329
G1 X160.063 Y160.285
G1 X160.573 Y160.246
G1 X161.062 Y160.230
G1 X161.561 Y160.221
G1 X162.062 Y160.175
G1 X162.551 Y160.139
G1 X163.061 Y160.119
G1 X163.546 Y160.108
G1 X164.061 Y160.065
; Path 108
G0 Z0
G0 X174.760 Y110.489
G0 Z2.2
G1 F3000
G1 X173.136 Y111.560
; Path 109
G0 Z0
G0 X205.057 Y108.292
G0 Z2.2
G1 F3000
G1 X207.013 Y107.873
; Path 110
G0 Z0
G0 X209.087 Y111.164
G0 Z2.2
G1 F3000
G1 X211.102 Y111.017
; Path 111
G0 Z0
G0 X213.042 Y107.893
G0 Z2.2
G1 F3000
G1 X214.923 Y108.069
; Path 112
G0 Z0
G0 X213.014 Y106.287
G0 Z2.2
G1 F3000
G1 X211.056 Y105.878
; Path 113
G0 Z0
G0 X210.977 Y106.164
G0 Z2.2
G1 F3000
G1 X212.960 Y106.169
; Path 114
G0 Z0
G0 X215.037 Y103.737
G0 Z2.2
G1 F3000
G1 X217.008 Y104.364
; Path 115
G0 Z0
G0 X218.313 Y100.621
G0 Z2.2
G1 F3000
G1 X219.972 Y101.646
; Path 116
G0 Z0
G0 X210.033 Y101.015
G0 Z2.2
G1 F3000
G1 X208.038 Y101.150
; Path 117
G0 Z0
G0 X208.026 Y101.322
G0 Z2.2
G1 F3000
G1 X209.868 Y100.826
; Path 118
G0 Z0
G0 X204.921 Y103.556
G0 Z2.2
G1 F3000
G1 X203.057 Y104.498
; Path 119
G0 Z0
G0 X202.018 Y88.109
G0 Z2.2
G1 F3000
G1 X203.339 Y86.747
G1 X204.683 Y85.418
G1 X206.046 Y84.078
; Path 120
G0 Z0
G0 X199.798 Y83.526
G0 Z2.2
G1 F3000
G1 X198.237 Y84.702
; Path 121
G0 Z0
G0 X212.025 Y78.111
G0 Z2.2
G1 F3000
G1 X213.348 Y76.759
G1 X214.653 Y75.414
G1 X216.010 Y74.085
; Path 122
G0 Z0
G0 X215.686 Y74.319
G0 Z2.2
G1 F3000
G1 X214.180 Y75.678
; Path 123
G0 Z0
G0 X214.040 Y76.090
G0 Z2.2
G1 F3000
G1 X213.039 Y76.772
G1 X212.039 Y77.496
G1 X211.067 Y78.153
G1 X210.039 Y78.762
G1 X209.056 Y79.350
G1 X208.038 Y79.948
G1 X207.058 Y80.546
G1 X206.037 Y81.114
G1 X205.026 Y81.736
G1 X204.036 Y82.320
G1 X203.064 Y82.996
G1 X202.036 Y83.626
G1 X201.046 Y84.374
G1 X200.035 Y85.093
G1 X199.045 Y85.962
G1 X198.035 Y86.779
G1 X197.023 Y87.772
G1 X196.035 Y88.747
G1 X195.031 Y89.908
G1 X194.036 Y91.055
G1 X193.035 Y92.398
G1 X192.037 Y93.744
G1 X191.050 Y95.231
G1 X190.038 Y96.773
G1 X189.015 Y98.405
G1 X188.040 Y100.083
G1 X187.400 Y101.274
G1 X186.713 Y102.415
G1 X186.042 Y103.613
G1 X185.356 Y104.850
G1 X184.735 Y106.066
G1 X184.044 Y107.304
G1 X183.381 Y108.554
G1 X182.719 Y109.848
G1 X182.046 Y111.095
G1 X181.392 Y112.358
G1 X180.712 Y113.659
G1 X180.049 Y114.926
G1 X179.354 Y116.169
G1 X178.712 Y117.465
G1 X178.051 Y118.737
G1 X177.385 Y119.987
G1 X176.709 Y121.223
G1 X176.053 Y122.468
G1 X175.413 Y123.656
G1 X174.715 Y124.843
G1 X174.055 Y126.058
; Path 124
G0 Z0
G0 X174.035 Y126.082
G0 Z2.2
G1 F3000
G1 X175.702 Y123.102
G1 X177.369 Y120.018
G1 X179.035 Y116.864
G1 X180.702 Y113.675
G1 X182.369 Y110.486
G1 X184.035 Y107.332
G1 X185.702 Y104.248
G1 X187.369 Y101.268
G1 X189.035 Y98.426
G1 X190.702 Y95.758
G1 X192.369 Y93.299
G1 X194.035 Y91.082
G1 X195.702 Y89.132
G1 X197.369 Y87.425
G1 X199.035 Y85.926
G1 X200.702 Y84.601
G1 X202.369 Y83.415
G1 X204.035 Y82.332
G1 X205.702 Y81.320
G1 X207.369 Y80.342
G1 X209.035 Y79.364
G1 X210.702 Y78.351
G1 X212.369 Y77.269
G1 X214.035 Y76.082
; Path 125
G1 X215.285 Y77.717
G1 X216.535 Y79.300
G1 X217.785 Y80.848
G1 X219.035 Y82.379
G1 X220.285 Y83.909
G1 X221.535 Y85.457
G1 X222.785 Y87.040
G1 X224.035 Y88.675
G1 X225.285 Y90.379
G1 X226.535 Y92.170
G1 X227.785 Y94.066
G1 X229.035 Y96.082
G1 X230.285 Y98.232
G1 X231.535 Y100.504
G1 X232.785 Y102.879
G1 X234.035 Y105.342
G1 X235.285 Y107.874
G1 X236.535 Y110.457
G1 X237.785 Y113.076
G1 X239.035 Y115.712
G1 X240.285 Y118.348
G1 X241.535 Y120.967
G1 X242.785 Y123.551
G1 X244.035 Y126.082
; Path 126
G0 Z0
G0 X244.014 Y126.081
G0 Z2.2
G1 F3000
G1 X243.247 Y124.556
G1 X242.515 Y123.039
G1 X241.784 Y121.458
G1 X241.016 Y119.928
G1 X240.239 Y118.334
G1 X239.517 Y116.777
G1 X238.786 Y115.200
G1 X238.018 Y113.615
G1 X237.263 Y112.042
G1 X236.519 Y110.474
G1 X235.793 Y108.946
G1 X235.020 Y107.383
G1 X234.269 Y105.865
G1 X233.521 Y104.371
G1 X232.757 Y102.938
G1 X232.022 Y101.468
G1 X231.263 Y100.112
G1 X230.523 Y98.705
G1 X229.751 Y97.438
G1 X229.023 Y96.111
G1 X228.267 Y94.906
G1 X227.523 Y93.706
G1 X226.763 Y92.574
G1 X226.023 Y91.471
G1 X225.299 Y90.441
G1 X224.523 Y89.374
G1 X223.760 Y88.396
G1 X223.023 Y87.387
G1 X222.264 Y86.404
G1 X221.523 Y85.480
G1 X220.769 Y84.528
G1 X220.022 Y83.622
G1 X219.280 Y82.695
G1 X218.522 Y81.784
G1 X217.742 Y80.850
G1 X217.021 Y79.936
G1 X216.247 Y79.022
G1 X215.521 Y78.049
G1 X214.761 Y77.091
G1 X214.020 Y76.092
; Path 127
G0 Z0
G0 X213.830 Y76.290
G0 Z2.2
G1 F3000
G1 X212.415 Y77.751
; Path 128
G0 Z0
G0 X210.045 Y82.074
G0 Z2.2
G1 F3000
G1 X211.388 Y80.738
G1 X212.705 Y79.402
G1 X214.042 Y78.070
; Path 129
G0 Z0
G0 X214.011 Y80.056
G0 Z2.2
G1 F3000
G1 X215.347 Y79.058
G1 X216.687 Y78.094
G1 X218.064 Y77.104
; Path 130
G0 Z0
G0 X229.025 Y96.075
G0 Z2.2
G1 F3000
G1 X229.718 Y97.735
G1 X230.362 Y99.425
G1 X231.049 Y101.069
; Path 131
G0 Z0
G0 X238.309 Y100.404
G0 Z2.2
G1 F3000
G1 X239.743 Y101.772
; Path 132
G0 Z0
G0 X253.059 Y91.186
G0 Z2.2
G1 F3000
G1 X255.069 Y90.965
; Path 133
G0 Z0
G0 X255.017 Y91.264
G0 Z2.2
G1 F3000
G1 X253.049 Y90.964
; Path 134
G0 Z0
G0 X254.048 Y91.067
G0 Z2.2
G1 F3000
G1 X255.927 Y90.831
G1 X257.803 Y90.590
G1 X259.642 Y90.327
G1 X261.553 Y90.071
G1 X263.397 Y89.851
G1 X265.251 Y89.551
G1 X267.168 Y89.319
G1 X269.016 Y89.080
; Path 135
G0 Z0
G0 X272.055 Y93.078
G0 Z2.2
G1 F3000
G1 X270.176 Y93.427
G1 X268.294 Y93.806
G1 X266.415 Y94.204
G1 X264.516 Y94.585
G1 X262.690 Y94.952
G1 X260.776 Y95.321
G1 X258.918 Y95.738
G1 X257.027 Y96.107
; Path 136
G0 Z0
G0 X268.070 Y98.280
G0 Z2.2
G1 F3000
G1 X270.002 Y97.890
; Path 137
G0 Z0
G0 X274.035 Y101.082
G0 Z2.2
G1 F3000
G1 X274.853 Y102.348
G1 X275.644 Y103.640
G1 X276.418 Y104.950
G1 X277.183 Y106.268
G1 X277.949 Y107.586
G1 X278.723 Y108.895
G1 X279.514 Y110.187
G1 X280.332 Y111.453
G1 X281.184 Y112.684
G1 X282.079 Y113.872
G1 X283.027 Y115.007
G1 X284.035 Y116.082
G1 X285.110 Y117.091
G1 X286.246 Y118.038
G1 X287.434 Y118.934
G1 X288.665 Y119.786
G1 X289.931 Y120.604
G1 X291.223 Y121.395
G1 X292.532 Y122.169
G1 X293.850 Y122.934
G1 X295.168 Y123.700
G1 X296.477 Y124.474
G1 X297.769 Y125.265
G1 X299.035 Y126.082
; Path 138
G0 Z0
G0 X299.043 Y126.068
G0 Z2.2
G1 F3000
G1 X298.294 Y125.610
G1 X297.519 Y125.093
G1 X296.729 Y124.629
G1 X295.960 Y124.153
G1 X295.148 Y123.705
G1 X294.381 Y123.233
G1 X293.564 Y122.765
G1 X292.797 Y122.319
G1 X292.023 Y121.855
G1 X291.222 Y121.394
G1 X290.454 Y120.939
G1 X289.673 Y120.444
G1 X288.948 Y119.971
G1 X288.164 Y119.454
G1 X287.425 Y118.915
G1 X286.711 Y118.409
G1 X286.043 Y117.854
G1 X285.327 Y117.293
G1 X284.701 Y116.684
G1 X284.029 Y116.091
G1 X283.399 Y115.439
G1 X282.826 Y114.794
G1 X282.241 Y114.099
G1 X281.708 Y113.411
G1 X281.160 Y112.711
G1 X280.660 Y111.958
G1 X280.138 Y111.185
G1 X279.668 Y110.450
G1 X279.217 Y109.654
G1 X278.715 Y108.901
G1 X278.231 Y108.094
G1 X277.788 Y107.327
G1 X277.320 Y106.539
G1 X276.871 Y105.743
G1 X276.411 Y104.928
G1 X275.948 Y104.164
G1 X275.463 Y103.389
G1 X275.006 Y102.605
G1 X274.513 Y101.815
G1 X274.029 Y101.082
; Path 139
G0 Z0
G0 X274.026 Y101.084
G0 Z2.2
G1 F3000
G1 X273.276 Y101.544
G1 X272.502 Y102.060
G1 X271.725 Y102.529
G1 X270.943 Y103.000
G1 X270.157 Y103.431
G1 X269.364 Y103.921
G1 X268.599 Y104.368
G1 X267.780 Y104.836
G1 X266.990 Y105.301
G1 X266.206 Y105.761
G1 X265.427 Y106.218
G1 X264.658 Y106.712
G1 X263.926 Y107.227
G1 X263.149 Y107.703
G1 X262.441 Y108.223
G1 X261.696 Y108.750
G1 X260.997 Y109.287
G1 X260.314 Y109.868
G1 X259.691 Y110.472
G1 X259.017 Y111.071
G1 X258.427 Y111.712
G1 X257.816 Y112.370
G1 X257.257 Y113.043
G1 X256.700 Y113.756
G1 X256.165 Y114.490
G1 X255.655 Y115.212
G1 X255.134 Y115.944
G1 X254.666 Y116.723
G1 X254.205 Y117.492
G1 X253.717 Y118.275
G1 X253.260 Y119.046
G1 X252.793 Y119.852
G1 X252.332 Y120.652
G1 X251.879 Y121.440
G1 X251.391 Y122.216
G1 X250.959 Y123.022
G1 X250.474 Y123.805
G1 X250.020 Y124.584
G1 X249.555 Y125.344
G1 X249.046 Y126.111
; Path 140
G0 Z0
G0 X249.035 Y126.082
G0 Z2.2
G1 F3000
G1 X249.853 Y124.817
G1 X250.644 Y123.525
G1 X251.418 Y122.215
G1 X252.183 Y120.897
G1 X252.949 Y119.579
G1 X253.723 Y118.270
G1 X254.514 Y116.978
G1 X255.332 Y115.712
G1 X256.184 Y114.481
G1 X257.079 Y113.293
G1 X258.027 Y112.157
G1 X259.035 Y111.082
G1 X260.110 Y110.074
G1 X261.246 Y109.126
G1 X262.434 Y108.231
G1 X263.665 Y107.379
G1 X264.931 Y106.561
G1 X266.223 Y105.770
G1 X267.532 Y104.996
G1 X268.850 Y104.231
G1 X270.168 Y103.465
G1 X271.477 Y102.691
G1 X272.769 Y101.900
G1 X274.035 Y101.082
; Path 141
G0 Z0
G0 X274.388 Y100.809
G0 Z2.2
G1 F3000
G1 X275.735 Y99.322
; Path 142
G0 Z0
G0 X276.059 Y99.070
G0 Z2.2
G1 F3000
G1 X274.708 Y100.420
G1 X273.389 Y101.733
G1 X272.020 Y103.105
; Path 143
G0 Z0
G0 X272.296 Y102.786
G0 Z2.2
G1 F3000
G1 X273.659 Y101.300
; Path 144
G0 Z0
G0 X274.044 Y104.071
G0 Z2.2
G1 F3000
G1 X272.705 Y105.390
G1 X271.369 Y106.765
G1 X270.047 Y108.106
; Path 145
G0 Z0
G0 X266.060 Y108.102
G0 Z2.2
G1 F3000
G1 X264.732 Y109.422
G1 X263.335 Y110.767
G1 X262.016 Y112.096
; Path 146
G0 Z0
G0 X264.908 Y117.594
G0 Z2.2
G1 F3000
G1 X263.163 Y118.571
; Path 147
G0 Z0
G0 X262.894 Y119.612
G0 Z2.2
G1 F3000
G1 X261.165 Y120.681
; Path 148
G0 Z0
G0 X265.123 Y123.390
G0 Z2.2
G1 F3000
G1 X266.954 Y122.763
; Path 149
G0 Z0
G0 X267.954 Y121.327
G0 Z2.2
G1 F3000
G1 X270.023 Y120.891
; Path 150
G0 Z0
G0 X270.035 Y121.089
G0 Z2.2
G1 F3000
G1 X268.035 Y121.076
; Path 151
G0 Z0
G0 X270.915 Y119.167
G0 Z2.2
G1 F3000
G1 X272.905 Y119.156
; Path 152
G0 Z0
G0 X275.196 Y115.718
G0 Z2.2
G1 F3000
G1 X276.883 Y116.574
; Path 153
G0 Z0
G0 X284.058 Y116.104
G0 Z2.2
G1 F3000
G1 X285.045 Y117.590
G1 X286.017 Y119.111
; Path 154
G0 Z0
G0 X304.940 Y116.377
G0 Z2.2
G1 F3000
G1 X303.033 Y115.776
; Path 155
G0 Z0
G0 X309.047 Y109.100
G0 Z2.2
G1 F3000
G1 X307.217 Y108.850
G1 X305.415 Y108.582
G1 X303.602 Y108.276
G1 X301.791 Y107.997
G1 X299.983 Y107.722
G1 X298.141 Y107.473
G1 X296.342 Y107.211
G1 X294.477 Y106.903
G1 X292.711 Y106.662
G1 X290.845 Y106.409
G1 X289.049 Y106.111
; Path 156
G0 Z0
G0 X289.847 Y106.571
G0 Z2.2
G1 F3000
G1 X288.196 Y105.549
; Path 157
G0 Z0
G0 X288.040 Y105.920
G0 Z2.2
G1 F3000
G1 X290.013 Y106.211
; Path 158
G0 Z0
G0 X284.022 Y103.101
G0 Z2.2
G1 F3000
G1 X285.909 Y103.297
G1 X287.776 Y103.528
G1 X289.713 Y103.737
G1 X291.603 Y103.976
G1 X293.456 Y104.193
G1 X295.372 Y104.411
G1 X297.243 Y104.664
G1 X299.124 Y104.861
G1 X301.012 Y105.098
; Path 159
G0 Z0
G0 X313.059 Y94.031
G0 Z2.2
G1 F3000
G1 X315.016 Y94.294
G0 Z0
M5
G4 P0.3
G0 X0 Y0
; End