; Generated by Sketch DSL for Machine
; Work area: 420mm x 297mm (A3)
G21
G90
M5
G4 P0.5
G0 F11000
; 732 paths
; Path 1
G0 X60.900 Y65.738
G0 Z2.2
G1 F3000
G1 X62.135 Y67.336
; Path 2
G0 Z0
G0 X62.892 Y67.745
G0 Z2.2
G1 F3000
G1 X64.168 Y69.264
; Path 3
G0 Z0
G0 X60.872 Y71.778
G0 Z2.2
G1 F3000
G1 X62.212 Y73.263
; Path 4
G0 Z0
G0 X62.766 Y73.792
G0 Z2.2
G1 F3000
G1 X64.239 Y75.173
; Path 5
G0 Z0
G0 X64.727 Y75.849
G0 Z2.2
G1 F3000
G1 X66.253 Y77.164
; Path 6
G0 Z0
G0 X68.246 Y74.182
G0 Z2.2
G1 F3000
G1 X66.799 Y72.787
; Path 7
G0 Z0
G0 X66.186 Y71.243
G0 Z2.2
G1 F3000
G1 X64.801 Y69.726
; Path 8
G0 Z0
G0 X66.802 Y66.729
G0 Z2.2
G1 F3000
G1 X68.122 Y68.285
; Path 9
G0 Z0
G0 X68.829 Y68.776
G0 Z2.2
G1 F3000
G1 X70.215 Y70.245
; Path 10
G0 Z0
G0 X70.780 Y70.812
G0 Z2.2
G1 F3000
G1 X72.201 Y72.191
; Path 11
G0 Z0
G0 X68.698 Y74.869
G0 Z2.2
G1 F3000
G1 X70.241 Y76.164
; Path 12
G0 Z0
G0 X70.709 Y76.905
G0 Z2.2
G1 F3000
G1 X72.331 Y78.083
; Path 13
G0 Z0
G0 X75.623 Y80.941
G0 Z2.2
G1 F3000
G1 X77.323 Y82.001
; Path 14
G0 Z0
G0 X77.667 Y82.918
G0 Z2.2
G1 F3000
G1 X79.325 Y84.109
; Path 15
G0 Z0
G0 X79.986 Y84.627
G0 Z2.2
G1 F3000
G1 X81.056 Y86.303
; Path 16
G0 Z0
G0 X81.524 Y84.497
G0 Z2.2
G1 F3000
G1 X83.522 Y84.502
G1 X85.527 Y84.519
G1 X87.514 Y84.496
G1 X89.543 Y84.472
G1 X91.506 Y84.472
G1 X93.503 Y84.456
G1 X95.496 Y84.492
G1 X97.476 Y84.452
G1 X99.495 Y84.496
G1 X101.499 Y84.478
; Path 17
G0 Z0
G0 X101.493 Y84.494
G0 Z2.2
G1 F3000
G1 X101.516 Y86.361
G1 X101.493 Y88.277
G1 X101.507 Y90.176
G1 X101.486 Y92.060
G1 X101.512 Y93.917
G1 X101.501 Y95.821
G1 X101.500 Y97.731
G1 X101.526 Y99.595
G1 X101.504 Y101.477
; Path 18
G0 Z0
G0 X101.505 Y101.520
G0 Z2.2
G1 F3000
G1 X99.500 Y101.517
G1 X97.513 Y101.506
G1 X95.489 Y101.488
G1 X93.510 Y101.484
G1 X91.500 Y101.527
G1 X89.542 Y101.509
G1 X87.491 Y101.518
G1 X85.536 Y101.481
G1 X83.550 Y101.486
G1 X81.525 Y101.485
; Path 19
G0 Z0
G0 X81.513 Y101.513
G0 Z2.2
G1 F3000
G1 X81.519 Y99.636
G1 X81.519 Y97.730
G1 X81.511 Y95.835
G1 X81.490 Y93.971
G1 X81.480 Y92.027
G1 X81.521 Y90.147
G1 X81.523 Y88.259
G1 X81.485 Y86.375
G1 X81.503 Y84.488
; Path 20
G0 Z0
G0 X81.633 Y80.976
G0 Z2.2
G1 F3000
G1 X83.354 Y82.050
; Path 21
G0 Z0
G0 X83.504 Y83.480
G0 Z2.2
G1 F3000
G1 X85.543 Y83.518
; Path 22
G0 Z0
G0 X87.310 Y84.892
G0 Z2.2
G1 F3000
G1 X85.696 Y86.065
; Path 23
G0 Z0
G0 X89.429 Y81.087
G0 Z2.2
G1 F3000
G1 X87.598 Y81.874
; Path 24
G0 Z0
G0 X84.311 Y74.013
G0 Z2.2
G1 F3000
G1 X82.676 Y72.939
; Path 25
G0 Z0
G0 X82.282 Y72.174
G0 Z2.2
G1 F3000
G1 X80.743 Y70.881
; Path 26
G0 Z0
G0 X78.273 Y73.157
G0 Z2.2
G1 F3000
G1 X76.694 Y71.860
; Path 27
G0 Z0
G0 X76.225 Y71.191
G0 Z2.2
G1 F3000
G1 X74.799 Y69.818
; Path 28
G0 Z0
G0 X74.236 Y69.278
G0 Z2.2
G1 F3000
G1 X72.839 Y67.820
; Path 29
G0 Z0
G0 X78.752 Y68.784
G0 Z2.2
G1 F3000
G1 X80.243 Y70.176
; Path 30
G0 Z0
G0 X84.691 Y69.964
G0 Z2.2
G1 F3000
G1 X86.347 Y71.091
; Path 31
G0 Z0
G0 X86.562 Y72.118
G0 Z2.2
G1 F3000
G1 X88.408 Y72.918
; Path 32
G0 Z0
G0 X88.515 Y74.281
G0 Z2.2
G1 F3000
G1 X90.521 Y74.651
; Path 33
G0 Z0
G0 X92.445 Y71.764
G0 Z2.2
G1 F3000
G1 X90.532 Y71.273
; Path 34
G0 Z0
G0 X94.517 Y73.442
G0 Z2.2
G1 F3000
G1 X92.527 Y73.588
; Path 35
G0 Z0
G0 X94.612 Y75.931
G0 Z2.2
G1 F3000
G1 X96.355 Y75.012
; Path 36
G0 Z0
G0 X106.080 Y88.318
G0 Z2.2
G1 F3000
G1 X104.869 Y86.726
; Path 37
G0 Z0
G0 X106.889 Y88.745
G0 Z2.2
G1 F3000
G1 X108.130 Y90.344
; Path 38
G0 Z0
G0 X108.863 Y90.704
G0 Z2.2
G1 F3000
G1 X110.156 Y92.273
; Path 39
G0 Z0
G0 X103.652 Y91.512
G0 Z2.2
G1 F3000
G1 X103.342 Y89.531
; Path 40
G0 Z0
G0 X101.528 Y89.547
G0 Z2.2
G1 F3000
G1 X101.515 Y87.518
; Path 41
G0 Z0
G0 X100.207 Y87.183
G0 Z2.2
G1 F3000
G1 X98.763 Y85.813
; Path 42
G0 Z0
G0 X93.512 Y85.526
G0 Z2.2
G1 F3000
G1 X91.506 Y85.546
; Path 43
G0 Z0
G0 X91.432 Y83.270
G0 Z2.2
G1 F3000
G1 X89.552 Y83.831
; Path 44
G0 Z0
G0 X93.507 Y88.218
G0 Z2.2
G1 F3000
G1 X95.444 Y88.772
; Path 45
G0 Z0
G0 X95.809 Y89.798
G0 Z2.2
G1 F3000
G1 X97.218 Y91.237
; Path 46
G0 Z0
G0 X98.154 Y91.556
G0 Z2.2
G1 F3000
G1 X98.780 Y93.437
; Path 47
G0 Z0
G0 X97.099 Y95.289
G0 Z2.2
G1 F3000
G1 X95.900 Y93.718
; Path 48
G0 Z0
G0 X92.443 Y96.920
G0 Z2.2
G1 F3000
G1 X90.619 Y96.062
; Path 49
G0 Z0
G0 X87.276 Y95.137
G0 Z2.2
G1 F3000
G1 X85.701 Y93.869
; Path 50
G0 Z0
G0 X87.379 Y93.065
G0 Z2.2
G1 F3000
G1 X85.648 Y92.000
; Path 51
G0 Z0
G0 X85.457 Y90.912
G0 Z2.2
G1 F3000
G1 X83.602 Y90.109
; Path 52
G0 Z0
G0 X81.714 Y89.049
G0 Z2.2
G1 F3000
G1 X83.346 Y87.912
; Path 53
G0 Z0
G0 X80.733 Y93.464
G0 Z2.2
G1 F3000
G1 X80.256 Y91.509
; Path 54
G0 Z0
G0 X79.344 Y89.956
G0 Z2.2
G1 F3000
G1 X77.681 Y91.092
; Path 55
G0 Z0
G0 X77.456 Y88.386
G0 Z2.2
G1 F3000
G1 X75.492 Y88.559
; Path 56
G0 Z0
G0 X71.521 Y96.500
G0 Z2.2
G1 F3000
G1 X72.839 Y95.488
G1 X74.171 Y94.463
G1 X75.521 Y93.401
G1 X76.834 Y92.337
G1 X78.192 Y91.254
G1 X79.520 Y90.148
G1 X80.826 Y89.036
G1 X82.176 Y87.899
G1 X83.520 Y86.806
G1 X84.860 Y85.668
G1 X86.191 Y84.565
G1 X87.519 Y83.443
G1 X88.880 Y82.361
G1 X90.203 Y81.217
G1 X91.519 Y80.123
G1 X92.841 Y79.032
G1 X94.161 Y77.961
G1 X95.519 Y76.914
G1 X96.863 Y75.933
G1 X98.165 Y74.890
G1 X99.518 Y73.881
G1 X100.856 Y72.933
G1 X102.202 Y72.004
G1 X103.518 Y71.089
G1 X104.829 Y70.234
G1 X106.154 Y69.418
G1 X107.517 Y68.606
G1 X108.874 Y67.928
G1 X110.161 Y67.218
G1 X111.517 Y66.497
G1 X112.852 Y65.930
G1 X114.216 Y65.328
G1 X115.539 Y64.780
G1 X116.868 Y64.342
G1 X118.261 Y63.843
G1 X119.596 Y63.394
G1 X120.959 Y63.005
G1 X122.340 Y62.670
G1 X123.672 Y62.293
G1 X125.039 Y61.983
G1 X126.389 Y61.712
G1 X127.754 Y61.427
G1 X129.129 Y61.211
G1 X130.464 Y60.950
G1 X131.826 Y60.750
G1 X133.196 Y60.569
G1 X134.523 Y60.395
G1 X135.873 Y60.213
G1 X137.217 Y60.074
G1 X138.531 Y59.903
G1 X139.880 Y59.767
G1 X141.838 Y59.593
G1 X143.832 Y59.366
G1 X145.769 Y59.141
G1 X147.713 Y58.960
G1 X149.619 Y58.701
G1 X151.510 Y58.502
G1 X153.331 Y58.259
G1 X155.211 Y58.059
G1 X157.016 Y57.873
G1 X158.827 Y57.718
G1 X160.578 Y57.579
G1 X162.373 Y57.460
G1 X164.111 Y57.335
G1 X165.864 Y57.269
G1 X167.613 Y57.184
G1 X169.315 Y57.125
G1 X171.011 Y57.094
G1 X172.741 Y57.011
G1 X174.426 Y56.940
G1 X176.157 Y56.909
G1 X177.888 Y56.885
G1 X179.578 Y56.801
G1 X181.290 Y56.714
G1 X183.019 Y56.670
G1 X184.729 Y56.607
G1 X186.495 Y56.496
; Path 57
G0 Z0
G0 X186.500 Y56.485
G0 Z2.2
G1 F3000
G1 X188.218 Y56.558
G1 X189.976 Y56.662
G1 X191.712 Y56.755
G1 X193.416 Y56.797
G1 X195.139 Y56.846
G1 X196.837 Y56.908
G1 X198.570 Y56.963
G1 X200.252 Y57.014
G1 X201.954 Y57.051
G1 X203.678 Y57.131
G1 X205.391 Y57.214
G1 X207.129 Y57.278
G1 X208.877 Y57.390
G1 X210.620 Y57.472
G1 X212.409 Y57.583
G1 X214.166 Y57.732
G1 X215.963 Y57.928
G1 X217.783 Y58.075
G1 X219.604 Y58.293
G1 X221.485 Y58.519
G1 X223.384 Y58.742
G1 X225.283 Y58.977
G1 X227.244 Y59.154
G1 X229.167 Y59.382
G1 X231.122 Y59.560
G1 X233.121 Y59.782
G1 X234.444 Y59.958
G1 X235.791 Y60.104
G1 X237.131 Y60.225
G1 X238.453 Y60.412
G1 X239.852 Y60.587
G1 X241.181 Y60.760
G1 X242.513 Y60.957
G1 X243.894 Y61.199
G1 X245.256 Y61.435
G1 X246.621 Y61.695
G1 X247.987 Y62.010
G1 X249.341 Y62.297
G1 X250.680 Y62.692
G1 X252.058 Y63.023
G1 X253.420 Y63.397
G1 X254.779 Y63.857
G1 X256.115 Y64.345
G1 X257.479 Y64.781
G1 X258.828 Y65.360
G1 X260.168 Y65.936
G1 X261.503 Y66.498
G1 X262.850 Y67.211
G1 X264.178 Y67.918
G1 X265.504 Y68.606
G1 X266.851 Y69.446
G1 X268.175 Y70.249
G1 X269.504 Y71.090
G1 X270.814 Y72.009
G1 X272.146 Y72.923
G1 X273.504 Y73.881
G1 X274.865 Y74.910
G1 X276.171 Y75.897
G1 X277.504 Y76.915
G1 X278.824 Y77.981
G1 X280.165 Y79.068
G1 X281.503 Y80.126
G1 X282.836 Y81.242
G1 X284.187 Y82.318
G1 X285.503 Y83.446
G1 X286.813 Y84.544
G1 X288.196 Y85.702
G1 X289.502 Y86.811
G1 X290.858 Y87.926
G1 X292.157 Y89.063
G1 X293.502 Y90.153
G1 X294.809 Y91.214
G1 X296.155 Y92.303
G1 X297.501 Y93.408
G1 X298.848 Y94.465
G1 X300.171 Y95.496
G1 X301.501 Y96.508
; Path 58
G0 Z0
G0 X299.279 Y93.055
G0 Z2.2
G1 F3000
G1 X297.686 Y91.901
; Path 59
G0 Z0
G0 X297.277 Y91.110
G0 Z2.2
G1 F3000
G1 X295.675 Y89.922
; Path 60
G0 Z0
G0 X295.303 Y89.144
G0 Z2.2
G1 F3000
G1 X293.777 Y87.934
; Path 61
G0 Z0
G0 X287.257 Y86.113
G0 Z2.2
G1 F3000
G1 X285.708 Y84.947
; Path 62
G0 Z0
G0 X281.797 Y87.764
G0 Z2.2
G1 F3000
G1 X283.157 Y89.255
; Path 63
G0 Z0
G0 X283.851 Y89.763
G0 Z2.2
G1 F3000
G1 X285.177 Y91.287
; Path 64
G0 Z0
G0 X285.835 Y91.745
G0 Z2.2
G1 F3000
G1 X287.191 Y93.238
; Path 65
G0 Z0
G0 X280.995 Y93.409
G0 Z2.2
G1 F3000
G1 X279.942 Y91.647
; Path 66
G0 Z0
G0 X279.053 Y91.387
G0 Z2.2
G1 F3000
G1 X277.959 Y89.684
; Path 67
G0 Z0
G0 X273.108 Y90.621
G0 Z2.2
G1 F3000
G1 X273.957 Y92.421
; Path 68
G0 Z0
G0 X271.948 Y90.397
G0 Z2.2
G1 F3000
G1 X271.039 Y88.567
; Path 69
G0 Z0
G0 X267.105 Y89.564
G0 Z2.2
G1 F3000
G1 X267.925 Y91.457
; Path 70
G0 Z0
G0 X265.890 Y89.420
G0 Z2.2
G1 F3000
G1 X265.123 Y87.574
; Path 71
G0 Z0
G0 X263.901 Y87.431
G0 Z2.2
G1 F3000
G1 X263.085 Y85.622
; Path 72
G0 Z0
G0 X269.041 Y86.666
G0 Z2.2
G1 F3000
G1 X269.939 Y88.427
; Path 73
G0 Z0
G0 X275.930 Y87.667
G0 Z2.2
G1 F3000
G1 X277.044 Y89.378
; Path 74
G0 Z0
G0 X281.235 Y86.178
G0 Z2.2
G1 F3000
G1 X279.762 Y84.816
; Path 75
G0 Z0
G0 X279.241 Y84.180
G0 Z2.2
G1 F3000
G1 X277.767 Y82.817
; Path 76
G0 Z0
G0 X277.216 Y82.141
G0 Z2.2
G1 F3000
G1 X275.749 Y80.810
; Path 77
G0 Z0
G0 X281.697 Y80.907
G0 Z2.2
G1 F3000
G1 X283.288 Y82.086
; Path 78
G0 Z0
G0 X283.727 Y82.931
G0 Z2.2
G1 F3000
G1 X285.293 Y84.139
; Path 79
G0 Z0
G0 X287.782 Y80.823
G0 Z2.2
G1 F3000
G1 X289.256 Y82.208
; Path 80
G0 Z0
G0 X289.792 Y82.840
G0 Z2.2
G1 F3000
G1 X291.276 Y84.183
; Path 81
G0 Z0
G0 X291.731 Y84.860
G0 Z2.2
G1 F3000
G1 X293.266 Y86.154
; Path 82
G0 Z0
G0 X315.860 Y77.479
G0 Z2.2
G1 F3000
G1 X315.147 Y75.594
; Path 83
G0 Z0
G0 X313.882 Y75.458
G0 Z2.2
G1 F3000
G1 X313.195 Y73.567
; Path 84
G0 Z0
G0 X311.858 Y73.410
G0 Z2.2
G1 F3000
G1 X311.128 Y71.568
; Path 85
G0 Z0
G0 X311.217 Y65.589
G0 Z2.2
G1 F3000
G1 X311.844 Y67.464
; Path 86
G0 Z0
G0 X313.183 Y67.574
G0 Z2.2
G1 F3000
G1 X313.857 Y69.436
; Path 87
G0 Z0
G0 X315.196 Y69.544
G0 Z2.2
G1 F3000
G1 X315.870 Y71.420
; Path 88
G0 Z0
G0 X317.136 Y72.537
G0 Z2.2
G1 F3000
G1 X317.854 Y74.413
; Path 89
G0 Z0
G0 X319.197 Y74.546
G0 Z2.2
G1 F3000
G1 X319.831 Y76.457
; Path 90
G0 Z0
G0 X321.138 Y76.560
G0 Z2.2
G1 F3000
G1 X321.793 Y78.443
; Path 91
G0 Z0
G0 X321.831 Y72.470
G0 Z2.2
G1 F3000
G1 X321.205 Y70.551
; Path 92
G0 Z0
G0 X319.851 Y70.473
G0 Z2.2
G1 F3000
G1 X319.195 Y68.567
; Path 93
G0 Z0
G0 X317.816 Y68.458
G0 Z2.2
G1 F3000
G1 X317.184 Y66.563
; Path 94
G0 Z0
G0 X323.181 Y67.517
G0 Z2.2
G1 F3000
G1 X323.762 Y69.417
; Path 95
G0 Z0
G0 X325.177 Y69.555
G0 Z2.2
G1 F3000
G1 X325.758 Y71.472
; Path 96
G0 Z0
G0 X327.201 Y71.521
G0 Z2.2
G1 F3000
G1 X327.816 Y73.438
; Path 97
G0 Z0
G0 X329.780 Y70.454
G0 Z2.2
G1 F3000
G1 X329.225 Y68.532
; Path 98
G0 Z0
G0 X331.217 Y70.541
G0 Z2.2
G1 F3000
G1 X331.771 Y72.460
; Path 99
G0 Z0
G0 X333.220 Y72.560
G0 Z2.2
G1 F3000
G1 X333.786 Y74.481
; Path 100
G0 Z0
G0 X335.781 Y71.509
G0 Z2.2
G1 F3000
G1 X335.232 Y69.562
; Path 101
G0 Z0
G0 X337.279 Y71.586
G0 Z2.2
G1 F3000
G1 X337.799 Y73.473
; Path 102
G0 Z0
G0 X339.201 Y73.573
G0 Z2.2
G1 F3000
G1 X339.750 Y75.494
; Path 103
G0 Z0
G0 X341.756 Y72.488
G0 Z2.2
G1 F3000
G1 X341.225 Y70.530
; Path 104
G0 Z0
G0 X343.274 Y72.532
G0 Z2.2
G1 F3000
G1 X343.771 Y74.451
; Path 105
G0 Z0
G0 X345.242 Y74.569
G0 Z2.2
G1 F3000
G1 X345.755 Y76.477
; Path 106
G0 Z0
G0 X335.516 Y151.483
G0 Z2.2
G1 F3000
G1 X335.329 Y151.343
G1 X335.114 Y151.157
G1 X334.883 Y150.959
G1 X334.712 Y150.789
G1 X334.530 Y150.582
G1 X334.309 Y150.396
G1 X334.097 Y150.178
G1 X333.907 Y149.997
G1 X333.712 Y149.775
G1 X333.504 Y149.611
G1 X333.322 Y149.460
G1 X333.102 Y149.254
G1 X332.928 Y149.107
G1 X332.700 Y148.946
G1 X332.509 Y148.812
G1 X332.299 Y148.704
G1 X332.121 Y148.653
G1 X331.898 Y148.547
G1 X331.710 Y148.528
G1 X331.497 Y148.492
G1 X331.295 Y148.516
G1 X331.097 Y148.551
G1 X330.904 Y148.627
G1 X330.698 Y148.713
G1 X330.505 Y148.808
G1 X330.299 Y148.959
G1 X330.073 Y149.097
G1 X329.901 Y149.272
G1 X329.682 Y149.433
G1 X329.502 Y149.632
G1 X329.275 Y149.821
G1 X329.104 Y150.023
G1 X328.935 Y150.219
G1 X328.706 Y150.426
G1 X328.513 Y150.643
G1 X328.308 Y150.823
G1 X328.106 Y151.017
G1 X327.910 Y151.196
G1 X327.728 Y151.372
G1 X327.512 Y151.526
; Path 107
G0 Z0
G0 X327.497 Y151.483
G0 Z2.2
G1 F3000
G1 X327.482 Y153.491
G1 X327.511 Y155.507
G1 X327.469 Y157.464
G1 X327.463 Y159.484
G1 X327.478 Y161.477
; Path 108
G0 Z0
G0 X327.495 Y161.493
G0 Z2.2
G1 F3000
G1 X327.667 Y161.543
G1 X327.895 Y161.603
G1 X328.096 Y161.639
G1 X328.296 Y161.728
G1 X328.486 Y161.800
G1 X328.696 Y161.861
G1 X328.913 Y161.905
G1 X329.097 Y161.996
G1 X329.290 Y162.059
G1 X329.497 Y162.127
G1 X329.727 Y162.169
G1 X329.898 Y162.248
G1 X330.122 Y162.286
G1 X330.298 Y162.352
G1 X330.473 Y162.408
G1 X330.699 Y162.435
G1 X330.878 Y162.486
G1 X331.099 Y162.489
G1 X331.294 Y162.529
G1 X331.500 Y162.510
G1 X331.717 Y162.486
G1 X331.901 Y162.492
G1 X332.088 Y162.442
G1 X332.302 Y162.439
G1 X332.473 Y162.420
G1 X332.703 Y162.359
G1 X332.912 Y162.286
G1 X333.104 Y162.256
G1 X333.293 Y162.219
G1 X333.505 Y162.138
G1 X333.698 Y162.096
G1 X333.907 Y162.009
G1 X334.105 Y161.962
G1 X334.308 Y161.876
G1 X334.528 Y161.824
G1 X334.709 Y161.745
G1 X334.929 Y161.710
G1 X335.110 Y161.623
G1 X335.321 Y161.564
G1 X335.511 Y161.514
; Path 109
G0 Z0
G0 X335.501 Y161.533
G0 Z2.2
G1 F3000
G1 X335.472 Y159.857
G1 X335.484 Y158.215
G1 X335.508 Y156.534
G1 X335.514 Y154.869
G1 X335.468 Y153.185
G1 X335.476 Y151.507
; Path 110
G0 Z0
G0 X334.514 Y154.521
G0 Z2.2
G1 F3000
G1 X334.562 Y154.644
G1 X334.619 Y154.818
G1 X334.691 Y154.995
G1 X334.737 Y155.114
G1 X334.795 Y155.259
G1 X334.864 Y155.410
G1 X334.933 Y155.542
G1 X334.992 Y155.706
G1 X335.062 Y155.846
G1 X335.117 Y156.002
G1 X335.158 Y156.145
G1 X335.231 Y156.298
G1 X335.301 Y156.425
G1 X335.331 Y156.595
G1 X335.392 Y156.747
G1 X335.408 Y156.892
G1 X335.428 Y157.044
G1 X335.459 Y157.190
G1 X335.460 Y157.353
G1 X335.476 Y157.490
G1 X335.472 Y157.622
G1 X335.457 Y157.790
G1 X335.420 Y157.964
G1 X335.404 Y158.091
G1 X335.361 Y158.253
G1 X335.324 Y158.393
G1 X335.257 Y158.574
G1 X335.223 Y158.696
G1 X335.153 Y158.872
G1 X335.106 Y158.999
G1 X335.032 Y159.153
G1 X334.979 Y159.303
G1 X334.944 Y159.437
G1 X334.849 Y159.606
G1 X334.809 Y159.754
G1 X334.720 Y159.910
G1 X334.653 Y160.086
G1 X334.599 Y160.213
G1 X334.553 Y160.361
G1 X334.492 Y160.516
; Path 111
G0 Z0
G0 X334.530 Y161.498
G0 Z2.2
G1 F3000
G1 X334.612 Y161.971
G1 X334.729 Y162.495
G1 X334.806 Y163.016
G1 X334.928 Y163.492
G1 X335.026 Y164.011
G1 X335.128 Y164.488
G1 X335.232 Y164.965
G1 X335.327 Y165.485
G1 X335.440 Y165.956
G1 X335.526 Y166.481
G1 X335.598 Y166.968
G1 X335.725 Y167.478
G1 X335.840 Y167.974
G1 X335.924 Y168.476
G1 X336.006 Y168.973
G1 X336.123 Y169.474
G1 X336.208 Y169.971
G1 X336.322 Y170.474
G1 X336.447 Y170.952
G1 X336.521 Y171.474
G1 X336.610 Y171.969
G1 X336.720 Y172.476
G1 X336.836 Y172.966
G1 X336.919 Y173.479
G1 X337.022 Y173.967
G1 X337.118 Y174.483
G1 X337.196 Y174.988
G1 X337.317 Y175.488
G1 X337.408 Y175.962
G1 X337.516 Y176.493
G1 X337.642 Y176.970
G1 X337.715 Y177.499
G1 X337.805 Y178.029
G1 X337.914 Y178.505
G1 X338.018 Y178.987
G1 X338.113 Y179.510
G1 X338.185 Y180.036
G1 X338.312 Y180.516
G1 X338.393 Y181.048
G1 X338.511 Y181.521
; Path 112
G0 Z0
G0 X338.494 Y181.523
G0 Z2.2
G1 F3000
G1 X338.621 Y182.293
G1 X338.700 Y183.023
G1 X338.794 Y183.787
G1 X338.914 Y184.522
G1 X339.040 Y185.293
G1 X339.131 Y186.022
G1 X339.236 Y186.762
G1 X339.350 Y187.522
G1 X339.462 Y188.301
G1 X339.567 Y189.021
G1 X339.655 Y189.799
G1 X339.778 Y190.521
G1 X339.905 Y191.286
G1 X339.981 Y192.020
G1 X340.095 Y192.765
G1 X340.173 Y193.520
G1 X340.250 Y194.242
G1 X340.350 Y195.019
G1 X340.426 Y195.744
G1 X340.510 Y196.518
G1 X340.553 Y197.245
G1 X340.650 Y198.018
G1 X340.690 Y198.768
G1 X340.772 Y199.517
G1 X340.835 Y200.254
G1 X340.879 Y201.016
G1 X340.933 Y201.774
G1 X340.975 Y202.514
G1 X341.027 Y203.263
G1 X341.063 Y204.013
G1 X341.096 Y204.754
G1 X341.146 Y205.512
G1 X341.179 Y206.258
G1 X341.226 Y207.011
G1 X341.245 Y207.760
G1 X341.308 Y208.510
G1 X341.328 Y209.283
G1 X341.393 Y210.009
G1 X341.449 Y210.741
G1 X341.486 Y211.507
; Path 113
G0 Z0
G0 X331.529 Y204.523
G0 Z2.2
G1 F3000
G1 X331.525 Y203.639
G1 X331.530 Y202.724
G1 X331.508 Y201.833
G1 X331.531 Y200.925
G1 X331.551 Y200.030
G1 X331.532 Y199.126
G1 X331.549 Y198.242
G1 X331.534 Y197.328
G1 X331.540 Y196.416
G1 X331.535 Y195.529
G1 X331.545 Y194.624
G1 X331.536 Y193.731
G1 X331.533 Y192.850
G1 X331.537 Y191.932
G1 X331.508 Y191.025
G1 X331.536 Y190.132
G1 X331.532 Y189.241
G1 X331.536 Y188.332
G1 X331.512 Y187.444
G1 X331.534 Y186.531
G1 X331.511 Y185.630
G1 X331.531 Y184.730
G1 X331.557 Y183.816
G1 X331.527 Y182.928
G1 X331.522 Y182.047
G1 X331.523 Y181.125
G1 X331.523 Y180.203
G1 X331.517 Y179.322
G1 X331.535 Y178.436
G1 X331.512 Y177.519
G1 X331.518 Y176.595
G1 X331.506 Y175.716
G1 X331.495 Y174.810
G1 X331.500 Y173.912
G1 X331.526 Y173.012
G1 X331.494 Y172.108
G1 X331.501 Y171.187
G1 X331.488 Y170.305
G1 X331.459 Y169.418
G1 X331.483 Y168.502
; Path 114
G0 Z0
G0 X331.480 Y168.505
G0 Z2.2
G1 F3000
G1 X331.471 Y166.481
; Path 115
G0 Z0
G0 X330.569 Y166.524
G0 Z2.2
G1 F3000
G1 X330.434 Y164.536
; Path 116
G0 Z0
G0 X329.491 Y162.491
G0 Z2.2
G1 F3000
G1 X329.593 Y164.478
; Path 117
G0 Z0
G0 X328.673 Y165.564
G0 Z2.2
G1 F3000
G1 X328.340 Y167.509
; Path 118
G0 Z0
G0 X327.483 Y166.516
G0 Z2.2
G1 F3000
G1 X327.426 Y167.378
G1 X327.384 Y168.212
G1 X327.342 Y169.056
G1 X327.284 Y169.902
G1 X327.214 Y170.747
G1 X327.185 Y171.587
G1 X327.122 Y172.435
G1 X327.086 Y173.271
G1 X327.048 Y174.091
G1 X326.986 Y174.957
G1 X326.964 Y175.816
G1 X326.887 Y176.649
G1 X326.836 Y177.527
G1 X326.788 Y178.348
G1 X326.743 Y179.183
G1 X326.688 Y180.058
G1 X326.621 Y180.944
G1 X326.589 Y181.782
G1 X326.513 Y182.638
G1 X326.490 Y183.522
G1 X326.457 Y184.383
G1 X326.391 Y185.282
G1 X326.352 Y186.164
G1 X326.292 Y187.058
G1 X326.260 Y187.926
G1 X326.193 Y188.848
G1 X326.133 Y189.758
G1 X326.095 Y190.649
G1 X326.053 Y191.579
G1 X325.996 Y192.458
G1 X325.962 Y193.347
G1 X325.897 Y194.272
G1 X325.870 Y195.156
G1 X325.799 Y196.087
G1 X325.743 Y197.001
G1 X325.700 Y197.902
G1 X325.675 Y198.780
G1 X325.601 Y199.713
G1 X325.567 Y200.637
G1 X325.503 Y201.517
; Path 119
G0 Z0
G0 X326.517 Y201.513
G0 Z2.2
G1 F3000
G1 X326.132 Y199.570
G1 X325.773 Y197.640
G1 X325.368 Y195.736
G1 X324.974 Y193.813
G1 X324.558 Y191.887
G1 X324.175 Y189.956
G1 X323.802 Y188.047
G1 X323.437 Y186.128
G1 X323.029 Y184.204
G1 X322.684 Y182.273
G1 X322.247 Y180.327
G1 X321.911 Y178.417
G1 X321.499 Y176.495
; Path 120
G0 Z0
G0 X323.462 Y176.536
G0 Z2.2
G1 F3000
G1 X323.479 Y178.543
; Path 121
G0 Z0
G0 X324.645 Y178.528
G0 Z2.2
G1 F3000
G1 X324.308 Y180.503
; Path 122
G0 Z0
G0 X325.588 Y180.510
G0 Z2.2
G1 F3000
G1 X325.392 Y182.486
; Path 123
G0 Z0
G0 X326.568 Y183.501
G0 Z2.2
G1 F3000
G1 X326.455 Y185.528
; Path 124
G0 Z0
G0 X325.298 Y186.464
G0 Z2.2
G1 F3000
G1 X325.677 Y188.472
; Path 125
G0 Z0
G0 X326.420 Y189.480
G0 Z2.2
G1 F3000
G1 X326.610 Y191.478
; Path 126
G0 Z0
G0 X327.385 Y191.545
G0 Z2.2
G1 F3000
G1 X327.621 Y193.520
; Path 127
G0 Z0
G0 X328.431 Y193.549
G0 Z2.2
G1 F3000
G1 X328.646 Y195.537
; Path 128
G0 Z0
G0 X325.562 Y194.519
G0 Z2.2
G1 F3000
G1 X325.464 Y192.549
; Path 129
G0 Z0
G0 X324.474 Y196.498
G0 Z2.2
G1 F3000
G1 X324.540 Y198.503
; Path 130
G0 Z0
G0 X325.594 Y198.511
G0 Z2.2
G1 F3000
G1 X325.496 Y200.477
; Path 131
G0 Z0
G0 X323.511 Y196.508
G0 Z2.2
G1 F3000
G1 X323.548 Y194.543
; Path 132
G0 Z0
G0 X324.715 Y192.476
G0 Z2.2
G1 F3000
G1 X324.301 Y190.545
; Path 133
G0 Z0
G0 X323.336 Y190.509
G0 Z2.2
G1 F3000
G1 X323.639 Y188.495
; Path 134
G0 Z0
G0 X324.499 Y186.486
G0 Z2.2
G1 F3000
G1 X324.503 Y184.517
; Path 135
G0 Z0
G0 X323.583 Y184.539
G0 Z2.2
G1 F3000
G1 X323.441 Y182.540
; Path 136
G0 Z0
G0 X316.522 Y181.517
G0 Z2.2
G1 F3000
G1 X316.243 Y179.655
G1 X316.045 Y177.756
G1 X315.749 Y175.860
G1 X315.524 Y174.017
G1 X315.264 Y172.109
G1 X315.035 Y170.267
G1 X314.734 Y168.358
G1 X314.502 Y166.488
; Path 137
G0 Z0
G0 X314.512 Y166.507
G0 Z2.2
G1 F3000
G1 X313.024 Y166.517
G1 X311.499 Y166.528
G1 X309.999 Y166.479
G1 X308.486 Y166.497
; Path 138
G0 Z0
G0 X308.530 Y166.521
G0 Z2.2
G1 F3000
G1 X308.279 Y168.399
G1 X308.002 Y170.287
G1 X307.774 Y172.132
G1 X307.502 Y174.002
G1 X307.245 Y175.882
G1 X307.025 Y177.756
G1 X306.735 Y179.676
G1 X306.483 Y181.533
; Path 139
G0 Z0
G0 X300.476 Y180.477
G0 Z2.2
G1 F3000
G1 X299.957 Y179.488
G1 X299.488 Y178.491
; Path 140
G0 Z0
G0 X299.491 Y178.517
G0 Z2.2
G1 F3000
G1 X299.346 Y178.386
G1 X299.196 Y178.295
G1 X299.076 Y178.141
G1 X298.901 Y178.044
G1 X298.764 Y177.896
G1 X298.606 Y177.777
G1 X298.436 Y177.665
G1 X298.311 Y177.507
G1 X298.173 Y177.351
G1 X298.016 Y177.244
G1 X297.851 Y177.128
G1 X297.721 Y177.002
G1 X297.566 Y176.913
G1 X297.425 Y176.792
G1 X297.260 Y176.680
G1 X297.128 Y176.626
G1 X297.005 Y176.582
G1 X296.830 Y176.518
G1 X296.685 Y176.506
G1 X296.532 Y176.478
G1 X296.392 Y176.495
G1 X296.231 Y176.515
G1 X296.075 Y176.554
G1 X295.930 Y176.621
G1 X295.797 Y176.711
G1 X295.627 Y176.784
G1 X295.479 Y176.870
G1 X295.324 Y176.992
G1 X295.184 Y177.126
G1 X295.020 Y177.231
G1 X294.870 Y177.370
G1 X294.715 Y177.492
G1 X294.544 Y177.640
G1 X294.411 Y177.760
G1 X294.248 Y177.882
G1 X294.106 Y178.024
G1 X293.928 Y178.124
G1 X293.802 Y178.272
G1 X293.649 Y178.403
G1 X293.498 Y178.492
; Path 141
G0 Z0
G0 X293.511 Y178.521
G0 Z2.2
G1 F3000
G1 X293.005 Y179.533
G1 X292.503 Y180.530
; Path 142
G0 Z0
G0 X294.506 Y178.494
G0 Z2.2
G1 F3000
G1 X294.440 Y178.679
G1 X294.396 Y178.895
G1 X294.361 Y179.105
G1 X294.272 Y179.296
G1 X294.225 Y179.493
G1 X294.140 Y179.697
G1 X294.087 Y179.900
G1 X294.007 Y180.098
G1 X293.915 Y180.312
G1 X293.877 Y180.499
G1 X293.805 Y180.720
G1 X293.757 Y180.900
G1 X293.707 Y181.099
G1 X293.653 Y181.301
G1 X293.585 Y181.519
G1 X293.571 Y181.702
G1 X293.517 Y181.876
G1 X293.517 Y182.103
G1 X293.519 Y182.319
G1 X293.497 Y182.504
G1 X293.481 Y182.728
G1 X293.515 Y182.906
G1 X293.569 Y183.120
G1 X293.566 Y183.307
G1 X293.577 Y183.537
G1 X293.646 Y183.709
G1 X293.725 Y183.897
G1 X293.747 Y184.111
G1 X293.800 Y184.321
G1 X293.864 Y184.513
G1 X293.942 Y184.709
G1 X293.991 Y184.915
G1 X294.040 Y185.115
G1 X294.122 Y185.317
G1 X294.165 Y185.515
G1 X294.252 Y185.719
G1 X294.295 Y185.923
G1 X294.373 Y186.121
G1 X294.422 Y186.333
G1 X294.480 Y186.523
; Path 143
G0 Z0
G0 X294.493 Y186.485
G0 Z2.2
G1 F3000
G1 X295.815 Y186.497
G1 X297.171 Y186.471
G1 X298.505 Y186.476
; Path 144
G0 Z0
G0 X298.498 Y186.501
G0 Z2.2
G1 F3000
G1 X298.562 Y186.273
G1 X298.609 Y186.103
G1 X298.657 Y185.916
G1 X298.734 Y185.704
G1 X298.823 Y185.535
G1 X298.867 Y185.306
G1 X298.929 Y185.110
G1 X299.003 Y184.908
G1 X299.087 Y184.697
G1 X299.134 Y184.510
G1 X299.184 Y184.309
G1 X299.255 Y184.112
G1 X299.307 Y183.898
G1 X299.360 Y183.714
G1 X299.414 Y183.514
G1 X299.442 Y183.315
G1 X299.484 Y183.093
G1 X299.496 Y182.917
G1 X299.531 Y182.746
G1 X299.515 Y182.518
G1 X299.505 Y182.300
G1 X299.496 Y182.119
G1 X299.456 Y181.897
G1 X299.441 Y181.720
G1 X299.409 Y181.516
G1 X299.359 Y181.321
G1 X299.306 Y181.104
G1 X299.253 Y180.922
G1 X299.181 Y180.724
G1 X299.132 Y180.523
G1 X299.055 Y180.347
G1 X299.000 Y180.123
G1 X298.959 Y179.914
G1 X298.864 Y179.724
G1 X298.807 Y179.553
G1 X298.730 Y179.325
G1 X298.660 Y179.149
G1 X298.605 Y178.925
G1 X298.575 Y178.722
G1 X298.493 Y178.526
; Path 145
G0 Z0
G0 X297.377 Y180.507
G0 Z2.2
G1 F3000
G1 X297.677 Y182.488
; Path 146
G0 Z0
G0 X295.435 Y180.506
G0 Z2.2
G1 F3000
G1 X295.546 Y182.492
; Path 147
G0 Z0
G0 X296.503 Y184.498
G0 Z2.2
G1 F3000
G1 X296.527 Y183.527
G1 X296.534 Y182.503
; Path 148
G0 Z0
G0 X295.506 Y186.484
G0 Z2.2
G1 F3000
G1 X295.462 Y186.812
G1 X295.405 Y187.179
G1 X295.345 Y187.553
G1 X295.304 Y187.867
G1 X295.267 Y188.180
G1 X295.203 Y188.550
G1 X295.134 Y188.895
G1 X295.101 Y189.233
G1 X295.031 Y189.550
G1 X295.000 Y189.917
G1 X294.966 Y190.234
G1 X294.898 Y190.607
G1 X294.865 Y190.971
G1 X294.797 Y191.305
G1 X294.738 Y191.681
G1 X294.697 Y192.014
G1 X294.630 Y192.377
G1 X294.597 Y192.737
G1 X294.573 Y193.110
G1 X294.497 Y193.477
G1 X294.425 Y193.872
G1 X294.399 Y194.237
G1 X294.341 Y194.643
G1 X294.301 Y195.014
G1 X294.245 Y195.384
G1 X294.203 Y195.805
G1 X294.167 Y196.186
G1 X294.106 Y196.607
G1 X294.050 Y197.004
G1 X294.009 Y197.418
G1 X293.953 Y197.796
G1 X293.912 Y198.233
G1 X293.859 Y198.621
G1 X293.815 Y199.051
G1 X293.767 Y199.465
G1 X293.719 Y199.868
G1 X293.656 Y200.279
G1 X293.622 Y200.680
G1 X293.571 Y201.094
G1 X293.525 Y201.486
; Path 149
G0 Z0
G0 X293.496 Y201.504
G0 Z2.2
G1 F3000
G1 X293.420 Y201.991
G1 X293.396 Y202.506
G1 X293.366 Y203.006
G1 X293.296 Y203.509
G1 X293.240 Y204.006
G1 X293.196 Y204.511
G1 X293.137 Y205.032
G1 X293.095 Y205.514
G1 X293.075 Y206.028
G1 X292.995 Y206.516
G1 X292.955 Y207.001
G1 X292.895 Y207.519
G1 X292.875 Y208.043
G1 X292.796 Y208.521
G1 X292.755 Y209.023
G1 X292.696 Y209.523
G1 X292.625 Y210.028
G1 X292.597 Y210.524
G1 X292.539 Y211.033
G1 X292.499 Y211.525
G1 X292.468 Y212.038
G1 X292.401 Y212.525
G1 X292.377 Y212.998
G1 X292.304 Y213.525
G1 X292.277 Y214.011
G1 X292.207 Y214.524
G1 X292.150 Y215.036
G1 X292.111 Y215.523
G1 X292.089 Y216.042
G1 X292.015 Y216.522
G1 X291.981 Y217.036
G1 X291.919 Y217.520
G1 X291.899 Y218.040
G1 X291.823 Y218.519
G1 X291.753 Y218.993
G1 X291.727 Y219.517
G1 X291.658 Y219.987
G1 X291.631 Y220.516
G1 X291.603 Y221.032
G1 X291.535 Y221.514
; Path 150
G0 Z0
G0 X288.512 Y216.488
G0 Z2.2
G1 F3000
G1 X288.458 Y215.713
G1 X288.411 Y214.991
G1 X288.345 Y214.231
G1 X288.311 Y213.494
G1 X288.262 Y212.749
G1 X288.211 Y211.998
G1 X288.174 Y211.238
G1 X288.111 Y210.502
G1 X288.088 Y209.756
G1 X288.011 Y209.005
G1 X287.953 Y208.240
G1 X287.911 Y207.509
G1 X287.868 Y206.749
G1 X287.810 Y206.012
G1 X287.747 Y205.238
G1 X287.710 Y204.514
G1 X287.652 Y203.787
G1 X287.609 Y203.017
G1 X287.555 Y202.281
G1 X287.508 Y201.519
G1 X287.473 Y200.761
G1 X287.406 Y200.020
G1 X287.335 Y199.247
G1 X287.304 Y198.520
G1 X287.271 Y197.751
G1 X287.202 Y197.020
G1 X287.160 Y196.249
G1 X287.099 Y195.520
G1 X287.062 Y194.762
G1 X286.997 Y194.019
G1 X286.970 Y193.246
G1 X286.894 Y192.519
G1 X286.835 Y191.764
G1 X286.791 Y191.018
G1 X286.730 Y190.238
G1 X286.688 Y189.517
G1 X286.649 Y188.762
G1 X286.585 Y188.017
G1 X286.544 Y187.288
G1 X286.483 Y186.516
; Path 151
G0 Z0
G0 X285.261 Y188.548
G0 Z2.2
G1 F3000
G1 X285.768 Y190.486
; Path 152
G0 Z0
G0 X287.381 Y190.516
G0 Z2.2
G1 F3000
G1 X287.663 Y192.483
; Path 153
G0 Z0
G0 X289.351 Y192.523
G0 Z2.2
G1 F3000
G1 X289.677 Y194.497
; Path 154
G0 Z0
G0 X283.606 Y193.486
G0 Z2.2
G1 F3000
G1 X283.432 Y191.490
; Path 155
G0 Z0
G0 X281.528 Y191.476
G0 Z2.2
G1 F3000
G1 X281.533 Y189.498
; Path 156
G0 Z0
G0 X281.486 Y188.477
G0 Z2.2
G1 F3000
G1 X281.512 Y189.231
G1 X281.487 Y189.981
G1 X281.465 Y190.715
G1 X281.488 Y191.486
G1 X281.502 Y192.266
G1 X281.488 Y192.990
G1 X281.485 Y193.743
G1 X281.489 Y194.495
G1 X281.507 Y195.247
G1 X281.490 Y195.999
G1 X281.465 Y196.775
G1 X281.491 Y197.504
G1 X281.511 Y198.275
G1 X281.492 Y199.007
G1 X281.520 Y199.733
G1 X281.493 Y200.510
G1 X281.479 Y201.247
G1 X281.495 Y202.013
G1 X281.488 Y202.735
G1 X281.497 Y203.514
G1 X281.472 Y204.248
G1 X281.499 Y205.014
G1 X281.486 Y205.764
G1 X281.501 Y206.513
G1 X281.490 Y207.282
G1 X281.503 Y208.011
G1 X281.517 Y208.775
G1 X281.506 Y209.509
G1 X281.525 Y210.234
G1 X281.509 Y211.006
G1 X281.486 Y211.782
G1 X281.512 Y212.502
G1 X281.502 Y213.226
G1 X281.515 Y213.999
G1 X281.530 Y214.763
G1 X281.518 Y215.496
G1 X281.519 Y216.247
G1 X281.521 Y216.993
G1 X281.542 Y217.765
G1 X281.523 Y218.490
; Path 157
G0 Z0
G0 X278.480 Y216.510
G0 Z2.2
G1 F3000
G1 X277.165 Y215.147
G1 X275.823 Y213.855
G1 X274.488 Y212.486
; Path 158
G0 Z0
G0 X274.512 Y214.480
G0 Z2.2
G1 F3000
G1 X273.015 Y214.504
G1 X271.481 Y214.463
G1 X270.027 Y214.469
G1 X268.500 Y214.505
; Path 159
G0 Z0
G0 X268.513 Y214.532
G0 Z2.2
G1 F3000
G1 X268.214 Y216.211
G1 X267.934 Y217.960
G1 X267.635 Y219.655
G1 X267.340 Y221.383
G1 X267.103 Y223.046
G1 X266.774 Y224.773
G1 X266.512 Y226.476
; Path 160
G0 Z0
G0 X266.516 Y226.516
G0 Z2.2
G1 F3000
G1 X268.523 Y226.487
G1 X270.509 Y226.508
G1 X272.526 Y226.500
G1 X274.500 Y226.495
G1 X276.488 Y226.486
; Path 161
G0 Z0
G0 X276.493 Y226.507
G0 Z2.2
G1 F3000
G1 X276.178 Y224.810
G1 X275.944 Y223.067
G1 X275.656 Y221.331
G1 X275.344 Y219.615
G1 X275.034 Y217.916
G1 X274.779 Y216.211
G1 X274.484 Y214.489
; Path 162
G0 Z0
G0 X274.488 Y216.495
G0 Z2.2
G1 F3000
G1 X274.516 Y215.732
G1 X274.591 Y214.997
G1 X274.624 Y214.269
G1 X274.694 Y213.498
G1 X274.772 Y212.732
G1 X274.797 Y212.000
G1 X274.872 Y211.248
G1 X274.901 Y210.502
G1 X274.927 Y209.779
G1 X275.004 Y209.004
G1 X275.058 Y208.237
G1 X275.107 Y207.506
G1 X275.145 Y206.728
G1 X275.210 Y206.007
G1 X275.266 Y205.253
G1 X275.313 Y204.509
G1 X275.390 Y203.782
G1 X275.416 Y203.010
G1 X275.467 Y202.251
G1 X275.518 Y201.511
G1 X275.574 Y200.777
G1 X275.620 Y200.011
G1 X275.677 Y199.267
G1 X275.722 Y198.512
G1 X275.800 Y197.781
G1 X275.823 Y197.012
G1 X275.877 Y196.290
G1 X275.924 Y195.512
G1 X275.945 Y194.771
G1 X276.025 Y194.012
G1 X276.102 Y193.233
G1 X276.126 Y192.512
G1 X276.202 Y191.757
G1 X276.226 Y191.011
G1 X276.274 Y190.291
G1 X276.327 Y189.511
G1 X276.399 Y188.733
G1 X276.428 Y188.011
G1 X276.449 Y187.234
G1 X276.529 Y186.511
; Path 163
G0 Z0
G0 X279.558 Y187.513
G0 Z2.2
G1 F3000
G1 X279.501 Y189.510
; Path 164
G0 Z0
G0 X279.452 Y191.493
G0 Z2.2
G1 F3000
G1 X279.492 Y193.491
; Path 165
G0 Z0
G0 X280.487 Y193.525
G0 Z2.2
G1 F3000
G1 X280.526 Y195.505
; Path 166
G0 Z0
G0 X281.503 Y195.469
G0 Z2.2
G1 F3000
G1 X281.513 Y197.501
; Path 167
G0 Z0
G0 X279.470 Y197.507
G0 Z2.2
G1 F3000
G1 X279.557 Y199.530
; Path 168
G0 Z0
G0 X280.444 Y199.505
G0 Z2.2
G1 F3000
G1 X280.523 Y201.525
; Path 169
G0 Z0
G0 X281.548 Y201.490
G0 Z2.2
G1 F3000
G1 X281.494 Y203.532
; Path 170
G0 Z0
G0 X277.513 Y202.526
G0 Z2.2
G1 F3000
G1 X277.478 Y200.509
; Path 171
G0 Z0
G0 X276.455 Y200.519
G0 Z2.2
G1 F3000
G1 X276.599 Y198.481
; Path 172
G0 Z0
G0 X277.462 Y198.468
G0 Z2.2
G1 F3000
G1 X277.557 Y196.466
; Path 173
G0 Z0
G0 X277.465 Y196.501
G0 Z2.2
G1 F3000
G1 X277.572 Y194.514
; Path 174
G0 Z0
G0 X276.391 Y194.493
G0 Z2.2
G1 F3000
G1 X276.656 Y192.485
; Path 175
G0 Z0
G0 X275.401 Y192.515
G0 Z2.2
G1 F3000
G1 X275.655 Y190.543
; Path 176
G0 Z0
G0 X273.548 Y192.483
G0 Z2.2
G1 F3000
G1 X273.415 Y194.511
; Path 177
G0 Z0
G0 X275.716 Y194.483
G0 Z2.2
G1 F3000
G1 X275.271 Y196.452
; Path 178
G0 Z0
G0 X275.596 Y196.554
G0 Z2.2
G1 F3000
G1 X275.422 Y198.520
; Path 179
G0 Z0
G0 X271.497 Y195.474
G0 Z2.2
G1 F3000
G1 X271.523 Y197.467
; Path 180
G0 Z0
G0 X269.558 Y195.480
G0 Z2.2
G1 F3000
G1 X269.400 Y193.501
; Path 181
G0 Z0
G0 X267.629 Y193.481
G0 Z2.2
G1 F3000
G1 X267.376 Y191.504
; Path 182
G0 Z0
G0 X265.460 Y194.498
G0 Z2.2
G1 F3000
G1 X265.644 Y196.533
; Path 183
G0 Z0
G0 X273.515 Y201.484
G0 Z2.2
G1 F3000
G1 X274.050 Y199.610
G1 X274.640 Y197.722
G1 X275.184 Y195.831
G1 X275.700 Y193.896
G1 X276.282 Y192.032
G1 X276.831 Y190.150
G1 X277.376 Y188.259
G1 X277.932 Y186.368
G1 X278.479 Y184.478
; Path 184
G0 Z0
G0 X278.495 Y184.516
G0 Z2.2
G1 F3000
G1 X278.918 Y182.927
G1 X279.306 Y181.284
G1 X279.692 Y179.701
G1 X280.103 Y178.097
G1 X280.500 Y176.505
; Path 185
G0 Z0
G0 X281.534 Y174.503
G0 Z2.2
G1 F3000
G1 X281.505 Y173.483
G1 X281.511 Y172.509
; Path 186
G0 Z0
G0 X280.564 Y172.523
G0 Z2.2
G1 F3000
G1 X280.383 Y170.488
; Path 187
G0 Z0
G0 X279.478 Y168.478
G0 Z2.2
G1 F3000
G1 X279.396 Y168.663
G1 X279.374 Y168.878
G1 X279.291 Y169.086
G1 X279.256 Y169.278
G1 X279.219 Y169.503
G1 X279.130 Y169.678
G1 X279.077 Y169.891
G1 X279.003 Y170.077
G1 X278.947 Y170.276
G1 X278.879 Y170.477
G1 X278.811 Y170.679
G1 X278.766 Y170.877
G1 X278.741 Y171.075
G1 X278.667 Y171.277
G1 X278.622 Y171.464
G1 X278.590 Y171.678
G1 X278.580 Y171.867
G1 X278.540 Y172.079
G1 X278.540 Y172.259
G1 X278.523 Y172.481
G1 X278.551 Y172.690
G1 X278.543 Y172.884
G1 X278.541 Y173.106
G1 X278.596 Y173.287
G1 X278.642 Y173.484
G1 X278.676 Y173.691
G1 X278.740 Y173.907
G1 X278.777 Y174.096
G1 X278.858 Y174.270
G1 X278.894 Y174.500
G1 X278.962 Y174.679
G1 X279.021 Y174.905
G1 X279.085 Y175.112
G1 X279.151 Y175.310
G1 X279.242 Y175.511
G1 X279.279 Y175.715
G1 X279.324 Y175.924
G1 X279.400 Y176.120
G1 X279.460 Y176.352
G1 X279.507 Y176.525
; Path 188
G0 Z0
G0 X279.496 Y176.526
G0 Z2.2
G1 F3000
G1 X280.815 Y176.497
G1 X282.183 Y176.481
G1 X283.506 Y176.479
; Path 189
G0 Z0
G0 X283.521 Y176.503
G0 Z2.2
G1 F3000
G1 X283.604 Y176.315
G1 X283.632 Y176.105
G1 X283.703 Y175.888
G1 X283.756 Y175.706
G1 X283.811 Y175.502
G1 X283.889 Y175.308
G1 X283.983 Y175.116
G1 X284.024 Y174.910
G1 X284.070 Y174.731
G1 X284.154 Y174.511
G1 X284.190 Y174.291
G1 X284.275 Y174.113
G1 X284.310 Y173.918
G1 X284.379 Y173.714
G1 X284.396 Y173.504
G1 X284.461 Y173.315
G1 X284.514 Y173.114
G1 X284.515 Y172.916
G1 X284.497 Y172.700
G1 X284.534 Y172.517
G1 X284.534 Y172.310
G1 X284.514 Y172.118
G1 X284.482 Y171.889
G1 X284.461 Y171.718
G1 X284.397 Y171.545
G1 X284.378 Y171.319
G1 X284.310 Y171.102
G1 X284.274 Y170.919
G1 X284.242 Y170.694
G1 X284.153 Y170.519
G1 X284.070 Y170.338
G1 X284.022 Y170.118
G1 X283.978 Y169.889
G1 X283.887 Y169.718
G1 X283.840 Y169.519
G1 X283.754 Y169.318
G1 X283.718 Y169.097
G1 X283.629 Y168.918
G1 X283.559 Y168.726
G1 X283.518 Y168.518
; Path 190
G0 Z0
G0 X282.373 Y170.539
G0 Z2.2
G1 F3000
G1 X282.641 Y172.515
; Path 191
G0 Z0
G0 X285.486 Y169.522
G0 Z2.2
G1 F3000
G1 X285.456 Y171.158
G1 X285.485 Y172.854
G1 X285.476 Y174.510
; Path 192
G0 Z0
G0 X282.494 Y176.525
G0 Z2.2
G1 F3000
G1 X282.894 Y178.099
G1 X283.326 Y179.753
G1 X283.737 Y181.301
G1 X284.101 Y182.925
G1 X284.534 Y184.531
; Path 193
G0 Z0
G0 X284.531 Y184.528
G0 Z2.2
G1 F3000
G1 X285.110 Y186.419
G1 X285.634 Y188.294
G1 X286.189 Y190.185
G1 X286.761 Y192.100
G1 X287.272 Y193.983
G1 X287.851 Y195.864
G1 X288.397 Y197.731
G1 X288.989 Y199.624
G1 X289.515 Y201.498
; Path 194
G0 Z0
G0 X291.488 Y203.492
G0 Z2.2
G1 F3000
G1 X291.510 Y205.520
; Path 195
G0 Z0
G0 X293.590 Y205.486
G0 Z2.2
G1 F3000
G1 X293.436 Y207.482
; Path 196
G0 Z0
G0 X295.467 Y207.458
G0 Z2.2
G1 F3000
G1 X295.486 Y209.461
; Path 197
G0 Z0
G0 X301.624 Y210.495
G0 Z2.2
G1 F3000
G1 X301.371 Y208.532
; Path 198
G0 Z0
G0 X299.600 Y208.492
G0 Z2.2
G1 F3000
G1 X299.414 Y206.502
; Path 199
G0 Z0
G0 X297.434 Y204.542
G0 Z2.2
G1 F3000
G1 X297.603 Y206.537
; Path 200
G0 Z0
G0 X299.475 Y201.516
G0 Z2.2
G1 F3000
G1 X299.401 Y201.113
G1 X299.381 Y200.713
G1 X299.358 Y200.304
G1 X299.288 Y199.903
G1 X299.257 Y199.487
G1 X299.194 Y199.089
G1 X299.139 Y198.685
G1 X299.101 Y198.274
G1 X299.081 Y197.870
G1 X299.007 Y197.461
G1 X298.961 Y197.030
G1 X298.913 Y196.653
G1 X298.838 Y196.258
G1 X298.819 Y195.853
G1 X298.783 Y195.448
G1 X298.724 Y195.064
G1 X298.661 Y194.690
G1 X298.628 Y194.288
G1 X298.560 Y193.920
G1 X298.531 Y193.530
G1 X298.486 Y193.155
G1 X298.433 Y192.789
G1 X298.358 Y192.400
G1 X298.334 Y192.066
G1 X298.258 Y191.711
G1 X298.234 Y191.356
G1 X298.206 Y190.988
G1 X298.134 Y190.657
G1 X298.061 Y190.295
G1 X298.033 Y189.966
G1 X297.967 Y189.652
G1 X297.931 Y189.280
G1 X297.896 Y188.941
G1 X297.830 Y188.596
G1 X297.806 Y188.245
G1 X297.728 Y187.910
G1 X297.650 Y187.594
G1 X297.627 Y187.221
G1 X297.575 Y186.870
G1 X297.526 Y186.525
; Path 201
G0 Z0
G0 X299.510 Y201.494
G0 Z2.2
G1 F3000
G1 X299.559 Y201.971
G1 X299.613 Y202.492
G1 X299.648 Y203.011
G1 X299.716 Y203.490
G1 X299.776 Y204.002
G1 X299.819 Y204.488
G1 X299.861 Y204.979
G1 X299.922 Y205.486
G1 X299.957 Y206.010
G1 X300.026 Y206.484
G1 X300.098 Y206.978
G1 X300.129 Y207.482
G1 X300.176 Y207.970
G1 X300.231 Y208.481
G1 X300.260 Y208.992
G1 X300.333 Y209.479
G1 X300.356 Y209.976
G1 X300.434 Y210.478
G1 X300.454 Y210.975
G1 X300.534 Y211.478
G1 X300.588 Y211.958
G1 X300.632 Y212.478
G1 X300.667 Y212.960
G1 X300.730 Y213.478
G1 X300.750 Y213.979
G1 X300.827 Y214.479
G1 X300.850 Y214.987
G1 X300.923 Y215.480
G1 X300.946 Y215.978
G1 X301.019 Y216.481
G1 X301.046 Y216.987
G1 X301.114 Y217.483
G1 X301.176 Y217.994
G1 X301.209 Y218.484
G1 X301.263 Y218.981
G1 X301.305 Y219.486
G1 X301.329 Y219.965
G1 X301.400 Y220.487
G1 X301.468 Y220.982
G1 X301.496 Y221.488
; Path 202
G0 Z0
G0 X306.436 Y225.501
G0 Z2.2
G1 F3000
G1 X306.510 Y227.515
; Path 203
G0 Z0
G0 X308.493 Y227.468
G0 Z2.2
G1 F3000
G1 X308.567 Y229.466
; Path 204
G0 Z0
G0 X311.116 Y231.302
G0 Z2.2
G1 F3000
G1 X309.850 Y229.764
; Path 205
G0 Z0
G0 X312.665 Y226.486
G0 Z2.2
G1 F3000
G1 X312.378 Y228.502
; Path 206
G0 Z0
G0 X314.797 Y228.534
G0 Z2.2
G1 F3000
G1 X314.215 Y230.430
; Path 207
G0 Z0
G0 X313.519 Y233.474
G0 Z2.2
G1 F3000
G1 X311.489 Y233.537
; Path 208
G0 Z0
G0 X313.494 Y235.613
G0 Z2.2
G1 F3000
G1 X315.441 Y235.320
; Path 209
G0 Z0
G0 X316.206 Y232.451
G0 Z2.2
G1 F3000
G1 X316.854 Y230.581
; Path 210
G0 Z0
G0 X318.537 Y227.538
G0 Z2.2
G1 F3000
G1 X318.458 Y229.508
; Path 211
G0 Z0
G0 X320.553 Y229.496
G0 Z2.2
G1 F3000
G1 X320.480 Y231.490
; Path 212
G0 Z0
G0 X318.806 Y233.547
G0 Z2.2
G1 F3000
G1 X318.128 Y235.427
; Path 213
G0 Z0
G0 X315.753 Y238.132
G0 Z2.2
G1 F3000
G1 X317.347 Y236.915
; Path 214
G0 Z0
G0 X322.468 Y239.496
G0 Z2.2
G1 F3000
G1 X322.595 Y237.517
; Path 215
G0 Z0
G0 X320.304 Y237.458
G0 Z2.2
G1 F3000
G1 X320.698 Y235.519
; Path 216
G0 Z0
G0 X322.549 Y231.517
G0 Z2.2
G1 F3000
G1 X322.508 Y233.533
; Path 217
G0 Z0
G0 X324.511 Y234.483
G0 Z2.2
G1 F3000
G1 X324.540 Y236.489
; Path 218
G0 Z0
G0 X326.471 Y236.521
G0 Z2.2
G1 F3000
G1 X326.512 Y238.497
; Path 219
G0 Z0
G0 X328.505 Y238.479
G0 Z2.2
G1 F3000
G1 X328.588 Y240.515
; Path 220
G0 Z0
G0 X328.612 Y234.492
G0 Z2.2
G1 F3000
G1 X328.473 Y232.517
; Path 221
G0 Z0
G0 X326.559 Y232.531
G0 Z2.2
G1 F3000
G1 X326.446 Y230.539
; Path 222
G0 Z0
G0 X324.578 Y230.490
G0 Z2.2
G1 F3000
G1 X324.439 Y228.467
; Path 223
G0 Z0
G0 X321.520 Y211.529
G0 Z2.2
G1 F3000
G1 X321.579 Y210.754
G1 X321.616 Y210.028
G1 X321.637 Y209.284
G1 X321.705 Y208.526
G1 X321.756 Y207.798
G1 X321.791 Y207.025
G1 X321.825 Y206.304
G1 X321.875 Y205.523
G1 X321.894 Y204.747
G1 X321.961 Y204.022
G1 X322.004 Y203.278
G1 X322.052 Y202.520
G1 X322.111 Y201.774
G1 X322.151 Y201.019
G1 X322.214 Y200.266
G1 X322.261 Y199.518
G1 X322.331 Y198.760
G1 X322.383 Y198.017
G1 X322.481 Y197.253
G1 X322.522 Y196.517
G1 X322.613 Y195.752
G1 X322.679 Y195.017
G1 X322.753 Y194.274
G1 X322.853 Y193.517
G1 X322.968 Y192.761
G1 X323.040 Y192.018
G1 X323.149 Y191.282
G1 X323.237 Y190.518
G1 X323.311 Y189.759
G1 X323.442 Y189.019
G1 X323.549 Y188.257
G1 X323.652 Y187.520
G1 X323.757 Y186.795
G1 X323.863 Y186.021
G1 X323.947 Y185.259
G1 X324.074 Y184.522
G1 X324.172 Y183.784
G1 X324.281 Y183.023
G1 X324.400 Y182.302
G1 X324.481 Y181.523
; Path 224
G0 Z0
G0 X324.488 Y181.508
G0 Z2.2
G1 F3000
G1 X324.599 Y181.012
G1 X324.692 Y180.506
G1 X324.775 Y180.013
G1 X324.897 Y179.504
G1 X325.003 Y178.973
G1 X325.102 Y178.502
G1 X325.219 Y178.025
G1 X325.306 Y177.499
G1 X325.390 Y177.021
G1 X325.511 Y176.497
G1 X325.635 Y175.981
G1 X325.716 Y175.495
G1 X325.843 Y175.023
G1 X325.920 Y174.493
G1 X326.027 Y173.970
G1 X326.124 Y173.492
G1 X326.234 Y173.018
G1 X326.327 Y172.492
G1 X326.456 Y171.965
G1 X326.530 Y171.492
G1 X326.618 Y170.966
G1 X326.731 Y170.493
G1 X326.843 Y169.965
G1 X326.933 Y169.494
G1 X327.029 Y169.022
G1 X327.133 Y168.497
G1 X327.238 Y167.995
G1 X327.333 Y167.499
G1 X327.445 Y167.001
G1 X327.533 Y166.502
G1 X327.641 Y165.977
G1 X327.733 Y165.506
G1 X327.830 Y165.023
G1 X327.933 Y164.509
G1 X328.012 Y163.988
G1 X328.132 Y163.513
G1 X328.257 Y162.988
G1 X328.332 Y162.516
G1 X328.441 Y162.016
G1 X328.532 Y161.519
; Path 225
G0 Z0
G0 X329.520 Y160.525
G0 Z2.2
G1 F3000
G1 X329.445 Y160.749
G1 X329.420 Y161.021
G1 X329.352 Y161.246
G1 X329.320 Y161.509
G1 X329.240 Y161.738
G1 X329.219 Y161.994
G1 X329.161 Y162.233
G1 X329.119 Y162.479
G1 X329.055 Y162.745
G1 X329.019 Y162.964
G1 X328.958 Y163.181
G1 X328.919 Y163.455
G1 X328.864 Y163.678
G1 X328.819 Y163.954
G1 X328.779 Y164.212
G1 X328.719 Y164.463
G1 X328.683 Y164.725
G1 X328.619 Y164.986
G1 X328.569 Y165.257
G1 X328.519 Y165.526
G1 X328.484 Y165.796
G1 X328.419 Y166.084
G1 X328.364 Y166.367
G1 X328.319 Y166.659
G1 X328.276 Y166.925
G1 X328.219 Y167.247
G1 X328.178 Y167.536
G1 X328.119 Y167.846
G1 X328.082 Y168.172
G1 X328.019 Y168.453
G1 X328.000 Y168.731
G1 X327.920 Y169.065
G1 X327.858 Y169.373
G1 X327.820 Y169.679
G1 X327.767 Y169.977
G1 X327.720 Y170.292
G1 X327.642 Y170.576
G1 X327.620 Y170.901
G1 X327.562 Y171.200
G1 X327.521 Y171.503
; Path 226
G0 Z0
G0 X329.474 Y170.523
G0 Z2.2
G1 F3000
G1 X329.561 Y168.504
; Path 227
G0 Z0
G0 X329.535 Y167.552
G0 Z2.2
G1 F3000
G1 X329.425 Y169.499
; Path 228
G0 Z0
G0 X330.543 Y169.547
G0 Z2.2
G1 F3000
G1 X330.524 Y171.548
; Path 229
G0 Z0
G0 X331.496 Y172.475
G0 Z2.2
G1 F3000
G1 X331.484 Y170.489
G1 X331.489 Y168.513
G1 X331.523 Y166.499
G1 X331.489 Y164.485
G1 X331.471 Y162.513
G1 X331.497 Y160.502
; Path 230
G0 Z0
G0 X331.481 Y159.478
G0 Z2.2
G1 F3000
G1 X331.535 Y158.463
G1 X331.534 Y157.477
; Path 231
G0 Z0
G0 X329.523 Y157.516
G0 Z2.2
G1 F3000
G1 X329.442 Y155.519
; Path 232
G0 Z0
G0 X328.505 Y154.528
G0 Z2.2
G1 F3000
G1 X328.432 Y154.694
G1 X328.397 Y154.828
G1 X328.329 Y154.962
G1 X328.276 Y155.128
G1 X328.190 Y155.249
G1 X328.146 Y155.428
G1 X328.093 Y155.550
G1 X328.015 Y155.728
G1 X327.956 Y155.908
G1 X327.888 Y156.028
G1 X327.823 Y156.186
G1 X327.771 Y156.328
G1 X327.739 Y156.479
G1 X327.669 Y156.628
G1 X327.634 Y156.800
G1 X327.588 Y156.927
G1 X327.534 Y157.061
G1 X327.535 Y157.227
G1 X327.536 Y157.379
G1 X327.516 Y157.525
G1 X327.526 Y157.678
G1 X327.533 Y157.824
G1 X327.570 Y157.966
G1 X327.584 Y158.122
G1 X327.652 Y158.276
G1 X327.662 Y158.419
G1 X327.690 Y158.574
G1 X327.762 Y158.717
G1 X327.832 Y158.850
G1 X327.877 Y159.014
G1 X327.930 Y159.187
G1 X328.002 Y159.311
G1 X328.069 Y159.436
G1 X328.131 Y159.608
G1 X328.167 Y159.749
G1 X328.258 Y159.905
G1 X328.339 Y160.060
G1 X328.377 Y160.202
G1 X328.406 Y160.354
G1 X328.483 Y160.499
; Path 233
G0 Z0
G0 X328.510 Y160.505
G0 Z2.2
G1 F3000
G1 X330.041 Y160.471
G1 X331.540 Y160.508
G1 X333.040 Y160.497
G1 X334.531 Y160.488
; Path 234
G0 Z0
G0 X333.664 Y157.539
G0 Z2.2
G1 F3000
G1 X333.291 Y155.547
; Path 235
G0 Z0
G0 X333.533 Y160.516
G0 Z2.2
G1 F3000
G1 X333.599 Y160.779
G1 X333.632 Y161.009
G1 X333.691 Y161.245
G1 X333.730 Y161.495
G1 X333.769 Y161.724
G1 X333.828 Y161.977
G1 X333.874 Y162.239
G1 X333.927 Y162.457
G1 X334.000 Y162.699
G1 X334.025 Y162.940
G1 X334.058 Y163.177
G1 X334.123 Y163.428
G1 X334.178 Y163.673
G1 X334.222 Y163.924
G1 X334.292 Y164.168
G1 X334.320 Y164.432
G1 X334.364 Y164.723
G1 X334.418 Y164.955
G1 X334.439 Y165.218
G1 X334.516 Y165.496
G1 X334.590 Y165.773
G1 X334.614 Y166.057
G1 X334.651 Y166.340
G1 X334.712 Y166.636
G1 X334.781 Y166.930
G1 X334.810 Y167.229
G1 X334.842 Y167.544
G1 X334.908 Y167.834
G1 X334.985 Y168.117
G1 X335.006 Y168.448
G1 X335.081 Y168.744
G1 X335.104 Y169.067
G1 X335.168 Y169.393
G1 X335.202 Y169.688
G1 X335.222 Y170.001
G1 X335.300 Y170.308
G1 X335.367 Y170.636
G1 X335.398 Y170.923
G1 X335.426 Y171.213
G1 X335.496 Y171.532
; Path 236
G0 Z0
G0 X333.653 Y168.457
G0 Z2.2
G1 F3000
G1 X333.377 Y166.470
; Path 237
G0 Z0
G0 X332.585 Y166.534
G0 Z2.2
G1 F3000
G1 X332.324 Y164.516
; Path 238
G0 Z0
G0 X335.500 Y166.515
G0 Z2.2
G1 F3000
G1 X335.571 Y167.360
G1 X335.603 Y168.212
G1 X335.630 Y169.057
G1 X335.706 Y169.903
G1 X335.739 Y170.732
G1 X335.809 Y171.589
G1 X335.884 Y172.457
G1 X335.913 Y173.275
G1 X335.970 Y174.145
G1 X336.016 Y174.963
G1 X336.096 Y175.813
G1 X336.120 Y176.656
G1 X336.186 Y177.503
G1 X336.222 Y178.356
G1 X336.284 Y179.236
G1 X336.324 Y180.066
G1 X336.383 Y180.908
G1 X336.426 Y181.790
G1 X336.479 Y182.637
G1 X336.526 Y183.530
G1 X336.600 Y184.414
G1 X336.625 Y185.288
G1 X336.652 Y186.177
G1 X336.723 Y187.062
G1 X336.770 Y187.929
G1 X336.821 Y188.850
G1 X336.846 Y189.765
G1 X336.917 Y190.648
G1 X336.976 Y191.557
G1 X337.014 Y192.453
G1 X337.079 Y193.371
G1 X337.110 Y194.263
G1 X337.177 Y195.174
G1 X337.206 Y196.076
G1 X337.244 Y196.954
G1 X337.302 Y197.887
G1 X337.348 Y198.778
G1 X337.398 Y199.694
G1 X337.435 Y200.623
G1 X337.495 Y201.495
; Path 239
G0 Z0
G0 X361.581 Y191.509
G0 Z2.2
G1 F3000
G1 X361.480 Y189.496
; Path 240
G0 Z0
G0 X360.520 Y189.513
G0 Z2.2
G1 F3000
G1 X360.451 Y187.518
; Path 241
G0 Z0
G0 X359.491 Y187.481
G0 Z2.2
G1 F3000
G1 X359.453 Y185.477
; Path 242
G0 Z0
G0 X361.471 Y183.482
G0 Z2.2
G1 F3000
G1 X361.470 Y185.487
; Path 243
G0 Z0
G0 X362.521 Y185.486
G0 Z2.2
G1 F3000
G1 X362.543 Y187.506
; Path 244
G0 Z0
G0 X361.505 Y186.490
G0 Z2.2
G1 F3000
G1 X361.536 Y184.639
G1 X361.489 Y182.723
G1 X361.498 Y180.876
G1 X361.536 Y178.995
G1 X361.490 Y177.114
G1 X361.524 Y175.239
G1 X361.536 Y173.341
G1 X361.516 Y171.479
; Path 245
G0 Z0
G0 X364.516 Y171.501
G0 Z2.2
G1 F3000
G1 X364.511 Y173.394
G1 X364.498 Y175.246
G1 X364.530 Y177.118
G1 X364.500 Y179.000
G1 X364.503 Y180.906
G1 X364.480 Y182.750
G1 X364.500 Y184.629
G1 X364.500 Y186.520
; Path 246
G0 Z0
G0 X363.485 Y185.504
G0 Z2.2
G1 F3000
G1 X363.486 Y183.482
; Path 247
G0 Z0
G0 X362.530 Y183.511
G0 Z2.2
G1 F3000
G1 X362.487 Y181.529
; Path 248
G0 Z0
G0 X362.512 Y181.475
G0 Z2.2
G1 F3000
G1 X362.508 Y179.453
; Path 249
G0 Z0
G0 X363.551 Y179.447
G0 Z2.2
G1 F3000
G1 X363.549 Y177.484
; Path 250
G0 Z0
G0 X362.537 Y175.551
G0 Z2.2
G1 F3000
G1 X362.552 Y177.531
; Path 251
G0 Z0
G0 X361.538 Y177.486
G0 Z2.2
G1 F3000
G1 X361.536 Y179.470
; Path 252
G0 Z0
G0 X360.504 Y183.532
G0 Z2.2
G1 F3000
G1 X360.517 Y181.518
; Path 253
G0 Z0
G0 X359.525 Y181.508
G0 Z2.2
G1 F3000
G1 X359.469 Y179.496
; Path 254
G0 Z0
G0 X360.535 Y177.541
G0 Z2.2
G1 F3000
G1 X360.513 Y175.494
; Path 255
G0 Z0
G0 X359.583 Y175.466
G0 Z2.2
G1 F3000
G1 X359.428 Y173.456
; Path 256
G0 Z0
G0 X353.641 Y168.554
G0 Z2.2
G1 F3000
G1 X353.387 Y170.528
; Path 257
G0 Z0
G0 X353.491 Y171.493
G0 Z2.2
G1 F3000
G1 X353.520 Y171.968
G1 X353.591 Y172.496
G1 X353.663 Y173.027
G1 X353.690 Y173.500
G1 X353.718 Y174.011
G1 X353.790 Y174.503
G1 X353.833 Y174.998
G1 X353.889 Y175.507
G1 X353.942 Y176.009
G1 X353.989 Y176.510
G1 X354.011 Y177.006
G1 X354.089 Y177.513
G1 X354.131 Y178.011
G1 X354.188 Y178.516
G1 X354.228 Y179.019
G1 X354.288 Y179.518
G1 X354.355 Y180.015
G1 X354.388 Y180.520
G1 X354.427 Y181.011
G1 X354.488 Y181.520
G1 X354.510 Y181.995
G1 X354.588 Y182.520
G1 X354.661 Y183.036
G1 X354.688 Y183.519
G1 X354.766 Y184.030
G1 X354.788 Y184.518
G1 X354.867 Y184.998
G1 X354.888 Y185.516
G1 X354.951 Y186.001
G1 X354.988 Y186.513
G1 X355.043 Y187.001
G1 X355.089 Y187.510
G1 X355.152 Y187.979
G1 X355.189 Y188.507
G1 X355.263 Y189.000
G1 X355.289 Y189.504
G1 X355.319 Y189.975
G1 X355.389 Y190.502
G1 X355.435 Y191.000
G1 X355.489 Y191.500
; Path 258
G0 Z0
G0 X349.526 Y191.523
G0 Z2.2
G1 F3000
G1 X349.585 Y191.041
G1 X349.621 Y190.523
G1 X349.679 Y190.012
G1 X349.716 Y189.523
G1 X349.745 Y188.995
G1 X349.810 Y188.522
G1 X349.883 Y188.048
G1 X349.905 Y187.522
G1 X349.927 Y187.009
G1 X350.000 Y186.522
G1 X350.048 Y186.024
G1 X350.095 Y185.522
G1 X350.115 Y185.010
G1 X350.190 Y184.522
G1 X350.213 Y183.995
G1 X350.286 Y183.521
G1 X350.345 Y183.010
G1 X350.384 Y182.521
G1 X350.448 Y182.032
G1 X350.482 Y181.520
G1 X350.552 Y180.996
G1 X350.582 Y180.519
G1 X350.638 Y180.047
G1 X350.683 Y179.519
G1 X350.705 Y179.028
G1 X350.785 Y178.518
G1 X350.819 Y178.040
G1 X350.887 Y177.517
G1 X350.939 Y177.032
G1 X350.990 Y176.515
G1 X351.053 Y176.042
G1 X351.094 Y175.514
G1 X351.154 Y174.998
G1 X351.197 Y174.513
G1 X351.274 Y174.039
G1 X351.301 Y173.512
G1 X351.355 Y173.024
G1 X351.404 Y172.511
G1 X351.440 Y172.014
G1 X351.507 Y171.509
; Path 259
G0 Z0
G0 X352.494 Y171.531
G0 Z2.2
G1 F3000
G1 X352.563 Y171.672
G1 X352.597 Y171.822
G1 X352.635 Y171.985
G1 X352.700 Y172.106
G1 X352.773 Y172.267
G1 X352.803 Y172.386
G1 X352.836 Y172.553
G1 X352.906 Y172.664
G1 X352.965 Y172.788
G1 X353.009 Y172.945
G1 X353.033 Y173.066
G1 X353.112 Y173.231
G1 X353.179 Y173.377
G1 X353.215 Y173.525
G1 X353.247 Y173.671
G1 X353.317 Y173.831
G1 X353.397 Y173.974
G1 X353.418 Y174.152
G1 X353.479 Y174.325
G1 X353.519 Y174.490
G1 X353.565 Y174.669
G1 X353.618 Y174.848
G1 X353.680 Y175.045
G1 X353.717 Y175.224
G1 X353.772 Y175.437
G1 X353.815 Y175.615
G1 X353.850 Y175.791
G1 X353.912 Y176.017
G1 X353.987 Y176.197
G1 X354.010 Y176.428
G1 X354.039 Y176.644
G1 X354.106 Y176.843
G1 X354.134 Y177.047
G1 X354.203 Y177.261
G1 X354.272 Y177.463
G1 X354.300 Y177.678
G1 X354.333 Y177.859
G1 X354.397 Y178.091
G1 X354.449 Y178.306
G1 X354.494 Y178.496
; Path 260
G0 Z0
G0 X348.481 Y178.477
G0 Z2.2
G1 F3000
G1 X348.510 Y178.253
G1 X348.586 Y178.078
G1 X348.639 Y177.862
G1 X348.693 Y177.672
G1 X348.766 Y177.455
G1 X348.799 Y177.262
G1 X348.824 Y177.059
G1 X348.906 Y176.852
G1 X348.984 Y176.668
G1 X349.012 Y176.443
G1 X349.046 Y176.255
G1 X349.119 Y176.039
G1 X349.165 Y175.815
G1 X349.224 Y175.643
G1 X349.266 Y175.454
G1 X349.328 Y175.257
G1 X349.389 Y175.058
G1 X349.432 Y174.883
G1 X349.494 Y174.728
G1 X349.534 Y174.526
G1 X349.579 Y174.360
G1 X349.634 Y174.186
G1 X349.705 Y173.996
G1 X349.732 Y173.861
G1 X349.804 Y173.694
G1 X349.830 Y173.550
G1 X349.863 Y173.422
G1 X349.926 Y173.249
G1 X349.954 Y173.098
G1 X350.022 Y172.955
G1 X350.049 Y172.792
G1 X350.118 Y172.666
G1 X350.176 Y172.518
G1 X350.213 Y172.379
G1 X350.243 Y172.262
G1 X350.308 Y172.091
G1 X350.330 Y171.951
G1 X350.404 Y171.799
G1 X350.438 Y171.636
G1 X350.500 Y171.501
; Path 261
G0 Z0
G0 X349.502 Y171.492
G0 Z2.2
G1 F3000
G1 X349.441 Y171.272
G1 X349.396 Y171.095
G1 X349.362 Y170.900
G1 X349.277 Y170.698
G1 X349.224 Y170.492
G1 X349.149 Y170.302
G1 X349.083 Y170.084
G1 X349.020 Y169.905
G1 X348.944 Y169.713
G1 X348.894 Y169.508
G1 X348.809 Y169.286
G1 X348.779 Y169.112
G1 X348.742 Y168.906
G1 X348.678 Y168.715
G1 X348.645 Y168.498
G1 X348.599 Y168.317
G1 X348.570 Y168.124
G1 X348.547 Y167.919
G1 X348.510 Y167.705
G1 X348.528 Y167.521
G1 X348.521 Y167.324
G1 X348.546 Y167.122
G1 X348.593 Y166.920
G1 X348.597 Y166.723
G1 X348.617 Y166.512
G1 X348.674 Y166.323
G1 X348.714 Y166.125
G1 X348.773 Y165.924
G1 X348.841 Y165.752
G1 X348.888 Y165.523
G1 X348.933 Y165.319
G1 X349.012 Y165.123
G1 X349.094 Y164.897
G1 X349.140 Y164.723
G1 X349.176 Y164.504
G1 X349.266 Y164.322
G1 X349.344 Y164.126
G1 X349.385 Y163.922
G1 X349.431 Y163.719
G1 X349.490 Y163.522
; Path 262
G0 Z0
G0 X347.480 Y164.493
G0 Z2.2
G1 F3000
G1 X347.693 Y164.360
G1 X347.881 Y164.168
G1 X348.091 Y163.963
G1 X348.283 Y163.800
G1 X348.464 Y163.615
G1 X348.685 Y163.409
G1 X348.893 Y163.234
G1 X349.087 Y163.012
G1 X349.298 Y162.820
G1 X349.489 Y162.627
G1 X349.707 Y162.431
G1 X349.891 Y162.272
G1 X350.068 Y162.106
G1 X350.292 Y161.964
G1 X350.491 Y161.830
G1 X350.693 Y161.723
G1 X350.904 Y161.628
G1 X351.094 Y161.565
G1 X351.291 Y161.511
G1 X351.495 Y161.509
G1 X351.706 Y161.524
G1 X351.895 Y161.567
G1 X352.081 Y161.622
G1 X352.294 Y161.727
G1 X352.515 Y161.870
G1 X352.693 Y161.971
G1 X352.882 Y162.154
G1 X353.092 Y162.281
G1 X353.266 Y162.462
G1 X353.490 Y162.638
G1 X353.684 Y162.822
G1 X353.889 Y163.025
G1 X354.058 Y163.213
G1 X354.287 Y163.425
G1 X354.495 Y163.613
G1 X354.685 Y163.818
G1 X354.891 Y163.991
G1 X355.084 Y164.188
G1 X355.294 Y164.350
G1 X355.482 Y164.515
; Path 263
G0 Z0
G0 X353.523 Y163.500
G0 Z2.2
G1 F3000
G1 X353.573 Y163.701
G1 X353.629 Y163.898
G1 X353.716 Y164.087
G1 X353.749 Y164.296
G1 X353.816 Y164.466
G1 X353.877 Y164.694
G1 X353.945 Y164.891
G1 X354.007 Y165.091
G1 X354.082 Y165.263
G1 X354.133 Y165.489
G1 X354.185 Y165.687
G1 X354.249 Y165.887
G1 X354.307 Y166.072
G1 X354.350 Y166.285
G1 X354.383 Y166.494
G1 X354.429 Y166.684
G1 X354.451 Y166.855
G1 X354.481 Y167.084
G1 X354.476 Y167.289
G1 X354.500 Y167.485
G1 X354.492 Y167.660
G1 X354.481 Y167.886
G1 X354.446 Y168.091
G1 X354.430 Y168.289
G1 X354.370 Y168.471
G1 X354.351 Y168.692
G1 X354.326 Y168.872
G1 X354.251 Y169.096
G1 X354.167 Y169.279
G1 X354.135 Y169.500
G1 X354.049 Y169.729
G1 X354.010 Y169.905
G1 X353.919 Y170.103
G1 X353.880 Y170.309
G1 X353.788 Y170.508
G1 X353.753 Y170.714
G1 X353.716 Y170.908
G1 X353.633 Y171.118
G1 X353.604 Y171.323
G1 X353.527 Y171.522
; Path 264
G0 Z0
G0 X353.533 Y171.526
G0 Z2.2
G1 F3000
G1 X352.200 Y171.511
G1 X350.846 Y171.520
G1 X349.492 Y171.488
; Path 265
G0 Z0
G0 X349.667 Y170.512
G0 Z2.2
G1 F3000
G1 X349.290 Y168.526
; Path 266
G0 Z0
G0 X348.483 Y171.520
G0 Z2.2
G1 F3000
G1 X348.274 Y171.628
G1 X348.078 Y171.712
G1 X347.855 Y171.826
G1 X347.665 Y171.896
G1 X347.434 Y172.003
G1 X347.248 Y172.077
G1 X347.040 Y172.171
G1 X346.830 Y172.257
G1 X346.639 Y172.350
G1 X346.414 Y172.438
G1 X346.214 Y172.540
G1 X346.004 Y172.625
G1 X345.783 Y172.695
G1 X345.601 Y172.820
G1 X345.397 Y172.945
G1 X345.211 Y173.026
G1 X345.036 Y173.129
G1 X344.834 Y173.247
G1 X344.675 Y173.362
G1 X344.476 Y173.486
G1 X344.305 Y173.625
G1 X344.137 Y173.743
G1 X343.982 Y173.886
G1 X343.816 Y174.019
G1 X343.652 Y174.134
G1 X343.510 Y174.309
G1 X343.372 Y174.472
G1 X343.215 Y174.610
G1 X343.044 Y174.736
G1 X342.928 Y174.920
G1 X342.795 Y175.052
G1 X342.647 Y175.234
G1 X342.483 Y175.400
G1 X342.367 Y175.551
G1 X342.227 Y175.726
G1 X342.087 Y175.867
G1 X341.962 Y176.045
G1 X341.802 Y176.178
G1 X341.682 Y176.341
G1 X341.511 Y176.483
; Path 267
G0 Z0
G0 X341.526 Y176.485
G0 Z2.2
G1 F3000
G1 X339.839 Y177.138
G1 X338.154 Y177.849
G1 X336.513 Y178.508
; Path 268
G0 Z0
G0 X336.535 Y178.532
G0 Z2.2
G1 F3000
G1 X336.463 Y180.531
; Path 269
G0 Z0
G0 X336.505 Y178.482
G0 Z2.2
G1 F3000
G1 X334.999 Y179.018
G1 X333.521 Y179.531
; Path 270
G0 Z0
G0 X334.634 Y178.983
G0 Z2.2
G1 F3000
G1 X336.425 Y178.047
; Path 271
G0 Z0
G0 X335.450 Y177.400
G0 Z2.2
G1 F3000
G1 X333.466 Y177.666
; Path 272
G0 Z0
G0 X333.531 Y177.550
G0 Z2.2
G1 F3000
G1 X335.498 Y177.370
; Path 273
G0 Z0
G0 X336.492 Y177.510
G0 Z2.2
G1 F3000
G1 X335.000 Y177.004
G1 X333.481 Y176.522
; Path 274
G0 Z0
G0 X330.516 Y179.512
G0 Z2.2
G1 F3000
G1 X330.431 Y181.540
; Path 275
G0 Z0
G0 X331.470 Y181.554
G0 Z2.2
G1 F3000
G1 X331.466 Y183.514
; Path 276
G0 Z0
G0 X331.487 Y184.493
G0 Z2.2
G1 F3000
G1 X331.461 Y185.989
G1 X331.477 Y187.502
; Path 277
G0 Z0
G0 X331.476 Y187.530
G0 Z2.2
G1 F3000
G1 X331.490 Y189.525
; Path 278
G0 Z0
G0 X331.481 Y187.477
G0 Z2.2
G1 F3000
G1 X329.847 Y188.158
G1 X328.154 Y188.852
G1 X326.511 Y189.522
; Path 279
G0 Z0
G0 X326.485 Y189.497
G0 Z2.2
G1 F3000
G1 X326.529 Y187.999
G1 X326.530 Y186.507
; Path 280
G0 Z0
G0 X327.042 Y186.574
G0 Z2.2
G1 F3000
G1 X327.933 Y188.402
; Path 281
G0 Z0
G0 X327.593 Y188.829
G0 Z2.2
G1 F3000
G1 X329.428 Y188.125
; Path 282
G0 Z0
G0 X328.497 Y187.252
G0 Z2.2
G1 F3000
G1 X330.456 Y187.736
; Path 283
G0 Z0
G0 X330.789 Y187.457
G0 Z2.2
G1 F3000
G1 X330.210 Y185.586
; Path 284
G0 Z0
G0 X328.484 Y186.417
G0 Z2.2
G1 F3000
G1 X326.535 Y186.561
; Path 285
G0 Z0
G0 X326.487 Y186.513
G0 Z2.2
G1 F3000
G1 X328.123 Y185.844
G1 X329.807 Y185.152
G1 X331.478 Y184.490
; Path 286
G0 Z0
G0 X330.463 Y184.748
G0 Z2.2
G1 F3000
G1 X328.549 Y184.192
; Path 287
G0 Z0
G0 X328.533 Y183.482
G0 Z2.2
G1 F3000
G1 X328.442 Y181.510
; Path 288
G0 Z0
G0 X327.437 Y181.483
G0 Z2.2
G1 F3000
G1 X327.574 Y179.478
; Path 289
G0 Z0
G0 X326.463 Y179.450
G0 Z2.2
G1 F3000
G1 X326.591 Y177.489
; Path 290
G0 Z0
G0 X329.417 Y179.472
G0 Z2.2
G1 F3000
G1 X329.655 Y177.527
; Path 291
G0 Z0
G0 X328.420 Y177.477
G0 Z2.2
G1 F3000
G1 X328.545 Y175.494
; Path 292
G0 Z0
G0 X327.430 Y175.502
G0 Z2.2
G1 F3000
G1 X327.589 Y173.496
; Path 293
G0 Z0
G0 X326.691 Y171.527
G0 Z2.2
G1 F3000
G1 X326.328 Y173.522
; Path 294
G0 Z0
G0 X325.713 Y174.524
G0 Z2.2
G1 F3000
G1 X325.337 Y176.485
; Path 295
G0 Z0
G0 X324.438 Y174.521
G0 Z2.2
G1 F3000
G1 X324.597 Y172.488
; Path 296
G0 Z0
G0 X323.479 Y172.477
G0 Z2.2
G1 F3000
G1 X323.547 Y170.511
; Path 297
G0 Z0
G0 X313.532 Y159.528
G0 Z2.2
G1 F3000
G1 X313.526 Y161.291
G1 X313.530 Y163.005
G1 X313.512 Y164.783
G1 X313.526 Y166.507
; Path 298
G0 Z0
G0 X309.529 Y166.511
G0 Z2.2
G1 F3000
G1 X309.525 Y164.734
G1 X309.525 Y163.045
G1 X309.478 Y161.244
G1 X309.485 Y159.523
; Path 299
G0 Z0
G0 X299.503 Y156.517
G0 Z2.2
G1 F3000
G1 X299.518 Y154.766
G1 X299.486 Y153.016
G1 X299.540 Y151.228
G1 X299.517 Y149.495
; Path 300
G0 Z0
G0 X300.436 Y151.549
G0 Z2.2
G1 F3000
G1 X300.549 Y153.506
; Path 301
G0 Z0
G0 X302.650 Y153.507
G0 Z2.2
G1 F3000
G1 X302.443 Y151.517
; Path 302
G0 Z0
G0 X303.507 Y149.476
G0 Z2.2
G1 F3000
G1 X303.524 Y151.223
G1 X303.493 Y152.959
G1 X303.482 Y154.726
G1 X303.504 Y156.487
; Path 303
G0 Z0
G0 X304.501 Y156.533
G0 Z2.2
G1 F3000
G1 X302.486 Y156.539
G1 X300.482 Y156.517
G1 X298.502 Y156.501
; Path 304
G0 Z0
G0 X285.491 Y169.515
G0 Z2.2
G1 F3000
G1 X285.318 Y169.378
G1 X285.091 Y169.189
G1 X284.865 Y168.988
G1 X284.692 Y168.821
G1 X284.464 Y168.610
G1 X284.293 Y168.428
G1 X284.121 Y168.239
G1 X283.893 Y168.030
G1 X283.690 Y167.830
G1 X283.494 Y167.644
G1 X283.322 Y167.496
G1 X283.095 Y167.288
G1 X282.879 Y167.131
G1 X282.695 Y166.979
G1 X282.489 Y166.846
G1 X282.296 Y166.736
G1 X282.086 Y166.633
G1 X281.896 Y166.577
G1 X281.686 Y166.536
G1 X281.497 Y166.520
G1 X281.320 Y166.546
G1 X281.097 Y166.576
G1 X280.895 Y166.679
G1 X280.698 Y166.733
G1 X280.505 Y166.839
G1 X280.298 Y166.975
G1 X280.097 Y167.111
G1 X279.899 Y167.282
G1 X279.703 Y167.481
G1 X279.499 Y167.636
G1 X279.276 Y167.804
G1 X279.099 Y168.021
G1 X278.888 Y168.210
G1 X278.700 Y168.418
G1 X278.501 Y168.589
G1 X278.300 Y168.808
G1 X278.113 Y168.991
G1 X277.900 Y169.175
G1 X277.727 Y169.312
G1 X277.501 Y169.500
; Path 305
G0 Z0
G0 X277.495 Y169.486
G0 Z2.2
G1 F3000
G1 X277.489 Y171.127
G1 X277.502 Y172.806
G1 X277.528 Y174.478
; Path 306
G0 Z0
G0 X259.223 Y184.546
G0 Z2.2
G1 F3000
G1 X259.843 Y186.473
; Path 307
G0 Z0
G0 X261.330 Y186.551
G0 Z2.2
G1 F3000
G1 X261.716 Y188.486
; Path 308
G0 Z0
G0 X263.333 Y188.500
G0 Z2.2
G1 F3000
G1 X263.647 Y190.491
; Path 309
G0 Z0
G0 X263.397 Y192.487
G0 Z2.2
G1 F3000
G1 X263.654 Y194.499
; Path 310
G0 Z0
G0 X262.518 Y194.527
G0 Z2.2
G1 F3000
G1 X262.474 Y194.276
G1 X262.415 Y194.027
G1 X262.337 Y193.756
G1 X262.313 Y193.528
G1 X262.263 Y193.264
G1 X262.210 Y193.029
G1 X262.185 Y192.751
G1 X262.108 Y192.530
G1 X262.072 Y192.308
G1 X262.005 Y192.030
G1 X261.965 Y191.811
G1 X261.903 Y191.531
G1 X261.825 Y191.297
G1 X261.801 Y191.031
G1 X261.731 Y190.788
G1 X261.698 Y190.532
G1 X261.668 Y190.287
G1 X261.596 Y190.031
G1 X261.519 Y189.763
G1 X261.494 Y189.530
G1 X261.426 Y189.253
G1 X261.392 Y189.028
G1 X261.346 Y188.807
G1 X261.291 Y188.526
G1 X261.240 Y188.287
G1 X261.189 Y188.024
G1 X261.159 Y187.800
G1 X261.088 Y187.520
G1 X261.049 Y187.258
G1 X260.986 Y187.017
G1 X260.954 Y186.758
G1 X260.885 Y186.514
G1 X260.858 Y186.245
G1 X260.783 Y186.010
G1 X260.719 Y185.737
G1 X260.682 Y185.507
G1 X260.612 Y185.256
G1 X260.581 Y185.003
G1 X260.560 Y184.775
G1 X260.479 Y184.500
; Path 311
G0 Z0
G0 X260.526 Y184.492
G0 Z2.2
G1 F3000
G1 X260.335 Y184.381
G1 X260.123 Y184.274
G1 X259.905 Y184.166
G1 X259.720 Y184.028
G1 X259.539 Y183.927
G1 X259.317 Y183.767
G1 X259.144 Y183.659
G1 X258.913 Y183.501
G1 X258.706 Y183.349
G1 X258.510 Y183.243
G1 X258.338 Y183.135
G1 X258.107 Y183.006
G1 X257.898 Y182.926
G1 X257.704 Y182.800
G1 X257.473 Y182.701
G1 X257.302 Y182.638
G1 X257.071 Y182.603
G1 X256.900 Y182.531
G1 X256.706 Y182.528
G1 X256.498 Y182.493
G1 X256.294 Y182.496
G1 X256.096 Y182.530
G1 X255.874 Y182.567
G1 X255.695 Y182.634
G1 X255.511 Y182.742
G1 X255.294 Y182.795
G1 X255.113 Y182.867
G1 X254.894 Y182.999
G1 X254.690 Y183.120
G1 X254.493 Y183.236
G1 X254.295 Y183.392
G1 X254.093 Y183.492
G1 X253.868 Y183.621
G1 X253.693 Y183.756
G1 X253.503 Y183.861
G1 X253.293 Y184.016
G1 X253.119 Y184.150
G1 X252.892 Y184.260
G1 X252.707 Y184.391
G1 X252.492 Y184.476
; Path 312
G0 Z0
G0 X252.489 Y184.531
G0 Z2.2
G1 F3000
G1 X252.443 Y184.775
G1 X252.389 Y185.028
G1 X252.320 Y185.288
G1 X252.290 Y185.525
G1 X252.235 Y185.759
G1 X252.191 Y186.021
G1 X252.160 Y186.269
G1 X252.091 Y186.518
G1 X252.059 Y186.755
G1 X251.992 Y187.014
G1 X251.960 Y187.267
G1 X251.893 Y187.511
G1 X251.872 Y187.758
G1 X251.793 Y188.008
G1 X251.737 Y188.257
G1 X251.694 Y188.505
G1 X251.634 Y188.772
G1 X251.594 Y189.003
G1 X251.527 Y189.259
G1 X251.495 Y189.501
G1 X251.448 Y189.773
G1 X251.395 Y190.000
G1 X251.337 Y190.249
G1 X251.296 Y190.500
G1 X251.247 Y190.769
G1 X251.196 Y191.000
G1 X251.134 Y191.266
G1 X251.097 Y191.500
G1 X251.048 Y191.772
G1 X250.997 Y192.000
G1 X250.937 Y192.230
G1 X250.898 Y192.501
G1 X250.851 Y192.746
G1 X250.798 Y193.002
G1 X250.776 Y193.253
G1 X250.699 Y193.503
G1 X250.627 Y193.735
G1 X250.599 Y194.003
G1 X250.522 Y194.277
G1 X250.500 Y194.504
; Path 313
G0 Z0
G0 X248.695 Y197.499
G0 Z2.2
G1 F3000
G1 X248.246 Y199.479
; Path 314
G0 Z0
G0 X249.508 Y199.486
G0 Z2.2
G1 F3000
G1 X249.441 Y199.629
G1 X249.398 Y199.787
G1 X249.336 Y199.958
G1 X249.273 Y200.088
G1 X249.217 Y200.252
G1 X249.140 Y200.389
G1 X249.074 Y200.534
G1 X249.005 Y200.690
G1 X248.918 Y200.852
G1 X248.875 Y200.990
G1 X248.840 Y201.150
G1 X248.754 Y201.291
G1 X248.723 Y201.421
G1 X248.650 Y201.592
G1 X248.595 Y201.735
G1 X248.568 Y201.894
G1 X248.529 Y202.036
G1 X248.515 Y202.195
G1 X248.512 Y202.359
G1 X248.497 Y202.497
G1 X248.500 Y202.652
G1 X248.517 Y202.800
G1 X248.546 Y202.962
G1 X248.572 Y203.103
G1 X248.610 Y203.257
G1 X248.655 Y203.406
G1 X248.691 Y203.546
G1 X248.761 Y203.709
G1 X248.818 Y203.881
G1 X248.884 Y204.013
G1 X248.935 Y204.154
G1 X249.016 Y204.316
G1 X249.074 Y204.464
G1 X249.153 Y204.620
G1 X249.242 Y204.778
G1 X249.287 Y204.924
G1 X249.321 Y205.058
G1 X249.414 Y205.228
G1 X249.476 Y205.404
G1 X249.526 Y205.531
; Path 315
G0 Z0
G0 X249.490 Y205.528
G0 Z2.2
G1 F3000
G1 X251.463 Y205.500
G1 X253.485 Y205.487
; Path 316
G0 Z0
G0 X253.488 Y205.522
G0 Z2.2
G1 F3000
G1 X253.547 Y205.389
G1 X253.599 Y205.218
G1 X253.665 Y205.069
G1 X253.723 Y204.913
G1 X253.786 Y204.738
G1 X253.856 Y204.608
G1 X253.944 Y204.434
G1 X253.991 Y204.303
G1 X254.068 Y204.135
G1 X254.122 Y203.998
G1 X254.192 Y203.816
G1 X254.242 Y203.694
G1 X254.300 Y203.517
G1 X254.347 Y203.390
G1 X254.383 Y203.230
G1 X254.430 Y203.087
G1 X254.464 Y202.958
G1 X254.485 Y202.785
G1 X254.471 Y202.631
G1 X254.506 Y202.484
G1 X254.482 Y202.360
G1 X254.489 Y202.185
G1 X254.470 Y202.008
G1 X254.438 Y201.886
G1 X254.382 Y201.765
G1 X254.359 Y201.589
G1 X254.304 Y201.442
G1 X254.258 Y201.293
G1 X254.184 Y201.167
G1 X254.141 Y200.997
G1 X254.078 Y200.839
G1 X254.014 Y200.702
G1 X253.931 Y200.562
G1 X253.883 Y200.406
G1 X253.841 Y200.276
G1 X253.754 Y200.111
G1 X253.681 Y199.949
G1 X253.634 Y199.815
G1 X253.565 Y199.692
G1 X253.527 Y199.519
; Path 317
G0 Z0
G0 X253.503 Y199.490
G0 Z2.2
G1 F3000
G1 X253.641 Y199.278
G1 X253.802 Y199.090
G1 X253.975 Y198.911
G1 X254.100 Y198.690
G1 X254.227 Y198.487
G1 X254.399 Y198.291
G1 X254.547 Y198.066
G1 X254.697 Y197.891
G1 X254.821 Y197.707
G1 X254.995 Y197.491
G1 X255.173 Y197.312
G1 X255.294 Y197.091
G1 X255.436 Y196.872
G1 X255.592 Y196.691
G1 X255.769 Y196.468
G1 X255.891 Y196.292
G1 X256.035 Y196.110
G1 X256.191 Y195.892
G1 X256.353 Y195.715
G1 X256.491 Y195.492
G1 X256.647 Y195.289
G1 X256.792 Y195.093
G1 X256.962 Y194.878
G1 X257.094 Y194.693
G1 X257.274 Y194.471
G1 X257.396 Y194.294
G1 X257.560 Y194.076
G1 X257.699 Y193.895
G1 X257.859 Y193.669
G1 X258.001 Y193.495
G1 X258.126 Y193.268
G1 X258.304 Y193.096
G1 X258.468 Y192.908
G1 X258.607 Y192.697
G1 X258.736 Y192.478
G1 X258.910 Y192.298
G1 X259.037 Y192.117
G1 X259.213 Y191.898
G1 X259.338 Y191.687
G1 X259.516 Y191.499
; Path 318
G0 Z0
G0 X261.314 Y190.550
G0 Z2.2
G1 F3000
G1 X261.659 Y192.504
; Path 319
G0 Z0
G0 X261.517 Y194.506
G0 Z2.2
G1 F3000
G1 X261.439 Y194.996
G1 X261.417 Y195.523
G1 X261.376 Y196.072
G1 X261.317 Y196.567
G1 X261.261 Y197.080
G1 X261.217 Y197.627
G1 X261.180 Y198.165
G1 X261.117 Y198.691
G1 X261.093 Y199.209
G1 X261.018 Y199.747
G1 X260.940 Y200.289
G1 X260.918 Y200.783
G1 X260.844 Y201.285
G1 X260.818 Y201.788
G1 X260.782 Y202.262
G1 X260.718 Y202.749
G1 X260.662 Y203.223
G1 X260.617 Y203.655
G1 X260.549 Y204.064
G1 X260.517 Y204.493
G1 X260.440 Y204.901
G1 X260.411 Y205.257
G1 X260.337 Y205.607
G1 X260.298 Y205.954
G1 X260.232 Y206.285
G1 X260.181 Y206.596
G1 X260.151 Y206.904
G1 X260.063 Y207.194
G1 X260.011 Y207.478
G1 X259.946 Y207.761
G1 X259.861 Y208.011
G1 X259.835 Y208.308
G1 X259.813 Y208.561
G1 X259.732 Y208.846
G1 X259.682 Y209.131
G1 X259.639 Y209.387
G1 X259.605 Y209.685
G1 X259.562 Y209.943
G1 X259.506 Y210.253
G1 X259.501 Y210.526
G1 X259.462 Y210.807
G1 X259.460 Y211.125
G1 X259.427 Y211.426
G1 X259.437 Y211.723
G1 X259.410 Y212.051
G1 X259.427 Y212.320
G1 X259.445 Y212.599
G1 X259.429 Y212.916
G1 X259.411 Y213.187
G1 X259.439 Y213.512
G1 X259.461 Y213.806
G1 X259.455 Y214.107
G1 X259.489 Y214.428
G1 X259.472 Y214.702
G1 X259.463 Y214.971
G1 X259.488 Y215.297
G1 X259.510 Y215.615
G1 X259.500 Y215.892
G1 X259.490 Y216.213
G1 X259.505 Y216.488
; Path 320
G0 Z0
G0 X254.496 Y216.506
G0 Z2.2
G1 F3000
G1 X254.470 Y216.208
G1 X254.490 Y215.905
G1 X254.468 Y215.619
G1 X254.478 Y215.304
G1 X254.494 Y215.020
G1 X254.461 Y214.702
G1 X254.454 Y214.398
G1 X254.443 Y214.101
G1 X254.452 Y213.785
G1 X254.427 Y213.500
G1 X254.442 Y213.213
G1 X254.417 Y212.899
G1 X254.395 Y212.588
G1 X254.414 Y212.298
G1 X254.402 Y212.020
G1 X254.423 Y211.696
G1 X254.411 Y211.374
G1 X254.445 Y211.095
G1 X254.472 Y210.818
G1 X254.485 Y210.494
G1 X254.488 Y210.204
G1 X254.544 Y209.910
G1 X254.590 Y209.628
G1 X254.621 Y209.354
G1 X254.652 Y209.088
G1 X254.711 Y208.814
G1 X254.779 Y208.555
G1 X254.812 Y208.278
G1 X254.892 Y208.030
G1 X254.921 Y207.734
G1 X254.987 Y207.454
G1 X255.036 Y207.170
G1 X255.100 Y206.882
G1 X255.153 Y206.575
G1 X255.208 Y206.247
G1 X255.269 Y205.935
G1 X255.353 Y205.574
G1 X255.381 Y205.241
G1 X255.432 Y204.856
G1 X255.487 Y204.479
G1 X255.528 Y204.057
G1 X255.588 Y203.643
G1 X255.666 Y203.216
G1 X255.690 Y202.739
G1 X255.726 Y202.233
G1 X255.792 Y201.779
G1 X255.868 Y201.269
G1 X255.895 Y200.776
G1 X255.957 Y200.252
G1 X255.997 Y199.742
G1 X256.063 Y199.193
G1 X256.100 Y198.688
G1 X256.143 Y198.166
G1 X256.202 Y197.625
G1 X256.226 Y197.117
G1 X256.305 Y196.567
G1 X256.349 Y196.021
G1 X256.408 Y195.525
G1 X256.461 Y194.993
G1 X256.510 Y194.510
; Path 321
G0 Z0
G0 X251.495 Y194.517
G0 Z2.2
G1 F3000
G1 X251.429 Y195.039
G1 X251.396 Y195.531
G1 X251.360 Y196.050
G1 X251.297 Y196.572
G1 X251.258 Y197.129
G1 X251.198 Y197.628
G1 X251.141 Y198.134
G1 X251.099 Y198.689
G1 X251.078 Y199.232
G1 X251.000 Y199.742
G1 X250.953 Y200.286
G1 X250.902 Y200.775
G1 X250.865 Y201.280
G1 X250.802 Y201.777
G1 X250.731 Y202.259
G1 X250.703 Y202.735
G1 X250.670 Y203.205
G1 X250.603 Y203.639
G1 X250.573 Y204.042
G1 X250.502 Y204.477
G1 X250.459 Y204.871
G1 X250.396 Y205.240
G1 X250.355 Y205.569
G1 X250.282 Y205.937
G1 X250.233 Y206.242
G1 X250.164 Y206.579
G1 X250.097 Y206.888
G1 X250.044 Y207.179
G1 X249.959 Y207.445
G1 X249.926 Y207.747
G1 X249.849 Y208.013
G1 X249.813 Y208.295
G1 X249.776 Y208.537
G1 X249.709 Y208.835
G1 X249.687 Y209.134
G1 X249.615 Y209.377
G1 X249.587 Y209.681
G1 X249.537 Y209.935
G1 X249.527 Y210.249
G1 X249.475 Y210.518
G1 X249.479 Y210.827
G1 X249.434 Y211.118
G1 X249.404 Y211.443
G1 X249.410 Y211.717
G1 X249.381 Y212.035
G1 X249.401 Y212.314
G1 X249.416 Y212.584
G1 X249.403 Y212.911
G1 X249.410 Y213.233
G1 X249.413 Y213.507
G1 X249.417 Y213.791
G1 X249.429 Y214.103
G1 X249.441 Y214.390
G1 X249.446 Y214.699
G1 X249.446 Y215.023
G1 X249.462 Y215.294
G1 X249.464 Y215.572
G1 X249.475 Y215.890
G1 X249.504 Y216.172
G1 X249.480 Y216.487
; Path 322
G0 Z0
G0 X250.517 Y215.467
G0 Z2.2
G1 F3000
G1 X250.560 Y213.492
; Path 323
G0 Z0
G0 X249.504 Y213.508
G0 Z2.2
G1 F3000
G1 X249.522 Y211.503
; Path 324
G0 Z0
G0 X248.414 Y211.509
G0 Z2.2
G1 F3000
G1 X248.530 Y209.514
; Path 325
G0 Z0
G0 X250.433 Y209.497
G0 Z2.2
G1 F3000
G1 X250.600 Y207.515
; Path 326
G0 Z0
G0 X249.718 Y207.523
G0 Z2.2
G1 F3000
G1 X249.342 Y205.518
; Path 327
G0 Z0
G0 X248.774 Y205.464
G0 Z2.2
G1 F3000
G1 X248.173 Y203.523
; Path 328
G0 Z0
G0 X250.397 Y203.486
G0 Z2.2
G1 F3000
G1 X250.597 Y201.456
; Path 329
G0 Z0
G0 X250.331 Y201.494
G0 Z2.2
G1 F3000
G1 X250.634 Y199.518
; Path 330
G0 Z0
G0 X251.601 Y200.505
G0 Z2.2
G1 F3000
G1 X251.404 Y202.521
; Path 331
G0 Z0
G0 X251.542 Y202.464
G0 Z2.2
G1 F3000
G1 X251.520 Y204.482
; Path 332
G0 Z0
G0 X252.488 Y203.524
G0 Z2.2
G1 F3000
G1 X252.491 Y201.492
; Path 333
G0 Z0
G0 X252.518 Y200.541
G0 Z2.2
G1 F3000
G1 X252.424 Y202.548
; Path 334
G0 Z0
G0 X250.620 Y200.538
G0 Z2.2
G1 F3000
G1 X250.409 Y202.493
; Path 335
G0 Z0
G0 X249.153 Y201.425
G0 Z2.2
G1 F3000
G1 X249.757 Y199.531
; Path 336
G0 Z0
G0 X249.512 Y199.529
G0 Z2.2
G1 F3000
G1 X249.587 Y199.336
G1 X249.708 Y199.124
G1 X249.791 Y198.891
G1 X249.904 Y198.718
G1 X250.007 Y198.494
G1 X250.100 Y198.313
G1 X250.223 Y198.101
G1 X250.295 Y197.907
G1 X250.366 Y197.718
G1 X250.491 Y197.501
G1 X250.606 Y197.277
G1 X250.687 Y197.096
G1 X250.777 Y196.898
G1 X250.883 Y196.691
G1 X250.952 Y196.500
G1 X251.081 Y196.287
G1 X251.169 Y196.113
G1 X251.279 Y195.883
G1 X251.368 Y195.653
G1 X251.479 Y195.481
G1 X251.576 Y195.296
G1 X251.680 Y195.079
G1 X251.757 Y194.896
G1 X251.883 Y194.678
G1 X251.991 Y194.500
G1 X252.087 Y194.278
G1 X252.206 Y194.101
G1 X252.291 Y193.879
G1 X252.411 Y193.672
G1 X252.497 Y193.480
G1 X252.570 Y193.274
G1 X252.702 Y193.081
G1 X252.832 Y192.889
G1 X252.908 Y192.683
G1 X253.030 Y192.492
G1 X253.114 Y192.284
G1 X253.232 Y192.103
G1 X253.319 Y191.886
G1 X253.418 Y191.696
G1 X253.524 Y191.486
; Path 337
G0 Z0
G0 X255.496 Y190.505
G0 Z2.2
G1 F3000
G1 X256.521 Y190.475
G1 X257.495 Y190.474
; Path 338
G0 Z0
G0 X257.688 Y189.538
G0 Z2.2
G1 F3000
G1 X257.353 Y187.575
; Path 339
G0 Z0
G0 X257.665 Y187.468
G0 Z2.2
G1 F3000
G1 X257.325 Y185.500
; Path 340
G0 Z0
G0 X258.528 Y183.515
G0 Z2.2
G1 F3000
G1 X258.565 Y183.707
G1 X258.636 Y183.913
G1 X258.672 Y184.107
G1 X258.758 Y184.310
G1 X258.849 Y184.538
G1 X258.888 Y184.707
G1 X258.982 Y184.879
G1 X259.020 Y185.104
G1 X259.064 Y185.274
G1 X259.147 Y185.502
G1 X259.194 Y185.701
G1 X259.265 Y185.899
G1 X259.293 Y186.114
G1 X259.367 Y186.297
G1 X259.425 Y186.478
G1 X259.446 Y186.695
G1 X259.479 Y186.920
G1 X259.498 Y187.093
G1 X259.525 Y187.285
G1 X259.515 Y187.492
G1 X259.511 Y187.678
G1 X259.495 Y187.892
G1 X259.480 Y188.093
G1 X259.440 Y188.293
G1 X259.419 Y188.483
G1 X259.357 Y188.694
G1 X259.309 Y188.884
G1 X259.252 Y189.095
G1 X259.169 Y189.313
G1 X259.131 Y189.497
G1 X259.047 Y189.702
G1 X258.999 Y189.899
G1 X258.946 Y190.087
G1 X258.864 Y190.301
G1 X258.796 Y190.501
G1 X258.731 Y190.703
G1 X258.645 Y190.929
G1 X258.606 Y191.105
G1 X258.570 Y191.309
G1 X258.495 Y191.506
; Path 341
G0 Z0
G0 X258.528 Y191.495
G0 Z2.2
G1 F3000
G1 X257.188 Y191.484
G1 X255.830 Y191.482
G1 X254.515 Y191.506
; Path 342
G0 Z0
G0 X254.533 Y191.474
G0 Z2.2
G1 F3000
G1 X254.482 Y191.254
G1 X254.421 Y191.074
G1 X254.350 Y190.878
G1 X254.294 Y190.675
G1 X254.237 Y190.476
G1 X254.159 Y190.275
G1 X254.098 Y190.103
G1 X254.022 Y189.876
G1 X253.983 Y189.660
G1 X253.889 Y189.476
G1 X253.837 Y189.303
G1 X253.767 Y189.076
G1 X253.710 Y188.903
G1 X253.660 Y188.677
G1 X253.637 Y188.457
G1 X253.576 Y188.277
G1 X253.520 Y188.052
G1 X253.520 Y187.878
G1 X253.504 Y187.696
G1 X253.499 Y187.478
G1 X253.513 Y187.274
G1 X253.516 Y187.079
G1 X253.548 Y186.884
G1 X253.567 Y186.679
G1 X253.578 Y186.461
G1 X253.647 Y186.280
G1 X253.725 Y186.088
G1 X253.749 Y185.881
G1 X253.825 Y185.653
G1 X253.868 Y185.481
G1 X253.930 Y185.302
G1 X253.996 Y185.082
G1 X254.086 Y184.906
G1 X254.129 Y184.683
G1 X254.173 Y184.463
G1 X254.260 Y184.283
G1 X254.349 Y184.090
G1 X254.382 Y183.884
G1 X254.461 Y183.711
G1 X254.490 Y183.485
; Path 343
G0 Z0
G0 X255.353 Y185.495
G0 Z2.2
G1 F3000
G1 X255.633 Y187.482
; Path 344
G0 Z0
G0 X256.509 Y187.495
G0 Z2.2
G1 F3000
G1 X256.524 Y188.510
G1 X256.522 Y189.475
; Path 345
G0 Z0
G0 X254.502 Y184.750
G0 Z2.2
G1 F3000
G1 X252.566 Y184.220
; Path 346
G0 Z0
G0 X249.501 Y171.514
G0 Z2.2
G1 F3000
G1 X249.528 Y173.237
G1 X249.468 Y174.993
G1 X249.521 Y176.738
G1 X249.493 Y178.507
; Path 347
G0 Z0
G0 X245.330 Y175.119
G0 Z2.2
G1 F3000
G1 X243.717 Y173.921
; Path 348
G0 Z0
G0 X244.531 Y173.160
G0 Z2.2
G1 F3000
G1 X246.454 Y173.868
; Path 349
G0 Z0
G0 X244.491 Y172.757
G0 Z2.2
G1 F3000
G1 X242.550 Y172.162
; Path 350
G0 Z0
G0 X241.504 Y173.525
G0 Z2.2
G1 F3000
G1 X240.488 Y174.502
G1 X239.505 Y175.500
; Path 351
G0 Z0
G0 X241.493 Y176.500
G0 Z2.2
G1 F3000
G1 X241.469 Y174.761
G1 X241.513 Y172.999
G1 X241.471 Y171.251
G1 X241.501 Y169.498
; Path 352
G0 Z0
G0 X242.482 Y169.495
G0 Z2.2
G1 F3000
G1 X242.467 Y167.807
G1 X242.461 Y166.188
G1 X242.485 Y164.499
; Path 353
G0 Z0
G0 X245.495 Y165.496
G0 Z2.2
G1 F3000
G1 X245.163 Y166.835
G1 X244.848 Y168.184
G1 X244.489 Y169.499
; Path 354
G0 Z0
G0 X246.493 Y170.530
G0 Z2.2
G1 F3000
G1 X247.025 Y169.006
G1 X247.504 Y167.526
; Path 355
G0 Z0
G0 X250.534 Y171.484
G0 Z2.2
G1 F3000
G1 X249.551 Y172.007
G1 X248.526 Y172.484
; Path 356
G0 Z0
G0 X249.520 Y174.525
G0 Z2.2
G1 F3000
G1 X249.324 Y174.403
G1 X249.116 Y174.315
G1 X248.942 Y174.229
G1 X248.710 Y174.097
G1 X248.492 Y173.993
G1 X248.305 Y173.875
G1 X248.107 Y173.792
G1 X247.899 Y173.653
G1 X247.690 Y173.534
G1 X247.494 Y173.432
G1 X247.295 Y173.316
G1 X247.089 Y173.217
G1 X246.896 Y173.084
G1 X246.684 Y173.010
G1 X246.461 Y172.917
G1 X246.281 Y172.815
G1 X246.096 Y172.698
G1 X245.878 Y172.635
G1 X245.653 Y172.526
G1 X245.476 Y172.474
G1 X245.284 Y172.406
G1 X245.076 Y172.333
G1 X244.882 Y172.274
G1 X244.678 Y172.210
G1 X244.482 Y172.129
G1 X244.280 Y172.102
G1 X244.102 Y172.027
G1 X243.883 Y172.006
G1 X243.669 Y171.967
G1 X243.486 Y171.919
G1 X243.272 Y171.851
G1 X243.090 Y171.837
G1 X242.907 Y171.803
G1 X242.694 Y171.757
G1 X242.502 Y171.720
G1 X242.298 Y171.676
G1 X242.095 Y171.611
G1 X241.902 Y171.591
G1 X241.730 Y171.570
G1 X241.505 Y171.498
; Path 357
G0 Z0
G0 X241.509 Y171.491
G0 Z2.2
G1 F3000
G1 X241.115 Y171.312
G1 X240.705 Y171.187
G1 X240.276 Y171.050
G1 X239.895 Y170.876
G1 X239.498 Y170.741
G1 X239.080 Y170.562
G1 X238.690 Y170.401
G1 X238.265 Y170.246
G1 X237.881 Y170.065
G1 X237.451 Y169.932
G1 X237.064 Y169.763
G1 X236.643 Y169.623
G1 X236.232 Y169.448
G1 X235.842 Y169.322
G1 X235.428 Y169.155
G1 X235.052 Y169.032
G1 X234.657 Y168.910
G1 X234.276 Y168.757
G1 X233.912 Y168.637
G1 X233.517 Y168.498
G1 X233.134 Y168.404
G1 X232.777 Y168.258
G1 X232.437 Y168.136
G1 X232.053 Y168.036
G1 X231.678 Y167.920
G1 X231.344 Y167.827
G1 X231.009 Y167.745
G1 X230.645 Y167.629
G1 X230.300 Y167.549
G1 X229.954 Y167.440
G1 X229.613 Y167.356
G1 X229.269 Y167.255
G1 X228.955 Y167.170
G1 X228.585 Y167.073
G1 X228.256 Y166.961
G1 X227.900 Y166.889
G1 X227.549 Y166.817
G1 X227.211 Y166.702
G1 X226.887 Y166.593
G1 X226.515 Y166.507
; Path 358
G0 Z0
G0 X226.505 Y166.491
G0 Z2.2
G1 F3000
G1 X225.728 Y165.982
G1 X224.981 Y165.470
G1 X224.215 Y164.947
G1 X223.422 Y164.413
G1 X222.613 Y163.867
G1 X221.843 Y163.337
G1 X221.075 Y162.776
G1 X220.258 Y162.256
G1 X219.450 Y161.702
G1 X218.684 Y161.185
G1 X217.924 Y160.672
G1 X217.135 Y160.138
G1 X216.392 Y159.650
G1 X215.626 Y159.132
G1 X214.891 Y158.666
G1 X214.173 Y158.181
G1 X213.456 Y157.749
G1 X212.791 Y157.300
G1 X212.127 Y156.912
G1 X211.494 Y156.504
G1 X210.910 Y156.139
G1 X210.294 Y155.804
G1 X209.759 Y155.468
G1 X209.179 Y155.188
G1 X208.645 Y154.901
G1 X208.135 Y154.643
G1 X207.641 Y154.393
G1 X207.147 Y154.152
G1 X206.648 Y153.926
G1 X206.199 Y153.702
G1 X205.735 Y153.460
G1 X205.276 Y153.277
G1 X204.818 Y153.073
G1 X204.363 Y152.862
G1 X203.881 Y152.673
G1 X203.446 Y152.441
G1 X202.956 Y152.238
G1 X202.508 Y152.001
G1 X202.019 Y151.744
G1 X201.535 Y151.526
; Path 359
G0 Z0
G0 X221.017 Y139.614
G0 Z2.2
G1 F3000
G1 X221.970 Y141.412
; Path 360
G0 Z0
G0 X226.963 Y139.433
G0 Z2.2
G1 F3000
G1 X226.090 Y137.616
; Path 361
G0 Z0
G0 X231.121 Y135.543
G0 Z2.2
G1 F3000
G1 X231.935 Y137.384
; Path 362
G0 Z0
G0 X236.057 Y145.614
G0 Z2.2
G1 F3000
G1 X237.004 Y147.363
; Path 363
G0 Z0
G0 X232.048 Y149.358
G0 Z2.2
G1 F3000
G1 X230.991 Y147.626
; Path 364
G0 Z0
G0 X227.115 Y151.324
G0 Z2.2
G1 F3000
G1 X225.931 Y149.669
; Path 365
G0 Z0
G0 X221.482 Y163.491
G0 Z2.2
G1 F3000
G1 X221.816 Y165.154
G1 X222.175 Y166.848
G1 X222.478 Y168.532
; Path 366
G0 Z0
G0 X217.481 Y166.474
G0 Z2.2
G1 F3000
G1 X217.269 Y164.996
G1 X216.983 Y163.456
G1 X216.731 Y162.007
G1 X216.516 Y160.482
; Path 367
G0 Z0
G0 X214.090 Y162.330
G0 Z2.2
G1 F3000
G1 X212.876 Y160.707
; Path 368
G0 Z0
G0 X214.025 Y162.645
G0 Z2.2
G1 F3000
G1 X215.018 Y164.410
; Path 369
G0 Z0
G0 X215.118 Y164.543
G0 Z2.2
G1 F3000
G1 X215.887 Y166.404
; Path 370
G0 Z0
G0 X211.505 Y163.525
G0 Z2.2
G1 F3000
G1 X211.038 Y161.746
G1 X210.494 Y160.010
G1 X210.032 Y158.241
G1 X209.521 Y156.483
; Path 371
G0 Z0
G0 X207.079 Y159.303
G0 Z2.2
G1 F3000
G1 X205.879 Y157.714
; Path 372
G0 Z0
G0 X206.997 Y159.623
G0 Z2.2
G1 F3000
G1 X208.018 Y161.313
; Path 373
G0 Z0
G0 X208.070 Y161.618
G0 Z2.2
G1 F3000
G1 X208.930 Y163.393
; Path 374
G0 Z0
G0 X203.320 Y174.522
G0 Z2.2
G1 F3000
G1 X203.632 Y176.469
; Path 375
G0 Z0
G0 X192.426 Y190.463
G0 Z2.2
G1 F3000
G1 X192.525 Y192.505
; Path 376
G0 Z0
G0 X194.439 Y192.529
G0 Z2.2
G1 F3000
G1 X194.538 Y194.515
; Path 377
G0 Z0
G0 X196.437 Y194.494
G0 Z2.2
G1 F3000
G1 X196.590 Y196.503
; Path 378
G0 Z0
G0 X180.464 Y196.522
G0 Z2.2
G1 F3000
G1 X180.584 Y194.505
; Path 379
G0 Z0
G0 X179.552 Y194.467
G0 Z2.2
G1 F3000
G1 X179.411 Y196.460
; Path 380
G0 Z0
G0 X178.467 Y194.500
G0 Z2.2
G1 F3000
G1 X178.509 Y192.503
; Path 381
G0 Z0
G0 X177.505 Y192.504
G0 Z2.2
G1 F3000
G1 X177.538 Y190.524
; Path 382
G0 Z0
G0 X176.480 Y190.479
G0 Z2.2
G1 F3000
G1 X176.446 Y192.474
; Path 383
G0 Z0
G0 X179.453 Y186.535
G0 Z2.2
G1 F3000
G1 X179.546 Y184.520
; Path 384
G0 Z0
G0 X178.506 Y184.466
G0 Z2.2
G1 F3000
G1 X178.519 Y182.512
; Path 385
G0 Z0
G0 X177.499 Y182.515
G0 Z2.2
G1 F3000
G1 X177.510 Y180.530
; Path 386
G0 Z0
G0 X199.380 Y175.507
G0 Z2.2
G1 F3000
G1 X199.548 Y177.527
; Path 387
G0 Z0
G0 X201.670 Y174.488
G0 Z2.2
G1 F3000
G1 X201.358 Y172.543
; Path 388
G0 Z0
G0 X199.618 Y172.466
G0 Z2.2
G1 F3000
G1 X199.334 Y170.528
; Path 389
G0 Z0
G0 X197.517 Y167.464
G0 Z2.2
G1 F3000
G1 X197.479 Y165.464
; Path 390
G0 Z0
G0 X203.523 Y154.519
G0 Z2.2
G1 F3000
G1 X204.109 Y154.664
G1 X204.743 Y154.806
G1 X205.368 Y154.972
G1 X205.998 Y155.078
G1 X206.626 Y155.188
G1 X207.272 Y155.342
G1 X207.895 Y155.492
G1 X208.552 Y155.604
G1 X209.174 Y155.737
G1 X209.821 Y155.870
G1 X210.449 Y156.027
G1 X211.066 Y156.146
G1 X211.652 Y156.292
G1 X212.271 Y156.439
G1 X212.852 Y156.609
G1 X213.422 Y156.754
G1 X213.959 Y156.948
G1 X214.504 Y157.099
G1 X214.977 Y157.308
G1 X215.501 Y157.479
G1 X215.970 Y157.718
G1 X216.410 Y157.903
G1 X216.799 Y158.149
G1 X217.242 Y158.370
G1 X217.652 Y158.610
G1 X218.009 Y158.870
G1 X218.348 Y159.148
G1 X218.722 Y159.394
G1 X219.039 Y159.693
G1 X219.394 Y159.933
G1 X219.692 Y160.203
G1 X220.036 Y160.476
G1 X220.342 Y160.733
G1 X220.660 Y161.015
G1 X220.959 Y161.254
G1 X221.276 Y161.541
G1 X221.577 Y161.799
G1 X221.897 Y162.043
G1 X222.236 Y162.270
G1 X222.534 Y162.512
G1 X222.851 Y162.721
G1 X223.173 Y162.952
G1 X223.506 Y163.148
G1 X223.794 Y163.374
G1 X224.076 Y163.591
G1 X224.399 Y163.781
G1 X224.712 Y163.952
G1 X224.993 Y164.176
G1 X225.256 Y164.369
G1 X225.578 Y164.562
G1 X225.890 Y164.736
G1 X226.157 Y164.944
G1 X226.419 Y165.142
G1 X226.734 Y165.323
G1 X227.025 Y165.542
G1 X227.313 Y165.703
G1 X227.578 Y165.884
G1 X227.896 Y166.087
G1 X228.182 Y166.266
G1 X228.486 Y166.479
; Path 391
G0 Z0
G0 X226.514 Y164.527
G0 Z2.2
G1 F3000
G1 X226.194 Y164.283
G1 X225.820 Y164.022
G1 X225.447 Y163.744
G1 X225.133 Y163.517
G1 X224.777 Y163.243
G1 X224.450 Y163.012
G1 X224.082 Y162.789
G1 X223.768 Y162.506
G1 X223.408 Y162.261
G1 X223.084 Y162.001
G1 X222.723 Y161.767
G1 X222.394 Y161.495
G1 X222.048 Y161.250
G1 X221.697 Y160.991
G1 X221.349 Y160.735
G1 X220.988 Y160.487
G1 X220.646 Y160.250
G1 X220.265 Y159.984
G1 X219.915 Y159.762
G1 X219.525 Y159.481
G1 X219.177 Y159.214
G1 X218.782 Y158.967
G1 X218.413 Y158.718
G1 X218.051 Y158.432
G1 X217.677 Y158.152
G1 X217.321 Y157.886
G1 X216.958 Y157.625
G1 X216.583 Y157.338
G1 X216.177 Y157.086
G1 X215.829 Y156.797
G1 X215.466 Y156.548
G1 X215.051 Y156.270
G1 X214.651 Y156.030
G1 X214.238 Y155.768
G1 X213.791 Y155.522
G1 X213.383 Y155.298
G1 X212.953 Y155.057
G1 X212.477 Y154.871
G1 X211.969 Y154.687
G1 X211.510 Y154.494
G1 X210.973 Y154.314
G1 X210.472 Y154.173
G1 X209.891 Y154.059
G1 X209.367 Y153.904
G1 X208.766 Y153.791
G1 X208.206 Y153.676
G1 X207.586 Y153.606
G1 X207.001 Y153.481
G1 X206.411 Y153.401
G1 X205.765 Y153.311
G1 X205.156 Y153.262
G1 X204.508 Y153.155
G1 X203.894 Y153.096
G1 X203.244 Y153.005
G1 X202.590 Y152.927
G1 X201.984 Y152.853
G1 X201.338 Y152.741
G1 X200.739 Y152.688
G1 X200.149 Y152.612
G1 X199.523 Y152.503
; Path 392
G0 Z0
G0 X195.671 Y157.453
G0 Z2.2
G1 F3000
G1 X195.329 Y155.510
; Path 393
G0 Z0
G0 X193.736 Y152.450
G0 Z2.2
G1 F3000
G1 X193.263 Y150.536
; Path 394
G0 Z0
G0 X196.526 Y146.501
G0 Z2.2
G1 F3000
G1 X196.565 Y148.047
G1 X196.621 Y149.544
G1 X196.688 Y151.095
G1 X196.715 Y152.656
G1 X196.775 Y154.242
G1 X196.810 Y155.808
G1 X196.849 Y157.361
G1 X196.904 Y158.970
G1 X196.978 Y160.522
G1 X196.998 Y162.112
G1 X197.020 Y163.651
G1 X197.093 Y165.205
G1 X197.136 Y166.701
G1 X197.188 Y168.217
G1 X197.232 Y169.640
G1 X197.284 Y171.120
G1 X197.333 Y172.473
G1 X197.382 Y173.884
G1 X197.445 Y175.209
G1 X197.481 Y176.478
G1 X197.546 Y177.698
G1 X197.587 Y178.883
G1 X197.622 Y180.027
G1 X197.702 Y181.118
G1 X197.789 Y182.174
G1 X197.823 Y183.214
G1 X197.858 Y184.184
G1 X197.945 Y185.200
G1 X198.026 Y186.167
G1 X198.066 Y187.107
G1 X198.126 Y188.039
G1 X198.182 Y188.964
G1 X198.262 Y189.863
G1 X198.290 Y190.801
G1 X198.354 Y191.709
G1 X198.386 Y192.649
G1 X198.435 Y193.583
G1 X198.466 Y194.536
G1 X198.501 Y195.540
G1 X198.528 Y196.494
G1 X198.536 Y197.517
G1 X198.568 Y198.496
G1 X198.566 Y199.516
G1 X198.591 Y200.499
G1 X198.571 Y201.516
G1 X198.598 Y202.503
G1 X198.595 Y203.479
G1 X198.594 Y204.506
G1 X198.565 Y205.491
G1 X198.581 Y206.510
G1 X198.600 Y207.483
G1 X198.562 Y208.514
G1 X198.582 Y209.504
G1 X198.542 Y210.518
G1 X198.527 Y211.503
G1 X198.522 Y212.522
G1 X198.538 Y213.502
G1 X198.507 Y214.526
G1 X198.510 Y215.538
G1 X198.499 Y216.529
; Path 395
G0 Z0
G0 X206.458 Y234.528
G0 Z2.2
G1 F3000
G1 X206.547 Y232.523
; Path 396
G0 Z0
G0 X210.931 Y233.363
G0 Z2.2
G1 F3000
G1 X212.050 Y231.672
; Path 397
G0 Z0
G0 X215.568 Y231.849
G0 Z2.2
G1 F3000
G1 X217.467 Y231.111
; Path 398
G0 Z0
G0 X220.904 Y234.328
G0 Z2.2
G1 F3000
G1 X222.093 Y232.679
; Path 399
G0 Z0
G0 X225.664 Y233.061
G0 Z2.2
G1 F3000
G1 X227.406 Y232.027
; Path 400
G0 Z0
G0 X230.477 Y231.690
G0 Z2.2
G1 F3000
G1 X232.477 Y231.291
; Path 401
G0 Z0
G0 X236.530 Y231.503
G0 Z2.2
G1 F3000
G1 X236.511 Y229.496
G1 X236.540 Y227.484
G1 X236.551 Y225.524
G1 X236.544 Y223.502
G1 X236.520 Y221.522
; Path 402
G0 Z0
G0 X237.522 Y224.457
G0 Z2.2
G1 F3000
G1 X237.528 Y222.500
; Path 403
G0 Z0
G0 X238.493 Y221.518
G0 Z2.2
G1 F3000
G1 X238.495 Y223.187
G1 X238.507 Y224.841
G1 X238.515 Y226.530
G1 X238.512 Y228.182
G1 X238.491 Y229.864
G1 X238.524 Y231.527
; Path 404
G0 Z0
G0 X240.509 Y229.796
G0 Z2.2
G1 F3000
G1 X242.439 Y229.126
; Path 405
G0 Z0
G0 X246.530 Y226.522
G0 Z2.2
G1 F3000
G1 X246.523 Y224.828
G1 X246.537 Y223.162
G1 X246.544 Y221.490
G1 X246.498 Y219.853
G1 X246.509 Y218.148
G1 X246.522 Y216.479
; Path 406
G0 Z0
G0 X247.479 Y217.478
G0 Z2.2
G1 F3000
G1 X247.506 Y219.462
; Path 407
G0 Z0
G0 X247.550 Y219.539
G0 Z2.2
G1 F3000
G1 X247.553 Y221.524
; Path 408
G0 Z0
G0 X248.491 Y216.533
G0 Z2.2
G1 F3000
G1 X248.506 Y218.553
G1 X248.496 Y220.524
G1 X248.511 Y222.494
G1 X248.511 Y224.522
G1 X248.530 Y226.488
; Path 409
G0 Z0
G0 X262.497 Y231.536
G0 Z2.2
G1 F3000
G1 X260.521 Y231.535
; Path 410
G0 Z0
G0 X264.501 Y216.502
G0 Z2.2
G1 F3000
G1 X265.869 Y215.166
G1 X267.214 Y213.865
G1 X268.529 Y212.504
; Path 411
G0 Z0
G0 X266.483 Y209.503
G0 Z2.2
G1 F3000
G1 X266.518 Y209.380
G1 X266.588 Y209.303
G1 X266.631 Y209.218
G1 X266.693 Y209.104
G1 X266.734 Y209.008
G1 X266.799 Y208.905
G1 X266.876 Y208.833
G1 X266.905 Y208.706
G1 X266.945 Y208.577
G1 X267.010 Y208.507
G1 X267.048 Y208.378
G1 X267.115 Y208.308
G1 X267.158 Y208.203
G1 X267.220 Y208.109
G1 X267.297 Y208.004
G1 X267.323 Y207.909
G1 X267.400 Y207.810
G1 X267.426 Y207.709
G1 X267.451 Y207.590
G1 X267.527 Y207.510
G1 X267.558 Y207.387
G1 X267.626 Y207.309
G1 X267.688 Y207.191
G1 X267.724 Y207.109
G1 X267.789 Y206.982
G1 X267.820 Y206.908
G1 X267.875 Y206.781
G1 X267.916 Y206.708
G1 X267.964 Y206.636
G1 X268.011 Y206.507
G1 X268.060 Y206.403
G1 X268.105 Y206.306
G1 X268.179 Y206.212
G1 X268.200 Y206.105
G1 X268.266 Y205.981
G1 X268.294 Y205.904
G1 X268.366 Y205.815
G1 X268.389 Y205.703
G1 X268.443 Y205.607
G1 X268.484 Y205.502
; Path 412
G0 Z0
G0 X269.482 Y204.488
G0 Z2.2
G1 F3000
G1 X269.447 Y204.639
G1 X269.372 Y204.788
G1 X269.328 Y204.960
G1 X269.248 Y205.089
G1 X269.197 Y205.255
G1 X269.116 Y205.389
G1 X269.042 Y205.545
G1 X268.981 Y205.690
G1 X268.887 Y205.856
G1 X268.851 Y205.990
G1 X268.808 Y206.143
G1 X268.731 Y206.291
G1 X268.706 Y206.443
G1 X268.627 Y206.591
G1 X268.615 Y206.757
G1 X268.545 Y206.892
G1 X268.508 Y207.059
G1 X268.493 Y207.193
G1 X268.492 Y207.330
G1 X268.475 Y207.495
G1 X268.459 Y207.636
G1 X268.496 Y207.796
G1 X268.512 Y207.949
G1 X268.551 Y208.098
G1 X268.573 Y208.258
G1 X268.636 Y208.400
G1 X268.661 Y208.555
G1 X268.743 Y208.703
G1 X268.788 Y208.857
G1 X268.866 Y209.005
G1 X268.937 Y209.159
G1 X268.999 Y209.308
G1 X269.038 Y209.473
G1 X269.137 Y209.610
G1 X269.182 Y209.765
G1 X269.272 Y209.913
G1 X269.343 Y210.065
G1 X269.399 Y210.215
G1 X269.432 Y210.365
G1 X269.512 Y210.518
; Path 413
G0 Z0
G0 X269.520 Y210.516
G0 Z2.2
G1 F3000
G1 X271.535 Y210.533
G1 X273.519 Y210.513
; Path 414
G0 Z0
G0 X273.528 Y210.506
G0 Z2.2
G1 F3000
G1 X273.581 Y210.386
G1 X273.631 Y210.206
G1 X273.706 Y210.047
G1 X273.748 Y209.906
G1 X273.824 Y209.740
G1 X273.873 Y209.606
G1 X273.957 Y209.460
G1 X273.999 Y209.307
G1 X274.062 Y209.170
G1 X274.122 Y209.007
G1 X274.164 Y208.883
G1 X274.235 Y208.707
G1 X274.309 Y208.577
G1 X274.333 Y208.407
G1 X274.394 Y208.247
G1 X274.410 Y208.107
G1 X274.441 Y207.986
G1 X274.460 Y207.807
G1 X274.444 Y207.644
G1 X274.477 Y207.506
G1 X274.471 Y207.359
G1 X274.458 Y207.206
G1 X274.442 Y207.071
G1 X274.406 Y206.905
G1 X274.365 Y206.778
G1 X274.328 Y206.604
G1 X274.283 Y206.440
G1 X274.229 Y206.303
G1 X274.174 Y206.134
G1 X274.114 Y206.002
G1 X274.059 Y205.837
G1 X273.990 Y205.701
G1 X273.946 Y205.564
G1 X273.862 Y205.400
G1 X273.821 Y205.257
G1 X273.736 Y205.099
G1 X273.654 Y204.961
G1 X273.617 Y204.798
G1 X273.570 Y204.648
G1 X273.512 Y204.497
; Path 415
G0 Z0
G0 X275.592 Y202.530
G0 Z2.2
G1 F3000
G1 X275.433 Y204.489
; Path 416
G0 Z0
G0 X276.388 Y204.535
G0 Z2.2
G1 F3000
G1 X276.629 Y206.500
; Path 417
G0 Z0
G0 X277.277 Y206.493
G0 Z2.2
G1 F3000
G1 X277.748 Y208.444
; Path 418
G0 Z0
G0 X276.484 Y209.524
G0 Z2.2
G1 F3000
G1 X276.458 Y209.441
G1 X276.388 Y209.322
G1 X276.312 Y209.226
G1 X276.292 Y209.119
G1 X276.234 Y209.018
G1 X276.195 Y208.917
G1 X276.141 Y208.846
G1 X276.099 Y208.715
G1 X276.036 Y208.603
G1 X276.003 Y208.512
G1 X275.933 Y208.396
G1 X275.906 Y208.310
G1 X275.877 Y208.220
G1 X275.810 Y208.107
G1 X275.783 Y208.011
G1 X275.713 Y207.905
G1 X275.664 Y207.819
G1 X275.616 Y207.703
G1 X275.578 Y207.577
G1 X275.518 Y207.501
G1 X275.494 Y207.427
G1 X275.420 Y207.299
G1 X275.397 Y207.186
G1 X275.322 Y207.097
G1 X275.270 Y207.001
G1 X275.223 Y206.895
G1 X275.201 Y206.823
G1 X275.124 Y206.694
G1 X275.097 Y206.591
G1 X275.025 Y206.492
G1 X274.994 Y206.404
G1 X274.926 Y206.291
G1 X274.888 Y206.167
G1 X274.827 Y206.089
G1 X274.795 Y205.971
G1 X274.728 Y205.887
G1 X274.654 Y205.759
G1 X274.628 Y205.686
G1 X274.585 Y205.602
G1 X274.529 Y205.484
; Path 419
G0 Z0
G0 X271.527 Y210.502
G0 Z2.2
G1 F3000
G1 X271.510 Y212.484
G1 X271.501 Y214.475
G1 X271.517 Y216.506
G1 X271.523 Y218.508
G1 X271.490 Y220.479
G1 X271.469 Y222.505
G1 X271.480 Y224.501
G1 X271.482 Y226.493
; Path 420
G0 Z0
G0 X280.509 Y233.458
G0 Z2.2
G1 F3000
G1 X282.539 Y233.579
; Path 421
G0 Z0
G0 X304.475 Y236.528
G0 Z2.2
G1 F3000
G1 X304.458 Y234.565
G1 X304.504 Y232.545
G1 X304.485 Y230.572
G1 X304.485 Y228.608
G1 X304.490 Y226.591
G1 X304.450 Y224.636
G1 X304.464 Y222.601
G1 X304.503 Y220.659
G1 X304.475 Y218.626
G1 X304.497 Y216.655
G1 X304.464 Y214.674
G1 X304.485 Y212.724
G1 X304.464 Y210.710
G1 X304.459 Y208.715
G1 X304.484 Y206.748
G1 X304.448 Y204.776
G1 X304.471 Y202.780
G1 X304.477 Y200.778
G1 X304.483 Y198.767
G1 X304.484 Y196.836
G1 X304.475 Y194.811
G1 X304.467 Y192.814
G1 X304.485 Y190.872
G1 X304.500 Y188.840
G1 X304.483 Y186.906
G1 X304.468 Y184.897
G1 X304.463 Y182.889
G1 X304.449 Y180.904
G1 X304.494 Y178.934
G1 X304.469 Y176.930
G1 X304.497 Y174.973
G1 X304.490 Y173.002
G1 X304.460 Y171.011
G1 X304.490 Y169.034
G1 X304.479 Y167.041
G1 X304.454 Y165.036
G1 X304.465 Y163.033
G1 X304.454 Y161.042
G1 X304.493 Y159.047
G1 X304.506 Y157.072
G1 X304.495 Y155.099
G1 X304.504 Y153.127
G1 X304.508 Y151.132
G1 X304.503 Y149.123
G1 X304.458 Y147.134
G1 X304.491 Y145.172
G1 X304.500 Y143.200
G1 X304.475 Y141.175
G1 X304.466 Y139.192
G1 X304.479 Y137.252
G1 X304.470 Y135.258
G1 X304.458 Y133.255
G1 X304.500 Y131.270
G1 X304.485 Y129.302
G1 X304.493 Y127.294
G1 X304.453 Y125.319
G1 X304.500 Y123.308
G1 X304.485 Y121.344
G1 X304.470 Y119.337
G1 X304.465 Y117.366
G1 X304.458 Y115.409
G1 X304.470 Y113.419
G1 X304.507 Y111.410
G1 X304.452 Y109.424
G1 X304.502 Y107.437
G1 X304.453 Y105.433
G1 X304.488 Y103.491
G1 X304.481 Y101.483
; Path 422
G0 Z0
G0 X303.484 Y101.529
G0 Z2.2
G1 F3000
G1 X303.537 Y103.513
G1 X303.603 Y105.527
G1 X303.623 Y107.482
G1 X303.664 Y109.471
G1 X303.709 Y111.456
G1 X303.766 Y113.470
G1 X303.785 Y115.452
G1 X303.829 Y117.391
G1 X303.906 Y119.371
G1 X303.921 Y121.367
G1 X303.963 Y123.354
G1 X303.993 Y125.364
G1 X304.077 Y127.333
G1 X304.110 Y129.308
G1 X304.129 Y131.296
G1 X304.186 Y133.279
G1 X304.265 Y135.309
G1 X304.266 Y137.290
G1 X304.326 Y139.239
G1 X304.359 Y141.220
G1 X304.402 Y143.218
G1 X304.487 Y145.223
G1 X304.481 Y147.188
G1 X304.557 Y149.188
G1 X304.596 Y151.161
G1 X304.668 Y153.125
G1 X304.675 Y155.138
G1 X304.744 Y157.090
G1 X304.756 Y159.098
G1 X304.792 Y161.100
G1 X304.876 Y163.055
G1 X304.929 Y165.070
G1 X304.950 Y167.051
G1 X304.986 Y169.048
G1 X305.050 Y170.994
G1 X305.088 Y173.012
G1 X305.145 Y174.981
G1 X305.170 Y176.980
G1 X305.242 Y178.939
G1 X305.286 Y180.960
G1 X305.294 Y182.929
G1 X305.346 Y184.924
G1 X305.380 Y186.871
G1 X305.417 Y188.871
G1 X305.462 Y190.878
G1 X305.512 Y192.867
G1 X305.603 Y194.858
G1 X305.631 Y196.814
G1 X305.690 Y198.800
G1 X305.739 Y200.782
G1 X305.726 Y202.751
G1 X305.808 Y204.755
G1 X305.818 Y206.770
G1 X305.881 Y208.749
G1 X305.958 Y210.698
G1 X305.968 Y212.682
G1 X306.033 Y214.664
G1 X306.076 Y216.672
G1 X306.089 Y218.690
G1 X306.133 Y220.664
G1 X306.222 Y222.662
G1 X306.254 Y224.632
G1 X306.268 Y226.590
G1 X306.308 Y228.612
G1 X306.386 Y230.575
G1 X306.445 Y232.534
G1 X306.466 Y234.571
G1 X306.513 Y236.531
; Path 423
G0 Z0
G0 X306.523 Y233.505
G0 Z2.2
G1 F3000
G1 X306.468 Y231.485
; Path 424
G0 Z0
G0 X307.750 Y233.899
G0 Z2.2
G1 F3000
G1 X309.286 Y235.177
; Path 425
G0 Z0
G0 X309.505 Y236.379
G0 Z2.2
G1 F3000
G1 X311.542 Y236.540
; Path 426
G0 Z0
G0 X311.523 Y236.526
G0 Z2.2
G1 F3000
G1 X310.049 Y236.372
G1 X308.514 Y236.256
G1 X307.030 Y236.170
G1 X305.540 Y236.025
G1 X303.550 Y235.839
G1 X301.555 Y235.701
G1 X299.593 Y235.524
G1 X297.643 Y235.341
G1 X295.645 Y235.215
G1 X293.665 Y235.023
G1 X291.685 Y234.882
G1 X289.724 Y234.667
G1 X287.742 Y234.522
G1 X285.738 Y234.379
G1 X283.805 Y234.214
G1 X281.809 Y234.021
G1 X279.807 Y233.877
G1 X277.811 Y233.676
G1 X275.852 Y233.520
G1 X274.341 Y233.368
G1 X272.834 Y233.248
G1 X271.327 Y233.151
G1 X269.855 Y233.019
G1 X268.335 Y232.922
G1 X266.826 Y232.775
G1 X265.302 Y232.655
G1 X263.803 Y232.517
G1 X262.255 Y232.382
G1 X260.748 Y232.293
G1 X259.199 Y232.131
G1 X257.683 Y232.016
G1 X256.107 Y231.887
G1 X254.585 Y231.777
G1 X253.046 Y231.669
G1 X251.478 Y231.515
G1 X249.879 Y231.412
G1 X248.340 Y231.287
G1 X246.749 Y231.130
G1 X245.179 Y231.013
G1 X243.611 Y230.906
G1 X242.013 Y230.734
G1 X240.400 Y230.634
G1 X238.797 Y230.512
G1 X237.162 Y230.360
G1 X235.552 Y230.286
G1 X233.977 Y230.144
G1 X232.345 Y230.010
G1 X230.738 Y229.863
G1 X229.112 Y229.766
G1 X227.436 Y229.648
G1 X225.838 Y229.508
G1 X224.197 Y229.397
G1 X222.542 Y229.267
G1 X220.908 Y229.147
G1 X219.292 Y229.007
G1 X217.632 Y228.869
G1 X216.017 Y228.731
G1 X214.366 Y228.607
G1 X212.722 Y228.505
G1 X211.052 Y228.363
G1 X209.459 Y228.276
G1 X207.805 Y228.110
G1 X206.141 Y228.003
G1 X204.500 Y227.854
G1 X202.876 Y227.767
G1 X201.190 Y227.613
G1 X199.566 Y227.501
G1 X197.931 Y227.360
G1 X196.312 Y227.250
G1 X194.664 Y227.151
G1 X193.010 Y226.999
G1 X191.364 Y226.897
G1 X189.733 Y226.775
G1 X188.112 Y226.627
G1 X186.489 Y226.498
; Path 427
G0 Z0
G0 X186.490 Y226.528
G0 Z2.2
G1 F3000
G1 X184.837 Y226.665
G1 X183.232 Y226.750
G1 X181.612 Y226.892
G1 X179.973 Y227.024
G1 X178.309 Y227.157
G1 X176.710 Y227.285
G1 X175.070 Y227.420
G1 X173.421 Y227.519
G1 X171.776 Y227.618
G1 X170.143 Y227.775
G1 X168.501 Y227.861
G1 X166.849 Y228.014
G1 X165.218 Y228.115
G1 X163.567 Y228.265
G1 X161.897 Y228.363
G1 X160.272 Y228.510
G1 X158.613 Y228.616
G1 X157.004 Y228.781
G1 X155.375 Y228.866
G1 X153.705 Y229.005
G1 X152.068 Y229.109
G1 X150.415 Y229.237
G1 X148.816 Y229.387
G1 X147.163 Y229.500
G1 X145.522 Y229.609
G1 X143.920 Y229.740
G1 X142.301 Y229.887
G1 X140.660 Y229.996
G1 X139.058 Y230.123
G1 X137.415 Y230.246
G1 X135.810 Y230.370
G1 X134.211 Y230.493
G1 X132.631 Y230.629
G1 X131.001 Y230.770
G1 X129.416 Y230.856
G1 X127.831 Y230.990
G1 X126.243 Y231.106
G1 X124.706 Y231.230
G1 X123.086 Y231.343
G1 X121.534 Y231.488
G1 X119.990 Y231.598
G1 X118.438 Y231.729
G1 X116.857 Y231.889
G1 X115.331 Y231.987
G1 X113.798 Y232.114
G1 X112.258 Y232.210
G1 X110.739 Y232.351
G1 X109.211 Y232.487
G1 X107.670 Y232.601
G1 X106.167 Y232.750
G1 X104.702 Y232.862
G1 X103.160 Y232.987
G1 X101.690 Y233.119
G1 X100.184 Y233.262
G1 X98.690 Y233.350
G1 X97.162 Y233.488
G1 X95.156 Y233.673
G1 X93.173 Y233.819
G1 X91.204 Y233.990
G1 X89.242 Y234.185
G1 X87.229 Y234.338
G1 X85.271 Y234.492
G1 X83.287 Y234.681
G1 X81.296 Y234.834
G1 X79.347 Y234.994
G1 X77.373 Y235.143
G1 X75.422 Y235.326
G1 X73.419 Y235.496
G1 X71.451 Y235.648
G1 X69.465 Y235.835
G1 X67.471 Y235.997
G1 X65.970 Y236.101
G1 X64.456 Y236.238
G1 X63.002 Y236.355
G1 X61.488 Y236.499
; Path 428
G0 Z0
G0 X61.489 Y236.417
G0 Z2.2
G1 F3000
G1 X59.501 Y236.600
; Path 429
G0 Z0
G0 X59.461 Y234.393
G0 Z2.2
G1 F3000
G1 X57.507 Y234.663
; Path 430
G0 Z0
G0 X57.502 Y232.538
G0 Z2.2
G1 F3000
G1 X55.470 Y232.414
; Path 431
G0 Z0
G0 X55.568 Y226.154
G0 Z2.2
G1 F3000
G1 X57.475 Y226.813
; Path 432
G0 Z0
G0 X57.493 Y228.631
G0 Z2.2
G1 F3000
G1 X59.507 Y228.365
; Path 433
G0 Z0
G0 X61.365 Y230.016
G0 Z2.2
G1 F3000
G1 X59.660 Y231.040
; Path 434
G0 Z0
G0 X61.689 Y233.977
G0 Z2.2
G1 F3000
G1 X63.407 Y232.971
; Path 435
G0 Z0
G0 X64.356 Y230.491
G0 Z2.2
G1 F3000
G1 X64.667 Y228.467
; Path 436
G0 Z0
G0 X62.143 Y228.451
G0 Z2.2
G1 F3000
G1 X62.820 Y226.563
; Path 437
G0 Z0
G0 X68.519 Y227.465
G0 Z2.2
G1 F3000
G1 X68.540 Y229.499
; Path 438
G0 Z0
G0 X66.564 Y230.502
G0 Z2.2
G1 F3000
G1 X66.501 Y232.466
; Path 439
G0 Z0
G0 X63.517 Y235.743
G0 Z2.2
G1 F3000
G1 X65.487 Y235.268
; Path 440
G0 Z0
G0 X66.063 Y238.406
G0 Z2.2
G1 F3000
G1 X66.899 Y236.552
; Path 441
G0 Z0
G0 X66.482 Y236.474
G0 Z2.2
G1 F3000
G1 X66.524 Y234.508
G1 X66.549 Y232.491
G1 X66.609 Y230.523
G1 X66.686 Y228.527
G1 X66.698 Y226.574
G1 X66.770 Y224.539
G1 X66.765 Y222.566
G1 X66.819 Y220.570
G1 X66.912 Y218.612
G1 X66.919 Y216.627
G1 X66.974 Y214.614
G1 X67.025 Y212.630
G1 X67.057 Y210.693
G1 X67.076 Y208.700
G1 X67.169 Y206.681
G1 X67.183 Y204.730
G1 X67.226 Y202.708
G1 X67.283 Y200.766
G1 X67.333 Y198.766
G1 X67.374 Y196.758
G1 X67.397 Y194.777
G1 X67.488 Y192.820
G1 X67.531 Y190.823
G1 X67.525 Y188.815
G1 X67.577 Y186.842
G1 X67.630 Y184.851
G1 X67.705 Y182.887
G1 X67.740 Y180.877
G1 X67.757 Y178.918
G1 X67.793 Y176.905
G1 X67.883 Y174.961
G1 X67.913 Y172.967
G1 X67.935 Y170.960
G1 X67.962 Y168.994
G1 X68.063 Y167.017
G1 X68.067 Y164.999
G1 X68.126 Y163.044
G1 X68.148 Y161.072
G1 X68.204 Y159.064
G1 X68.251 Y157.076
G1 X68.274 Y155.065
G1 X68.372 Y153.131
G1 X68.405 Y151.123
G1 X68.461 Y149.125
G1 X68.490 Y147.136
G1 X68.544 Y145.158
G1 X68.582 Y143.169
G1 X68.584 Y141.218
G1 X68.655 Y139.182
G1 X68.697 Y137.241
G1 X68.724 Y135.251
G1 X68.811 Y133.223
G1 X68.845 Y131.292
G1 X68.899 Y129.282
G1 X68.903 Y127.281
G1 X68.964 Y125.291
G1 X69.015 Y123.322
G1 X69.041 Y121.351
G1 X69.130 Y119.368
G1 X69.147 Y117.361
G1 X69.175 Y115.385
G1 X69.253 Y113.406
G1 X69.292 Y111.438
G1 X69.304 Y109.433
G1 X69.387 Y107.467
G1 X69.402 Y105.440
G1 X69.477 Y103.483
G1 X69.501 Y101.493
; Path 442
G0 Z0
G0 X68.489 Y101.476
G0 Z2.2
G1 F3000
G1 X68.488 Y103.479
G1 X68.499 Y105.476
G1 X68.508 Y107.449
G1 X68.459 Y109.401
G1 X68.488 Y111.407
G1 X68.487 Y113.414
G1 X68.509 Y115.354
G1 X68.488 Y117.349
G1 X68.489 Y119.322
G1 X68.490 Y121.311
G1 X68.506 Y123.314
G1 X68.510 Y125.298
G1 X68.463 Y127.308
G1 X68.514 Y129.265
G1 X68.494 Y131.273
G1 X68.459 Y133.246
G1 X68.515 Y135.249
G1 X68.512 Y137.228
G1 X68.493 Y139.182
G1 X68.504 Y141.188
G1 X68.495 Y143.203
G1 X68.478 Y145.140
G1 X68.485 Y147.175
G1 X68.506 Y149.110
G1 X68.470 Y151.126
G1 X68.471 Y153.130
G1 X68.466 Y155.079
G1 X68.483 Y157.066
G1 X68.460 Y159.064
G1 X68.458 Y161.036
G1 X68.490 Y163.053
G1 X68.481 Y165.029
G1 X68.497 Y166.999
G1 X68.498 Y168.995
G1 X68.482 Y171.007
G1 X68.506 Y172.942
G1 X68.460 Y174.961
G1 X68.487 Y176.954
G1 X68.473 Y178.899
G1 X68.489 Y180.885
G1 X68.497 Y182.882
G1 X68.474 Y184.866
G1 X68.458 Y186.869
G1 X68.504 Y188.854
G1 X68.509 Y190.817
G1 X68.491 Y192.816
G1 X68.464 Y194.837
G1 X68.458 Y196.802
G1 X68.492 Y198.780
G1 X68.497 Y200.782
G1 X68.501 Y202.746
G1 X68.508 Y204.733
G1 X68.478 Y206.702
G1 X68.472 Y208.702
G1 X68.498 Y210.681
G1 X68.485 Y212.656
G1 X68.475 Y214.639
G1 X68.479 Y216.635
G1 X68.491 Y218.611
G1 X68.504 Y220.634
G1 X68.499 Y222.591
G1 X68.487 Y224.598
G1 X68.494 Y226.563
G1 X68.496 Y228.565
G1 X68.462 Y230.559
G1 X68.464 Y232.514
G1 X68.504 Y234.520
G1 X68.483 Y236.508
; Path 443
G0 Z0
G0 X68.516 Y235.531
G0 Z2.2
G1 F3000
G1 X68.467 Y233.555
; Path 444
G0 Z0
G0 X70.689 Y229.511
G0 Z2.2
G1 F3000
G1 X70.347 Y231.466
; Path 445
G0 Z0
G0 X71.630 Y232.985
G0 Z2.2
G1 F3000
G1 X73.408 Y232.088
; Path 446
G0 Z0
G0 X73.496 Y229.469
G0 Z2.2
G1 F3000
G1 X75.497 Y229.475
; Path 447
G0 Z0
G0 X75.555 Y231.298
G0 Z2.2
G1 F3000
G1 X77.508 Y231.637
; Path 448
G0 Z0
G0 X75.485 Y235.408
G0 Z2.2
G1 F3000
G1 X73.491 Y235.569
; Path 449
G0 Z0
G0 X71.441 Y236.272
G0 Z2.2
G1 F3000
G1 X69.543 Y236.723
; Path 450
G0 Z0
G0 X73.453 Y238.155
G0 Z2.2
G1 F3000
G1 X71.568 Y238.907
; Path 451
G0 Z0
G0 X75.515 Y237.512
G0 Z2.2
G1 F3000
G1 X77.486 Y237.432
; Path 452
G0 Z0
G0 X77.541 Y239.207
G0 Z2.2
G1 F3000
G1 X79.505 Y239.748
; Path 453
G0 Z0
G0 X79.473 Y233.523
G0 Z2.2
G1 F3000
G1 X77.507 Y233.526
; Path 454
G0 Z0
G0 X84.492 Y231.498
G0 Z2.2
G1 F3000
G1 X85.856 Y231.492
G1 X87.164 Y231.542
G1 X88.527 Y231.521
; Path 455
G0 Z0
G0 X86.488 Y231.498
G0 Z2.2
G1 F3000
G1 X86.477 Y229.626
G1 X86.507 Y227.729
G1 X86.511 Y225.824
G1 X86.502 Y223.959
G1 X86.479 Y222.062
G1 X86.472 Y220.130
G1 X86.470 Y218.280
G1 X86.503 Y216.377
G1 X86.491 Y214.483
; Path 456
G0 Z0
G0 X84.492 Y214.497
G0 Z2.2
G1 F3000
G1 X84.408 Y214.337
G1 X84.382 Y214.195
G1 X84.290 Y214.014
G1 X84.258 Y213.886
G1 X84.200 Y213.757
G1 X84.125 Y213.574
G1 X84.081 Y213.435
G1 X83.990 Y213.261
G1 X83.945 Y213.111
G1 X83.860 Y212.950
G1 X83.799 Y212.767
G1 X83.740 Y212.643
G1 X83.692 Y212.506
G1 X83.636 Y212.344
G1 X83.583 Y212.185
G1 X83.554 Y212.055
G1 X83.511 Y211.919
G1 X83.501 Y211.780
G1 X83.495 Y211.655
G1 X83.483 Y211.521
G1 X83.508 Y211.418
G1 X83.504 Y211.280
G1 X83.540 Y211.156
G1 X83.559 Y211.055
G1 X83.602 Y210.951
G1 X83.643 Y210.843
G1 X83.668 Y210.737
G1 X83.749 Y210.641
G1 X83.813 Y210.547
G1 X83.871 Y210.447
G1 X83.917 Y210.356
G1 X84.004 Y210.258
G1 X84.047 Y210.179
G1 X84.141 Y210.071
G1 X84.198 Y209.954
G1 X84.276 Y209.883
